(G-CODE GENERATED BY FLATCAM v8.994 - www.flatcam.org - Version Date: 2020/11/7)

(Name: ovals_cnc)
(Type: G-code from Geometry)
(Units: MM)

(Created on Saturday, 27 April 2024 at 17:20)

(This preprocessor is the default preprocessor used by FlatCAM.)
(It is made to work with MACH3 compatible motion controllers.)

(TOOL DIAMETER: 0.8 mm)
(Feedrate_XY: 120.0 mm/min)
(Feedrate_Z: 60.0 mm/min)
(Feedrate rapids 1500.0 mm/min)

(Z_Cut: -1.6999999999999993 mm)
(Z_Move: 2.0 mm)
(Z Start: None mm)
(Z End: 15.0 mm)
(X,Y End: None mm)
(Steps per circle: 64)
(Preprocessor Geometry: default)

(X range:   19.5089 ...   28.2831  mm)
(Y range:   30.7522 ...   32.0364  mm)

(Spindle Speed: 0.0 RPM)
G21
G90
G94

G01 F120.00

M5
G00 Z15.0000
G00 X0.0000 Y0.0000
T1
M6    
(MSG, Change to Tool Dia = 0.8000)
M0
G00 Z15.0000

M03
G01 F120.00
G00 X19.9757 Y30.9813
G01 F60.00
G01 Z-1.7000
G01 F120.00
G01 X19.9746 Y31.0038
G01 X19.9713 Y31.0260
G01 X19.9658 Y31.0478
G01 X19.9582 Y31.0690
G01 X19.9486 Y31.0893
G01 X19.9370 Y31.1086
G01 X19.9237 Y31.1266
G01 X19.9086 Y31.1433
G01 X19.8919 Y31.1584
G01 X19.8738 Y31.1718
G01 X19.8546 Y31.1833
G01 X19.8342 Y31.1929
G01 X19.8131 Y31.2005
G01 X19.7913 Y31.2060
G01 X19.7690 Y31.2093
G01 X19.7466 Y31.2104
G01 X19.7241 Y31.2093
G01 X19.7019 Y31.2060
G01 X19.6801 Y31.2005
G01 X19.6589 Y31.1929
G01 X19.6386 Y31.1833
G01 X19.6193 Y31.1718
G01 X19.6012 Y31.1584
G01 X19.5846 Y31.1433
G01 X19.5695 Y31.1266
G01 X19.5561 Y31.1086
G01 X19.5445 Y31.0893
G01 X19.5349 Y31.0690
G01 X19.5274 Y31.0478
G01 X19.5219 Y31.0260
G01 X19.5186 Y31.0038
G01 X19.5175 Y30.9813
G01 X19.5186 Y30.9588
G01 X19.5219 Y30.9366
G01 X19.5274 Y30.9148
G01 X19.5349 Y30.8936
G01 X19.5445 Y30.8733
G01 X19.5561 Y30.8540
G01 X19.5695 Y30.8360
G01 X19.5846 Y30.8193
G01 X19.6012 Y30.8042
G01 X19.6193 Y30.7908
G01 X19.6386 Y30.7793
G01 X19.6589 Y30.7697
G01 X19.6801 Y30.7621
G01 X19.7019 Y30.7566
G01 X19.7241 Y30.7533
G01 X19.7466 Y30.7522
G01 X19.7690 Y30.7533
G01 X19.7913 Y30.7566
G01 X19.8131 Y30.7621
G01 X19.8342 Y30.7697
G01 X19.8546 Y30.7793
G01 X19.8738 Y30.7908
G01 X19.8919 Y30.8042
G01 X19.9086 Y30.8193
G01 X19.9237 Y30.8360
G01 X19.9370 Y30.8540
G01 X19.9486 Y30.8733
G01 X19.9582 Y30.8936
G01 X19.9658 Y30.9148
G01 X19.9713 Y30.9366
G01 X19.9746 Y30.9588
G01 X19.9757 Y30.9813
G00 Z2.0000
G00 X19.9730 Y31.7951
G01 F60.00
G01 Z-1.7000
G01 F120.00
G01 X19.9719 Y31.8177
G01 X19.9686 Y31.8401
G01 X19.9631 Y31.8620
G01 X19.9555 Y31.8833
G01 X19.9458 Y31.9038
G01 X19.9342 Y31.9232
G01 X19.9207 Y31.9414
G01 X19.9055 Y31.9581
G01 X19.8887 Y31.9733
G01 X19.8706 Y31.9868
G01 X19.8512 Y31.9984
G01 X19.8307 Y32.0081
G01 X19.8094 Y32.0157
G01 X19.7875 Y32.0212
G01 X19.7651 Y32.0245
G01 X19.7425 Y32.0256
G01 X19.7200 Y32.0245
G01 X19.6976 Y32.0212
G01 X19.6756 Y32.0157
G01 X19.6543 Y32.0081
G01 X19.6339 Y31.9984
G01 X19.6145 Y31.9868
G01 X19.5963 Y31.9733
G01 X19.5796 Y31.9581
G01 X19.5644 Y31.9414
G01 X19.5509 Y31.9232
G01 X19.5393 Y31.9038
G01 X19.5296 Y31.8833
G01 X19.5220 Y31.8620
G01 X19.5165 Y31.8401
G01 X19.5132 Y31.8177
G01 X19.5121 Y31.7951
G01 X19.5132 Y31.7726
G01 X19.5165 Y31.7502
G01 X19.5220 Y31.7282
G01 X19.5296 Y31.7070
G01 X19.5393 Y31.6865
G01 X19.5509 Y31.6671
G01 X19.5644 Y31.6489
G01 X19.5796 Y31.6322
G01 X19.5963 Y31.6170
G01 X19.6145 Y31.6035
G01 X19.6339 Y31.5919
G01 X19.6543 Y31.5822
G01 X19.6756 Y31.5746
G01 X19.6976 Y31.5691
G01 X19.7200 Y31.5658
G01 X19.7425 Y31.5647
G01 X19.7651 Y31.5658
G01 X19.7875 Y31.5691
G01 X19.8094 Y31.5746
G01 X19.8307 Y31.5822
G01 X19.8512 Y31.5919
G01 X19.8706 Y31.6035
G01 X19.8887 Y31.6170
G01 X19.9055 Y31.6322
G01 X19.9207 Y31.6489
G01 X19.9342 Y31.6671
G01 X19.9458 Y31.6865
G01 X19.9555 Y31.7070
G01 X19.9631 Y31.7282
G01 X19.9686 Y31.7502
G01 X19.9719 Y31.7726
G01 X19.9730 Y31.7951
G00 Z2.0000
G00 X19.5089 Y31.7911
G01 F60.00
G01 Z-1.7000
G01 F120.00
G01 X19.5089 Y30.9894
G01 X19.9843 Y30.9894
G01 X19.9843 Y31.7911
G01 X19.5089 Y31.7911
G00 Z2.0000
G00 X27.8077 Y31.8019
G01 F60.00
G01 Z-1.7000
G01 F120.00
G01 X27.8077 Y31.0002
G01 X28.2831 Y31.0002
G01 X28.2831 Y31.8019
G01 X27.8077 Y31.8019
G00 Z2.0000
G00 X28.2718 Y31.8059
G01 F60.00
G01 Z-1.7000
G01 F120.00
G01 X28.2707 Y31.8285
G01 X28.2674 Y31.8509
G01 X28.2619 Y31.8728
G01 X28.2543 Y31.8941
G01 X28.2446 Y31.9146
G01 X28.2330 Y31.9340
G01 X28.2195 Y31.9521
G01 X28.2043 Y31.9689
G01 X28.1876 Y31.9841
G01 X28.1694 Y31.9976
G01 X28.1500 Y32.0092
G01 X28.1296 Y32.0189
G01 X28.1083 Y32.0265
G01 X28.0863 Y32.0320
G01 X28.0640 Y32.0353
G01 X28.0414 Y32.0364
G01 X28.0188 Y32.0353
G01 X27.9964 Y32.0320
G01 X27.9745 Y32.0265
G01 X27.9532 Y32.0189
G01 X27.9327 Y32.0092
G01 X27.9134 Y31.9976
G01 X27.8952 Y31.9841
G01 X27.8784 Y31.9689
G01 X27.8632 Y31.9521
G01 X27.8498 Y31.9340
G01 X27.8381 Y31.9146
G01 X27.8285 Y31.8941
G01 X27.8209 Y31.8728
G01 X27.8154 Y31.8509
G01 X27.8120 Y31.8285
G01 X27.8109 Y31.8059
G01 X27.8120 Y31.7833
G01 X27.8154 Y31.7610
G01 X27.8209 Y31.7390
G01 X27.8285 Y31.7177
G01 X27.8381 Y31.6973
G01 X27.8498 Y31.6779
G01 X27.8632 Y31.6597
G01 X27.8784 Y31.6430
G01 X27.8952 Y31.6278
G01 X27.9134 Y31.6143
G01 X27.9327 Y31.6027
G01 X27.9532 Y31.5930
G01 X27.9745 Y31.5854
G01 X27.9964 Y31.5799
G01 X28.0188 Y31.5766
G01 X28.0414 Y31.5755
G01 X28.0640 Y31.5766
G01 X28.0863 Y31.5799
G01 X28.1083 Y31.5854
G01 X28.1296 Y31.5930
G01 X28.1500 Y31.6027
G01 X28.1694 Y31.6143
G01 X28.1876 Y31.6278
G01 X28.2043 Y31.6430
G01 X28.2195 Y31.6597
G01 X28.2330 Y31.6779
G01 X28.2446 Y31.6973
G01 X28.2543 Y31.7177
G01 X28.2619 Y31.7390
G01 X28.2674 Y31.7610
G01 X28.2707 Y31.7833
G01 X28.2718 Y31.8059
G00 Z2.0000
G00 X28.2745 Y30.9921
G01 F60.00
G01 Z-1.7000
G01 F120.00
G01 X28.2734 Y31.0145
G01 X28.2701 Y31.0368
G01 X28.2646 Y31.0586
G01 X28.2571 Y31.0798
G01 X28.2474 Y31.1001
G01 X28.2359 Y31.1194
G01 X28.2225 Y31.1374
G01 X28.2074 Y31.1541
G01 X28.1907 Y31.1692
G01 X28.1727 Y31.1826
G01 X28.1534 Y31.1941
G01 X28.1331 Y31.2037
G01 X28.1119 Y31.2113
G01 X28.0901 Y31.2168
G01 X28.0679 Y31.2201
G01 X28.0454 Y31.2212
G01 X28.0230 Y31.2201
G01 X28.0007 Y31.2168
G01 X27.9789 Y31.2113
G01 X27.9578 Y31.2037
G01 X27.9374 Y31.1941
G01 X27.9181 Y31.1826
G01 X27.9001 Y31.1692
G01 X27.8834 Y31.1541
G01 X27.8683 Y31.1374
G01 X27.8549 Y31.1194
G01 X27.8434 Y31.1001
G01 X27.8338 Y31.0798
G01 X27.8262 Y31.0586
G01 X27.8207 Y31.0368
G01 X27.8174 Y31.0145
G01 X27.8163 Y30.9921
G01 X27.8174 Y30.9696
G01 X27.8207 Y30.9474
G01 X27.8262 Y30.9256
G01 X27.8338 Y30.9044
G01 X27.8434 Y30.8841
G01 X27.8549 Y30.8648
G01 X27.8683 Y30.8468
G01 X27.8834 Y30.8301
G01 X27.9001 Y30.8150
G01 X27.9181 Y30.8016
G01 X27.9374 Y30.7901
G01 X27.9578 Y30.7804
G01 X27.9789 Y30.7729
G01 X28.0007 Y30.7674
G01 X28.0230 Y30.7641
G01 X28.0454 Y30.7630
G01 X28.0679 Y30.7641
G01 X28.0901 Y30.7674
G01 X28.1119 Y30.7729
G01 X28.1331 Y30.7804
G01 X28.1534 Y30.7901
G01 X28.1727 Y30.8016
G01 X28.1907 Y30.8150
G01 X28.2074 Y30.8301
G01 X28.2225 Y30.8468
G01 X28.2359 Y30.8648
G01 X28.2474 Y30.8841
G01 X28.2571 Y30.9044
G01 X28.2646 Y30.9256
G01 X28.2701 Y30.9474
G01 X28.2734 Y30.9696
G01 X28.2745 Y30.9921
G00 Z2.0000
M05
G00 Z2.0000
G00 Z15.00


