(G-CODE GENERATED BY FLATCAM v8.994 - www.flatcam.org - Version Date: 2020/11/7)

(Name: Gerber_BoardOutlineLayer.GKO_cutout_cnc)
(Type: G-code from Geometry)
(Units: MM)

(Created on Tuesday, 28 May 2024 at 20:42)

(This preprocessor is the default preprocessor used by FlatCAM.)
(It is made to work with MACH3 compatible motion controllers.)

(TOOL DIAMETER: 0.8 mm)
(Feedrate_XY: 120.0 mm/min)
(Feedrate_Z: 60.0 mm/min)
(Feedrate rapids 1500.0 mm/min)

(Z_Cut: -1.8 mm)
(DepthPerCut: 0.6 mm <=>3 passes)
(Z_Move: 2.0 mm)
(Z Start: None mm)
(Z End: 15.0 mm)
(X,Y End: None mm)
(Steps per circle: 64)
(Preprocessor Geometry: default)

(X range:   22.8939 ...   77.1071  mm)
(Y range:   23.3239 ...   46.6761  mm)

(Spindle Speed: 0.0 RPM)
G21
G90
G94

G01 F120.00

M5
G00 Z15.0000
G00 X0.0000 Y0.0000
T1
M6    
(MSG, Change to Tool Dia = 0.8000)
M0
G00 Z15.0000

M03
G01 F120.00
G00 X49.2005 Y23.3239
G01 F60.00
G01 Z-0.6000
G01 F120.00
G01 X42.3170 Y23.3239
G01 X42.2800 Y23.3252
G01 X42.2312 Y23.3300
G01 X42.2188 Y23.3318
G01 X42.1707 Y23.3414
G01 X42.1586 Y23.3444
G01 X42.1117 Y23.3586
G01 X42.0999 Y23.3628
G01 X42.0546 Y23.3816
G01 X42.0433 Y23.3869
G01 X42.0001 Y23.4101
G01 X41.9894 Y23.4165
G01 X41.9486 Y23.4437
G01 X41.9385 Y23.4512
G01 X41.9006 Y23.4823
G01 X41.8914 Y23.4907
G01 X41.8567 Y23.5254
G01 X41.8483 Y23.5346
G01 X41.8172 Y23.5725
G01 X41.8097 Y23.5826
G01 X41.7825 Y23.6234
G01 X41.7761 Y23.6341
G01 X41.7529 Y23.6773
G01 X41.7476 Y23.6886
G01 X41.7288 Y23.7339
G01 X41.7246 Y23.7457
G01 X41.7104 Y23.7926
G01 X41.7074 Y23.8047
G01 X41.6978 Y23.8528
G01 X41.6960 Y23.8652
G01 X41.6912 Y23.9140
G01 X41.6899 Y23.9510
G01 X41.6899 Y26.6259
G01 X40.2771 Y26.6259
G01 X40.2771 Y23.9510
G01 X40.2758 Y23.9140
G01 X40.2710 Y23.8652
G01 X40.2692 Y23.8528
G01 X40.2596 Y23.8047
G01 X40.2566 Y23.7926
G01 X40.2424 Y23.7457
G01 X40.2382 Y23.7339
G01 X40.2194 Y23.6886
G01 X40.2141 Y23.6773
G01 X40.1909 Y23.6341
G01 X40.1845 Y23.6234
G01 X40.1573 Y23.5826
G01 X40.1498 Y23.5725
G01 X40.1187 Y23.5346
G01 X40.1103 Y23.5254
G01 X40.0756 Y23.4907
G01 X40.0664 Y23.4823
G01 X40.0285 Y23.4512
G01 X40.0184 Y23.4437
G01 X39.9776 Y23.4165
G01 X39.9669 Y23.4101
G01 X39.9237 Y23.3869
G01 X39.9124 Y23.3816
G01 X39.8671 Y23.3628
G01 X39.8553 Y23.3586
G01 X39.8084 Y23.3444
G01 X39.7963 Y23.3414
G01 X39.7482 Y23.3318
G01 X39.7358 Y23.3300
G01 X39.6870 Y23.3252
G01 X39.6500 Y23.3239
G01 X23.5210 Y23.3239
G01 X23.4840 Y23.3252
G01 X23.4352 Y23.3300
G01 X23.4228 Y23.3318
G01 X23.3747 Y23.3414
G01 X23.3626 Y23.3444
G01 X23.3157 Y23.3586
G01 X23.3039 Y23.3628
G01 X23.2586 Y23.3816
G01 X23.2473 Y23.3869
G01 X23.2041 Y23.4101
G01 X23.1934 Y23.4165
G01 X23.1526 Y23.4437
G01 X23.1425 Y23.4512
G01 X23.1046 Y23.4823
G01 X23.0954 Y23.4907
G01 X23.0607 Y23.5254
G01 X23.0523 Y23.5346
G01 X23.0212 Y23.5725
G01 X23.0137 Y23.5826
G01 X22.9865 Y23.6234
G01 X22.9801 Y23.6341
G01 X22.9569 Y23.6773
G01 X22.9516 Y23.6886
G01 X22.9328 Y23.7339
G01 X22.9286 Y23.7457
G01 X22.9144 Y23.7926
G01 X22.9114 Y23.8047
G01 X22.9018 Y23.8528
G01 X22.9000 Y23.8652
G01 X22.8952 Y23.9140
G01 X22.8939 Y23.9510
G01 X22.8939 Y46.0490
G01 X22.8952 Y46.0860
G01 X22.9000 Y46.1349
G01 X22.9018 Y46.1473
G01 X22.9114 Y46.1955
G01 X22.9145 Y46.2076
G01 X22.9287 Y46.2546
G01 X22.9330 Y46.2664
G01 X22.9518 Y46.3118
G01 X22.9571 Y46.3231
G01 X22.9803 Y46.3664
G01 X22.9868 Y46.3771
G01 X23.0141 Y46.4179
G01 X23.0216 Y46.4279
G01 X23.0528 Y46.4659
G01 X23.0612 Y46.4751
G01 X23.0960 Y46.5098
G01 X23.1052 Y46.5182
G01 X23.1432 Y46.5493
G01 X23.1533 Y46.5568
G01 X23.1942 Y46.5840
G01 X23.2049 Y46.5904
G01 X23.2483 Y46.6135
G01 X23.2596 Y46.6188
G01 X23.3050 Y46.6376
G01 X23.3168 Y46.6417
G01 X23.3638 Y46.6559
G01 X23.3760 Y46.6589
G01 X23.4242 Y46.6684
G01 X23.4365 Y46.6702
G01 X23.4855 Y46.6749
G01 X23.4979 Y46.6755
G01 X23.5225 Y46.6761
G01 X39.3696 Y46.6380
G01 X39.4063 Y46.6367
G01 X39.4548 Y46.6318
G01 X39.4670 Y46.6300
G01 X39.5148 Y46.6204
G01 X39.5268 Y46.6174
G01 X39.5735 Y46.6032
G01 X39.5851 Y46.5991
G01 X39.6302 Y46.5804
G01 X39.6414 Y46.5751
G01 X39.6844 Y46.5522
G01 X39.6950 Y46.5458
G01 X39.7356 Y46.5188
G01 X39.7455 Y46.5115
G01 X39.7833 Y46.4806
G01 X39.7925 Y46.4723
G01 X39.8270 Y46.4380
G01 X39.8354 Y46.4288
G01 X39.8664 Y46.3913
G01 X39.8738 Y46.3814
G01 X39.9011 Y46.3409
G01 X39.9075 Y46.3304
G01 X39.9307 Y46.2875
G01 X39.9360 Y46.2763
G01 X39.9549 Y46.2314
G01 X39.9592 Y46.2198
G01 X39.9736 Y46.1732
G01 X39.9767 Y46.1612
G01 X39.9866 Y46.1135
G01 X39.9885 Y46.1012
G01 X39.9936 Y46.0528
G01 X39.9951 Y46.0161
G01 X40.0179 Y43.2471
G01 X41.4359 Y43.2471
G01 X41.4359 Y45.9576
G01 X41.4372 Y45.9945
G01 X41.4420 Y46.0434
G01 X41.4438 Y46.0557
G01 X41.4534 Y46.1038
G01 X41.4564 Y46.1159
G01 X41.4706 Y46.1629
G01 X41.4748 Y46.1746
G01 X41.4936 Y46.2200
G01 X41.4989 Y46.2312
G01 X41.5221 Y46.2745
G01 X41.5285 Y46.2852
G01 X41.5557 Y46.3260
G01 X41.5632 Y46.3360
G01 X41.5943 Y46.3739
G01 X41.6027 Y46.3832
G01 X41.6374 Y46.4179
G01 X41.6466 Y46.4262
G01 X41.6845 Y46.4574
G01 X41.6946 Y46.4648
G01 X41.7354 Y46.4921
G01 X41.7461 Y46.4985
G01 X41.7893 Y46.5216
G01 X41.8006 Y46.5269
G01 X41.8459 Y46.5457
G01 X41.8577 Y46.5499
G01 X41.9046 Y46.5642
G01 X41.9167 Y46.5672
G01 X41.9648 Y46.5768
G01 X41.9772 Y46.5786
G01 X42.0260 Y46.5834
G01 X42.0630 Y46.5846
G01 X49.2005 Y46.5846
G00 X49.2005 Y46.5846
G01 F60.00
G01 Z-1.2000
G01 F120.00
G01 X42.0630 Y46.5846
G01 X42.0260 Y46.5834
G01 X41.9772 Y46.5786
G01 X41.9648 Y46.5768
G01 X41.9167 Y46.5672
G01 X41.9046 Y46.5642
G01 X41.8577 Y46.5499
G01 X41.8459 Y46.5457
G01 X41.8006 Y46.5269
G01 X41.7893 Y46.5216
G01 X41.7461 Y46.4985
G01 X41.7354 Y46.4921
G01 X41.6946 Y46.4648
G01 X41.6845 Y46.4574
G01 X41.6466 Y46.4262
G01 X41.6374 Y46.4179
G01 X41.6027 Y46.3832
G01 X41.5943 Y46.3739
G01 X41.5632 Y46.3360
G01 X41.5557 Y46.3260
G01 X41.5285 Y46.2852
G01 X41.5221 Y46.2745
G01 X41.4989 Y46.2312
G01 X41.4936 Y46.2200
G01 X41.4748 Y46.1746
G01 X41.4706 Y46.1629
G01 X41.4564 Y46.1159
G01 X41.4534 Y46.1038
G01 X41.4438 Y46.0557
G01 X41.4420 Y46.0434
G01 X41.4372 Y45.9945
G01 X41.4359 Y45.9576
G01 X41.4359 Y43.2471
G01 X40.0179 Y43.2471
G01 X39.9951 Y46.0161
G01 X39.9936 Y46.0528
G01 X39.9885 Y46.1012
G01 X39.9866 Y46.1135
G01 X39.9767 Y46.1612
G01 X39.9736 Y46.1732
G01 X39.9592 Y46.2198
G01 X39.9549 Y46.2314
G01 X39.9360 Y46.2763
G01 X39.9307 Y46.2875
G01 X39.9075 Y46.3304
G01 X39.9011 Y46.3409
G01 X39.8738 Y46.3814
G01 X39.8664 Y46.3913
G01 X39.8354 Y46.4288
G01 X39.8270 Y46.4380
G01 X39.7925 Y46.4723
G01 X39.7833 Y46.4806
G01 X39.7455 Y46.5115
G01 X39.7356 Y46.5188
G01 X39.6950 Y46.5458
G01 X39.6844 Y46.5522
G01 X39.6414 Y46.5751
G01 X39.6302 Y46.5804
G01 X39.5851 Y46.5991
G01 X39.5735 Y46.6032
G01 X39.5268 Y46.6174
G01 X39.5148 Y46.6204
G01 X39.4670 Y46.6300
G01 X39.4548 Y46.6318
G01 X39.4063 Y46.6367
G01 X39.3696 Y46.6380
G01 X23.5225 Y46.6761
G01 X23.4979 Y46.6755
G01 X23.4855 Y46.6749
G01 X23.4365 Y46.6702
G01 X23.4242 Y46.6684
G01 X23.3760 Y46.6589
G01 X23.3638 Y46.6559
G01 X23.3168 Y46.6417
G01 X23.3050 Y46.6376
G01 X23.2596 Y46.6188
G01 X23.2483 Y46.6135
G01 X23.2049 Y46.5904
G01 X23.1942 Y46.5840
G01 X23.1533 Y46.5568
G01 X23.1432 Y46.5493
G01 X23.1052 Y46.5182
G01 X23.0960 Y46.5098
G01 X23.0612 Y46.4751
G01 X23.0528 Y46.4659
G01 X23.0216 Y46.4279
G01 X23.0141 Y46.4179
G01 X22.9868 Y46.3771
G01 X22.9803 Y46.3664
G01 X22.9571 Y46.3231
G01 X22.9518 Y46.3118
G01 X22.9330 Y46.2664
G01 X22.9287 Y46.2546
G01 X22.9145 Y46.2076
G01 X22.9114 Y46.1955
G01 X22.9018 Y46.1473
G01 X22.9000 Y46.1349
G01 X22.8952 Y46.0860
G01 X22.8939 Y46.0490
G01 X22.8939 Y23.9510
G01 X22.8952 Y23.9140
G01 X22.9000 Y23.8652
G01 X22.9018 Y23.8528
G01 X22.9114 Y23.8047
G01 X22.9144 Y23.7926
G01 X22.9286 Y23.7457
G01 X22.9328 Y23.7339
G01 X22.9516 Y23.6886
G01 X22.9569 Y23.6773
G01 X22.9801 Y23.6341
G01 X22.9865 Y23.6234
G01 X23.0137 Y23.5826
G01 X23.0212 Y23.5725
G01 X23.0523 Y23.5346
G01 X23.0607 Y23.5254
G01 X23.0954 Y23.4907
G01 X23.1046 Y23.4823
G01 X23.1425 Y23.4512
G01 X23.1526 Y23.4437
G01 X23.1934 Y23.4165
G01 X23.2041 Y23.4101
G01 X23.2473 Y23.3869
G01 X23.2586 Y23.3816
G01 X23.3039 Y23.3628
G01 X23.3157 Y23.3586
G01 X23.3626 Y23.3444
G01 X23.3747 Y23.3414
G01 X23.4228 Y23.3318
G01 X23.4352 Y23.3300
G01 X23.4840 Y23.3252
G01 X23.5210 Y23.3239
G01 X39.6500 Y23.3239
G01 X39.6870 Y23.3252
G01 X39.7358 Y23.3300
G01 X39.7482 Y23.3318
G01 X39.7963 Y23.3414
G01 X39.8084 Y23.3444
G01 X39.8553 Y23.3586
G01 X39.8671 Y23.3628
G01 X39.9124 Y23.3816
G01 X39.9237 Y23.3869
G01 X39.9669 Y23.4101
G01 X39.9776 Y23.4165
G01 X40.0184 Y23.4437
G01 X40.0285 Y23.4512
G01 X40.0664 Y23.4823
G01 X40.0756 Y23.4907
G01 X40.1103 Y23.5254
G01 X40.1187 Y23.5346
G01 X40.1498 Y23.5725
G01 X40.1573 Y23.5826
G01 X40.1845 Y23.6234
G01 X40.1909 Y23.6341
G01 X40.2141 Y23.6773
G01 X40.2194 Y23.6886
G01 X40.2382 Y23.7339
G01 X40.2424 Y23.7457
G01 X40.2566 Y23.7926
G01 X40.2596 Y23.8047
G01 X40.2692 Y23.8528
G01 X40.2710 Y23.8652
G01 X40.2758 Y23.9140
G01 X40.2771 Y23.9510
G01 X40.2771 Y26.6259
G01 X41.6899 Y26.6259
G01 X41.6899 Y23.9510
G01 X41.6912 Y23.9140
G01 X41.6960 Y23.8652
G01 X41.6978 Y23.8528
G01 X41.7074 Y23.8047
G01 X41.7104 Y23.7926
G01 X41.7246 Y23.7457
G01 X41.7288 Y23.7339
G01 X41.7476 Y23.6886
G01 X41.7529 Y23.6773
G01 X41.7761 Y23.6341
G01 X41.7825 Y23.6234
G01 X41.8097 Y23.5826
G01 X41.8172 Y23.5725
G01 X41.8483 Y23.5346
G01 X41.8567 Y23.5254
G01 X41.8914 Y23.4907
G01 X41.9006 Y23.4823
G01 X41.9385 Y23.4512
G01 X41.9486 Y23.4437
G01 X41.9894 Y23.4165
G01 X42.0001 Y23.4101
G01 X42.0433 Y23.3869
G01 X42.0546 Y23.3816
G01 X42.0999 Y23.3628
G01 X42.1117 Y23.3586
G01 X42.1586 Y23.3444
G01 X42.1707 Y23.3414
G01 X42.2188 Y23.3318
G01 X42.2312 Y23.3300
G01 X42.2800 Y23.3252
G01 X42.3170 Y23.3239
G01 X49.2005 Y23.3239
G00 X49.2005 Y23.3239
G01 F60.00
G01 Z-1.8000
G01 F120.00
G01 X42.3170 Y23.3239
G01 X42.2800 Y23.3252
G01 X42.2312 Y23.3300
G01 X42.2188 Y23.3318
G01 X42.1707 Y23.3414
G01 X42.1586 Y23.3444
G01 X42.1117 Y23.3586
G01 X42.0999 Y23.3628
G01 X42.0546 Y23.3816
G01 X42.0433 Y23.3869
G01 X42.0001 Y23.4101
G01 X41.9894 Y23.4165
G01 X41.9486 Y23.4437
G01 X41.9385 Y23.4512
G01 X41.9006 Y23.4823
G01 X41.8914 Y23.4907
G01 X41.8567 Y23.5254
G01 X41.8483 Y23.5346
G01 X41.8172 Y23.5725
G01 X41.8097 Y23.5826
G01 X41.7825 Y23.6234
G01 X41.7761 Y23.6341
G01 X41.7529 Y23.6773
G01 X41.7476 Y23.6886
G01 X41.7288 Y23.7339
G01 X41.7246 Y23.7457
G01 X41.7104 Y23.7926
G01 X41.7074 Y23.8047
G01 X41.6978 Y23.8528
G01 X41.6960 Y23.8652
G01 X41.6912 Y23.9140
G01 X41.6899 Y23.9510
G01 X41.6899 Y26.6259
G01 X40.2771 Y26.6259
G01 X40.2771 Y23.9510
G01 X40.2758 Y23.9140
G01 X40.2710 Y23.8652
G01 X40.2692 Y23.8528
G01 X40.2596 Y23.8047
G01 X40.2566 Y23.7926
G01 X40.2424 Y23.7457
G01 X40.2382 Y23.7339
G01 X40.2194 Y23.6886
G01 X40.2141 Y23.6773
G01 X40.1909 Y23.6341
G01 X40.1845 Y23.6234
G01 X40.1573 Y23.5826
G01 X40.1498 Y23.5725
G01 X40.1187 Y23.5346
G01 X40.1103 Y23.5254
G01 X40.0756 Y23.4907
G01 X40.0664 Y23.4823
G01 X40.0285 Y23.4512
G01 X40.0184 Y23.4437
G01 X39.9776 Y23.4165
G01 X39.9669 Y23.4101
G01 X39.9237 Y23.3869
G01 X39.9124 Y23.3816
G01 X39.8671 Y23.3628
G01 X39.8553 Y23.3586
G01 X39.8084 Y23.3444
G01 X39.7963 Y23.3414
G01 X39.7482 Y23.3318
G01 X39.7358 Y23.3300
G01 X39.6870 Y23.3252
G01 X39.6500 Y23.3239
G01 X23.5210 Y23.3239
G01 X23.4840 Y23.3252
G01 X23.4352 Y23.3300
G01 X23.4228 Y23.3318
G01 X23.3747 Y23.3414
G01 X23.3626 Y23.3444
G01 X23.3157 Y23.3586
G01 X23.3039 Y23.3628
G01 X23.2586 Y23.3816
G01 X23.2473 Y23.3869
G01 X23.2041 Y23.4101
G01 X23.1934 Y23.4165
G01 X23.1526 Y23.4437
G01 X23.1425 Y23.4512
G01 X23.1046 Y23.4823
G01 X23.0954 Y23.4907
G01 X23.0607 Y23.5254
G01 X23.0523 Y23.5346
G01 X23.0212 Y23.5725
G01 X23.0137 Y23.5826
G01 X22.9865 Y23.6234
G01 X22.9801 Y23.6341
G01 X22.9569 Y23.6773
G01 X22.9516 Y23.6886
G01 X22.9328 Y23.7339
G01 X22.9286 Y23.7457
G01 X22.9144 Y23.7926
G01 X22.9114 Y23.8047
G01 X22.9018 Y23.8528
G01 X22.9000 Y23.8652
G01 X22.8952 Y23.9140
G01 X22.8939 Y23.9510
G01 X22.8939 Y46.0490
G01 X22.8952 Y46.0860
G01 X22.9000 Y46.1349
G01 X22.9018 Y46.1473
G01 X22.9114 Y46.1955
G01 X22.9145 Y46.2076
G01 X22.9287 Y46.2546
G01 X22.9330 Y46.2664
G01 X22.9518 Y46.3118
G01 X22.9571 Y46.3231
G01 X22.9803 Y46.3664
G01 X22.9868 Y46.3771
G01 X23.0141 Y46.4179
G01 X23.0216 Y46.4279
G01 X23.0528 Y46.4659
G01 X23.0612 Y46.4751
G01 X23.0960 Y46.5098
G01 X23.1052 Y46.5182
G01 X23.1432 Y46.5493
G01 X23.1533 Y46.5568
G01 X23.1942 Y46.5840
G01 X23.2049 Y46.5904
G01 X23.2483 Y46.6135
G01 X23.2596 Y46.6188
G01 X23.3050 Y46.6376
G01 X23.3168 Y46.6417
G01 X23.3638 Y46.6559
G01 X23.3760 Y46.6589
G01 X23.4242 Y46.6684
G01 X23.4365 Y46.6702
G01 X23.4855 Y46.6749
G01 X23.4979 Y46.6755
G01 X23.5225 Y46.6761
G01 X39.3696 Y46.6380
G01 X39.4063 Y46.6367
G01 X39.4548 Y46.6318
G01 X39.4670 Y46.6300
G01 X39.5148 Y46.6204
G01 X39.5268 Y46.6174
G01 X39.5735 Y46.6032
G01 X39.5851 Y46.5991
G01 X39.6302 Y46.5804
G01 X39.6414 Y46.5751
G01 X39.6844 Y46.5522
G01 X39.6950 Y46.5458
G01 X39.7356 Y46.5188
G01 X39.7455 Y46.5115
G01 X39.7833 Y46.4806
G01 X39.7925 Y46.4723
G01 X39.8270 Y46.4380
G01 X39.8354 Y46.4288
G01 X39.8664 Y46.3913
G01 X39.8738 Y46.3814
G01 X39.9011 Y46.3409
G01 X39.9075 Y46.3304
G01 X39.9307 Y46.2875
G01 X39.9360 Y46.2763
G01 X39.9549 Y46.2314
G01 X39.9592 Y46.2198
G01 X39.9736 Y46.1732
G01 X39.9767 Y46.1612
G01 X39.9866 Y46.1135
G01 X39.9885 Y46.1012
G01 X39.9936 Y46.0528
G01 X39.9951 Y46.0161
G01 X40.0179 Y43.2471
G01 X41.4359 Y43.2471
G01 X41.4359 Y45.9576
G01 X41.4372 Y45.9945
G01 X41.4420 Y46.0434
G01 X41.4438 Y46.0557
G01 X41.4534 Y46.1038
G01 X41.4564 Y46.1159
G01 X41.4706 Y46.1629
G01 X41.4748 Y46.1746
G01 X41.4936 Y46.2200
G01 X41.4989 Y46.2312
G01 X41.5221 Y46.2745
G01 X41.5285 Y46.2852
G01 X41.5557 Y46.3260
G01 X41.5632 Y46.3360
G01 X41.5943 Y46.3739
G01 X41.6027 Y46.3832
G01 X41.6374 Y46.4179
G01 X41.6466 Y46.4262
G01 X41.6845 Y46.4574
G01 X41.6946 Y46.4648
G01 X41.7354 Y46.4921
G01 X41.7461 Y46.4985
G01 X41.7893 Y46.5216
G01 X41.8006 Y46.5269
G01 X41.8459 Y46.5457
G01 X41.8577 Y46.5499
G01 X41.9046 Y46.5642
G01 X41.9167 Y46.5672
G01 X41.9648 Y46.5768
G01 X41.9772 Y46.5786
G01 X42.0260 Y46.5834
G01 X42.0630 Y46.5846
G01 X49.2005 Y46.5846
G00 Z2.0000
G00 X51.0005 Y46.5846
G01 F60.00
G01 Z-0.6000
G01 F120.00
G01 X60.0970 Y46.5846
G01 X60.1340 Y46.5834
G01 X60.1828 Y46.5786
G01 X60.1952 Y46.5768
G01 X60.2433 Y46.5672
G01 X60.2554 Y46.5642
G01 X60.3023 Y46.5499
G01 X60.3141 Y46.5457
G01 X60.3594 Y46.5269
G01 X60.3707 Y46.5216
G01 X60.4139 Y46.4985
G01 X60.4246 Y46.4921
G01 X60.4654 Y46.4648
G01 X60.4755 Y46.4574
G01 X60.5134 Y46.4262
G01 X60.5226 Y46.4179
G01 X60.5573 Y46.3832
G01 X60.5657 Y46.3739
G01 X60.5968 Y46.3360
G01 X60.6043 Y46.3260
G01 X60.6315 Y46.2852
G01 X60.6379 Y46.2745
G01 X60.6611 Y46.2312
G01 X60.6664 Y46.2200
G01 X60.6852 Y46.1746
G01 X60.6894 Y46.1629
G01 X60.7036 Y46.1159
G01 X60.7066 Y46.1038
G01 X60.7162 Y46.0557
G01 X60.7180 Y46.0434
G01 X60.7228 Y45.9945
G01 X60.7241 Y45.9575
G01 X60.7241 Y44.2631
G01 X62.5179 Y44.2631
G01 X62.5179 Y45.9220
G01 X62.5192 Y45.9590
G01 X62.5240 Y46.0078
G01 X62.5258 Y46.0201
G01 X62.5354 Y46.0683
G01 X62.5384 Y46.0804
G01 X62.5526 Y46.1273
G01 X62.5568 Y46.1391
G01 X62.5756 Y46.1844
G01 X62.5809 Y46.1957
G01 X62.6041 Y46.2389
G01 X62.6105 Y46.2496
G01 X62.6377 Y46.2904
G01 X62.6452 Y46.3004
G01 X62.6763 Y46.3384
G01 X62.6847 Y46.3476
G01 X62.7194 Y46.3823
G01 X62.7286 Y46.3907
G01 X62.7665 Y46.4218
G01 X62.7766 Y46.4292
G01 X62.8174 Y46.4565
G01 X62.8281 Y46.4629
G01 X62.8713 Y46.4860
G01 X62.8826 Y46.4914
G01 X62.9279 Y46.5102
G01 X62.9397 Y46.5144
G01 X62.9866 Y46.5286
G01 X62.9987 Y46.5316
G01 X63.0468 Y46.5412
G01 X63.0592 Y46.5430
G01 X63.1080 Y46.5478
G01 X63.1450 Y46.5491
G01 X76.3530 Y46.5491
G01 X76.3900 Y46.5478
G01 X76.4165 Y46.5452
G01 X76.4430 Y46.5478
G01 X76.4555 Y46.5485
G01 X76.5045 Y46.5485
G01 X76.5170 Y46.5478
G01 X76.5658 Y46.5430
G01 X76.5782 Y46.5412
G01 X76.6263 Y46.5316
G01 X76.6384 Y46.5286
G01 X76.6853 Y46.5144
G01 X76.6971 Y46.5102
G01 X76.7424 Y46.4914
G01 X76.7537 Y46.4860
G01 X76.7969 Y46.4629
G01 X76.8076 Y46.4565
G01 X76.8484 Y46.4292
G01 X76.8585 Y46.4218
G01 X76.8964 Y46.3907
G01 X76.9056 Y46.3823
G01 X76.9403 Y46.3476
G01 X76.9487 Y46.3384
G01 X76.9798 Y46.3004
G01 X76.9873 Y46.2904
G01 X77.0145 Y46.2496
G01 X77.0209 Y46.2389
G01 X77.0441 Y46.1957
G01 X77.0494 Y46.1844
G01 X77.0682 Y46.1391
G01 X77.0724 Y46.1273
G01 X77.0866 Y46.0804
G01 X77.0896 Y46.0683
G01 X77.0992 Y46.0201
G01 X77.1010 Y46.0078
G01 X77.1058 Y45.9590
G01 X77.1071 Y45.9220
G01 X77.1071 Y23.9510
G01 X77.1058 Y23.9140
G01 X77.1010 Y23.8652
G01 X77.0992 Y23.8528
G01 X77.0896 Y23.8047
G01 X77.0866 Y23.7926
G01 X77.0724 Y23.7457
G01 X77.0682 Y23.7339
G01 X77.0494 Y23.6886
G01 X77.0441 Y23.6773
G01 X77.0209 Y23.6341
G01 X77.0145 Y23.6234
G01 X76.9873 Y23.5826
G01 X76.9798 Y23.5725
G01 X76.9487 Y23.5346
G01 X76.9403 Y23.5254
G01 X76.9056 Y23.4907
G01 X76.8964 Y23.4823
G01 X76.8585 Y23.4512
G01 X76.8484 Y23.4437
G01 X76.8076 Y23.4165
G01 X76.7969 Y23.4101
G01 X76.7537 Y23.3869
G01 X76.7424 Y23.3816
G01 X76.6971 Y23.3628
G01 X76.6853 Y23.3586
G01 X76.6384 Y23.3444
G01 X76.6263 Y23.3414
G01 X76.5782 Y23.3318
G01 X76.5658 Y23.3300
G01 X76.5170 Y23.3252
G01 X76.5045 Y23.3245
G01 X76.4800 Y23.3239
G01 X63.1450 Y23.3239
G01 X63.1080 Y23.3252
G01 X63.0592 Y23.3300
G01 X63.0468 Y23.3318
G01 X62.9987 Y23.3414
G01 X62.9866 Y23.3444
G01 X62.9397 Y23.3586
G01 X62.9279 Y23.3628
G01 X62.8826 Y23.3816
G01 X62.8713 Y23.3869
G01 X62.8281 Y23.4101
G01 X62.8174 Y23.4165
G01 X62.7766 Y23.4437
G01 X62.7665 Y23.4512
G01 X62.7286 Y23.4823
G01 X62.7194 Y23.4907
G01 X62.6847 Y23.5254
G01 X62.6763 Y23.5346
G01 X62.6452 Y23.5725
G01 X62.6377 Y23.5826
G01 X62.6105 Y23.6234
G01 X62.6041 Y23.6341
G01 X62.5809 Y23.6773
G01 X62.5756 Y23.6886
G01 X62.5568 Y23.7339
G01 X62.5526 Y23.7457
G01 X62.5384 Y23.7926
G01 X62.5354 Y23.8047
G01 X62.5258 Y23.8528
G01 X62.5240 Y23.8652
G01 X62.5192 Y23.9140
G01 X62.5179 Y23.9510
G01 X62.5179 Y25.3559
G01 X60.5971 Y25.3559
G01 X60.5971 Y23.9510
G01 X60.5958 Y23.9140
G01 X60.5910 Y23.8652
G01 X60.5892 Y23.8528
G01 X60.5796 Y23.8047
G01 X60.5766 Y23.7926
G01 X60.5624 Y23.7457
G01 X60.5582 Y23.7339
G01 X60.5394 Y23.6886
G01 X60.5341 Y23.6773
G01 X60.5109 Y23.6341
G01 X60.5045 Y23.6234
G01 X60.4773 Y23.5826
G01 X60.4698 Y23.5725
G01 X60.4387 Y23.5346
G01 X60.4303 Y23.5254
G01 X60.3956 Y23.4907
G01 X60.3864 Y23.4823
G01 X60.3485 Y23.4512
G01 X60.3384 Y23.4437
G01 X60.2976 Y23.4165
G01 X60.2869 Y23.4101
G01 X60.2437 Y23.3869
G01 X60.2324 Y23.3816
G01 X60.1871 Y23.3628
G01 X60.1753 Y23.3586
G01 X60.1284 Y23.3444
G01 X60.1163 Y23.3414
G01 X60.0682 Y23.3318
G01 X60.0558 Y23.3300
G01 X60.0070 Y23.3252
G01 X59.9700 Y23.3239
G01 X51.0005 Y23.3239
G00 X51.0005 Y23.3239
G01 F60.00
G01 Z-1.2000
G01 F120.00
G01 X59.9700 Y23.3239
G01 X60.0070 Y23.3252
G01 X60.0558 Y23.3300
G01 X60.0682 Y23.3318
G01 X60.1163 Y23.3414
G01 X60.1284 Y23.3444
G01 X60.1753 Y23.3586
G01 X60.1871 Y23.3628
G01 X60.2324 Y23.3816
G01 X60.2437 Y23.3869
G01 X60.2869 Y23.4101
G01 X60.2976 Y23.4165
G01 X60.3384 Y23.4437
G01 X60.3485 Y23.4512
G01 X60.3864 Y23.4823
G01 X60.3956 Y23.4907
G01 X60.4303 Y23.5254
G01 X60.4387 Y23.5346
G01 X60.4698 Y23.5725
G01 X60.4773 Y23.5826
G01 X60.5045 Y23.6234
G01 X60.5109 Y23.6341
G01 X60.5341 Y23.6773
G01 X60.5394 Y23.6886
G01 X60.5582 Y23.7339
G01 X60.5624 Y23.7457
G01 X60.5766 Y23.7926
G01 X60.5796 Y23.8047
G01 X60.5892 Y23.8528
G01 X60.5910 Y23.8652
G01 X60.5958 Y23.9140
G01 X60.5971 Y23.9510
G01 X60.5971 Y25.3559
G01 X62.5179 Y25.3559
G01 X62.5179 Y23.9510
G01 X62.5192 Y23.9140
G01 X62.5240 Y23.8652
G01 X62.5258 Y23.8528
G01 X62.5354 Y23.8047
G01 X62.5384 Y23.7926
G01 X62.5526 Y23.7457
G01 X62.5568 Y23.7339
G01 X62.5756 Y23.6886
G01 X62.5809 Y23.6773
G01 X62.6041 Y23.6341
G01 X62.6105 Y23.6234
G01 X62.6377 Y23.5826
G01 X62.6452 Y23.5725
G01 X62.6763 Y23.5346
G01 X62.6847 Y23.5254
G01 X62.7194 Y23.4907
G01 X62.7286 Y23.4823
G01 X62.7665 Y23.4512
G01 X62.7766 Y23.4437
G01 X62.8174 Y23.4165
G01 X62.8281 Y23.4101
G01 X62.8713 Y23.3869
G01 X62.8826 Y23.3816
G01 X62.9279 Y23.3628
G01 X62.9397 Y23.3586
G01 X62.9866 Y23.3444
G01 X62.9987 Y23.3414
G01 X63.0468 Y23.3318
G01 X63.0592 Y23.3300
G01 X63.1080 Y23.3252
G01 X63.1450 Y23.3239
G01 X76.4800 Y23.3239
G01 X76.5045 Y23.3245
G01 X76.5170 Y23.3252
G01 X76.5658 Y23.3300
G01 X76.5782 Y23.3318
G01 X76.6263 Y23.3414
G01 X76.6384 Y23.3444
G01 X76.6853 Y23.3586
G01 X76.6971 Y23.3628
G01 X76.7424 Y23.3816
G01 X76.7537 Y23.3869
G01 X76.7969 Y23.4101
G01 X76.8076 Y23.4165
G01 X76.8484 Y23.4437
G01 X76.8585 Y23.4512
G01 X76.8964 Y23.4823
G01 X76.9056 Y23.4907
G01 X76.9403 Y23.5254
G01 X76.9487 Y23.5346
G01 X76.9798 Y23.5725
G01 X76.9873 Y23.5826
G01 X77.0145 Y23.6234
G01 X77.0209 Y23.6341
G01 X77.0441 Y23.6773
G01 X77.0494 Y23.6886
G01 X77.0682 Y23.7339
G01 X77.0724 Y23.7457
G01 X77.0866 Y23.7926
G01 X77.0896 Y23.8047
G01 X77.0992 Y23.8528
G01 X77.1010 Y23.8652
G01 X77.1058 Y23.9140
G01 X77.1071 Y23.9510
G01 X77.1071 Y45.9220
G01 X77.1058 Y45.9590
G01 X77.1010 Y46.0078
G01 X77.0992 Y46.0201
G01 X77.0896 Y46.0683
G01 X77.0866 Y46.0804
G01 X77.0724 Y46.1273
G01 X77.0682 Y46.1391
G01 X77.0494 Y46.1844
G01 X77.0441 Y46.1957
G01 X77.0209 Y46.2389
G01 X77.0145 Y46.2496
G01 X76.9873 Y46.2904
G01 X76.9798 Y46.3004
G01 X76.9487 Y46.3384
G01 X76.9403 Y46.3476
G01 X76.9056 Y46.3823
G01 X76.8964 Y46.3907
G01 X76.8585 Y46.4218
G01 X76.8484 Y46.4292
G01 X76.8076 Y46.4565
G01 X76.7969 Y46.4629
G01 X76.7537 Y46.4860
G01 X76.7424 Y46.4914
G01 X76.6971 Y46.5102
G01 X76.6853 Y46.5144
G01 X76.6384 Y46.5286
G01 X76.6263 Y46.5316
G01 X76.5782 Y46.5412
G01 X76.5658 Y46.5430
G01 X76.5170 Y46.5478
G01 X76.5045 Y46.5485
G01 X76.4555 Y46.5485
G01 X76.4430 Y46.5478
G01 X76.4165 Y46.5452
G01 X76.3900 Y46.5478
G01 X76.3530 Y46.5491
G01 X63.1450 Y46.5491
G01 X63.1080 Y46.5478
G01 X63.0592 Y46.5430
G01 X63.0468 Y46.5412
G01 X62.9987 Y46.5316
G01 X62.9866 Y46.5286
G01 X62.9397 Y46.5144
G01 X62.9279 Y46.5102
G01 X62.8826 Y46.4914
G01 X62.8713 Y46.4860
G01 X62.8281 Y46.4629
G01 X62.8174 Y46.4565
G01 X62.7766 Y46.4292
G01 X62.7665 Y46.4218
G01 X62.7286 Y46.3907
G01 X62.7194 Y46.3823
G01 X62.6847 Y46.3476
G01 X62.6763 Y46.3384
G01 X62.6452 Y46.3004
G01 X62.6377 Y46.2904
G01 X62.6105 Y46.2496
G01 X62.6041 Y46.2389
G01 X62.5809 Y46.1957
G01 X62.5756 Y46.1844
G01 X62.5568 Y46.1391
G01 X62.5526 Y46.1273
G01 X62.5384 Y46.0804
G01 X62.5354 Y46.0683
G01 X62.5258 Y46.0201
G01 X62.5240 Y46.0078
G01 X62.5192 Y45.9590
G01 X62.5179 Y45.9220
G01 X62.5179 Y44.2631
G01 X60.7241 Y44.2631
G01 X60.7241 Y45.9575
G01 X60.7228 Y45.9945
G01 X60.7180 Y46.0434
G01 X60.7162 Y46.0557
G01 X60.7066 Y46.1038
G01 X60.7036 Y46.1159
G01 X60.6894 Y46.1629
G01 X60.6852 Y46.1746
G01 X60.6664 Y46.2200
G01 X60.6611 Y46.2312
G01 X60.6379 Y46.2745
G01 X60.6315 Y46.2852
G01 X60.6043 Y46.3260
G01 X60.5968 Y46.3360
G01 X60.5657 Y46.3739
G01 X60.5573 Y46.3832
G01 X60.5226 Y46.4179
G01 X60.5134 Y46.4262
G01 X60.4755 Y46.4574
G01 X60.4654 Y46.4648
G01 X60.4246 Y46.4921
G01 X60.4139 Y46.4985
G01 X60.3707 Y46.5216
G01 X60.3594 Y46.5269
G01 X60.3141 Y46.5457
G01 X60.3023 Y46.5499
G01 X60.2554 Y46.5642
G01 X60.2433 Y46.5672
G01 X60.1952 Y46.5768
G01 X60.1828 Y46.5786
G01 X60.1340 Y46.5834
G01 X60.0970 Y46.5846
G01 X51.0005 Y46.5846
G00 X51.0005 Y46.5846
G01 F60.00
G01 Z-1.8000
G01 F120.00
G01 X60.0970 Y46.5846
G01 X60.1340 Y46.5834
G01 X60.1828 Y46.5786
G01 X60.1952 Y46.5768
G01 X60.2433 Y46.5672
G01 X60.2554 Y46.5642
G01 X60.3023 Y46.5499
G01 X60.3141 Y46.5457
G01 X60.3594 Y46.5269
G01 X60.3707 Y46.5216
G01 X60.4139 Y46.4985
G01 X60.4246 Y46.4921
G01 X60.4654 Y46.4648
G01 X60.4755 Y46.4574
G01 X60.5134 Y46.4262
G01 X60.5226 Y46.4179
G01 X60.5573 Y46.3832
G01 X60.5657 Y46.3739
G01 X60.5968 Y46.3360
G01 X60.6043 Y46.3260
G01 X60.6315 Y46.2852
G01 X60.6379 Y46.2745
G01 X60.6611 Y46.2312
G01 X60.6664 Y46.2200
G01 X60.6852 Y46.1746
G01 X60.6894 Y46.1629
G01 X60.7036 Y46.1159
G01 X60.7066 Y46.1038
G01 X60.7162 Y46.0557
G01 X60.7180 Y46.0434
G01 X60.7228 Y45.9945
G01 X60.7241 Y45.9575
G01 X60.7241 Y44.2631
G01 X62.5179 Y44.2631
G01 X62.5179 Y45.9220
G01 X62.5192 Y45.9590
G01 X62.5240 Y46.0078
G01 X62.5258 Y46.0201
G01 X62.5354 Y46.0683
G01 X62.5384 Y46.0804
G01 X62.5526 Y46.1273
G01 X62.5568 Y46.1391
G01 X62.5756 Y46.1844
G01 X62.5809 Y46.1957
G01 X62.6041 Y46.2389
G01 X62.6105 Y46.2496
G01 X62.6377 Y46.2904
G01 X62.6452 Y46.3004
G01 X62.6763 Y46.3384
G01 X62.6847 Y46.3476
G01 X62.7194 Y46.3823
G01 X62.7286 Y46.3907
G01 X62.7665 Y46.4218
G01 X62.7766 Y46.4292
G01 X62.8174 Y46.4565
G01 X62.8281 Y46.4629
G01 X62.8713 Y46.4860
G01 X62.8826 Y46.4914
G01 X62.9279 Y46.5102
G01 X62.9397 Y46.5144
G01 X62.9866 Y46.5286
G01 X62.9987 Y46.5316
G01 X63.0468 Y46.5412
G01 X63.0592 Y46.5430
G01 X63.1080 Y46.5478
G01 X63.1450 Y46.5491
G01 X76.3530 Y46.5491
G01 X76.3900 Y46.5478
G01 X76.4165 Y46.5452
G01 X76.4430 Y46.5478
G01 X76.4555 Y46.5485
G01 X76.5045 Y46.5485
G01 X76.5170 Y46.5478
G01 X76.5658 Y46.5430
G01 X76.5782 Y46.5412
G01 X76.6263 Y46.5316
G01 X76.6384 Y46.5286
G01 X76.6853 Y46.5144
G01 X76.6971 Y46.5102
G01 X76.7424 Y46.4914
G01 X76.7537 Y46.4860
G01 X76.7969 Y46.4629
G01 X76.8076 Y46.4565
G01 X76.8484 Y46.4292
G01 X76.8585 Y46.4218
G01 X76.8964 Y46.3907
G01 X76.9056 Y46.3823
G01 X76.9403 Y46.3476
G01 X76.9487 Y46.3384
G01 X76.9798 Y46.3004
G01 X76.9873 Y46.2904
G01 X77.0145 Y46.2496
G01 X77.0209 Y46.2389
G01 X77.0441 Y46.1957
G01 X77.0494 Y46.1844
G01 X77.0682 Y46.1391
G01 X77.0724 Y46.1273
G01 X77.0866 Y46.0804
G01 X77.0896 Y46.0683
G01 X77.0992 Y46.0201
G01 X77.1010 Y46.0078
G01 X77.1058 Y45.9590
G01 X77.1071 Y45.9220
G01 X77.1071 Y23.9510
G01 X77.1058 Y23.9140
G01 X77.1010 Y23.8652
G01 X77.0992 Y23.8528
G01 X77.0896 Y23.8047
G01 X77.0866 Y23.7926
G01 X77.0724 Y23.7457
G01 X77.0682 Y23.7339
G01 X77.0494 Y23.6886
G01 X77.0441 Y23.6773
G01 X77.0209 Y23.6341
G01 X77.0145 Y23.6234
G01 X76.9873 Y23.5826
G01 X76.9798 Y23.5725
G01 X76.9487 Y23.5346
G01 X76.9403 Y23.5254
G01 X76.9056 Y23.4907
G01 X76.8964 Y23.4823
G01 X76.8585 Y23.4512
G01 X76.8484 Y23.4437
G01 X76.8076 Y23.4165
G01 X76.7969 Y23.4101
G01 X76.7537 Y23.3869
G01 X76.7424 Y23.3816
G01 X76.6971 Y23.3628
G01 X76.6853 Y23.3586
G01 X76.6384 Y23.3444
G01 X76.6263 Y23.3414
G01 X76.5782 Y23.3318
G01 X76.5658 Y23.3300
G01 X76.5170 Y23.3252
G01 X76.5045 Y23.3245
G01 X76.4800 Y23.3239
G01 X63.1450 Y23.3239
G01 X63.1080 Y23.3252
G01 X63.0592 Y23.3300
G01 X63.0468 Y23.3318
G01 X62.9987 Y23.3414
G01 X62.9866 Y23.3444
G01 X62.9397 Y23.3586
G01 X62.9279 Y23.3628
G01 X62.8826 Y23.3816
G01 X62.8713 Y23.3869
G01 X62.8281 Y23.4101
G01 X62.8174 Y23.4165
G01 X62.7766 Y23.4437
G01 X62.7665 Y23.4512
G01 X62.7286 Y23.4823
G01 X62.7194 Y23.4907
G01 X62.6847 Y23.5254
G01 X62.6763 Y23.5346
G01 X62.6452 Y23.5725
G01 X62.6377 Y23.5826
G01 X62.6105 Y23.6234
G01 X62.6041 Y23.6341
G01 X62.5809 Y23.6773
G01 X62.5756 Y23.6886
G01 X62.5568 Y23.7339
G01 X62.5526 Y23.7457
G01 X62.5384 Y23.7926
G01 X62.5354 Y23.8047
G01 X62.5258 Y23.8528
G01 X62.5240 Y23.8652
G01 X62.5192 Y23.9140
G01 X62.5179 Y23.9510
G01 X62.5179 Y25.3559
G01 X60.5971 Y25.3559
G01 X60.5971 Y23.9510
G01 X60.5958 Y23.9140
G01 X60.5910 Y23.8652
G01 X60.5892 Y23.8528
G01 X60.5796 Y23.8047
G01 X60.5766 Y23.7926
G01 X60.5624 Y23.7457
G01 X60.5582 Y23.7339
G01 X60.5394 Y23.6886
G01 X60.5341 Y23.6773
G01 X60.5109 Y23.6341
G01 X60.5045 Y23.6234
G01 X60.4773 Y23.5826
G01 X60.4698 Y23.5725
G01 X60.4387 Y23.5346
G01 X60.4303 Y23.5254
G01 X60.3956 Y23.4907
G01 X60.3864 Y23.4823
G01 X60.3485 Y23.4512
G01 X60.3384 Y23.4437
G01 X60.2976 Y23.4165
G01 X60.2869 Y23.4101
G01 X60.2437 Y23.3869
G01 X60.2324 Y23.3816
G01 X60.1871 Y23.3628
G01 X60.1753 Y23.3586
G01 X60.1284 Y23.3444
G01 X60.1163 Y23.3414
G01 X60.0682 Y23.3318
G01 X60.0558 Y23.3300
G01 X60.0070 Y23.3252
G01 X59.9700 Y23.3239
G01 X51.0005 Y23.3239
G00 Z2.0000
M05
G00 Z2.0000
G00 Z15.00


