(G-CODE GENERATED BY FLATCAM v8.994 - www.flatcam.org - Version Date: 2020/11/7)

(Name: Combo_MultiGeo_cnc)
(Type: G-code from Geometry)
(Units: MM)

(Created on Friday, 03 May 2024 at 15:21)

(This preprocessor is the default preprocessor used by FlatCAM.)
(It is made to work with MACH3 compatible motion controllers.)

(TOOL DIAMETER: 0.1 mm)
(Feedrate_XY: 120.0 mm/min)
(Feedrate_Z: 60.0 mm/min)
(Feedrate rapids 1500.0 mm/min)

(Z_Cut: -0.05 mm)
(Z_Move: 2.0 mm)
(Z Start: None mm)
(Z End: 15.0 mm)
(X,Y End: None mm)
(Steps per circle: 64)
(Preprocessor Geometry: default)

(X range:   16.3598 ...   68.2091  mm)
(Y range:   24.8210 ...   46.0961  mm)

(Spindle Speed: 0.0 RPM)
G21
G90
G94

G01 F120.00

M5
G00 Z15.0000
G00 X0.0000 Y0.0000
T1
M6    
(MSG, Change to Tool Dia = 0.1000)
M0
G00 Z15.0000

M03
G01 F120.00
G00 X16.5902 Y27.6467
G01 F60.00
G01 Z-0.0500
G01 F120.00
G01 X16.5939 Y27.6467
G01 X16.5756 Y27.6752
G01 X16.5704 Y27.6842
G01 X16.5667 Y27.6895
G01 X16.5611 Y27.6963
G01 X16.4154 Y27.8422
G01 X16.4134 Y27.8445
G01 X16.4134 Y27.8455
G01 X16.4139 Y27.8463
G01 X16.4173 Y27.8467
G01 X17.5020 Y27.8467
G01 X17.5049 Y27.8465
G01 X17.5060 Y27.8454
G01 X17.5059 Y27.8445
G01 X17.5052 Y27.8437
G01 X17.5020 Y27.8434
G01 X16.6562 Y27.8434
G01 X16.6463 Y27.8429
G01 X16.6376 Y27.8417
G01 X16.6303 Y27.8400
G01 X16.6220 Y27.8374
G01 X16.6139 Y27.8340
G01 X16.6073 Y27.8306
G01 X16.5999 Y27.8260
G01 X16.5929 Y27.8208
G01 X16.5873 Y27.8158
G01 X16.5812 Y27.8095
G01 X16.5757 Y27.8027
G01 X16.5715 Y27.7966
G01 X16.5672 Y27.7890
G01 X16.5636 Y27.7810
G01 X16.5610 Y27.7740
G01 X16.5587 Y27.7656
G01 X16.5572 Y27.7570
G01 X16.5564 Y27.7495
G01 X16.5563 Y27.7396
G01 X16.5576 Y27.7272
G01 X16.5600 Y27.7162
G01 X16.5632 Y27.7067
G01 X16.5672 Y27.6979
G01 X16.5724 Y27.6886
G01 X16.6235 Y27.5889
G01 X16.6247 Y27.5861
G01 X16.6245 Y27.5853
G01 X16.6238 Y27.5846
G01 X16.6230 Y27.5845
G01 X16.6221 Y27.5848
G01 X16.6205 Y27.5874
G01 X16.5756 Y27.6752
G00 Z2.0000
G00 X16.5563 Y27.7467
G01 F60.00
G01 Z-0.0500
G01 F120.00
G01 X16.5109 Y27.7467
G00 Z2.0000
G00 X17.2442 Y28.2404
G01 F60.00
G01 Z-0.0500
G01 F120.00
G01 X17.2458 Y28.2386
G01 X17.2958 Y28.1886
G01 X17.2979 Y28.1867
G01 X17.2988 Y28.1865
G01 X17.2996 Y28.1867
G01 X17.3017 Y28.1886
G01 X17.3491 Y28.2384
G01 X17.3510 Y28.2408
G01 X17.3507 Y28.2423
G01 X17.3016 Y28.2916
G01 X17.2994 Y28.2935
G01 X17.2978 Y28.2933
G01 X17.2459 Y28.2440
G01 X17.2439 Y28.2415
G01 X17.2442 Y28.2404
G01 X17.3065 Y28.1937
G01 X17.2907 Y28.1937
G00 Z2.0000
G00 X17.3549 Y28.6657
G01 F60.00
G01 Z-0.0500
G01 F120.00
G01 X17.3622 Y28.6657
G00 Z2.0000
G00 X17.4607 Y28.7657
G01 F60.00
G01 Z-0.0500
G01 F120.00
G01 X17.4641 Y28.7657
G01 X17.4934 Y28.8657
G01 X17.4969 Y28.8657
G00 Z2.0000
G00 X17.5028 Y28.9657
G01 F60.00
G01 Z-0.0500
G01 F120.00
G01 X17.5062 Y28.9657
G01 X17.5062 Y29.0657
G01 X17.5028 Y29.0657
G00 Z2.0000
G00 X17.4858 Y29.1657
G01 F60.00
G01 Z-0.0500
G01 F120.00
G01 X17.4824 Y29.1657
G01 X17.4503 Y29.2657
G01 X17.4442 Y29.2657
G00 Z2.0000
G00 X16.9945 Y29.2657
G01 F60.00
G01 Z-0.0500
G01 F120.00
G01 X16.9898 Y29.2657
G00 Z2.0000
G00 X16.8245 Y29.1657
G01 F60.00
G01 Z-0.0500
G01 F120.00
G01 X16.9213 Y29.1657
G01 X16.8886 Y29.0657
G01 X16.8517 Y29.0657
G01 X16.8770 Y29.0232
G01 X16.8754 Y29.0150
G01 X16.8745 Y29.0079
G01 X16.8741 Y28.9995
G01 X16.8745 Y28.9911
G01 X16.8763 Y28.9787
G01 X16.8830 Y28.9512
G01 X16.8850 Y28.9442
G01 X16.9270 Y28.8161
G01 X16.9323 Y28.8031
G01 X16.9362 Y28.7959
G01 X16.9401 Y28.7900
G01 X16.9450 Y28.7834
G01 X16.9501 Y28.7778
G01 X17.0284 Y28.6995
G01 X17.0347 Y28.6939
G01 X17.0431 Y28.6878
G01 X17.0521 Y28.6825
G01 X17.1229 Y28.6464
G01 X17.1333 Y28.6421
G01 X17.1458 Y28.6387
G01 X17.1564 Y28.6371
G01 X17.1652 Y28.6367
G01 X17.2748 Y28.6367
G01 X17.2884 Y28.6377
G01 X17.3023 Y28.6407
G01 X17.3101 Y28.6433
G01 X17.3161 Y28.6459
G01 X17.3885 Y28.6828
G01 X17.3980 Y28.6885
G01 X17.4053 Y28.6939
G01 X17.4107 Y28.6986
G01 X17.4382 Y28.7261
G01 X17.4424 Y28.7310
G01 X17.4473 Y28.7376
G01 X17.4517 Y28.7446
G01 X17.4549 Y28.7508
G01 X17.4595 Y28.7622
G01 X17.4981 Y28.8798
G01 X17.5006 Y28.8894
G01 X17.5021 Y28.8985
G01 X17.5028 Y28.9103
G01 X17.5028 Y29.0870
G01 X17.5023 Y29.0968
G01 X17.5004 Y29.1083
G01 X17.4980 Y29.1171
G01 X17.4587 Y29.2388
G01 X17.4559 Y29.2460
G01 X17.4522 Y29.2534
G01 X17.4445 Y29.2653
G01 X17.4364 Y29.2748
G01 X17.4116 Y29.2996
G01 X17.4053 Y29.3051
G01 X17.3980 Y29.3105
G01 X17.3885 Y29.3162
G01 X17.3172 Y29.3527
G01 X17.3068 Y29.3569
G01 X17.2977 Y29.3596
G01 X17.2884 Y29.3613
G01 X17.2784 Y29.3623
G01 X17.1652 Y29.3623
G01 X17.1575 Y29.3620
G01 X17.1505 Y29.3612
G01 X17.1424 Y29.3596
G01 X17.1367 Y29.3580
G01 X17.1288 Y29.3553
G01 X17.1229 Y29.3527
G01 X17.0504 Y29.3156
G01 X17.0431 Y29.3113
G01 X17.0378 Y29.3075
G01 X17.0275 Y29.2986
G01 X16.9501 Y29.2213
G01 X16.9421 Y29.2119
G01 X16.9345 Y29.2001
G01 X16.9303 Y29.1917
G01 X16.9272 Y29.1835
G01 X16.8850 Y29.0548
G01 X16.8770 Y29.0232
G00 Z2.0000
G00 X16.8795 Y28.9657
G01 F60.00
G01 Z-0.0500
G01 F120.00
G01 X16.8595 Y28.9657
G01 X16.8352 Y28.8657
G01 X16.9108 Y28.8657
G00 Z2.0000
G00 X16.9575 Y28.7657
G01 F60.00
G01 Z-0.0500
G01 F120.00
G01 X16.9622 Y28.7657
G00 Z2.0000
G00 X17.0779 Y28.6657
G01 F60.00
G01 Z-0.0500
G01 F120.00
G01 X17.0851 Y28.6657
G00 Z2.0000
G00 X16.7950 Y28.7657
G01 F60.00
G01 Z-0.0500
G01 F120.00
G01 X16.7896 Y28.7657
G00 Z2.0000
G00 X16.4601 Y28.7657
G01 F60.00
G01 Z-0.0500
G01 F120.00
G01 X16.4552 Y28.7657
G00 Z2.0000
G00 X16.4259 Y28.8657
G01 F60.00
G01 Z-0.0500
G01 F120.00
G01 X16.4224 Y28.8657
G01 X16.4139 Y28.8916
G01 X16.4132 Y28.8954
G01 X16.4132 Y29.0998
G01 X16.4134 Y29.1027
G01 X16.4141 Y29.1054
G01 X16.4644 Y29.2607
G01 X16.4672 Y29.2624
G01 X16.5695 Y29.3122
G01 X16.6745 Y29.3121
G01 X16.7790 Y29.2611
G01 X16.7907 Y29.2396
G01 X16.7942 Y29.2345
G01 X16.7995 Y29.2276
G01 X16.8046 Y29.2222
G01 X16.8109 Y29.2163
G01 X16.8188 Y29.2103
G01 X16.8262 Y29.2057
G01 X16.8328 Y29.2023
G01 X16.8407 Y29.1989
G01 X16.8490 Y29.1963
G01 X16.8550 Y29.1948
G01 X16.8611 Y29.1938
G01 X16.8697 Y29.1929
G01 X16.8834 Y29.1930
G01 X16.8907 Y29.1939
G01 X16.8980 Y29.1953
G01 X16.9099 Y29.1989
G01 X16.9223 Y29.2044
G01 X16.9298 Y29.2088
G01 X16.9359 Y29.2131
G01 X16.9457 Y29.2216
G01 X17.0363 Y29.3119
G01 X17.1407 Y29.3654
G01 X17.2991 Y29.3655
G01 X17.4037 Y29.3119
G01 X17.4549 Y29.2608
G01 X17.5060 Y29.1027
G01 X17.5060 Y28.8940
G01 X17.4551 Y28.7385
G01 X17.4037 Y28.6871
G01 X17.2991 Y28.6335
G01 X17.1407 Y28.6336
G01 X17.0363 Y28.6871
G01 X16.9457 Y28.7774
G01 X16.9359 Y28.7860
G01 X16.9308 Y28.7896
G01 X16.9234 Y28.7940
G01 X16.9122 Y28.7993
G01 X16.9052 Y28.8018
G01 X16.8980 Y28.8037
G01 X16.8907 Y28.8051
G01 X16.8834 Y28.8060
G01 X16.8698 Y28.8061
G01 X16.8611 Y28.8053
G01 X16.8550 Y28.8042
G01 X16.8490 Y28.8027
G01 X16.8408 Y28.8001
G01 X16.8328 Y28.7967
G01 X16.8262 Y28.7933
G01 X16.8188 Y28.7887
G01 X16.8119 Y28.7835
G01 X16.8063 Y28.7786
G01 X16.7995 Y28.7714
G01 X16.7942 Y28.7646
G01 X16.7907 Y28.7594
G01 X16.7790 Y28.7379
G01 X16.6745 Y28.6869
G01 X16.5694 Y28.6869
G01 X16.4672 Y28.7366
G01 X16.4644 Y28.7383
G01 X16.4633 Y28.7410
G01 X16.4139 Y28.8916
G00 Z2.0000
G00 X16.4165 Y28.9103
G01 F60.00
G01 Z-0.0500
G01 F120.00
G01 X16.4167 Y28.9038
G01 X16.4176 Y28.8959
G01 X16.4205 Y28.8823
G01 X16.4556 Y28.7755
G01 X16.4613 Y28.7634
G01 X16.4673 Y28.7538
G01 X16.4760 Y28.7432
G01 X16.4841 Y28.7354
G01 X16.4952 Y28.7273
G01 X16.5050 Y28.7218
G01 X16.5530 Y28.6985
G01 X16.5620 Y28.6950
G01 X16.5708 Y28.6926
G01 X16.5808 Y28.6908
G01 X16.5927 Y28.6900
G01 X16.6533 Y28.6901
G01 X16.6607 Y28.6905
G01 X16.6696 Y28.6919
G01 X16.6817 Y28.6950
G01 X16.6917 Y28.6989
G01 X16.7469 Y28.7258
G01 X16.7549 Y28.7302
G01 X16.7635 Y28.7360
G01 X16.7731 Y28.7443
G01 X16.7815 Y28.7537
G01 X16.7875 Y28.7621
G01 X16.7920 Y28.7701
G01 X16.8248 Y28.8341
G01 X16.8287 Y28.8428
G01 X16.8310 Y28.8493
G01 X16.8624 Y28.9776
G01 X16.8643 Y28.9888
G01 X16.8649 Y28.9995
G01 X16.8643 Y29.0103
G01 X16.8624 Y29.0215
G01 X16.8326 Y29.1437
G01 X16.8306 Y29.1508
G01 X16.8276 Y29.1590
G01 X16.8248 Y29.1650
G01 X16.7918 Y29.2295
G01 X16.7869 Y29.2379
G01 X16.7800 Y29.2471
G01 X16.7722 Y29.2556
G01 X16.7626 Y29.2637
G01 X16.7520 Y29.2706
G01 X16.6907 Y29.3006
G01 X16.6774 Y29.3053
G01 X16.6640 Y29.3081
G01 X16.6510 Y29.3090
G01 X16.5893 Y29.3089
G01 X16.5752 Y29.3074
G01 X16.5620 Y29.3040
G01 X16.5494 Y29.2989
G01 X16.5047 Y29.2771
G01 X16.4954 Y29.2718
G01 X16.4852 Y29.2644
G01 X16.4778 Y29.2576
G01 X16.4704 Y29.2491
G01 X16.4646 Y29.2409
G01 X16.4591 Y29.2310
G01 X16.4545 Y29.2200
G01 X16.4211 Y29.1165
G01 X16.4189 Y29.1083
G01 X16.4177 Y29.1019
G01 X16.4167 Y29.0929
G01 X16.4165 Y29.0864
G01 X16.4165 Y28.9103
G01 X16.4165 Y28.9657
G01 X16.4132 Y28.9657
G01 X16.4132 Y29.0657
G01 X16.4165 Y29.0657
G00 Z2.0000
G00 X16.4335 Y29.1657
G01 F60.00
G01 Z-0.0500
G01 F120.00
G01 X16.4370 Y29.1657
G00 Z2.0000
G00 X16.4737 Y29.2657
G01 F60.00
G01 Z-0.0500
G01 F120.00
G01 X16.4868 Y29.2657
G00 Z2.0000
G00 X16.7598 Y29.2657
G01 F60.00
G01 Z-0.0500
G01 F120.00
G01 X16.7700 Y29.2657
G00 Z2.0000
G00 X16.4948 Y29.7391
G01 F60.00
G01 Z-0.0500
G01 F120.00
G01 X16.5041 Y29.7391
G01 X16.7580 Y29.8391
G01 X16.7673 Y29.8391
G01 X17.0212 Y29.9391
G01 X17.0305 Y29.9391
G01 X17.2546 Y30.0277
G01 X17.2563 Y30.0284
G01 X17.2623 Y30.0311
G01 X17.2688 Y30.0344
G01 X17.2759 Y30.0389
G01 X17.2872 Y30.0480
G01 X17.2970 Y30.0586
G01 X17.3020 Y30.0654
G01 X17.3059 Y30.0715
G01 X17.3092 Y30.0780
G01 X17.3121 Y30.0846
G01 X17.3149 Y30.0926
G01 X17.3169 Y30.1008
G01 X17.3182 Y30.1079
G01 X17.3189 Y30.1163
G01 X17.3186 Y30.1308
G01 X17.3165 Y30.1438
G01 X17.3130 Y30.1554
G01 X17.3077 Y30.1675
G01 X17.3001 Y30.1798
G01 X17.2916 Y30.1900
G01 X17.2828 Y30.1983
G01 X17.2720 Y30.2060
G01 X17.2603 Y30.2123
G01 X16.4166 Y30.5351
G01 X16.4135 Y30.5367
G01 X16.4134 Y30.5380
G01 X16.4144 Y30.5389
G01 X16.4177 Y30.5381
G01 X17.5028 Y30.1233
G01 X17.5054 Y30.1222
G01 X17.5061 Y30.1210
G01 X17.5054 Y30.1197
G01 X17.5028 Y30.1185
G01 X16.4177 Y29.7062
G01 X16.4151 Y29.7054
G01 X16.4141 Y29.7056
G01 X16.4134 Y29.7065
G01 X16.4136 Y29.7078
G01 X16.4166 Y29.7093
G01 X17.2546 Y30.0277
G00 Z2.0000
G00 X17.2761 Y30.0391
G01 F60.00
G01 Z-0.0500
G01 F120.00
G01 X17.2937 Y30.0391
G00 Z2.0000
G00 X17.3175 Y30.1391
G01 F60.00
G01 Z-0.0500
G01 F120.00
G01 X17.4617 Y30.1391
G01 X17.2001 Y30.2391
G01 X17.1909 Y30.2391
G01 X16.9385 Y30.3391
G01 X16.9293 Y30.3391
G01 X16.6770 Y30.4391
G01 X16.6677 Y30.4391
G00 Z2.0000
G00 X17.0355 Y31.2461
G01 F60.00
G01 Z-0.0500
G01 F120.00
G01 X17.0351 Y31.2547
G01 X17.0342 Y31.2620
G01 X17.0325 Y31.2704
G01 X17.0296 Y31.2798
G01 X17.0264 Y31.2877
G01 X17.0231 Y31.2943
G01 X17.0186 Y31.3016
G01 X17.0128 Y31.3095
G01 X17.0071 Y31.3159
G01 X17.0017 Y31.3210
G01 X16.9951 Y31.3264
G01 X16.9869 Y31.3319
G01 X16.9793 Y31.3359
G01 X16.9726 Y31.3389
G01 X16.9645 Y31.3418
G01 X16.9562 Y31.3439
G01 X16.9453 Y31.3456
G01 X16.9361 Y31.3461
G01 X16.5722 Y31.3461
G01 X16.5692 Y31.3463
G01 X16.5685 Y31.3469
G01 X16.5683 Y31.3477
G01 X16.5685 Y31.3486
G01 X16.5692 Y31.3492
G01 X16.5722 Y31.3494
G01 X16.9416 Y31.3496
G01 X16.9502 Y31.3505
G01 X16.9598 Y31.3524
G01 X16.9692 Y31.3552
G01 X16.9771 Y31.3585
G01 X16.9858 Y31.3630
G01 X16.9921 Y31.3669
G01 X16.9989 Y31.3721
G01 X17.0062 Y31.3787
G01 X17.0128 Y31.3860
G01 X17.0179 Y31.3928
G01 X17.0219 Y31.3990
G01 X17.0264 Y31.4078
G01 X17.0296 Y31.4157
G01 X17.0325 Y31.4251
G01 X17.0344 Y31.4347
G01 X17.0353 Y31.4433
G01 X17.0355 Y31.8127
G01 X17.0357 Y31.8157
G01 X17.0363 Y31.8164
G01 X17.0371 Y31.8166
G01 X17.0380 Y31.8164
G01 X17.0386 Y31.8157
G01 X17.0388 Y31.8127
G01 X17.0390 Y31.4433
G01 X17.0399 Y31.4347
G01 X17.0418 Y31.4251
G01 X17.0446 Y31.4157
G01 X17.0479 Y31.4078
G01 X17.0524 Y31.3990
G01 X17.0563 Y31.3928
G01 X17.0615 Y31.3860
G01 X17.0681 Y31.3787
G01 X17.0754 Y31.3721
G01 X17.0822 Y31.3669
G01 X17.0884 Y31.3630
G01 X17.0972 Y31.3585
G01 X17.1051 Y31.3552
G01 X17.1145 Y31.3524
G01 X17.1241 Y31.3505
G01 X17.1327 Y31.3496
G01 X17.5020 Y31.3494
G01 X17.5051 Y31.3492
G01 X17.5058 Y31.3486
G01 X17.5060 Y31.3477
G01 X17.5058 Y31.3469
G01 X17.5051 Y31.3463
G01 X17.5020 Y31.3461
G01 X17.1327 Y31.3459
G01 X17.1241 Y31.3450
G01 X17.1145 Y31.3431
G01 X17.1051 Y31.3402
G01 X17.0972 Y31.3370
G01 X17.0906 Y31.3337
G01 X17.0822 Y31.3285
G01 X17.0754 Y31.3234
G01 X17.0681 Y31.3168
G01 X17.0615 Y31.3095
G01 X17.0563 Y31.3027
G01 X17.0512 Y31.2943
G01 X17.0479 Y31.2877
G01 X17.0446 Y31.2798
G01 X17.0418 Y31.2704
G01 X17.0399 Y31.2608
G01 X17.0390 Y31.2522
G01 X17.0388 Y30.8828
G01 X17.0386 Y30.8798
G01 X17.0380 Y30.8791
G01 X17.0371 Y30.8788
G01 X17.0363 Y30.8791
G01 X17.0357 Y30.8798
G01 X17.0355 Y30.8828
G01 X17.0355 Y31.2461
G00 Z2.0000
G00 X17.0682 Y31.3169
G01 F60.00
G01 Z-0.0500
G01 F120.00
G01 X17.0682 Y31.3786
G01 X16.9682 Y31.3549
G01 X16.9682 Y31.3406
G00 Z2.0000
G00 X17.1682 Y31.3461
G01 F60.00
G01 Z-0.0500
G01 F120.00
G01 X17.1682 Y31.3494
G01 X17.2682 Y31.3494
G01 X17.2682 Y31.3461
G01 X17.3682 Y31.3461
G01 X17.3682 Y31.3494
G01 X17.4682 Y31.3494
G01 X17.4682 Y31.3461
G00 Z2.0000
G00 X16.8682 Y31.3461
G01 F60.00
G01 Z-0.0500
G01 F120.00
G01 X16.8682 Y31.3494
G01 X16.7682 Y31.3494
G01 X16.7682 Y31.3461
G01 X16.6682 Y31.3461
G01 X16.6682 Y31.3494
G00 Z2.0000
G00 X20.7868 Y31.9192
G01 F60.00
G01 Z-0.0500
G01 F120.00
G01 X20.7868 Y31.8237
G01 X20.8468 Y31.7778
G01 X20.8468 Y31.7189
G01 X20.9068 Y31.7048
G01 X20.9068 Y31.6589
G00 Z2.0000
G00 X20.9668 Y31.6479
G01 F60.00
G01 Z-0.0500
G01 F120.00
G01 X20.9668 Y31.6117
G01 X21.0268 Y31.6186
G01 X21.0268 Y31.5824
G01 X21.0868 Y31.5703
G01 X21.0868 Y31.6027
G01 X21.1468 Y31.6027
G01 X21.1468 Y31.5703
G01 X21.2068 Y31.5703
G01 X21.2068 Y31.6027
G00 Z2.0000
G00 X21.2668 Y31.6066
G01 F60.00
G01 Z-0.0500
G01 F120.00
G01 X21.2668 Y31.5706
G01 X21.3268 Y31.5999
G01 X21.3268 Y31.6362
G01 X21.3868 Y31.6358
G01 X21.3868 Y31.6817
G01 X21.4468 Y31.6958
G01 X21.4468 Y31.7417
G01 X21.5068 Y31.7787
G01 X21.5068 Y31.8499
G00 Z2.0000
G00 X21.5068 Y32.4128
G01 F60.00
G01 Z-0.0500
G01 F120.00
G01 X21.5068 Y32.4840
G01 X21.4605 Y32.5031
G01 X21.4556 Y32.5111
G01 X21.4495 Y32.5182
G01 X21.3626 Y32.6051
G01 X21.3541 Y32.6121
G01 X21.3470 Y32.6164
G01 X21.2715 Y32.6541
G01 X21.2637 Y32.6571
G01 X21.2552 Y32.6592
G01 X21.2457 Y32.6599
G01 X21.0719 Y32.6599
G01 X21.0618 Y32.6588
G01 X21.0522 Y32.6562
G01 X21.0467 Y32.6538
G01 X20.9699 Y32.6164
G01 X20.9646 Y32.6134
G01 X20.9600 Y32.6103
G01 X20.9538 Y32.6049
G01 X20.8671 Y32.5182
G01 X20.8610 Y32.5111
G01 X20.8561 Y32.5031
G01 X20.8089 Y32.4104
G01 X20.7621 Y32.2660
G01 X20.7604 Y32.2595
G01 X20.7595 Y32.2533
G01 X20.7592 Y32.2476
G01 X20.7592 Y32.0127
G01 X20.7596 Y32.0059
G01 X20.7607 Y31.9996
G01 X20.7622 Y31.9940
G01 X20.8083 Y31.8536
G01 X20.8110 Y31.8477
G01 X20.8570 Y31.7579
G01 X20.8610 Y31.7516
G01 X20.8662 Y31.7454
G01 X20.9538 Y31.6578
G01 X20.9609 Y31.6517
G01 X20.9699 Y31.6463
G01 X21.0482 Y31.6081
G01 X21.0554 Y31.6054
G01 X21.0638 Y31.6035
G01 X21.0730 Y31.6027
G01 X21.2469 Y31.6028
G01 X21.2552 Y31.6035
G01 X21.2648 Y31.6059
G01 X21.2725 Y31.6091
G01 X21.3482 Y31.6469
G01 X21.3541 Y31.6505
G01 X21.3602 Y31.6553
G01 X21.4495 Y31.7444
G01 X21.4548 Y31.7505
G01 X21.4599 Y31.7584
G01 X21.5077 Y31.8517
G01 X21.5112 Y31.8568
G01 X21.5136 Y31.8589
G01 X21.5178 Y31.8610
G01 X21.5225 Y31.8617
G01 X21.5272 Y31.8611
G01 X21.5315 Y31.8592
G01 X21.5351 Y31.8561
G01 X21.5376 Y31.8520
G01 X21.5388 Y31.8474
G01 X21.5387 Y31.8427
G01 X21.5366 Y31.8369
G01 X21.4846 Y31.7354
G01 X21.4820 Y31.7313
G01 X21.4798 Y31.7289
G01 X21.3754 Y31.6247
G01 X21.3711 Y31.6221
G01 X21.2696 Y31.5714
G01 X21.2667 Y31.5706
G01 X21.2623 Y31.5703
G01 X21.0568 Y31.5703
G01 X21.0525 Y31.5706
G01 X21.0471 Y31.5725
G01 X20.9457 Y31.6220
G01 X20.9412 Y31.6247
G01 X20.8368 Y31.7289
G01 X20.8336 Y31.7326
G01 X20.8320 Y31.7354
G01 X20.7789 Y31.8393
G01 X20.7281 Y31.9940
G01 X20.7269 Y31.9988
G01 X20.7268 Y32.2580
G01 X20.7272 Y32.2629
G01 X20.7788 Y32.4233
G01 X20.8336 Y32.5300
G01 X20.8368 Y32.5338
G01 X20.9412 Y32.6380
G01 X20.9457 Y32.6407
G01 X21.0497 Y32.6913
G01 X21.0525 Y32.6921
G01 X21.0568 Y32.6924
G01 X21.2623 Y32.6924
G01 X21.2682 Y32.6917
G01 X21.2722 Y32.6901
G01 X21.3711 Y32.6406
G01 X21.3754 Y32.6379
G01 X21.4798 Y32.5338
G01 X21.4830 Y32.5300
G01 X21.4846 Y32.5272
G01 X21.5366 Y32.4258
G01 X21.5378 Y32.4230
G01 X21.5389 Y32.4184
G01 X21.5386 Y32.4136
G01 X21.5369 Y32.4092
G01 X21.5351 Y32.4066
G01 X21.5328 Y32.4044
G01 X21.5302 Y32.4027
G01 X21.5272 Y32.4015
G01 X21.5241 Y32.4010
G01 X21.5209 Y32.4010
G01 X21.5178 Y32.4017
G01 X21.5149 Y32.4030
G01 X21.5123 Y32.4048
G01 X21.5101 Y32.4070
G01 X21.5077 Y32.4110
G01 X21.4605 Y32.5031
G00 Z2.0000
G00 X21.4468 Y32.5209
G01 F60.00
G01 Z-0.0500
G01 F120.00
G01 X21.4468 Y32.5669
G01 X21.3868 Y32.5809
G01 X21.3868 Y32.6269
G01 X21.3268 Y32.6265
G01 X21.3268 Y32.6628
G01 X21.2668 Y32.6561
G01 X21.2668 Y32.6920
G01 X21.2068 Y32.6924
G01 X21.2068 Y32.6599
G01 X21.1468 Y32.6599
G01 X21.1468 Y32.6924
G01 X21.0868 Y32.6924
G01 X21.0868 Y32.6599
G00 Z2.0000
G00 X21.0268 Y32.6441
G01 F60.00
G01 Z-0.0500
G01 F120.00
G01 X21.0268 Y32.6802
G01 X20.9668 Y32.6510
G01 X20.9668 Y32.6147
G01 X20.9068 Y32.6038
G01 X20.9068 Y32.5579
G01 X20.8468 Y32.5438
G01 X20.8468 Y32.4849
G01 X20.7868 Y32.4390
G01 X20.7868 Y32.3424
G00 Z2.0000
G00 X21.9095 Y32.5086
G01 F60.00
G01 Z-0.0500
G01 F120.00
G01 X21.9095 Y32.4721
G01 X21.9695 Y32.5028
G01 X21.9695 Y32.5438
G00 Z2.0000
G00 X21.9517 Y32.5302
G01 F60.00
G01 Z-0.0500
G01 F120.00
G01 X21.9597 Y32.5351
G01 X21.9659 Y32.5403
G01 X22.1122 Y32.6866
G01 X22.1145 Y32.6887
G01 X22.1171 Y32.6904
G01 X22.1201 Y32.6916
G01 X22.1232 Y32.6922
G01 X22.1264 Y32.6922
G01 X22.1295 Y32.6916
G01 X22.1324 Y32.6904
G01 X22.1350 Y32.6887
G01 X22.1373 Y32.6864
G01 X22.1390 Y32.6838
G01 X22.1402 Y32.6809
G01 X22.1410 Y32.6747
G01 X22.1410 Y31.5880
G01 X22.1406 Y31.5833
G01 X22.1397 Y31.5803
G01 X22.1382 Y31.5775
G01 X22.1362 Y31.5751
G01 X22.1338 Y31.5731
G01 X22.1310 Y31.5716
G01 X22.1279 Y31.5706
G01 X22.1248 Y31.5703
G01 X22.1216 Y31.5706
G01 X22.1186 Y31.5716
G01 X22.1158 Y31.5731
G01 X22.1133 Y31.5751
G01 X22.1113 Y31.5775
G01 X22.1098 Y31.5803
G01 X22.1089 Y31.5833
G01 X22.1085 Y31.5880
G01 X22.1085 Y32.4921
G01 X22.1079 Y32.5009
G01 X22.1058 Y32.5100
G01 X22.1017 Y32.5200
G01 X22.0960 Y32.5288
G01 X22.0888 Y32.5366
G01 X22.0843 Y32.5403
G01 X22.0794 Y32.5436
G01 X22.0699 Y32.5482
G01 X22.0598 Y32.5510
G01 X22.0490 Y32.5521
G01 X22.0385 Y32.5513
G01 X22.0316 Y32.5497
G01 X22.0251 Y32.5473
G01 X22.0187 Y32.5442
G01 X22.0128 Y32.5403
G01 X22.0070 Y32.5354
G01 X21.9824 Y32.5108
G01 X21.9786 Y32.5077
G01 X21.8716 Y32.4528
G01 X21.8686 Y32.4520
G01 X21.8654 Y32.4517
G01 X21.8623 Y32.4521
G01 X21.8578 Y32.4538
G01 X21.8541 Y32.4567
G01 X21.8521 Y32.4591
G01 X21.8506 Y32.4620
G01 X21.8496 Y32.4666
G01 X21.8499 Y32.4713
G01 X21.8516 Y32.4757
G01 X21.8545 Y32.4795
G01 X21.8569 Y32.4815
G01 X21.9517 Y32.5302
G01 X22.0295 Y32.5490
G01 X22.0295 Y32.6038
G01 X22.0895 Y32.6638
G01 X22.0895 Y32.5360
G00 Z2.0000
G00 X22.5048 Y32.4665
G01 F60.00
G01 Z-0.0500
G01 F120.00
G01 X22.5048 Y32.4186
G01 X22.5055 Y32.4124
G01 X22.5067 Y32.4095
G01 X22.5085 Y32.4068
G01 X22.5107 Y32.4046
G01 X22.5120 Y32.4036
G01 X22.5134 Y32.4028
G01 X22.5163 Y32.4016
G01 X22.5194 Y32.4010
G01 X22.5226 Y32.4010
G01 X22.5257 Y32.4016
G01 X22.5300 Y32.4036
G01 X22.5335 Y32.4068
G01 X22.5353 Y32.4095
G01 X22.5369 Y32.4139
G01 X22.5372 Y32.4186
G01 X22.5374 Y32.4541
G01 X22.5385 Y32.4627
G01 X22.5410 Y32.4712
G01 X22.5433 Y32.4766
G01 X22.5812 Y32.5543
G01 X22.5839 Y32.5592
G01 X22.5874 Y32.5643
G01 X22.5917 Y32.5694
G01 X22.6257 Y32.6050
G01 X22.6299 Y32.6089
G01 X22.6342 Y32.6122
G01 X22.6420 Y32.6168
G01 X22.7195 Y32.6545
G01 X22.7256 Y32.6569
G01 X22.7308 Y32.6584
G01 X22.7362 Y32.6594
G01 X22.7428 Y32.6599
G01 X22.9174 Y32.6599
G01 X22.9256 Y32.6594
G01 X22.9340 Y32.6576
G01 X22.9423 Y32.6545
G01 X23.0206 Y32.6164
G01 X23.0268 Y32.6128
G01 X23.0322 Y32.6089
G01 X23.0367 Y32.6049
G01 X23.0720 Y32.5696
G01 X23.0781 Y32.5624
G01 X23.0835 Y32.5534
G01 X23.1210 Y32.4766
G01 X23.1237 Y32.4701
G01 X23.1253 Y32.4649
G01 X23.1265 Y32.4584
G01 X23.1270 Y32.4514
G01 X23.1270 Y32.3786
G01 X23.1255 Y32.3678
G01 X23.1221 Y32.3575
G01 X23.0786 Y32.2683
G01 X22.9791 Y32.1199
G01 X22.9752 Y32.1149
G01 X22.9716 Y32.1109
G01 X22.4573 Y31.5991
G01 X22.4534 Y31.5942
G01 X22.4522 Y31.5912
G01 X22.4516 Y31.5881
G01 X22.4516 Y31.5849
G01 X22.4522 Y31.5818
G01 X22.4534 Y31.5789
G01 X22.4552 Y31.5763
G01 X22.4587 Y31.5731
G01 X22.4615 Y31.5716
G01 X22.4645 Y31.5706
G01 X22.4691 Y31.5703
G01 X23.1926 Y31.5703
G01 X23.1988 Y31.5710
G01 X23.2017 Y31.5722
G01 X23.2044 Y31.5740
G01 X23.2076 Y31.5775
G01 X23.2096 Y31.5818
G01 X23.2103 Y31.5865
G01 X23.2096 Y31.5912
G01 X23.2076 Y31.5955
G01 X23.2044 Y31.5990
G01 X23.2003 Y31.6014
G01 X23.1957 Y31.6026
G01 X22.6494 Y31.6028
G01 X22.6423 Y31.6036
G01 X22.6345 Y31.6055
G01 X22.6278 Y31.6080
G01 X22.6215 Y31.6113
G01 X22.6156 Y31.6153
G01 X22.6103 Y31.6200
G01 X22.6056 Y31.6251
G01 X22.6015 Y31.6309
G01 X22.5971 Y31.6394
G01 X22.5941 Y31.6482
G01 X22.5927 Y31.6565
G01 X22.5924 Y31.6658
G01 X22.5936 Y31.6750
G01 X22.5963 Y31.6842
G01 X22.6003 Y31.6926
G01 X22.6058 Y31.7005
G01 X22.6100 Y31.7053
G01 X23.0008 Y32.0944
G01 X23.1048 Y32.2488
G01 X23.1080 Y32.2543
G01 X23.1573 Y32.3554
G01 X23.1589 Y32.3594
G01 X23.1595 Y32.3651
G01 X23.1595 Y32.4665
G01 X23.1592 Y32.4708
G01 X23.1573 Y32.4762
G01 X23.1061 Y32.5807
G01 X23.1028 Y32.5847
G01 X23.0518 Y32.6357
G01 X23.0492 Y32.6380
G01 X23.0448 Y32.6407
G01 X22.9434 Y32.6902
G01 X22.9380 Y32.6921
G01 X22.9337 Y32.6924
G01 X22.7253 Y32.6923
G01 X22.7224 Y32.6917
G01 X22.7184 Y32.6902
G01 X22.6143 Y32.6392
G01 X22.6099 Y32.6356
G01 X22.5611 Y32.5843
G01 X22.5590 Y32.5819
G01 X22.5565 Y32.5778
G01 X22.5070 Y32.4762
G01 X22.5054 Y32.4722
G01 X22.5048 Y32.4665
G01 X22.5114 Y32.4041
G01 X22.5114 Y32.4853
G01 X22.5714 Y32.5342
G01 X22.5714 Y32.5952
G00 Z2.0000
G00 X22.6314 Y32.6101
G01 F60.00
G01 Z-0.0500
G01 F120.00
G01 X22.6314 Y32.6477
G01 X22.6914 Y32.6409
G01 X22.6914 Y32.6770
G01 X22.7514 Y32.6599
G01 X22.7514 Y32.6924
G01 X22.8114 Y32.6924
G01 X22.8114 Y32.6599
G01 X22.8714 Y32.6599
G01 X22.8714 Y32.6924
G01 X22.9314 Y32.6924
G01 X22.9314 Y32.6583
G01 X22.9914 Y32.6667
G01 X22.9914 Y32.6306
G01 X23.0514 Y32.6360
G01 X23.0514 Y32.5901
G01 X23.1114 Y32.5703
G01 X23.1114 Y32.4962
G00 Z2.0000
G00 X23.1114 Y32.3355
G01 F60.00
G01 Z-0.0500
G01 F120.00
G01 X23.1114 Y32.2614
G01 X23.0514 Y32.2276
G01 X23.0514 Y32.1694
G01 X22.9914 Y32.1383
G01 X22.9914 Y32.0848
G01 X22.9314 Y32.0709
G01 X22.9314 Y32.0251
G01 X22.8714 Y32.0112
G01 X22.8714 Y31.9654
G01 X22.8114 Y31.9515
G01 X22.8114 Y31.9057
G01 X22.7514 Y31.8918
G01 X22.7514 Y31.8460
G01 X22.6914 Y31.8321
G01 X22.6914 Y31.7863
G01 X22.6314 Y31.7724
G01 X22.6314 Y31.7266
G01 X22.5714 Y31.7127
G01 X22.5714 Y31.5703
G01 X22.5114 Y31.5703
G01 X22.5114 Y31.6530
G00 Z2.0000
G00 X23.1714 Y31.6027
G01 F60.00
G01 Z-0.0500
G01 F120.00
G01 X23.1714 Y31.5703
G01 X23.1114 Y31.5703
G01 X23.1114 Y31.6027
G01 X23.0514 Y31.6027
G01 X23.0514 Y31.5703
G01 X22.9914 Y31.5703
G01 X22.9914 Y31.6027
G01 X22.9314 Y31.6027
G01 X22.9314 Y31.5703
G01 X22.8714 Y31.5703
G01 X22.8714 Y31.6027
G01 X22.8114 Y31.6027
G01 X22.8114 Y31.5703
G01 X22.7514 Y31.5703
G01 X22.7514 Y31.6027
G01 X22.6914 Y31.6027
G01 X22.6914 Y31.5703
G01 X22.6314 Y31.5703
G01 X22.6314 Y31.6065
G00 Z2.0000
G00 X23.5062 Y31.4348
G01 F60.00
G01 Z-0.0500
G01 F120.00
G01 X23.5386 Y31.4348
G01 X23.5386 Y31.4948
G01 X23.5062 Y31.4948
G01 X23.5062 Y31.5548
G01 X23.5386 Y31.5548
G01 X23.5386 Y31.6148
G01 X23.5062 Y31.6148
G01 X23.5062 Y31.6748
G01 X23.5386 Y31.6748
G01 X23.5386 Y31.7348
G01 X23.5062 Y31.7348
G01 X23.5062 Y31.7948
G01 X23.5386 Y31.7948
G01 X23.5386 Y31.8548
G01 X23.5062 Y31.8548
G01 X23.5062 Y31.9148
G01 X23.5386 Y31.9148
G01 X23.5386 Y31.9748
G01 X23.5062 Y31.9748
G01 X23.5062 Y32.0348
G01 X23.5386 Y32.0348
G01 X23.5386 Y32.0948
G01 X23.5062 Y32.0948
G01 X23.5062 Y32.1548
G01 X23.5386 Y32.1548
G01 X23.5386 Y32.2148
G01 X23.5062 Y32.2148
G01 X23.5062 Y32.2748
G01 X23.5386 Y32.2748
G01 X23.5386 Y32.3348
G01 X23.5062 Y32.3348
G01 X23.5062 Y32.3948
G01 X23.5386 Y32.3948
G01 X23.5386 Y32.4548
G01 X23.5062 Y32.4548
G01 X23.5062 Y32.5148
G01 X23.5386 Y32.5148
G01 X23.5386 Y32.5748
G01 X23.5062 Y32.5748
G01 X23.5062 Y32.6348
G01 X23.5386 Y32.6348
G01 X23.5386 Y32.6948
G01 X23.5062 Y32.6948
G01 X23.5062 Y32.7548
G01 X23.5386 Y32.7548
G01 X23.5386 Y32.8148
G01 X23.5062 Y32.8148
G01 X23.5062 Y32.8251
G01 X23.5063 Y32.8285
G01 X23.5073 Y32.8450
G01 X23.5099 Y32.8613
G01 X23.5129 Y32.8730
G01 X23.5142 Y32.8773
G01 X23.5200 Y32.8928
G01 X23.5272 Y32.9077
G01 X23.5359 Y32.9217
G01 X23.5431 Y32.9314
G01 X23.5460 Y32.9349
G01 X23.5572 Y32.9470
G01 X23.5696 Y32.9579
G01 X23.5830 Y32.9676
G01 X23.5973 Y32.9759
G01 X23.6124 Y32.9828
G01 X23.6280 Y32.9881
G01 X23.6441 Y32.9920
G01 X23.6605 Y32.9942
G01 X23.6725 Y32.9947
G01 X25.1757 Y32.9948
G01 X25.1915 Y32.9942
G01 X25.2079 Y32.9920
G01 X25.2240 Y32.9881
G01 X25.2396 Y32.9828
G01 X25.2587 Y32.9738
G01 X25.2727 Y32.9651
G01 X25.2859 Y32.9550
G01 X25.2980 Y32.9438
G01 X25.3089 Y32.9314
G01 X25.3186 Y32.9180
G01 X25.3269 Y32.9037
G01 X25.3338 Y32.8886
G01 X25.3391 Y32.8730
G01 X25.3430 Y32.8569
G01 X25.3447 Y32.8450
G01 X25.3458 Y32.8247
G01 X25.3457 Y31.4146
G01 X25.3451 Y31.4115
G01 X25.3439 Y31.4086
G01 X25.3421 Y31.4059
G01 X25.3399 Y31.4037
G01 X25.3372 Y31.4019
G01 X25.3343 Y31.4007
G01 X25.3312 Y31.4001
G01 X25.3280 Y31.4001
G01 X25.3249 Y31.4007
G01 X25.3220 Y31.4019
G01 X25.3194 Y31.4037
G01 X25.3171 Y31.4059
G01 X25.3154 Y31.4086
G01 X25.3141 Y31.4115
G01 X25.3134 Y31.4177
G01 X25.3134 Y32.8241
G01 X25.3128 Y32.8366
G01 X25.3109 Y32.8515
G01 X25.3082 Y32.8629
G01 X25.3065 Y32.8685
G01 X25.3017 Y32.8810
G01 X25.2966 Y32.8914
G01 X25.2896 Y32.9028
G01 X25.2816 Y32.9135
G01 X25.2713 Y32.9244
G01 X25.2626 Y32.9322
G01 X25.2518 Y32.9400
G01 X25.2413 Y32.9462
G01 X25.2281 Y32.9524
G01 X25.2167 Y32.9564
G01 X25.2037 Y32.9597
G01 X25.1905 Y32.9616
G01 X25.1762 Y32.9624
G01 X23.6767 Y32.9624
G01 X23.6615 Y32.9616
G01 X23.6495 Y32.9599
G01 X23.6365 Y32.9568
G01 X23.6255 Y32.9530
G01 X23.6133 Y32.9475
G01 X23.6081 Y32.9448
G01 X23.5982 Y32.9386
G01 X23.5862 Y32.9295
G01 X23.5786 Y32.9224
G01 X23.5696 Y32.9125
G01 X23.5617 Y32.9018
G01 X23.5548 Y32.8903
G01 X23.5491 Y32.8783
G01 X23.5446 Y32.8657
G01 X23.5413 Y32.8527
G01 X23.5394 Y32.8395
G01 X23.5386 Y32.8243
G01 X23.5386 Y31.4177
G01 X23.5383 Y31.4130
G01 X23.5367 Y31.4086
G01 X23.5338 Y31.4048
G01 X23.5300 Y31.4019
G01 X23.5256 Y31.4003
G01 X23.5208 Y31.4001
G01 X23.5162 Y31.4013
G01 X23.5121 Y31.4037
G01 X23.5090 Y31.4072
G01 X23.5075 Y31.4100
G01 X23.5065 Y31.4130
G01 X23.5062 Y31.4177
G01 X23.5062 Y32.8247
G01 X23.5062 Y32.8251
G01 X23.5134 Y32.8748
G01 X23.5478 Y32.8748
G01 X23.5459 Y32.9348
G01 X23.5930 Y32.9348
G00 Z2.0000
G00 X23.8369 Y34.4663
G01 F60.00
G01 Z-0.0500
G01 F120.00
G01 X23.9451 Y34.4663
G00 Z2.0000
G00 X23.8909 Y34.5663
G01 F60.00
G01 Z-0.0500
G01 F120.00
G01 X23.9451 Y34.5663
G01 X23.9451 Y34.6663
G01 X23.8909 Y34.6663
G01 X23.8909 Y34.7663
G01 X23.9451 Y34.7663
G01 X23.9451 Y34.8663
G01 X23.8909 Y34.8663
G01 X23.8909 Y34.9663
G01 X23.9451 Y34.9663
G01 X23.9451 Y35.0663
G01 X23.8909 Y35.0663
G01 X23.8909 Y35.1663
G01 X23.9451 Y35.1663
G01 X23.9451 Y35.2663
G01 X23.8909 Y35.2663
G01 X23.8909 Y35.3663
G01 X23.9451 Y35.3663
G01 X23.9451 Y35.4663
G01 X23.8909 Y35.4663
G01 X23.8909 Y35.5663
G01 X23.9451 Y35.5663
G01 X23.9451 Y35.6663
G01 X23.8909 Y35.6663
G01 X23.8909 Y35.7663
G01 X23.9451 Y35.7663
G01 X23.9451 Y35.8663
G01 X23.8909 Y35.8663
G01 X23.8909 Y35.9663
G01 X23.9451 Y35.9663
G01 X23.9451 Y36.0663
G01 X23.8909 Y36.0663
G01 X23.8909 Y36.1663
G01 X23.9451 Y36.1663
G01 X23.9451 Y36.2663
G01 X23.8909 Y36.2663
G01 X23.8909 Y36.3663
G01 X23.9451 Y36.3663
G01 X23.9451 Y36.4663
G01 X23.8909 Y36.4663
G01 X23.8909 Y36.5663
G01 X23.9451 Y36.5663
G01 X23.9451 Y36.6663
G01 X23.8909 Y36.6663
G01 X23.8909 Y36.7663
G01 X23.9451 Y36.7663
G01 X23.9451 Y36.8663
G01 X23.8909 Y36.8663
G01 X23.8909 Y36.9269
G01 X23.8909 Y34.5544
G01 X23.8905 Y34.5453
G01 X23.8892 Y34.5368
G01 X23.8876 Y34.5296
G01 X23.8851 Y34.5214
G01 X23.8813 Y34.5123
G01 X23.8773 Y34.5047
G01 X23.8734 Y34.4985
G01 X23.8682 Y34.4916
G01 X23.8616 Y34.4844
G01 X23.8534 Y34.4770
G01 X23.8434 Y34.4699
G01 X23.8337 Y34.4647
G01 X23.8246 Y34.4609
G01 X23.8140 Y34.4578
G01 X23.8044 Y34.4560
G01 X23.7928 Y34.4551
G01 X22.0100 Y34.4551
G01 X22.0020 Y34.4557
G01 X21.9924 Y34.4572
G01 X21.9840 Y34.4594
G01 X21.9737 Y34.4632
G01 X21.9659 Y34.4669
G01 X21.9575 Y34.4719
G01 X21.9496 Y34.4778
G01 X21.9415 Y34.4852
G01 X21.9358 Y34.4916
G01 X21.9299 Y34.4995
G01 X21.9249 Y34.5079
G01 X21.9207 Y34.5168
G01 X21.9174 Y34.5260
G01 X21.9150 Y34.5356
G01 X21.9135 Y34.5453
G01 X21.9131 Y34.5551
G01 X21.9131 Y36.9276
G01 X21.9135 Y36.9367
G01 X21.9148 Y36.9452
G01 X21.9164 Y36.9524
G01 X21.9189 Y36.9606
G01 X21.9227 Y36.9697
G01 X21.9267 Y36.9773
G01 X21.9306 Y36.9835
G01 X21.9358 Y36.9904
G01 X21.9432 Y36.9985
G01 X21.9525 Y37.0065
G01 X21.9617 Y37.0127
G01 X21.9703 Y37.0173
G01 X21.9794 Y37.0211
G01 X21.9900 Y37.0242
G01 X21.9996 Y37.0260
G01 X22.0112 Y37.0269
G01 X23.7916 Y37.0269
G01 X23.8007 Y37.0265
G01 X23.8104 Y37.0250
G01 X23.8200 Y37.0226
G01 X23.8292 Y37.0193
G01 X23.8381 Y37.0151
G01 X23.8465 Y37.0101
G01 X23.8544 Y37.0042
G01 X23.8616 Y36.9977
G01 X23.8682 Y36.9904
G01 X23.8741 Y36.9825
G01 X23.8791 Y36.9741
G01 X23.8833 Y36.9652
G01 X23.8866 Y36.9560
G01 X23.8890 Y36.9465
G01 X23.8905 Y36.9367
G01 X23.8909 Y36.9269
G01 X23.9531 Y36.9663
G01 X23.8829 Y36.9663
G00 Z2.0000
G00 X21.9671 Y34.4663
G01 F60.00
G01 Z-0.0500
G01 F120.00
G01 X21.8589 Y34.4663
G00 Z2.0000
G00 X21.9131 Y34.5663
G01 F60.00
G01 Z-0.0500
G01 F120.00
G01 X21.8589 Y34.5663
G01 X21.8589 Y34.6663
G01 X21.9131 Y34.6663
G01 X21.9131 Y34.7663
G01 X21.8589 Y34.7663
G01 X21.8589 Y34.8663
G01 X21.9131 Y34.8663
G01 X21.9131 Y34.9663
G01 X21.8589 Y34.9663
G01 X21.8589 Y35.0663
G01 X21.9131 Y35.0663
G01 X21.9131 Y35.1663
G01 X21.8589 Y35.1663
G01 X21.8589 Y35.2663
G01 X21.9131 Y35.2663
G01 X21.9131 Y35.3663
G01 X21.8589 Y35.3663
G01 X21.8589 Y35.4663
G01 X21.9131 Y35.4663
G01 X21.9131 Y35.5663
G01 X21.8589 Y35.5663
G01 X21.8589 Y35.6663
G01 X21.9131 Y35.6663
G01 X21.9131 Y35.7663
G01 X21.8589 Y35.7663
G01 X21.8589 Y35.8663
G01 X21.9131 Y35.8663
G01 X21.9131 Y35.9663
G01 X21.8589 Y35.9663
G01 X21.8589 Y36.0663
G01 X21.9131 Y36.0663
G01 X21.9131 Y36.1663
G01 X21.8589 Y36.1663
G01 X21.8589 Y36.2663
G01 X21.9131 Y36.2663
G01 X21.9131 Y36.3663
G01 X21.8589 Y36.3663
G01 X21.8589 Y36.4663
G01 X21.9131 Y36.4663
G01 X21.9131 Y36.5663
G01 X21.8589 Y36.5663
G01 X21.8589 Y36.6663
G01 X21.9131 Y36.6663
G01 X21.9131 Y36.7663
G01 X21.8589 Y36.7663
G01 X21.8589 Y36.8663
G01 X21.9131 Y36.8663
G00 Z2.0000
G00 X21.9211 Y36.9663
G01 F60.00
G01 Z-0.0500
G01 F120.00
G01 X21.8509 Y36.9663
G00 Z2.0000
G00 X19.5462 Y37.1663
G01 F60.00
G01 Z-0.0500
G01 F120.00
G01 X19.4909 Y37.1663
G01 X19.5077 Y37.0291
G01 X19.5102 Y37.0282
G01 X19.5154 Y37.0272
G01 X19.5205 Y37.0269
G01 X21.7608 Y37.0269
G01 X21.7724 Y37.0260
G01 X21.7820 Y37.0242
G01 X21.7926 Y37.0211
G01 X21.8017 Y37.0173
G01 X21.8103 Y37.0127
G01 X21.8195 Y37.0065
G01 X21.8288 Y36.9985
G01 X21.8354 Y36.9913
G01 X21.8400 Y36.9855
G01 X21.8453 Y36.9773
G01 X21.8493 Y36.9697
G01 X21.8531 Y36.9606
G01 X21.8556 Y36.9524
G01 X21.8572 Y36.9452
G01 X21.8585 Y36.9367
G01 X21.8589 Y36.9276
G01 X21.8589 Y34.4305
G01 X21.8596 Y34.4227
G01 X21.8611 Y34.4177
G01 X21.8636 Y34.4130
G01 X21.8669 Y34.4089
G01 X21.8710 Y34.4056
G01 X21.8757 Y34.4031
G01 X21.8807 Y34.4016
G01 X21.8885 Y34.4009
G01 X23.9155 Y34.4009
G01 X23.9233 Y34.4016
G01 X23.9283 Y34.4031
G01 X23.9330 Y34.4056
G01 X23.9371 Y34.4089
G01 X23.9388 Y34.4109
G01 X23.9418 Y34.4153
G01 X23.9438 Y34.4202
G01 X23.9448 Y34.4254
G01 X23.9451 Y34.4305
G01 X23.9451 Y36.9288
G01 X23.9461 Y36.9416
G01 X23.9478 Y36.9501
G01 X23.9494 Y36.9560
G01 X23.9522 Y36.9641
G01 X23.9547 Y36.9697
G01 X23.9612 Y36.9815
G01 X23.9686 Y36.9913
G01 X23.9779 Y37.0010
G01 X23.9845 Y37.0065
G01 X23.9895 Y37.0101
G01 X24.0012 Y37.0168
G01 X24.0114 Y37.0211
G01 X24.0220 Y37.0242
G01 X24.0340 Y37.0263
G01 X24.0451 Y37.0269
G01 X28.3155 Y37.0269
G01 X28.3206 Y37.0272
G01 X28.3258 Y37.0282
G01 X28.3307 Y37.0302
G01 X28.3351 Y37.0332
G01 X28.3388 Y37.0369
G01 X28.3418 Y37.0413
G01 X28.3438 Y37.0462
G01 X28.3448 Y37.0514
G01 X28.3451 Y37.0565
G01 X28.3451 Y37.5368
G01 X28.3444 Y37.5445
G01 X28.3429 Y37.5496
G01 X28.3418 Y37.5520
G01 X28.3404 Y37.5542
G01 X28.3371 Y37.5583
G01 X28.3351 Y37.5601
G01 X28.3307 Y37.5630
G01 X28.3258 Y37.5650
G01 X28.3206 Y37.5661
G01 X28.3154 Y37.5661
G01 X28.3127 Y37.5657
G01 X28.3077 Y37.5641
G01 X28.3030 Y37.5617
G01 X28.2989 Y37.5583
G01 X28.2972 Y37.5563
G01 X28.2942 Y37.5520
G01 X28.2931 Y37.5496
G01 X28.2916 Y37.5445
G01 X28.2912 Y37.5419
G01 X28.2909 Y37.1805
G01 X28.2899 Y37.1664
G01 X28.2882 Y37.1580
G01 X28.2866 Y37.1520
G01 X28.2847 Y37.1462
G01 X28.2813 Y37.1383
G01 X28.2773 Y37.1307
G01 X28.2734 Y37.1245
G01 X28.2682 Y37.1176
G01 X28.2642 Y37.1130
G01 X28.2581 Y37.1070
G01 X28.2515 Y37.1015
G01 X28.2455 Y37.0973
G01 X28.2381 Y37.0929
G01 X28.2326 Y37.0902
G01 X28.2246 Y37.0869
G01 X28.2164 Y37.0844
G01 X28.2104 Y37.0830
G01 X28.2020 Y37.0817
G01 X28.1952 Y37.0812
G01 X19.6451 Y37.0811
G01 X19.6389 Y37.0813
G01 X19.6304 Y37.0822
G01 X19.6220 Y37.0838
G01 X19.6149 Y37.0858
G01 X19.6068 Y37.0887
G01 X19.5990 Y37.0923
G01 X19.5926 Y37.0959
G01 X19.5855 Y37.1008
G01 X19.5788 Y37.1062
G01 X19.5735 Y37.1112
G01 X19.5678 Y37.1176
G01 X19.5626 Y37.1245
G01 X19.5587 Y37.1307
G01 X19.5547 Y37.1383
G01 X19.5513 Y37.1462
G01 X19.5494 Y37.1520
G01 X19.5478 Y37.1580
G01 X19.5462 Y37.1664
G01 X19.5451 Y37.1805
G01 X19.5448 Y37.5419
G01 X19.5444 Y37.5445
G01 X19.5429 Y37.5496
G01 X19.5404 Y37.5542
G01 X19.5371 Y37.5583
G01 X19.5351 Y37.5601
G01 X19.5307 Y37.5630
G01 X19.5283 Y37.5641
G01 X19.5258 Y37.5650
G01 X19.5207 Y37.5661
G01 X19.5154 Y37.5661
G01 X19.5128 Y37.5657
G01 X19.5077 Y37.5641
G01 X19.5030 Y37.5617
G01 X19.5009 Y37.5601
G01 X19.4972 Y37.5563
G01 X19.4942 Y37.5520
G01 X19.4931 Y37.5496
G01 X19.4916 Y37.5445
G01 X19.4909 Y37.5368
G01 X19.4909 Y37.0565
G01 X19.4912 Y37.0514
G01 X19.4922 Y37.0462
G01 X19.4942 Y37.0413
G01 X19.4956 Y37.0390
G01 X19.4990 Y37.0350
G01 X19.5009 Y37.0332
G01 X19.5030 Y37.0316
G01 X19.5077 Y37.0291
G01 X19.4909 Y37.0663
G01 X28.3451 Y37.0663
G00 Z2.0000
G00 X19.5451 Y37.2663
G01 F60.00
G01 Z-0.0500
G01 F120.00
G01 X19.4909 Y37.2663
G01 X19.4909 Y37.3663
G01 X19.5451 Y37.3663
G01 X19.5451 Y37.4663
G01 X19.4909 Y37.4663
G00 Z2.0000
G00 X16.8305 Y38.9600
G01 F60.00
G01 Z-0.0500
G01 F120.00
G01 X16.8301 Y38.9567
G01 X16.8292 Y38.9561
G01 X16.8280 Y38.9563
G01 X16.8274 Y38.9573
G01 X16.8272 Y38.9600
G01 X16.8272 Y39.8898
G01 X16.8275 Y39.8929
G01 X16.8280 Y39.8936
G01 X16.8289 Y39.8938
G01 X16.8297 Y39.8936
G01 X16.8303 Y39.8929
G01 X16.8305 Y39.8898
G01 X16.8305 Y38.9600
G00 Z2.0000
G00 X17.4528 Y40.2632
G01 F60.00
G01 Z-0.0500
G01 F120.00
G01 X17.4495 Y40.2632
G01 X17.4495 Y40.3632
G01 X17.4528 Y40.3632
G01 X17.4528 Y40.4632
G01 X17.4495 Y40.4632
G01 X17.4495 Y40.8632
G01 X17.4528 Y40.8632
G01 X17.4528 Y40.7632
G01 X17.4495 Y40.7632
G00 Z2.0000
G00 X17.4242 Y40.5632
G01 F60.00
G01 Z-0.0500
G01 F120.00
G01 X17.4528 Y40.5632
G01 X17.4528 Y40.6632
G01 X17.4425 Y40.6632
G00 Z2.0000
G00 X16.9800 Y41.5392
G01 F60.00
G01 Z-0.0500
G01 F120.00
G01 X16.9708 Y41.5392
G00 Z2.0000
G00 X16.7409 Y41.5392
G01 F60.00
G01 Z-0.0500
G01 F120.00
G01 X16.7231 Y41.5392
G00 Z2.0000
G00 X16.7264 Y41.6392
G01 F60.00
G01 Z-0.0500
G01 F120.00
G01 X16.7231 Y41.6392
G01 X16.7231 Y41.7392
G01 X16.7264 Y41.7392
G01 X16.7264 Y41.8392
G01 X16.7231 Y41.8392
G00 Z2.0000
G00 X16.7225 Y41.9392
G01 F60.00
G01 Z-0.0500
G01 F120.00
G01 X16.7791 Y41.9392
G00 Z2.0000
G00 X16.8621 Y41.9445
G01 F60.00
G01 Z-0.0500
G01 F120.00
G01 X16.8517 Y41.9478
G01 X16.8399 Y41.9502
G01 X16.8290 Y41.9511
G01 X16.8193 Y41.9509
G01 X16.8085 Y41.9495
G01 X16.7968 Y41.9466
G01 X16.7866 Y41.9429
G01 X16.7768 Y41.9380
G01 X16.7667 Y41.9314
G01 X16.7584 Y41.9244
G01 X16.7508 Y41.9166
G01 X16.7434 Y41.9070
G01 X16.7379 Y41.8976
G01 X16.7338 Y41.8889
G01 X16.7302 Y41.8786
G01 X16.7276 Y41.8668
G01 X16.7267 Y41.8596
G01 X16.7264 Y41.8511
G01 X16.7264 Y41.5911
G01 X16.7268 Y41.5814
G01 X16.7280 Y41.5730
G01 X16.7309 Y41.5613
G01 X16.7357 Y41.5489
G01 X16.7421 Y41.5372
G01 X16.7492 Y41.5274
G01 X16.7584 Y41.5178
G01 X16.7687 Y41.5094
G01 X16.7790 Y41.5030
G01 X16.7911 Y41.4975
G01 X16.8003 Y41.4945
G01 X16.8085 Y41.4927
G01 X16.8157 Y41.4916
G01 X16.8242 Y41.4911
G01 X16.8326 Y41.4913
G01 X16.8399 Y41.4920
G01 X16.8482 Y41.4935
G01 X16.8564 Y41.4957
G01 X17.2061 Y41.6293
G01 X17.2163 Y41.6344
G01 X17.2274 Y41.6418
G01 X17.2373 Y41.6505
G01 X17.2453 Y41.6595
G01 X17.2527 Y41.6705
G01 X17.2587 Y41.6824
G01 X17.2623 Y41.6926
G01 X17.2653 Y41.7055
G01 X17.2661 Y41.7127
G01 X17.2665 Y41.7211
G01 X17.2654 Y41.7355
G01 X17.2623 Y41.7496
G01 X17.2572 Y41.7632
G01 X17.2502 Y41.7758
G01 X17.2414 Y41.7873
G01 X17.2311 Y41.7974
G01 X17.2245 Y41.8026
G01 X17.2184 Y41.8066
G01 X17.2110 Y41.8106
G01 X17.2022 Y41.8145
G01 X16.8621 Y41.9445
G01 X16.8760 Y41.9392
G01 X16.8852 Y41.9392
G01 X17.1375 Y41.8392
G01 X17.1468 Y41.8392
G00 Z2.0000
G00 X17.2648 Y41.7392
G01 F60.00
G01 Z-0.0500
G01 F120.00
G01 X17.4084 Y41.7392
G01 X17.2416 Y41.6392
G01 X17.2239 Y41.6392
G00 Z2.0000
G00 X16.7184 Y41.4392
G01 F60.00
G01 Z-0.0500
G01 F120.00
G01 X16.6902 Y41.4392
G00 Z2.0000
G00 X16.4569 Y41.3392
G01 F60.00
G01 Z-0.0500
G01 F120.00
G01 X16.4476 Y41.3392
G00 Z2.0000
G00 X16.6236 Y42.0392
G01 F60.00
G01 Z-0.0500
G01 F120.00
G01 X16.6144 Y42.0392
G01 X16.3632 Y42.1352
G01 X16.3604 Y42.1365
G01 X16.3600 Y42.1373
G01 X16.3601 Y42.1382
G01 X16.3606 Y42.1389
G01 X16.3615 Y42.1392
G01 X16.3644 Y42.1383
G01 X17.4495 Y41.7235
G01 X17.4522 Y41.7223
G01 X17.4527 Y41.7215
G01 X17.4526 Y41.7206
G01 X17.4520 Y41.7198
G01 X17.4495 Y41.7187
G01 X16.3644 Y41.3039
G01 X16.3610 Y41.3031
G01 X16.3601 Y41.3040
G01 X16.3602 Y41.3053
G01 X16.3632 Y41.3069
G01 X16.6588 Y41.4199
G01 X16.6646 Y41.4224
G01 X16.6724 Y41.4264
G01 X16.6839 Y41.4340
G01 X16.6925 Y41.4414
G01 X16.7017 Y41.4516
G01 X16.7088 Y41.4619
G01 X16.7151 Y41.4742
G01 X16.7196 Y41.4873
G01 X16.7221 Y41.4996
G01 X16.7231 Y41.5134
G01 X16.7230 Y41.9320
G01 X16.7219 Y41.9438
G01 X16.7196 Y41.9549
G01 X16.7156 Y41.9668
G01 X16.7101 Y41.9781
G01 X16.7054 Y41.9855
G01 X16.7001 Y41.9925
G01 X16.6960 Y41.9973
G01 X16.6897 Y42.0034
G01 X16.6839 Y42.0082
G01 X16.6767 Y42.0132
G01 X16.6713 Y42.0164
G01 X16.6637 Y42.0202
G01 X16.3632 Y42.1352
G00 Z2.0000
G00 X16.5059 Y42.5087
G01 F60.00
G01 Z-0.0500
G01 F120.00
G01 X16.5134 Y42.5087
G00 Z2.0000
G00 X16.4062 Y42.6087
G01 F60.00
G01 Z-0.0500
G01 F120.00
G01 X16.4027 Y42.6087
G01 X16.3734 Y42.7087
G01 X16.3699 Y42.7087
G00 Z2.0000
G00 X16.3632 Y42.8087
G01 F60.00
G01 Z-0.0500
G01 F120.00
G01 X16.3598 Y42.8087
G01 X16.3598 Y42.9087
G01 X16.3632 Y42.9087
G01 X16.3632 Y43.0087
G01 X16.3598 Y43.0087
G01 X16.3598 Y43.1087
G01 X16.3632 Y43.1087
G01 X16.3598 Y43.2045
G01 X16.3600 Y43.2074
G01 X16.3609 Y43.2084
G01 X17.4487 Y43.2087
G01 X17.4515 Y43.2085
G01 X17.4522 Y43.2081
G01 X17.4527 Y43.2073
G01 X17.4528 Y43.2045
G01 X17.4527 Y42.7395
G01 X17.4018 Y42.5841
G01 X17.3478 Y42.5301
G01 X17.2434 Y42.4791
G01 X17.1410 Y42.4789
G01 X17.1385 Y42.4790
G01 X17.1360 Y42.4801
G01 X17.0338 Y42.5300
G01 X17.0003 Y42.5647
G01 X16.9898 Y42.5734
G01 X16.9802 Y42.5794
G01 X16.9711 Y42.5839
G01 X16.9604 Y42.5878
G01 X16.9481 Y42.5906
G01 X16.9380 Y42.5918
G01 X16.9254 Y42.5918
G01 X16.9166 Y42.5908
G01 X16.9104 Y42.5897
G01 X16.8970 Y42.5858
G01 X16.8844 Y42.5800
G01 X16.8736 Y42.5733
G01 X16.8638 Y42.5654
G01 X16.8297 Y42.5300
G01 X16.7249 Y42.4790
G01 X16.5670 Y42.4790
G01 X16.4621 Y42.5302
G01 X16.4109 Y42.5840
G01 X16.3600 Y42.7395
G01 X16.3598 Y42.7423
G01 X16.3598 Y43.2045
G00 Z2.0000
G00 X16.4632 Y43.2053
G01 F60.00
G01 Z-0.0500
G01 F120.00
G01 X16.4533 Y43.2049
G01 X16.4436 Y43.2034
G01 X16.4341 Y43.2010
G01 X16.4260 Y43.1982
G01 X16.4171 Y43.1941
G01 X16.4107 Y43.1905
G01 X16.4036 Y43.1857
G01 X16.3960 Y43.1794
G01 X16.3891 Y43.1725
G01 X16.3836 Y43.1659
G01 X16.3780 Y43.1578
G01 X16.3744 Y43.1514
G01 X16.3708 Y43.1436
G01 X16.3675 Y43.1344
G01 X16.3651 Y43.1249
G01 X16.3636 Y43.1152
G01 X16.3632 Y43.1053
G01 X16.3632 Y42.7559
G01 X16.3636 Y42.7466
G01 X16.3651 Y42.7362
G01 X16.3675 Y42.7266
G01 X16.4080 Y42.6034
G01 X16.4112 Y42.5957
G01 X16.4143 Y42.5897
G01 X16.4183 Y42.5831
G01 X16.4235 Y42.5759
G01 X16.4290 Y42.5696
G01 X16.4529 Y42.5445
G01 X16.4624 Y42.5360
G01 X16.4696 Y42.5308
G01 X16.4788 Y42.5256
G01 X16.5474 Y42.4921
G01 X16.5584 Y42.4876
G01 X16.5649 Y42.4856
G01 X16.5727 Y42.4838
G01 X16.5867 Y42.4823
G01 X16.7018 Y42.4822
G01 X16.7103 Y42.4826
G01 X16.7193 Y42.4838
G01 X16.7281 Y42.4859
G01 X16.7368 Y42.4887
G01 X16.7451 Y42.4923
G01 X16.8117 Y42.5248
G01 X16.8233 Y42.5315
G01 X16.8305 Y42.5367
G01 X16.8383 Y42.5437
G01 X16.8636 Y42.5703
G01 X16.8693 Y42.5769
G01 X16.8733 Y42.5823
G01 X16.8782 Y42.5903
G01 X16.8813 Y42.5962
G01 X16.8842 Y42.6030
G01 X16.9274 Y42.7287
G01 X16.9302 Y42.7415
G01 X16.9311 Y42.7497
G01 X16.9313 Y42.7559
G01 X16.9313 Y43.1053
G01 X16.9309 Y43.1152
G01 X16.9297 Y43.1237
G01 X16.9274 Y43.1332
G01 X16.9251 Y43.1402
G01 X16.9195 Y43.1525
G01 X16.9124 Y43.1639
G01 X16.9046 Y43.1734
G01 X16.8948 Y43.1827
G01 X16.8838 Y43.1905
G01 X16.8730 Y43.1963
G01 X16.8604 Y43.2010
G01 X16.8545 Y43.2026
G01 X16.8460 Y43.2043
G01 X16.8399 Y43.2050
G01 X16.8313 Y43.2053
G01 X16.4632 Y43.2053
G00 Z2.0000
G00 X16.9313 Y43.1087
G01 F60.00
G01 Z-0.0500
G01 F120.00
G01 X16.9347 Y43.1087
G00 Z2.0000
G00 X16.9347 Y43.0087
G01 F60.00
G01 Z-0.0500
G01 F120.00
G01 X16.9313 Y43.0087
G01 X16.9313 Y42.9087
G01 X16.9347 Y42.9087
G01 X16.9347 Y42.8087
G01 X16.9313 Y42.8087
G00 Z2.0000
G00 X16.9206 Y42.7087
G01 F60.00
G01 Z-0.0500
G01 F120.00
G01 X16.9449 Y42.7087
G01 X16.9777 Y42.6087
G01 X16.8862 Y42.6087
G00 Z2.0000
G00 X16.7861 Y42.5087
G01 F60.00
G01 Z-0.0500
G01 F120.00
G01 X16.7786 Y42.5087
G00 Z2.0000
G00 X17.0774 Y42.5087
G01 F60.00
G01 Z-0.0500
G01 F120.00
G01 X17.0849 Y42.5087
G00 Z2.0000
G00 X17.2967 Y42.5087
G01 F60.00
G01 Z-0.0500
G01 F120.00
G01 X17.3043 Y42.5087
G00 Z2.0000
G00 X17.4065 Y42.6087
G01 F60.00
G01 Z-0.0500
G01 F120.00
G01 X17.4100 Y42.6087
G01 X17.4393 Y42.7087
G01 X17.4427 Y42.7087
G00 Z2.0000
G00 X17.4495 Y42.8087
G01 F60.00
G01 Z-0.0500
G01 F120.00
G01 X17.4528 Y42.8087
G01 X17.4528 Y42.9087
G01 X17.4495 Y42.9087
G01 X17.4495 Y43.0087
G01 X17.4528 Y43.0087
G01 X17.4528 Y43.1087
G01 X17.4495 Y43.1087
G00 Z2.0000
G00 X17.0347 Y43.2053
G01 F60.00
G01 Z-0.0500
G01 F120.00
G01 X17.0261 Y43.2050
G01 X17.0188 Y43.2041
G01 X17.0104 Y43.2024
G01 X17.0010 Y43.1995
G01 X16.9930 Y43.1963
G01 X16.9864 Y43.1929
G01 X16.9791 Y43.1885
G01 X16.9712 Y43.1827
G01 X16.9648 Y43.1769
G01 X16.9597 Y43.1716
G01 X16.9543 Y43.1649
G01 X16.9489 Y43.1568
G01 X16.9443 Y43.1481
G01 X16.9409 Y43.1402
G01 X16.9386 Y43.1332
G01 X16.9366 Y43.1249
G01 X16.9351 Y43.1152
G01 X16.9347 Y43.1053
G01 X16.9347 Y42.7559
G01 X16.9349 Y42.7493
G01 X16.9357 Y42.7414
G01 X16.9387 Y42.7279
G01 X16.9784 Y42.6065
G01 X16.9832 Y42.5947
G01 X16.9898 Y42.5831
G01 X16.9982 Y42.5721
G01 X17.0244 Y42.5445
G01 X17.0339 Y42.5360
G01 X17.0411 Y42.5308
G01 X17.0493 Y42.5261
G01 X17.1184 Y42.4923
G01 X17.1278 Y42.4883
G01 X17.1397 Y42.4848
G01 X17.1486 Y42.4831
G01 X17.1594 Y42.4822
G01 X17.2211 Y42.4822
G01 X17.2341 Y42.4833
G01 X17.2474 Y42.4862
G01 X17.2549 Y42.4887
G01 X17.2627 Y42.4921
G01 X17.3316 Y42.5257
G01 X17.3407 Y42.5308
G01 X17.3486 Y42.5363
G01 X17.3554 Y42.5421
G01 X17.3825 Y42.5691
G01 X17.3884 Y42.5756
G01 X17.3940 Y42.5831
G01 X17.3983 Y42.5901
G01 X17.4016 Y42.5963
G01 X17.4050 Y42.6044
G01 X17.4451 Y42.7266
G01 X17.4483 Y42.7401
G01 X17.4491 Y42.7466
G01 X17.4495 Y42.7559
G01 X17.4495 Y43.1060
G01 X17.4484 Y43.1200
G01 X17.4468 Y43.1285
G01 X17.4452 Y43.1344
G01 X17.4432 Y43.1402
G01 X17.4399 Y43.1481
G01 X17.4333 Y43.1599
G01 X17.4298 Y43.1649
G01 X17.4244 Y43.1716
G01 X17.4157 Y43.1803
G01 X17.4051 Y43.1885
G01 X17.3977 Y43.1929
G01 X17.3923 Y43.1957
G01 X17.3866 Y43.1982
G01 X17.3785 Y43.2010
G01 X17.3654 Y43.2041
G01 X17.3581 Y43.2050
G01 X17.3495 Y43.2053
G01 X17.0347 Y43.2053
G00 Z2.0000
G00 X16.3640 Y40.5968
G01 F60.00
G01 Z-0.0500
G01 F120.00
G01 X16.3606 Y40.5971
G01 X16.3600 Y40.5981
G01 X16.3602 Y40.5993
G01 X16.3612 Y40.5999
G01 X16.3640 Y40.6001
G01 X17.3501 Y40.6001
G01 X17.3581 Y40.6004
G01 X17.3654 Y40.6013
G01 X17.3738 Y40.6031
G01 X17.3820 Y40.6055
G01 X17.3934 Y40.6102
G01 X17.4051 Y40.6169
G01 X17.4157 Y40.6252
G01 X17.4244 Y40.6338
G01 X17.4327 Y40.6445
G01 X17.4394 Y40.6562
G01 X17.4441 Y40.6675
G01 X17.4476 Y40.6806
G01 X17.4490 Y40.6903
G01 X17.4495 Y40.6995
G01 X17.4495 Y40.9592
G01 X17.4497 Y40.9619
G01 X17.4501 Y40.9627
G01 X17.4516 Y40.9631
G01 X17.4526 Y40.9621
G01 X17.4528 Y40.2376
G01 X17.4526 Y40.2347
G01 X17.4516 Y40.2337
G01 X17.4506 Y40.2338
G01 X17.4498 Y40.2345
G01 X17.4495 Y40.2376
G01 X17.4495 Y40.4974
G01 X17.4490 Y40.5066
G01 X17.4476 Y40.5163
G01 X17.4441 Y40.5293
G01 X17.4394 Y40.5406
G01 X17.4327 Y40.5523
G01 X17.4244 Y40.5630
G01 X17.4157 Y40.5717
G01 X17.4051 Y40.5799
G01 X17.3934 Y40.5866
G01 X17.3820 Y40.5913
G01 X17.3738 Y40.5938
G01 X17.3654 Y40.5955
G01 X17.3581 Y40.5964
G01 X17.3495 Y40.5968
G01 X16.3640 Y40.5968
G00 Z2.0000
G00 X19.4909 Y40.9811
G01 F60.00
G01 Z-0.0500
G01 F120.00
G01 X19.5451 Y40.9811
G01 X19.5451 Y41.0811
G01 X19.4909 Y41.0811
G01 X19.4909 Y41.1811
G01 X19.5451 Y41.1811
G01 X19.5451 Y41.2811
G01 X19.4909 Y41.2811
G01 X19.4909 Y41.3811
G01 X19.5610 Y41.3811
G01 X19.4909 Y41.4515
G01 X19.4912 Y41.4566
G01 X19.4922 Y41.4618
G01 X19.4942 Y41.4667
G01 X19.4972 Y41.4711
G01 X19.5009 Y41.4748
G01 X19.5053 Y41.4778
G01 X19.5102 Y41.4798
G01 X19.5154 Y41.4808
G01 X19.5205 Y41.4811
G01 X28.3155 Y41.4811
G01 X28.3206 Y41.4808
G01 X28.3258 Y41.4798
G01 X28.3307 Y41.4778
G01 X28.3351 Y41.4748
G01 X28.3388 Y41.4711
G01 X28.3418 Y41.4667
G01 X28.3438 Y41.4618
G01 X28.3448 Y41.4566
G01 X28.3451 Y40.9712
G01 X28.3448 Y40.9661
G01 X28.3438 Y40.9609
G01 X28.3418 Y40.9560
G01 X28.3388 Y40.9517
G01 X28.3351 Y40.9479
G01 X28.3307 Y40.9450
G01 X28.3258 Y40.9430
G01 X28.3206 Y40.9419
G01 X28.3154 Y40.9419
G01 X28.3102 Y40.9430
G01 X28.3053 Y40.9450
G01 X28.3009 Y40.9479
G01 X28.2972 Y40.9517
G01 X28.2942 Y40.9560
G01 X28.2922 Y40.9609
G01 X28.2916 Y40.9635
G01 X28.2909 Y40.9712
G01 X28.2909 Y41.3288
G01 X28.2897 Y41.3428
G01 X28.2879 Y41.3512
G01 X28.2863 Y41.3571
G01 X28.2838 Y41.3641
G01 X28.2808 Y41.3708
G01 X28.2773 Y41.3773
G01 X28.2734 Y41.3835
G01 X28.2690 Y41.3894
G01 X28.2642 Y41.3950
G01 X28.2581 Y41.4010
G01 X28.2515 Y41.4065
G01 X28.2455 Y41.4107
G01 X28.2381 Y41.4151
G01 X28.2326 Y41.4178
G01 X28.2246 Y41.4211
G01 X28.2188 Y41.4230
G01 X28.2104 Y41.4250
G01 X28.1961 Y41.4268
G01 X19.6451 Y41.4269
G01 X19.6365 Y41.4266
G01 X19.6292 Y41.4256
G01 X19.6208 Y41.4239
G01 X19.6125 Y41.4215
G01 X19.6057 Y41.4188
G01 X19.5979 Y41.4151
G01 X19.5905 Y41.4107
G01 X19.5845 Y41.4065
G01 X19.5779 Y41.4010
G01 X19.5718 Y41.3950
G01 X19.5670 Y41.3894
G01 X19.5619 Y41.3825
G01 X19.5575 Y41.3751
G01 X19.5542 Y41.3686
G01 X19.5509 Y41.3606
G01 X19.5484 Y41.3524
G01 X19.5460 Y41.3404
G01 X19.5451 Y41.3275
G01 X19.5451 Y40.9712
G01 X19.5448 Y40.9661
G01 X19.5438 Y40.9609
G01 X19.5418 Y40.9560
G01 X19.5388 Y40.9517
G01 X19.5351 Y40.9479
G01 X19.5307 Y40.9450
G01 X19.5258 Y40.9430
G01 X19.5207 Y40.9419
G01 X19.5154 Y40.9419
G01 X19.5102 Y40.9430
G01 X19.5053 Y40.9450
G01 X19.5009 Y40.9479
G01 X19.4972 Y40.9517
G01 X19.4942 Y40.9560
G01 X19.4922 Y40.9609
G01 X19.4912 Y40.9661
G01 X19.4909 Y40.9712
G01 X19.4909 Y41.4515
G00 Z2.0000
G00 X20.0248 Y42.6732
G01 F60.00
G01 Z-0.0500
G01 F120.00
G01 X20.0248 Y42.7248
G00 Z2.0000
G00 X20.0848 Y42.6828
G01 F60.00
G01 Z-0.0500
G01 F120.00
G01 X20.0848 Y42.7152
G01 X20.1448 Y42.7152
G01 X20.1448 Y42.6828
G01 X20.2048 Y42.6828
G01 X20.2048 Y42.7152
G01 X20.2648 Y42.7152
G01 X20.2648 Y42.6828
G00 Z2.0000
G00 X20.3248 Y42.6784
G01 F60.00
G01 Z-0.0500
G01 F120.00
G01 X20.3248 Y42.7152
G01 X20.3848 Y42.7152
G01 X20.3848 Y42.6049
G01 X20.4448 Y42.5711
G01 X20.4448 Y42.5105
G01 X20.5048 Y42.4767
G01 X20.5048 Y42.4161
G01 X20.5648 Y42.3823
G01 X20.5648 Y42.3217
G01 X20.6248 Y42.2879
G01 X20.6248 Y42.2273
G01 X20.6848 Y42.1329
G01 X20.6848 Y42.1935
G00 Z2.0000
G00 X20.4448 Y42.6780
G01 F60.00
G01 Z-0.0500
G01 F120.00
G01 X20.4448 Y42.7159
G00 Z2.0000
G00 X20.5048 Y42.7004
G01 F60.00
G01 Z-0.0500
G01 F120.00
G01 X20.5048 Y42.7346
G01 X20.5648 Y42.7201
G01 X20.5648 Y42.7542
G01 X20.6248 Y42.7478
G01 X20.6248 Y42.7927
G01 X20.6848 Y42.8212
G01 X20.6848 Y42.8953
G00 Z2.0000
G00 X20.6848 Y43.0183
G01 F60.00
G01 Z-0.0500
G01 F120.00
G01 X20.6848 Y43.0924
G01 X20.6248 Y43.1219
G01 X20.6248 Y43.1679
G01 X20.5648 Y43.1619
G01 X20.5648 Y43.1961
G01 X20.5048 Y43.1816
G01 X20.5048 Y43.2157
G00 Z2.0000
G00 X20.4448 Y43.2003
G01 F60.00
G01 Z-0.0500
G01 F120.00
G01 X20.4448 Y43.2334
G01 X20.3848 Y43.2334
G01 X20.3848 Y43.2009
G01 X20.3248 Y43.2009
G01 X20.3248 Y43.2334
G01 X20.2648 Y43.2334
G01 X20.2648 Y43.2009
G01 X20.2048 Y43.2009
G01 X20.2048 Y43.2334
G01 X20.1448 Y43.2334
G01 X20.1448 Y43.2009
G01 X20.0848 Y43.2009
G01 X20.0848 Y43.2334
G01 X20.0572 Y43.2009
G01 X20.0497 Y43.2004
G01 X20.0439 Y43.1994
G01 X20.0370 Y43.1974
G01 X20.0305 Y43.1946
G01 X20.0243 Y43.1911
G01 X20.0188 Y43.1870
G01 X20.0136 Y43.1821
G01 X20.0098 Y43.1776
G01 X20.0046 Y43.1696
G01 X20.0007 Y43.1611
G01 X19.9983 Y43.1521
G01 X19.9973 Y43.1426
G01 X19.9972 Y42.7752
G01 X19.9976 Y42.7689
G01 X19.9997 Y42.7583
G01 X20.0035 Y42.7485
G01 X20.0090 Y42.7395
G01 X20.0128 Y42.7349
G01 X20.0169 Y42.7308
G01 X20.0215 Y42.7270
G01 X20.0264 Y42.7238
G01 X20.0359 Y42.7192
G01 X20.0415 Y42.7173
G01 X20.0472 Y42.7161
G01 X20.0572 Y42.7152
G01 X20.4362 Y42.7152
G01 X20.4457 Y42.7160
G01 X20.4549 Y42.7182
G01 X20.5833 Y42.7604
G01 X20.5893 Y42.7628
G01 X20.5940 Y42.7654
G01 X20.6026 Y42.7716
G01 X20.6374 Y42.8048
G01 X20.6423 Y42.8106
G01 X20.6463 Y42.8167
G01 X20.6863 Y42.8985
G01 X20.6882 Y42.9036
G01 X20.6899 Y42.9099
G01 X20.6908 Y42.9153
G01 X20.6912 Y42.9223
G01 X20.6911 Y42.9951
G01 X20.6894 Y43.0059
G01 X20.6858 Y43.0161
G01 X20.6476 Y43.0944
G01 X20.6422 Y43.1034
G01 X20.6361 Y43.1106
G01 X20.6026 Y43.1439
G01 X20.5947 Y43.1501
G01 X20.5866 Y43.1544
G01 X20.5810 Y43.1566
G01 X20.4549 Y43.1979
G01 X20.4470 Y43.1999
G01 X20.4407 Y43.2007
G01 X20.0572 Y43.2009
G00 Z2.0000
G00 X20.0248 Y43.1914
G01 F60.00
G01 Z-0.0500
G01 F120.00
G01 X20.0248 Y43.2334
G01 X19.9648 Y43.2157
G01 X19.9651 Y43.2203
G01 X19.9667 Y43.2248
G01 X19.9696 Y43.2286
G01 X19.9734 Y43.2314
G01 X19.9778 Y43.2330
G01 X19.9825 Y43.2334
G01 X20.4468 Y43.2334
G01 X20.4501 Y43.2332
G01 X20.4549 Y43.2321
G01 X20.6070 Y43.1822
G01 X20.6111 Y43.1805
G01 X20.6158 Y43.1768
G01 X20.6669 Y43.1257
G01 X20.6703 Y43.1217
G01 X20.7214 Y43.0172
G01 X20.7234 Y43.0118
G01 X20.7237 Y43.0075
G01 X20.7237 Y42.9061
G01 X20.7230 Y42.9004
G01 X20.7214 Y42.8964
G01 X20.6718 Y42.7947
G01 X20.6697 Y42.7910
G01 X20.6669 Y42.7879
G01 X20.6155 Y42.7390
G01 X20.6110 Y42.7355
G01 X20.6071 Y42.7339
G01 X20.4593 Y42.6855
G01 X20.4525 Y42.6826
G01 X20.4464 Y42.6792
G01 X20.4401 Y42.6744
G01 X20.4343 Y42.6687
G01 X20.4300 Y42.6633
G01 X20.4259 Y42.6565
G01 X20.4226 Y42.6491
G01 X20.4207 Y42.6424
G01 X20.4194 Y42.6346
G01 X20.4192 Y42.6265
G01 X20.4201 Y42.6184
G01 X20.4219 Y42.6107
G01 X20.4244 Y42.6043
G01 X20.4279 Y42.5977
G01 X20.7204 Y42.1375
G01 X20.7225 Y42.1333
G01 X20.7234 Y42.1303
G01 X20.7236 Y42.1271
G01 X20.7232 Y42.1240
G01 X20.7222 Y42.1210
G01 X20.7207 Y42.1182
G01 X20.7186 Y42.1158
G01 X20.7161 Y42.1139
G01 X20.7133 Y42.1124
G01 X20.7102 Y42.1116
G01 X20.7071 Y42.1113
G01 X20.7039 Y42.1117
G01 X20.7009 Y42.1127
G01 X20.6982 Y42.1143
G01 X20.6958 Y42.1163
G01 X20.6930 Y42.1200
G01 X20.3513 Y42.6574
G01 X20.3467 Y42.6631
G01 X20.3415 Y42.6682
G01 X20.3359 Y42.6725
G01 X20.3297 Y42.6762
G01 X20.3230 Y42.6791
G01 X20.3160 Y42.6812
G01 X20.3101 Y42.6823
G01 X20.3023 Y42.6828
G01 X20.0518 Y42.6825
G01 X20.0451 Y42.6815
G01 X20.0382 Y42.6797
G01 X20.0316 Y42.6770
G01 X20.0253 Y42.6736
G01 X20.0196 Y42.6694
G01 X20.0145 Y42.6648
G01 X20.0098 Y42.6595
G01 X20.0058 Y42.6536
G01 X20.0020 Y42.6462
G01 X19.9993 Y42.6385
G01 X19.9979 Y42.6316
G01 X19.9973 Y42.6240
G01 X19.9971 Y42.1259
G01 X19.9959 Y42.1213
G01 X19.9935 Y42.1172
G01 X19.9900 Y42.1141
G01 X19.9857 Y42.1120
G01 X19.9810 Y42.1113
G01 X19.9763 Y42.1120
G01 X19.9720 Y42.1141
G01 X19.9696 Y42.1161
G01 X19.9676 Y42.1185
G01 X19.9655 Y42.1228
G01 X19.9648 Y42.1290
G01 X19.9648 Y43.2157
G00 Z2.0000
G00 X21.0941 Y42.9833
G01 F60.00
G01 Z-0.0500
G01 F120.00
G01 X21.0941 Y43.0756
G01 X21.1541 Y43.0897
G01 X21.1541 Y43.1356
G01 X21.2141 Y43.1485
G01 X21.2141 Y43.1855
G01 X21.2741 Y43.1710
G01 X21.2741 Y43.2052
G01 X21.3341 Y43.2248
G01 X21.3341 Y43.1907
G00 Z2.0000
G00 X21.0941 Y42.7767
G01 F60.00
G01 Z-0.0500
G01 F120.00
G01 X21.0941 Y42.6856
G01 X21.1541 Y42.6715
G01 X21.1541 Y42.6256
G01 X21.2141 Y42.6126
G01 X21.2141 Y42.5755
G01 X21.2741 Y42.5892
G01 X21.2741 Y42.5549
G01 X21.3341 Y42.5686
G01 X21.3341 Y42.5342
G01 X21.3941 Y42.5253
G01 X21.3941 Y42.5578
G00 Z2.0000
G00 X21.4541 Y42.5718
G01 F60.00
G01 Z-0.0500
G01 F120.00
G01 X21.4541 Y42.5374
G01 X21.5141 Y42.5581
G01 X21.5141 Y42.5924
G01 X21.5741 Y42.5787
G01 X21.5741 Y42.6209
G00 Z2.0000
G00 X21.6341 Y42.6165
G01 F60.00
G01 Z-0.0500
G01 F120.00
G01 X21.6341 Y42.6809
G00 Z2.0000
G00 X21.6941 Y42.5848
G01 F60.00
G01 Z-0.0500
G01 F120.00
G01 X21.6941 Y42.8088
G01 X21.7041 Y42.8394
G01 X21.7058 Y42.8464
G01 X21.7065 Y42.8519
G01 X21.7067 Y42.8586
G01 X21.7063 Y42.8642
G01 X21.7050 Y42.8712
G01 X21.6645 Y43.0376
G01 X21.6624 Y43.0444
G01 X21.6592 Y43.0514
G01 X21.6547 Y43.0587
G01 X21.6494 Y43.0650
G01 X21.5724 Y43.1420
G01 X21.5651 Y43.1482
G01 X21.5565 Y43.1534
G01 X21.5487 Y43.1566
G01 X21.4196 Y43.1988
G01 X21.4134 Y43.2002
G01 X21.4071 Y43.2008
G01 X21.3749 Y43.2009
G01 X21.3655 Y43.2002
G01 X21.3575 Y43.1983
G01 X21.2302 Y43.1566
G01 X21.2213 Y43.1529
G01 X21.2137 Y43.1482
G01 X21.2064 Y43.1420
G01 X21.1270 Y43.0625
G01 X21.1223 Y43.0571
G01 X21.1186 Y43.0516
G01 X21.1160 Y43.0467
G01 X21.1134 Y43.0401
G01 X21.0698 Y42.9114
G01 X21.0676 Y42.9033
G01 X21.0668 Y42.8968
G01 X21.0667 Y42.8634
G01 X21.0675 Y42.8562
G01 X21.0693 Y42.8490
G01 X21.1139 Y42.7194
G01 X21.1165 Y42.7134
G01 X21.1192 Y42.7087
G01 X21.1257 Y42.7000
G01 X21.2077 Y42.6180
G01 X21.2130 Y42.6134
G01 X21.2185 Y42.6097
G01 X21.2233 Y42.6071
G01 X21.2298 Y42.6045
G01 X21.3560 Y42.5610
G01 X21.3640 Y42.5589
G01 X21.3708 Y42.5579
G01 X21.4067 Y42.5578
G01 X21.4127 Y42.5585
G01 X21.4197 Y42.5600
G01 X21.5506 Y42.6050
G01 X21.5604 Y42.6097
G01 X21.5683 Y42.6154
G01 X21.6508 Y42.6976
G01 X21.6557 Y42.7030
G01 X21.6595 Y42.7086
G01 X21.6628 Y42.7146
G01 X21.6651 Y42.7202
G01 X21.6654 Y42.7213
G01 X21.7038 Y42.8383
G00 Z2.0000
G00 X21.6941 Y42.9161
G01 F60.00
G01 Z-0.0500
G01 F120.00
G01 X21.6941 Y43.0532
G01 X21.6341 Y43.0803
G01 X21.6341 Y43.1263
G01 X21.5741 Y43.1403
G01 X21.5741 Y43.1824
G01 X21.5141 Y43.1679
G01 X21.5141 Y43.2021
G01 X21.4541 Y43.1876
G01 X21.4541 Y43.2218
G01 X21.3941 Y43.2334
G01 X21.3941 Y43.2009
G00 Z2.0000
G00 X21.6999 Y42.5455
G01 F60.00
G01 Z-0.0500
G01 F120.00
G01 X21.6622 Y42.3515
G01 X21.6609 Y42.3462
G01 X21.6589 Y42.3405
G01 X21.6564 Y42.3350
G01 X21.6531 Y42.3295
G01 X21.5715 Y42.2081
G01 X21.5677 Y42.2033
G01 X21.5638 Y42.1992
G01 X21.5559 Y42.1928
G01 X21.5490 Y42.1888
G01 X21.5411 Y42.1856
G01 X21.4226 Y42.1467
G01 X21.4147 Y42.1447
G01 X21.4039 Y42.1437
G01 X21.3239 Y42.1437
G01 X21.3159 Y42.1443
G01 X21.3098 Y42.1454
G01 X21.1892 Y42.1842
G01 X21.1809 Y42.1878
G01 X21.1738 Y42.1921
G01 X21.1681 Y42.1967
G01 X21.1639 Y42.2010
G01 X21.1601 Y42.2057
G01 X21.1569 Y42.2108
G01 X21.1189 Y42.2882
G01 X21.1166 Y42.2922
G01 X21.1132 Y42.2955
G01 X21.1090 Y42.2977
G01 X21.1059 Y42.2984
G01 X21.1027 Y42.2986
G01 X21.0981 Y42.2976
G01 X21.0952 Y42.2962
G01 X21.0927 Y42.2943
G01 X21.0906 Y42.2919
G01 X21.0890 Y42.2892
G01 X21.0880 Y42.2862
G01 X21.0875 Y42.2830
G01 X21.0877 Y42.2799
G01 X21.0885 Y42.2768
G01 X21.1392 Y42.1725
G01 X21.1417 Y42.1684
G01 X21.1452 Y42.1651
G01 X21.1509 Y42.1624
G01 X21.3055 Y42.1125
G01 X21.3086 Y42.1117
G01 X21.3135 Y42.1113
G01 X21.4145 Y42.1113
G01 X21.4195 Y42.1117
G01 X21.4227 Y42.1126
G01 X21.5748 Y42.1624
G01 X21.5802 Y42.1649
G01 X21.5825 Y42.1669
G01 X21.5853 Y42.1704
G01 X21.6878 Y42.3229
G01 X21.6901 Y42.3271
G01 X21.6914 Y42.3316
G01 X21.7416 Y42.5903
G01 X21.7421 Y42.5933
G01 X21.7421 Y42.8557
G01 X21.6913 Y43.0647
G01 X21.6893 Y43.0701
G01 X21.6857 Y43.0747
G01 X21.5835 Y43.1768
G01 X21.5789 Y43.1805
G01 X21.5748 Y43.1822
G01 X21.4195 Y43.2329
G01 X21.4145 Y43.2334
G01 X21.3644 Y43.2334
G01 X21.3594 Y43.2329
G01 X21.2041 Y43.1822
G01 X21.2000 Y43.1805
G01 X21.1953 Y43.1768
G01 X21.0932 Y43.0747
G01 X21.0896 Y43.0701
G01 X21.0879 Y43.0661
G01 X21.0346 Y42.9082
G01 X21.0341 Y42.9031
G01 X21.0341 Y42.8556
G01 X21.0346 Y42.8504
G01 X21.0879 Y42.6950
G01 X21.0896 Y42.6911
G01 X21.0932 Y42.6866
G01 X21.1954 Y42.5843
G01 X21.1999 Y42.5808
G01 X21.2038 Y42.5791
G01 X21.3559 Y42.5267
G01 X21.3610 Y42.5255
G01 X21.4145 Y42.5253
G01 X21.4179 Y42.5255
G01 X21.4230 Y42.5267
G01 X21.5777 Y42.5801
G01 X21.5814 Y42.5824
G01 X21.5994 Y42.6002
G01 X21.6052 Y42.6051
G01 X21.6101 Y42.6084
G01 X21.6153 Y42.6112
G01 X21.6251 Y42.6148
G01 X21.6309 Y42.6161
G01 X21.6367 Y42.6168
G01 X21.6426 Y42.6169
G01 X21.6484 Y42.6165
G01 X21.6542 Y42.6155
G01 X21.6599 Y42.6139
G01 X21.6654 Y42.6117
G01 X21.6706 Y42.6091
G01 X21.6766 Y42.6052
G01 X21.6820 Y42.6007
G01 X21.6869 Y42.5955
G01 X21.6917 Y42.5890
G01 X21.6951 Y42.5828
G01 X21.6978 Y42.5762
G01 X21.6997 Y42.5694
G01 X21.7008 Y42.5614
G01 X21.7009 Y42.5543
G01 X21.7003 Y42.5484
G01 X21.6999 Y42.5455
G01 X21.6941 Y42.5159
G01 X21.6941 Y42.3455
G01 X21.6341 Y42.3012
G01 X21.6341 Y42.2430
G01 X21.5741 Y42.2120
G01 X21.5741 Y42.1622
G01 X21.5141 Y42.1767
G01 X21.5141 Y42.1425
G01 X21.4541 Y42.1570
G01 X21.4541 Y42.1229
G01 X21.3941 Y42.1113
G01 X21.3941 Y42.1437
G01 X21.3341 Y42.1437
G01 X21.3341 Y42.1113
G01 X21.2741 Y42.1226
G01 X21.2741 Y42.1568
G01 X21.2141 Y42.1420
G01 X21.2141 Y42.1761
G01 X21.1541 Y42.1613
G01 X21.1541 Y42.2161
G00 Z2.0000
G00 X21.0941 Y42.2954
G01 F60.00
G01 Z-0.0500
G01 F120.00
G01 X21.0941 Y42.2650
G00 Z2.0000
G00 X22.2227 Y42.1220
G01 F60.00
G01 Z-0.0500
G01 F120.00
G01 X22.2665 Y42.1220
G00 Z2.0000
G00 X22.2551 Y42.1820
G01 F60.00
G01 Z-0.0500
G01 F120.00
G01 X22.2227 Y42.1820
G01 X22.2227 Y42.2420
G01 X22.2551 Y42.2420
G01 X22.2551 Y42.3020
G01 X22.2227 Y42.3020
G01 X22.2227 Y42.3620
G01 X22.2551 Y42.3620
G01 X22.2551 Y42.4220
G01 X22.2227 Y42.4220
G01 X22.2227 Y42.4820
G01 X22.2551 Y42.4820
G01 X22.2551 Y42.5420
G01 X22.2227 Y42.5420
G01 X22.2227 Y42.6020
G01 X22.2551 Y42.6020
G01 X22.2551 Y42.6620
G01 X22.2227 Y42.6620
G01 X22.2227 Y42.7220
G01 X22.2551 Y42.7220
G01 X22.2551 Y42.7820
G01 X22.2227 Y42.7820
G01 X22.2227 Y42.8420
G01 X22.2551 Y42.8420
G01 X22.2551 Y42.9020
G01 X22.2227 Y42.9020
G01 X22.2227 Y42.9620
G01 X22.2551 Y42.9620
G01 X22.2551 Y43.0220
G01 X22.2227 Y43.0220
G01 X22.2227 Y43.0820
G01 X22.2551 Y43.0820
G01 X22.2551 Y43.1420
G01 X22.2227 Y43.1420
G01 X22.2227 Y43.2020
G01 X22.2551 Y43.2020
G01 X22.2551 Y43.2620
G01 X22.2227 Y43.2620
G01 X22.2227 Y43.3220
G01 X22.2551 Y43.3220
G00 Z2.0000
G00 X22.2227 Y44.3594
G01 F60.00
G01 Z-0.0500
G01 F120.00
G01 X22.2551 Y44.3594
G01 X22.2551 Y44.4194
G01 X22.2227 Y44.4194
G01 X22.2227 Y44.4794
G01 X22.2551 Y44.4794
G01 X22.2551 Y44.5394
G01 X22.2227 Y44.5394
G01 X22.2227 Y44.5994
G01 X22.2551 Y44.5994
G01 X22.2551 Y44.6594
G01 X22.2227 Y44.6594
G01 X22.2227 Y44.7194
G01 X22.2551 Y44.7194
G01 X22.2551 Y44.7794
G01 X22.2227 Y44.7794
G01 X22.2227 Y44.8394
G01 X22.2551 Y44.8394
G01 X22.2551 Y44.8994
G01 X22.2227 Y44.8994
G01 X22.2227 Y44.9594
G01 X22.2551 Y44.9594
G01 X22.2551 Y45.0194
G01 X22.2227 Y45.0194
G01 X22.2227 Y45.0794
G01 X22.2551 Y45.0794
G01 X22.2551 Y45.1394
G01 X22.2227 Y45.1394
G01 X22.2227 Y45.1994
G01 X22.2551 Y45.1994
G01 X22.2551 Y45.2594
G01 X22.2227 Y45.2594
G01 X22.2227 Y45.3194
G01 X22.2551 Y45.3194
G01 X22.2551 Y45.3794
G01 X22.2227 Y45.3794
G01 X22.2227 Y45.4394
G01 X22.2551 Y45.4394
G01 X22.2551 Y45.4994
G01 X22.2227 Y45.4994
G01 X22.2227 Y45.5594
G01 X22.2647 Y45.5594
G00 Z2.0000
G00 X24.0473 Y45.5594
G01 F60.00
G01 Z-0.0500
G01 F120.00
G01 X24.0893 Y45.5594
G01 X24.0569 Y45.5269
G01 X24.0560 Y45.5369
G01 X24.0548 Y45.5427
G01 X24.0529 Y45.5483
G01 X24.0506 Y45.5536
G01 X24.0477 Y45.5588
G01 X24.0443 Y45.5636
G01 X24.0405 Y45.5681
G01 X24.0362 Y45.5722
G01 X24.0316 Y45.5758
G01 X24.0266 Y45.5790
G01 X24.0214 Y45.5816
G01 X24.0159 Y45.5838
G01 X24.0102 Y45.5854
G01 X24.0044 Y45.5864
G01 X23.9986 Y45.5869
G01 X22.3151 Y45.5869
G01 X22.3063 Y45.5862
G01 X22.2973 Y45.5842
G01 X22.2895 Y45.5811
G01 X22.2814 Y45.5765
G01 X22.2758 Y45.5722
G01 X22.2707 Y45.5672
G01 X22.2662 Y45.5616
G01 X22.2625 Y45.5556
G01 X22.2595 Y45.5494
G01 X22.2573 Y45.5427
G01 X22.2558 Y45.5357
G01 X22.2552 Y45.5281
G01 X22.2550 Y44.3166
G01 X22.2544 Y44.3135
G01 X22.2532 Y44.3106
G01 X22.2514 Y44.3079
G01 X22.2492 Y44.3057
G01 X22.2465 Y44.3039
G01 X22.2436 Y44.3027
G01 X22.2405 Y44.3021
G01 X22.2373 Y44.3021
G01 X22.2342 Y44.3027
G01 X22.2313 Y44.3039
G01 X22.2287 Y44.3057
G01 X22.2264 Y44.3079
G01 X22.2247 Y44.3106
G01 X22.2234 Y44.3135
G01 X22.2227 Y44.3197
G01 X22.2227 Y45.6017
G01 X22.2231 Y45.6063
G01 X22.2240 Y45.6093
G01 X22.2255 Y45.6121
G01 X22.2275 Y45.6146
G01 X22.2299 Y45.6166
G01 X22.2327 Y45.6181
G01 X22.2358 Y45.6190
G01 X22.2404 Y45.6194
G01 X24.0716 Y45.6194
G01 X24.0778 Y45.6186
G01 X24.0821 Y45.6166
G01 X24.0845 Y45.6146
G01 X24.0874 Y45.6108
G01 X24.0890 Y45.6063
G01 X24.0893 Y45.6017
G01 X24.0893 Y44.3197
G01 X24.0886 Y44.3135
G01 X24.0865 Y44.3092
G01 X24.0834 Y44.3057
G01 X24.0793 Y44.3033
G01 X24.0747 Y44.3021
G01 X24.0715 Y44.3021
G01 X24.0684 Y44.3027
G01 X24.0641 Y44.3047
G01 X24.0617 Y44.3068
G01 X24.0588 Y44.3106
G01 X24.0572 Y44.3150
G01 X24.0569 Y44.3197
G01 X24.0569 Y45.5269
G01 X24.0569 Y45.4994
G01 X24.0893 Y45.4994
G01 X24.0893 Y45.4394
G01 X24.0569 Y45.4394
G01 X24.0569 Y45.3794
G01 X24.0893 Y45.3794
G01 X24.0893 Y45.3194
G01 X24.0569 Y45.3194
G01 X24.0569 Y45.2594
G01 X24.0893 Y45.2594
G01 X24.0893 Y45.1994
G01 X24.0569 Y45.1994
G01 X24.0569 Y45.1394
G01 X24.0893 Y45.1394
G01 X24.0893 Y45.0794
G01 X24.0569 Y45.0794
G01 X24.0569 Y45.0194
G01 X24.0893 Y45.0194
G01 X24.0893 Y44.9594
G01 X24.0569 Y44.9594
G01 X24.0569 Y44.8994
G01 X24.0893 Y44.8994
G01 X24.0893 Y44.8394
G01 X24.0569 Y44.8394
G01 X24.0569 Y44.7794
G01 X24.0893 Y44.7794
G01 X24.0893 Y44.7194
G01 X24.0569 Y44.7194
G01 X24.0569 Y44.6594
G01 X24.0893 Y44.6594
G01 X24.0893 Y44.5994
G01 X24.0569 Y44.5994
G01 X24.0569 Y44.5394
G01 X24.0893 Y44.5394
G01 X24.0893 Y44.4794
G01 X24.0569 Y44.4794
G01 X24.0569 Y44.4194
G01 X24.0893 Y44.4194
G01 X24.0893 Y44.3594
G01 X24.0569 Y44.3594
G00 Z2.0000
G00 X24.7189 Y44.4961
G01 F60.00
G01 Z-0.0500
G01 F120.00
G01 X24.7731 Y44.4961
G01 X24.7731 Y44.5961
G01 X24.7189 Y44.5961
G01 X24.7189 Y44.6961
G01 X24.7731 Y44.6961
G01 X24.7731 Y44.7961
G01 X24.7189 Y44.7961
G01 X24.7189 Y44.8961
G01 X24.7731 Y44.8961
G01 X24.7731 Y44.9961
G01 X24.7189 Y44.9961
G01 X24.7189 Y45.0961
G01 X24.7731 Y45.0961
G01 X24.7731 Y45.1961
G01 X24.7189 Y45.1961
G01 X24.7189 Y45.2961
G01 X24.7731 Y45.2961
G01 X24.7731 Y45.3961
G01 X24.7189 Y45.3961
G01 X24.7189 Y45.4961
G01 X24.7731 Y45.4961
G01 X24.7731 Y45.5961
G01 X24.7189 Y45.5961
G01 X24.7189 Y45.6961
G01 X24.7776 Y45.6961
G00 Z2.0000
G00 X24.7189 Y45.7167
G01 F60.00
G01 Z-0.0500
G01 F120.00
G01 X24.7196 Y45.7244
G01 X24.7211 Y45.7294
G01 X24.7236 Y45.7341
G01 X24.7280 Y45.7393
G01 X25.0751 Y46.0864
G01 X25.0789 Y46.0899
G01 X25.0833 Y46.0928
G01 X25.0882 Y46.0948
G01 X25.0907 Y46.0955
G01 X25.0984 Y46.0961
G01 X26.2936 Y46.0961
G01 X26.2987 Y46.0959
G01 X26.3039 Y46.0948
G01 X26.3087 Y46.0928
G01 X26.3110 Y46.0914
G01 X26.3169 Y46.0864
G01 X26.6637 Y45.7396
G01 X26.6669 Y45.7361
G01 X26.6698 Y45.7318
G01 X26.6709 Y45.7294
G01 X26.6724 Y45.7244
G01 X26.6731 Y45.7167
G01 X26.6731 Y44.4715
G01 X26.6724 Y44.4638
G01 X26.6709 Y44.4588
G01 X26.6684 Y44.4541
G01 X26.6651 Y44.4500
G01 X26.6610 Y44.4467
G01 X26.6587 Y44.4453
G01 X26.6563 Y44.4442
G01 X26.6513 Y44.4426
G01 X26.6460 Y44.4421
G01 X26.6434 Y44.4423
G01 X26.6408 Y44.4426
G01 X26.6357 Y44.4442
G01 X26.6311 Y44.4467
G01 X26.6270 Y44.4500
G01 X26.6252 Y44.4520
G01 X26.6223 Y44.4564
G01 X26.6211 Y44.4588
G01 X26.6196 Y44.4638
G01 X26.6192 Y44.4664
G01 X26.6189 Y45.6683
G01 X26.6185 Y45.6762
G01 X26.6170 Y45.6859
G01 X26.6147 Y45.6954
G01 X26.6113 Y45.7047
G01 X26.6071 Y45.7136
G01 X26.6021 Y45.7220
G01 X26.5963 Y45.7299
G01 X26.5910 Y45.7358
G01 X26.3119 Y46.0148
G01 X26.3020 Y46.0230
G01 X26.2905 Y46.0302
G01 X26.2850 Y46.0329
G01 X26.2771 Y46.0361
G01 X26.2641 Y46.0398
G01 X26.2532 Y46.0415
G01 X26.2434 Y46.0420
G01 X25.1486 Y46.0420
G01 X25.1388 Y46.0415
G01 X25.1291 Y46.0401
G01 X25.1196 Y46.0377
G01 X25.1115 Y46.0348
G01 X25.1015 Y46.0302
G01 X25.0941 Y46.0258
G01 X25.0861 Y46.0200
G01 X25.0801 Y46.0148
G01 X24.8002 Y45.7349
G01 X24.7927 Y45.7260
G01 X24.7855 Y45.7146
G01 X24.7802 Y45.7035
G01 X24.7764 Y45.6919
G01 X24.7740 Y45.6799
G01 X24.7731 Y45.6664
G01 X24.7731 Y44.4715
G01 X24.7728 Y44.4664
G01 X24.7718 Y44.4612
G01 X24.7709 Y44.4588
G01 X24.7684 Y44.4541
G01 X24.7668 Y44.4520
G01 X24.7631 Y44.4482
G01 X24.7610 Y44.4467
G01 X24.7563 Y44.4442
G01 X24.7538 Y44.4433
G01 X24.7486 Y44.4423
G01 X24.7460 Y44.4421
G01 X24.7407 Y44.4426
G01 X24.7382 Y44.4433
G01 X24.7333 Y44.4453
G01 X24.7310 Y44.4467
G01 X24.7269 Y44.4500
G01 X24.7236 Y44.4541
G01 X24.7211 Y44.4588
G01 X24.7196 Y44.4638
G01 X24.7189 Y44.4715
G01 X24.7189 Y45.7167
G01 X24.7848 Y45.7961
G01 X24.8613 Y45.7961
G01 X24.8848 Y45.8961
G01 X24.9613 Y45.8961
G01 X24.9848 Y45.9961
G01 X25.0613 Y45.9961
G00 Z2.0000
G00 X26.3307 Y45.9961
G01 F60.00
G01 Z-0.0500
G01 F120.00
G01 X26.4072 Y45.9961
G01 X26.4307 Y45.8961
G01 X26.5072 Y45.8961
G01 X26.5307 Y45.7961
G01 X26.6072 Y45.7961
G00 Z2.0000
G00 X26.6144 Y45.6961
G01 F60.00
G01 Z-0.0500
G01 F120.00
G01 X26.6731 Y45.6961
G01 X26.6731 Y45.5961
G01 X26.6190 Y45.5961
G01 X26.6190 Y45.4961
G01 X26.6731 Y45.4961
G01 X26.6731 Y45.3961
G01 X26.6190 Y45.3961
G01 X26.6190 Y45.2961
G01 X26.6731 Y45.2961
G01 X26.6731 Y45.1961
G01 X26.6190 Y45.1961
G01 X26.6190 Y45.0961
G01 X26.6731 Y45.0961
G01 X26.6731 Y44.9961
G01 X26.6190 Y44.9961
G01 X26.6190 Y44.8961
G01 X26.6731 Y44.8961
G01 X26.6731 Y44.7961
G01 X26.6190 Y44.7961
G01 X26.6190 Y44.6961
G01 X26.6731 Y44.6961
G01 X26.6731 Y44.5961
G01 X26.6190 Y44.5961
G01 X26.6190 Y44.4961
G01 X26.6731 Y44.4961
G00 Z2.0000
G00 X27.4297 Y44.3594
G01 F60.00
G01 Z-0.0500
G01 F120.00
G01 X27.4621 Y44.3594
G01 X27.4621 Y44.4194
G01 X27.4297 Y44.4194
G01 X27.4297 Y44.4794
G01 X27.4621 Y44.4794
G01 X27.4621 Y44.5394
G01 X27.4297 Y44.5394
G01 X27.4297 Y44.5994
G01 X27.4621 Y44.5994
G01 X27.4621 Y44.6594
G01 X27.4297 Y44.6594
G01 X27.4297 Y44.7194
G01 X27.4621 Y44.7194
G01 X27.4621 Y44.7794
G01 X27.4297 Y44.7794
G01 X27.4297 Y44.8394
G01 X27.4621 Y44.8394
G01 X27.4621 Y44.8994
G01 X27.4297 Y44.8994
G01 X27.4297 Y44.9594
G01 X27.4621 Y44.9594
G01 X27.4621 Y45.0194
G01 X27.4297 Y45.0194
G01 X27.4297 Y45.0794
G01 X27.4621 Y45.0794
G01 X27.4621 Y45.1394
G01 X27.4297 Y45.1394
G01 X27.4297 Y45.1994
G01 X27.4621 Y45.1994
G01 X27.4621 Y45.2594
G01 X27.4297 Y45.2594
G01 X27.4297 Y45.3194
G01 X27.4621 Y45.3194
G01 X27.4621 Y45.3794
G01 X27.4297 Y45.3794
G01 X27.4297 Y45.4394
G01 X27.4621 Y45.4394
G01 X27.4621 Y45.4994
G01 X27.4297 Y45.4994
G01 X27.4297 Y45.5594
G01 X27.4717 Y45.5594
G00 Z2.0000
G00 X29.2543 Y45.5594
G01 F60.00
G01 Z-0.0500
G01 F120.00
G01 X29.2963 Y45.5594
G01 X29.2639 Y45.5269
G01 X29.2630 Y45.5369
G01 X29.2618 Y45.5427
G01 X29.2599 Y45.5483
G01 X29.2576 Y45.5536
G01 X29.2547 Y45.5588
G01 X29.2513 Y45.5636
G01 X29.2475 Y45.5681
G01 X29.2432 Y45.5722
G01 X29.2386 Y45.5758
G01 X29.2336 Y45.5790
G01 X29.2284 Y45.5816
G01 X29.2229 Y45.5838
G01 X29.2172 Y45.5854
G01 X29.2114 Y45.5864
G01 X29.2056 Y45.5869
G01 X27.5221 Y45.5869
G01 X27.5133 Y45.5862
G01 X27.5043 Y45.5842
G01 X27.4965 Y45.5811
G01 X27.4884 Y45.5765
G01 X27.4828 Y45.5722
G01 X27.4777 Y45.5672
G01 X27.4732 Y45.5616
G01 X27.4695 Y45.5556
G01 X27.4665 Y45.5494
G01 X27.4643 Y45.5427
G01 X27.4628 Y45.5357
G01 X27.4622 Y45.5281
G01 X27.4620 Y44.3166
G01 X27.4614 Y44.3135
G01 X27.4602 Y44.3106
G01 X27.4584 Y44.3079
G01 X27.4562 Y44.3057
G01 X27.4535 Y44.3039
G01 X27.4506 Y44.3027
G01 X27.4475 Y44.3021
G01 X27.4443 Y44.3021
G01 X27.4412 Y44.3027
G01 X27.4383 Y44.3039
G01 X27.4357 Y44.3057
G01 X27.4334 Y44.3079
G01 X27.4317 Y44.3106
G01 X27.4304 Y44.3135
G01 X27.4297 Y44.3197
G01 X27.4297 Y45.6017
G01 X27.4301 Y45.6063
G01 X27.4310 Y45.6093
G01 X27.4325 Y45.6121
G01 X27.4345 Y45.6146
G01 X27.4369 Y45.6166
G01 X27.4397 Y45.6181
G01 X27.4428 Y45.6190
G01 X27.4474 Y45.6194
G01 X29.2786 Y45.6194
G01 X29.2848 Y45.6186
G01 X29.2891 Y45.6166
G01 X29.2926 Y45.6134
G01 X29.2944 Y45.6108
G01 X29.2960 Y45.6063
G01 X29.2963 Y45.6017
G01 X29.2963 Y44.3197
G01 X29.2956 Y44.3135
G01 X29.2935 Y44.3092
G01 X29.2904 Y44.3057
G01 X29.2863 Y44.3033
G01 X29.2833 Y44.3023
G01 X29.2785 Y44.3021
G01 X29.2739 Y44.3033
G01 X29.2711 Y44.3047
G01 X29.2687 Y44.3068
G01 X29.2658 Y44.3106
G01 X29.2642 Y44.3150
G01 X29.2639 Y44.3197
G01 X29.2639 Y45.5269
G01 X29.2639 Y45.4994
G01 X29.2963 Y45.4994
G01 X29.2963 Y45.4394
G01 X29.2639 Y45.4394
G01 X29.2639 Y45.3794
G01 X29.2963 Y45.3794
G01 X29.2963 Y45.3194
G01 X29.2639 Y45.3194
G01 X29.2639 Y45.2594
G01 X29.2963 Y45.2594
G01 X29.2963 Y45.1994
G01 X29.2639 Y45.1994
G01 X29.2639 Y45.1394
G01 X29.2963 Y45.1394
G01 X29.2963 Y45.0794
G01 X29.2639 Y45.0794
G01 X29.2639 Y45.0194
G01 X29.2963 Y45.0194
G01 X29.2963 Y44.9594
G01 X29.2639 Y44.9594
G01 X29.2639 Y44.8994
G01 X29.2963 Y44.8994
G01 X29.2963 Y44.8394
G01 X29.2639 Y44.8394
G01 X29.2639 Y44.7794
G01 X29.2963 Y44.7794
G01 X29.2963 Y44.7194
G01 X29.2639 Y44.7194
G01 X29.2639 Y44.6594
G01 X29.2963 Y44.6594
G01 X29.2963 Y44.5994
G01 X29.2639 Y44.5994
G01 X29.2639 Y44.5394
G01 X29.2963 Y44.5394
G01 X29.2963 Y44.4794
G01 X29.2639 Y44.4794
G01 X29.2639 Y44.4194
G01 X29.2963 Y44.4194
G01 X29.2963 Y44.3594
G01 X29.2639 Y44.3594
G00 Z2.0000
G00 X29.6768 Y44.8322
G01 F60.00
G01 Z-0.0500
G01 F120.00
G01 X29.6768 Y44.8838
G00 Z2.0000
G00 X29.7368 Y44.8418
G01 F60.00
G01 Z-0.0500
G01 F120.00
G01 X29.7368 Y44.8742
G01 X29.7968 Y44.8742
G01 X29.7968 Y44.8418
G01 X29.8568 Y44.8418
G01 X29.8568 Y44.8742
G01 X29.9168 Y44.8742
G01 X29.9168 Y44.8418
G00 Z2.0000
G00 X29.9768 Y44.8374
G01 F60.00
G01 Z-0.0500
G01 F120.00
G01 X29.9768 Y44.8742
G01 X30.0368 Y44.8742
G01 X30.0368 Y44.7639
G01 X30.0968 Y44.7301
G01 X30.0968 Y44.6695
G01 X30.1568 Y44.6357
G01 X30.1568 Y44.5751
G01 X30.2168 Y44.5413
G01 X30.2168 Y44.4807
G01 X30.2768 Y44.4469
G01 X30.2768 Y44.3863
G01 X30.3368 Y44.2919
G01 X30.3368 Y44.3525
G00 Z2.0000
G00 X30.0968 Y44.8370
G01 F60.00
G01 Z-0.0500
G01 F120.00
G01 X30.0968 Y44.8749
G00 Z2.0000
G00 X30.1568 Y44.8594
G01 F60.00
G01 Z-0.0500
G01 F120.00
G01 X30.1568 Y44.8936
G01 X30.2168 Y44.8791
G01 X30.2168 Y44.9132
G01 X30.2768 Y44.9068
G01 X30.2768 Y44.9517
G01 X30.3368 Y44.9802
G01 X30.3368 Y45.0543
G00 Z2.0000
G00 X30.3368 Y45.1773
G01 F60.00
G01 Z-0.0500
G01 F120.00
G01 X30.3368 Y45.2514
G01 X30.2768 Y45.2809
G01 X30.2768 Y45.3269
G01 X30.2168 Y45.3209
G01 X30.2168 Y45.3551
G01 X30.1568 Y45.3406
G01 X30.1568 Y45.3747
G00 Z2.0000
G00 X30.0968 Y45.3593
G01 F60.00
G01 Z-0.0500
G01 F120.00
G01 X30.0968 Y45.3924
G01 X30.0368 Y45.3924
G01 X30.0368 Y45.3599
G01 X29.9768 Y45.3599
G01 X29.9768 Y45.3924
G01 X29.9168 Y45.3924
G01 X29.9168 Y45.3599
G01 X29.8568 Y45.3599
G01 X29.8568 Y45.3924
G01 X29.7968 Y45.3924
G01 X29.7968 Y45.3599
G01 X29.7368 Y45.3599
G01 X29.7368 Y45.3924
G01 X29.7092 Y45.3599
G01 X29.7017 Y45.3594
G01 X29.6959 Y45.3584
G01 X29.6890 Y45.3564
G01 X29.6825 Y45.3536
G01 X29.6763 Y45.3501
G01 X29.6708 Y45.3460
G01 X29.6656 Y45.3411
G01 X29.6618 Y45.3366
G01 X29.6566 Y45.3286
G01 X29.6527 Y45.3201
G01 X29.6503 Y45.3111
G01 X29.6493 Y45.3016
G01 X29.6492 Y44.9342
G01 X29.6496 Y44.9279
G01 X29.6517 Y44.9173
G01 X29.6555 Y44.9075
G01 X29.6610 Y44.8985
G01 X29.6648 Y44.8939
G01 X29.6689 Y44.8898
G01 X29.6735 Y44.8860
G01 X29.6784 Y44.8828
G01 X29.6879 Y44.8782
G01 X29.6935 Y44.8763
G01 X29.6992 Y44.8751
G01 X29.7092 Y44.8742
G01 X30.0882 Y44.8742
G01 X30.0977 Y44.8750
G01 X30.1069 Y44.8772
G01 X30.2353 Y44.9194
G01 X30.2413 Y44.9218
G01 X30.2460 Y44.9244
G01 X30.2546 Y44.9306
G01 X30.2894 Y44.9638
G01 X30.2943 Y44.9696
G01 X30.2983 Y44.9757
G01 X30.3383 Y45.0575
G01 X30.3402 Y45.0626
G01 X30.3419 Y45.0689
G01 X30.3428 Y45.0743
G01 X30.3432 Y45.0813
G01 X30.3431 Y45.1541
G01 X30.3414 Y45.1649
G01 X30.3378 Y45.1751
G01 X30.2996 Y45.2534
G01 X30.2942 Y45.2624
G01 X30.2881 Y45.2696
G01 X30.2546 Y45.3029
G01 X30.2467 Y45.3091
G01 X30.2386 Y45.3134
G01 X30.2330 Y45.3156
G01 X30.1069 Y45.3569
G01 X30.0990 Y45.3589
G01 X30.0927 Y45.3597
G01 X29.7092 Y45.3599
G00 Z2.0000
G00 X29.6768 Y45.3504
G01 F60.00
G01 Z-0.0500
G01 F120.00
G01 X29.6768 Y45.3924
G01 X29.6168 Y45.3747
G01 X29.6171 Y45.3793
G01 X29.6187 Y45.3838
G01 X29.6216 Y45.3876
G01 X29.6254 Y45.3904
G01 X29.6298 Y45.3920
G01 X29.6345 Y45.3924
G01 X30.0988 Y45.3924
G01 X30.1021 Y45.3922
G01 X30.1069 Y45.3911
G01 X30.2590 Y45.3412
G01 X30.2631 Y45.3395
G01 X30.2678 Y45.3358
G01 X30.3189 Y45.2847
G01 X30.3223 Y45.2807
G01 X30.3734 Y45.1762
G01 X30.3754 Y45.1708
G01 X30.3757 Y45.1665
G01 X30.3757 Y45.0651
G01 X30.3750 Y45.0594
G01 X30.3734 Y45.0554
G01 X30.3238 Y44.9537
G01 X30.3217 Y44.9500
G01 X30.3189 Y44.9469
G01 X30.2675 Y44.8980
G01 X30.2630 Y44.8945
G01 X30.2591 Y44.8929
G01 X30.1113 Y44.8445
G01 X30.1045 Y44.8416
G01 X30.0984 Y44.8382
G01 X30.0921 Y44.8334
G01 X30.0863 Y44.8277
G01 X30.0820 Y44.8223
G01 X30.0779 Y44.8155
G01 X30.0746 Y44.8081
G01 X30.0727 Y44.8014
G01 X30.0714 Y44.7936
G01 X30.0712 Y44.7855
G01 X30.0721 Y44.7774
G01 X30.0739 Y44.7697
G01 X30.0764 Y44.7633
G01 X30.0799 Y44.7567
G01 X30.3724 Y44.2965
G01 X30.3745 Y44.2923
G01 X30.3754 Y44.2893
G01 X30.3756 Y44.2861
G01 X30.3752 Y44.2830
G01 X30.3742 Y44.2800
G01 X30.3727 Y44.2772
G01 X30.3706 Y44.2748
G01 X30.3681 Y44.2729
G01 X30.3653 Y44.2714
G01 X30.3622 Y44.2706
G01 X30.3591 Y44.2703
G01 X30.3559 Y44.2707
G01 X30.3529 Y44.2717
G01 X30.3502 Y44.2733
G01 X30.3478 Y44.2753
G01 X30.3450 Y44.2790
G01 X30.0033 Y44.8164
G01 X29.9987 Y44.8221
G01 X29.9935 Y44.8272
G01 X29.9879 Y44.8315
G01 X29.9817 Y44.8352
G01 X29.9750 Y44.8381
G01 X29.9680 Y44.8402
G01 X29.9621 Y44.8413
G01 X29.9543 Y44.8418
G01 X29.7038 Y44.8415
G01 X29.6971 Y44.8405
G01 X29.6902 Y44.8387
G01 X29.6836 Y44.8360
G01 X29.6773 Y44.8326
G01 X29.6716 Y44.8284
G01 X29.6665 Y44.8238
G01 X29.6618 Y44.8185
G01 X29.6578 Y44.8126
G01 X29.6540 Y44.8052
G01 X29.6513 Y44.7975
G01 X29.6499 Y44.7906
G01 X29.6493 Y44.7830
G01 X29.6491 Y44.2849
G01 X29.6479 Y44.2803
G01 X29.6455 Y44.2762
G01 X29.6420 Y44.2731
G01 X29.6377 Y44.2710
G01 X29.6330 Y44.2703
G01 X29.6283 Y44.2710
G01 X29.6240 Y44.2731
G01 X29.6216 Y44.2751
G01 X29.6196 Y44.2775
G01 X29.6175 Y44.2818
G01 X29.6168 Y44.2880
G01 X29.6168 Y45.3747
G00 Z2.0000
G00 X30.7461 Y45.2085
G01 F60.00
G01 Z-0.0500
G01 F120.00
G01 X30.7461 Y45.1721
G01 X30.8061 Y45.2028
G01 X30.8061 Y45.2436
G00 Z2.0000
G00 X30.7887 Y45.2303
G01 F60.00
G01 Z-0.0500
G01 F120.00
G01 X30.7965 Y45.2351
G01 X30.8025 Y45.2401
G01 X30.9538 Y45.3887
G01 X30.9564 Y45.3905
G01 X30.9594 Y45.3917
G01 X30.9625 Y45.3922
G01 X30.9656 Y45.3922
G01 X30.9687 Y45.3916
G01 X30.9716 Y45.3904
G01 X30.9743 Y45.3886
G01 X30.9765 Y45.3864
G01 X30.9782 Y45.3837
G01 X30.9794 Y45.3808
G01 X30.9802 Y45.3747
G01 X30.9802 Y44.2880
G01 X30.9794 Y44.2818
G01 X30.9782 Y44.2789
G01 X30.9765 Y44.2762
G01 X30.9742 Y44.2740
G01 X30.9716 Y44.2722
G01 X30.9671 Y44.2706
G01 X30.9624 Y44.2704
G01 X30.9593 Y44.2710
G01 X30.9563 Y44.2722
G01 X30.9537 Y44.2740
G01 X30.9515 Y44.2762
G01 X30.9490 Y44.2803
G01 X30.9481 Y44.2833
G01 X30.9477 Y44.2880
G01 X30.9477 Y45.1942
G01 X30.9475 Y45.1996
G01 X30.9467 Y45.2054
G01 X30.9453 Y45.2111
G01 X30.9434 Y45.2166
G01 X30.9409 Y45.2219
G01 X30.9379 Y45.2270
G01 X30.9345 Y45.2318
G01 X30.9306 Y45.2361
G01 X30.9263 Y45.2401
G01 X30.9216 Y45.2437
G01 X30.9166 Y45.2468
G01 X30.9114 Y45.2493
G01 X30.9059 Y45.2514
G01 X30.9002 Y45.2529
G01 X30.8944 Y45.2538
G01 X30.8885 Y45.2542
G01 X30.8827 Y45.2540
G01 X30.8769 Y45.2532
G01 X30.8702 Y45.2516
G01 X30.8636 Y45.2491
G01 X30.8573 Y45.2459
G01 X30.8523 Y45.2427
G01 X30.8465 Y45.2378
G01 X30.8190 Y45.2107
G01 X30.8153 Y45.2076
G01 X30.7111 Y45.1541
G01 X30.7052 Y45.1520
G01 X30.7021 Y45.1517
G01 X30.6989 Y45.1521
G01 X30.6945 Y45.1537
G01 X30.6919 Y45.1556
G01 X30.6897 Y45.1578
G01 X30.6880 Y45.1605
G01 X30.6868 Y45.1634
G01 X30.6862 Y45.1666
G01 X30.6863 Y45.1697
G01 X30.6870 Y45.1728
G01 X30.6882 Y45.1757
G01 X30.6900 Y45.1783
G01 X30.6923 Y45.1805
G01 X30.6963 Y45.1830
G01 X30.7887 Y45.2303
G00 Z2.0000
G00 X30.8661 Y45.2502
G01 F60.00
G01 Z-0.0500
G01 F120.00
G01 X30.8661 Y45.3027
G01 X30.9261 Y45.3617
G01 X30.9261 Y45.2403
G00 Z2.0000
G00 X29.2639 Y43.3220
G01 F60.00
G01 Z-0.0500
G01 F120.00
G01 X29.2963 Y43.3220
G01 X29.2963 Y43.2620
G01 X29.2639 Y43.2620
G01 X29.2639 Y43.2020
G01 X29.2963 Y43.2020
G01 X29.2963 Y43.1420
G01 X29.2639 Y43.1420
G01 X29.2639 Y43.0820
G01 X29.2963 Y43.0820
G01 X29.2963 Y43.0220
G01 X29.2639 Y43.0220
G01 X29.2639 Y42.9620
G01 X29.2963 Y42.9620
G01 X29.2963 Y42.9020
G01 X29.2639 Y42.9020
G01 X29.2639 Y42.8420
G01 X29.2963 Y42.8420
G01 X29.2963 Y42.7820
G01 X29.2639 Y42.7820
G01 X29.2639 Y42.7220
G01 X29.2963 Y42.7220
G01 X29.2963 Y42.6620
G01 X29.2639 Y42.6620
G01 X29.2639 Y42.6020
G01 X29.2963 Y42.6020
G01 X29.2963 Y42.5420
G01 X29.2639 Y42.5420
G01 X29.2639 Y42.4820
G01 X29.2963 Y42.4820
G01 X29.2963 Y42.4220
G01 X29.2639 Y42.4220
G01 X29.2639 Y42.3620
G01 X29.2963 Y42.3620
G01 X29.2963 Y42.3020
G01 X29.2639 Y42.3020
G01 X29.2639 Y42.2420
G01 X29.2963 Y42.2420
G01 X29.2963 Y42.1820
G01 X29.2639 Y42.1820
G00 Z2.0000
G00 X29.2525 Y42.1220
G01 F60.00
G01 Z-0.0500
G01 F120.00
G01 X29.2963 Y42.1220
G01 X29.2963 Y42.0823
G01 X29.2962 Y42.0793
G01 X29.2956 Y42.0762
G01 X29.2944 Y42.0732
G01 X29.2915 Y42.0694
G01 X29.2891 Y42.0674
G01 X29.2848 Y42.0654
G01 X29.2786 Y42.0646
G01 X27.4474 Y42.0646
G01 X27.4412 Y42.0654
G01 X27.4369 Y42.0674
G01 X27.4345 Y42.0694
G01 X27.4317 Y42.0732
G01 X27.4301 Y42.0777
G01 X27.4297 Y42.0823
G01 X27.4297 Y43.3643
G01 X27.4304 Y43.3705
G01 X27.4325 Y43.3748
G01 X27.4357 Y43.3783
G01 X27.4397 Y43.3807
G01 X27.4443 Y43.3819
G01 X27.4475 Y43.3819
G01 X27.4506 Y43.3813
G01 X27.4549 Y43.3792
G01 X27.4573 Y43.3772
G01 X27.4594 Y43.3748
G01 X27.4614 Y43.3705
G01 X27.4621 Y43.3643
G01 X27.4622 Y42.1559
G01 X27.4626 Y42.1495
G01 X27.4639 Y42.1425
G01 X27.4661 Y42.1357
G01 X27.4690 Y42.1293
G01 X27.4725 Y42.1234
G01 X27.4769 Y42.1177
G01 X27.4819 Y42.1126
G01 X27.4874 Y42.1082
G01 X27.4954 Y42.1034
G01 X27.5031 Y42.1002
G01 X27.5121 Y42.0979
G01 X27.5221 Y42.0971
G01 X29.2039 Y42.0971
G01 X29.2139 Y42.0979
G01 X29.2196 Y42.0992
G01 X29.2252 Y42.1010
G01 X29.2306 Y42.1034
G01 X29.2358 Y42.1063
G01 X29.2406 Y42.1096
G01 X29.2451 Y42.1135
G01 X29.2521 Y42.1214
G01 X29.2553 Y42.1263
G01 X29.2581 Y42.1314
G01 X29.2604 Y42.1369
G01 X29.2621 Y42.1425
G01 X29.2637 Y42.1529
G01 X29.2639 Y43.3643
G01 X29.2642 Y43.3690
G01 X29.2658 Y43.3734
G01 X29.2687 Y43.3772
G01 X29.2725 Y43.3801
G01 X29.2769 Y43.3817
G01 X29.2801 Y43.3820
G01 X29.2848 Y43.3813
G01 X29.2891 Y43.3792
G01 X29.2915 Y43.3772
G01 X29.2944 Y43.3734
G01 X29.2960 Y43.3690
G01 X29.2963 Y43.3643
G01 X29.2963 Y42.0823
G00 Z2.0000
G00 X28.2750 Y41.3811
G01 F60.00
G01 Z-0.0500
G01 F120.00
G01 X28.3451 Y41.3811
G01 X28.3451 Y41.2811
G01 X28.2909 Y41.2811
G01 X28.2909 Y41.1811
G01 X28.3451 Y41.1811
G01 X28.3451 Y41.0811
G01 X28.2909 Y41.0811
G01 X28.2909 Y40.9811
G01 X28.3451 Y40.9811
G00 Z2.0000
G00 X27.4735 Y42.1220
G01 F60.00
G01 Z-0.0500
G01 F120.00
G01 X27.4297 Y42.1220
G00 Z2.0000
G00 X27.4621 Y42.1820
G01 F60.00
G01 Z-0.0500
G01 F120.00
G01 X27.4297 Y42.1820
G01 X27.4297 Y42.2420
G01 X27.4621 Y42.2420
G01 X27.4621 Y42.3020
G01 X27.4297 Y42.3020
G01 X27.4297 Y42.3620
G01 X27.4621 Y42.3620
G01 X27.4621 Y42.4220
G01 X27.4297 Y42.4220
G01 X27.4297 Y42.4820
G01 X27.4621 Y42.4820
G01 X27.4621 Y42.5420
G01 X27.4297 Y42.5420
G01 X27.4297 Y42.6020
G01 X27.4621 Y42.6020
G01 X27.4621 Y42.6620
G01 X27.4297 Y42.6620
G01 X27.4297 Y42.7220
G01 X27.4621 Y42.7220
G01 X27.4621 Y42.7820
G01 X27.4297 Y42.7820
G01 X27.4297 Y42.8420
G01 X27.4621 Y42.8420
G01 X27.4621 Y42.9020
G01 X27.4297 Y42.9020
G01 X27.4297 Y42.9620
G01 X27.4621 Y42.9620
G01 X27.4621 Y43.0220
G01 X27.4297 Y43.0220
G01 X27.4297 Y43.0820
G01 X27.4621 Y43.0820
G01 X27.4621 Y43.1420
G01 X27.4297 Y43.1420
G01 X27.4297 Y43.2020
G01 X27.4621 Y43.2020
G01 X27.4621 Y43.2620
G01 X27.4297 Y43.2620
G01 X27.4297 Y43.3220
G01 X27.4621 Y43.3220
G00 Z2.0000
G00 X26.6736 Y43.3961
G01 F60.00
G01 Z-0.0500
G01 F120.00
G01 X26.6194 Y43.3961
G01 X26.6201 Y43.2961
G01 X26.6743 Y43.2961
G01 X26.6749 Y43.1961
G01 X26.6208 Y43.1961
G01 X26.6215 Y43.0961
G01 X26.6756 Y43.0961
G01 X26.6763 Y42.9961
G01 X26.6221 Y42.9961
G01 X26.6228 Y42.8961
G01 X26.6769 Y42.8961
G01 X26.6776 Y42.7961
G01 X26.6235 Y42.7961
G01 X26.6242 Y42.6961
G01 X26.6783 Y42.6961
G01 X26.6790 Y42.5961
G01 X26.6248 Y42.5961
G01 X26.6255 Y42.4961
G01 X26.6796 Y42.4961
G01 X26.6803 Y42.3961
G01 X26.6262 Y42.3961
G01 X26.6269 Y42.2961
G01 X26.6810 Y42.2961
G01 X26.6817 Y42.1961
G01 X26.6275 Y42.1961
G00 Z2.0000
G00 X26.1950 Y43.6960
G01 F60.00
G01 Z-0.0500
G01 F120.00
G01 X25.1970 Y43.6960
G01 X25.1985 Y43.6419
G01 X26.1935 Y43.6419
G01 X26.2013 Y43.6426
G01 X26.2063 Y43.6441
G01 X26.2110 Y43.6466
G01 X26.2131 Y43.6482
G01 X26.2168 Y43.6519
G01 X26.2198 Y43.6563
G01 X26.2218 Y43.6612
G01 X26.2224 Y43.6637
G01 X26.2228 Y43.6664
G01 X26.2228 Y43.6716
G01 X26.2224 Y43.6743
G01 X26.2209 Y43.6793
G01 X26.2198 Y43.6817
G01 X26.2168 Y43.6861
G01 X26.2131 Y43.6898
G01 X26.2110 Y43.6914
G01 X26.2063 Y43.6939
G01 X26.2013 Y43.6954
G01 X26.1986 Y43.6958
G01 X26.1935 Y43.6961
G01 X25.8119 Y43.6963
G01 X25.8033 Y43.6971
G01 X25.7937 Y43.6991
G01 X25.7843 Y43.7019
G01 X25.7753 Y43.7057
G01 X25.7666 Y43.7103
G01 X25.7594 Y43.7150
G01 X25.7518 Y43.7212
G01 X25.7464 Y43.7262
G01 X25.7407 Y43.7326
G01 X25.7349 Y43.7405
G01 X25.7298 Y43.7489
G01 X25.7261 Y43.7567
G01 X25.7227 Y43.7659
G01 X25.7207 Y43.7730
G01 X25.7191 Y43.7814
G01 X25.7181 Y43.7909
G01 X25.7178 Y44.1716
G01 X25.7167 Y44.1768
G01 X25.7147 Y44.1817
G01 X25.7118 Y44.1861
G01 X25.7080 Y44.1898
G01 X25.7037 Y44.1928
G01 X25.6988 Y44.1948
G01 X25.6936 Y44.1958
G01 X25.6883 Y44.1958
G01 X25.6831 Y44.1948
G01 X25.6782 Y44.1928
G01 X25.6739 Y44.1898
G01 X25.6719 Y44.1880
G01 X25.6685 Y44.1840
G01 X25.6661 Y44.1793
G01 X25.6645 Y44.1742
G01 X25.6641 Y44.1716
G01 X25.6638 Y43.7909
G01 X25.6628 Y43.7814
G01 X25.6612 Y43.7730
G01 X25.6592 Y43.7659
G01 X25.6563 Y43.7578
G01 X25.6526 Y43.7500
G01 X25.6490 Y43.7436
G01 X25.6442 Y43.7365
G01 X25.6380 Y43.7289
G01 X25.6310 Y43.7220
G01 X25.6235 Y43.7157
G01 X25.6153 Y43.7103
G01 X25.6077 Y43.7062
G01 X25.5987 Y43.7023
G01 X25.5894 Y43.6994
G01 X25.5822 Y43.6978
G01 X25.5725 Y43.6964
G01 X25.5639 Y43.6961
G01 X25.1985 Y43.6961
G01 X25.1934 Y43.6958
G01 X25.1908 Y43.6954
G01 X25.1857 Y43.6939
G01 X25.1810 Y43.6914
G01 X25.1770 Y43.6881
G01 X25.1736 Y43.6840
G01 X25.1722 Y43.6817
G01 X25.1702 Y43.6768
G01 X25.1692 Y43.6716
G01 X25.1692 Y43.6664
G01 X25.1702 Y43.6612
G01 X25.1722 Y43.6563
G01 X25.1752 Y43.6519
G01 X25.1789 Y43.6482
G01 X25.1833 Y43.6452
G01 X25.1882 Y43.6432
G01 X25.1934 Y43.6422
G01 X25.1985 Y43.6419
G00 Z2.0000
G00 X25.7180 Y43.7960
G01 F60.00
G01 Z-0.0500
G01 F120.00
G01 X25.6639 Y43.7960
G00 Z2.0000
G00 X25.6639 Y43.8960
G01 F60.00
G01 Z-0.0500
G01 F120.00
G01 X25.7180 Y43.8960
G01 X25.7180 Y43.9960
G01 X25.6639 Y43.9960
G01 X25.6639 Y44.0960
G01 X25.7180 Y44.0960
G00 Z2.0000
G00 X24.7831 Y43.2961
G01 F60.00
G01 Z-0.0500
G01 F120.00
G01 X24.7289 Y43.2961
G01 X24.7289 Y43.1961
G01 X24.7831 Y43.1961
G01 X24.7831 Y43.0961
G01 X24.7289 Y43.0961
G01 X24.7289 Y42.9961
G01 X24.7831 Y42.9961
G01 X24.7831 Y42.8961
G01 X24.7289 Y42.8961
G01 X24.7289 Y42.7961
G01 X24.7831 Y42.7961
G01 X24.7831 Y42.6961
G01 X24.7289 Y42.6961
G01 X24.7289 Y42.5961
G01 X24.7831 Y42.5961
G01 X24.7831 Y42.4961
G01 X24.7289 Y42.4961
G01 X24.7289 Y42.3961
G01 X24.7831 Y42.3961
G01 X24.7831 Y42.2961
G01 X24.7289 Y42.2961
G01 X24.7289 Y42.1961
G01 X24.7831 Y42.1961
G00 Z2.0000
G00 X24.7851 Y42.0961
G01 F60.00
G01 Z-0.0500
G01 F120.00
G01 X24.7289 Y42.0961
G00 Z2.0000
G00 X24.7289 Y41.9910
G01 F60.00
G01 Z-0.0500
G01 F120.00
G01 X24.7289 Y43.3265
G01 X24.7296 Y43.3342
G01 X24.7311 Y43.3393
G01 X24.7336 Y43.3440
G01 X24.7369 Y43.3480
G01 X24.7410 Y43.3514
G01 X24.7457 Y43.3539
G01 X24.7507 Y43.3554
G01 X24.7560 Y43.3559
G01 X24.7613 Y43.3554
G01 X24.7663 Y43.3539
G01 X24.7710 Y43.3514
G01 X24.7751 Y43.3480
G01 X24.7784 Y43.3440
G01 X24.7809 Y43.3393
G01 X24.7824 Y43.3342
G01 X24.7831 Y43.3265
G01 X24.7832 Y42.1108
G01 X24.7843 Y42.1002
G01 X24.7870 Y42.0882
G01 X24.7907 Y42.0778
G01 X24.7949 Y42.0689
G01 X24.8006 Y42.0595
G01 X24.8082 Y42.0498
G01 X24.8159 Y42.0420
G01 X24.8245 Y42.0350
G01 X24.8317 Y42.0303
G01 X24.8392 Y42.0262
G01 X24.8448 Y42.0237
G01 X24.8529 Y42.0207
G01 X24.8600 Y42.0188
G01 X24.8684 Y42.0171
G01 X24.8824 Y42.0161
G01 X26.5281 Y42.0161
G01 X26.5379 Y42.0165
G01 X26.5465 Y42.0178
G01 X26.5537 Y42.0194
G01 X26.5619 Y42.0219
G01 X26.5699 Y42.0252
G01 X26.5765 Y42.0286
G01 X26.5838 Y42.0330
G01 X26.5908 Y42.0382
G01 X26.5990 Y42.0456
G01 X26.6056 Y42.0529
G01 X26.6115 Y42.0608
G01 X26.6170 Y42.0704
G01 X26.6211 Y42.0794
G01 X26.6249 Y42.0911
G01 X26.6271 Y42.1020
G01 X26.6280 Y42.1124
G01 X26.6190 Y43.4664
G01 X26.6196 Y43.4741
G01 X26.6211 Y43.4792
G01 X26.6235 Y43.4839
G01 X26.6268 Y43.4880
G01 X26.6309 Y43.4914
G01 X26.6355 Y43.4939
G01 X26.6406 Y43.4955
G01 X26.6458 Y43.4960
G01 X26.6511 Y43.4955
G01 X26.6562 Y43.4940
G01 X26.6608 Y43.4916
G01 X26.6649 Y43.4882
G01 X26.6683 Y43.4842
G01 X26.6708 Y43.4795
G01 X26.6724 Y43.4745
G01 X26.6731 Y43.4668
G01 X26.6830 Y41.9916
G01 X26.6825 Y41.9839
G01 X26.6810 Y41.9788
G01 X26.6775 Y41.9728
G01 X26.6732 Y41.9683
G01 X26.6689 Y41.9653
G01 X26.6640 Y41.9633
G01 X26.6588 Y41.9622
G01 X26.6544 Y41.9619
G01 X24.7584 Y41.9619
G01 X24.7533 Y41.9622
G01 X24.7482 Y41.9632
G01 X24.7433 Y41.9652
G01 X24.7389 Y41.9682
G01 X24.7352 Y41.9719
G01 X24.7322 Y41.9763
G01 X24.7302 Y41.9812
G01 X24.7292 Y41.9863
G01 X24.7289 Y41.9910
G01 X24.7289 Y41.9961
G01 X26.6830 Y41.9961
G01 X26.6823 Y42.0961
G01 X26.6261 Y42.0961
G00 Z2.0000
G00 X24.0893 Y42.0823
G01 F60.00
G01 Z-0.0500
G01 F120.00
G01 X24.0893 Y43.3643
G01 X24.0890 Y43.3690
G01 X24.0874 Y43.3734
G01 X24.0845 Y43.3772
G01 X24.0821 Y43.3792
G01 X24.0793 Y43.3807
G01 X24.0747 Y43.3819
G01 X24.0699 Y43.3817
G01 X24.0655 Y43.3801
G01 X24.0617 Y43.3772
G01 X24.0588 Y43.3734
G01 X24.0572 Y43.3690
G01 X24.0569 Y43.3643
G01 X24.0567 Y42.1529
G01 X24.0551 Y42.1425
G01 X24.0534 Y42.1369
G01 X24.0511 Y42.1314
G01 X24.0483 Y42.1263
G01 X24.0451 Y42.1214
G01 X24.0381 Y42.1135
G01 X24.0336 Y42.1096
G01 X24.0288 Y42.1063
G01 X24.0236 Y42.1034
G01 X24.0182 Y42.1010
G01 X24.0126 Y42.0992
G01 X24.0069 Y42.0979
G01 X23.9969 Y42.0971
G01 X22.3151 Y42.0971
G01 X22.3051 Y42.0979
G01 X22.2961 Y42.1002
G01 X22.2884 Y42.1034
G01 X22.2804 Y42.1082
G01 X22.2749 Y42.1126
G01 X22.2699 Y42.1177
G01 X22.2655 Y42.1234
G01 X22.2620 Y42.1293
G01 X22.2591 Y42.1357
G01 X22.2569 Y42.1425
G01 X22.2556 Y42.1495
G01 X22.2552 Y42.1559
G01 X22.2551 Y43.3643
G01 X22.2544 Y43.3705
G01 X22.2524 Y43.3748
G01 X22.2503 Y43.3772
G01 X22.2479 Y43.3792
G01 X22.2436 Y43.3813
G01 X22.2405 Y43.3819
G01 X22.2373 Y43.3819
G01 X22.2327 Y43.3807
G01 X22.2287 Y43.3783
G01 X22.2255 Y43.3748
G01 X22.2234 Y43.3705
G01 X22.2227 Y43.3643
G01 X22.2227 Y42.0823
G01 X22.2231 Y42.0777
G01 X22.2247 Y42.0732
G01 X22.2275 Y42.0694
G01 X22.2299 Y42.0674
G01 X22.2342 Y42.0654
G01 X22.2404 Y42.0646
G01 X24.0716 Y42.0646
G01 X24.0778 Y42.0654
G01 X24.0821 Y42.0674
G01 X24.0856 Y42.0706
G01 X24.0874 Y42.0732
G01 X24.0886 Y42.0762
G01 X24.0892 Y42.0793
G01 X24.0893 Y42.0823
G01 X24.0893 Y42.1220
G01 X24.0455 Y42.1220
G00 Z2.0000
G00 X24.0569 Y42.1820
G01 F60.00
G01 Z-0.0500
G01 F120.00
G01 X24.0893 Y42.1820
G01 X24.0893 Y42.2420
G01 X24.0569 Y42.2420
G01 X24.0569 Y42.3020
G01 X24.0893 Y42.3020
G01 X24.0893 Y42.3620
G01 X24.0569 Y42.3620
G01 X24.0569 Y42.4220
G01 X24.0893 Y42.4220
G01 X24.0893 Y42.4820
G01 X24.0569 Y42.4820
G01 X24.0569 Y42.5420
G01 X24.0893 Y42.5420
G01 X24.0893 Y42.6020
G01 X24.0569 Y42.6020
G01 X24.0569 Y42.6620
G01 X24.0893 Y42.6620
G01 X24.0893 Y42.7220
G01 X24.0569 Y42.7220
G01 X24.0569 Y42.7820
G01 X24.0893 Y42.7820
G01 X24.0893 Y42.8420
G01 X24.0569 Y42.8420
G01 X24.0569 Y42.9020
G01 X24.0893 Y42.9020
G01 X24.0893 Y42.9620
G01 X24.0569 Y42.9620
G01 X24.0569 Y43.0220
G01 X24.0893 Y43.0220
G01 X24.0893 Y43.0820
G01 X24.0569 Y43.0820
G01 X24.0569 Y43.1420
G01 X24.0893 Y43.1420
G01 X24.0893 Y43.2020
G01 X24.0569 Y43.2020
G01 X24.0569 Y43.2620
G01 X24.0893 Y43.2620
G01 X24.0893 Y43.3220
G01 X24.0569 Y43.3220
G00 Z2.0000
G00 X28.2909 Y37.4663
G01 F60.00
G01 Z-0.0500
G01 F120.00
G01 X28.3451 Y37.4663
G01 X28.3451 Y37.3663
G01 X28.2909 Y37.3663
G01 X28.2909 Y37.2663
G01 X28.3451 Y37.2663
G01 X28.3451 Y37.1663
G01 X28.2898 Y37.1663
G00 Z2.0000
G00 X29.0061 Y33.1175
G01 F60.00
G01 Z-0.0500
G01 F120.00
G01 X29.0520 Y33.1175
G01 X29.0661 Y33.0575
G01 X29.1120 Y33.0575
G01 X29.1261 Y32.9975
G01 X29.1720 Y32.9975
G01 X29.1861 Y32.9375
G01 X29.2320 Y32.9375
G01 X29.2340 Y32.8775
G01 X29.2682 Y32.8775
G01 X29.2682 Y32.8175
G01 X29.2358 Y32.8175
G01 X29.2358 Y32.7575
G01 X29.2682 Y32.7575
G01 X29.2682 Y32.6975
G01 X29.2358 Y32.6975
G01 X29.2358 Y32.6375
G01 X29.2682 Y32.6375
G01 X29.2682 Y32.5775
G01 X29.2358 Y32.5775
G01 X29.2358 Y32.5175
G01 X29.2682 Y32.5175
G01 X29.2682 Y32.4575
G01 X29.2358 Y32.4575
G01 X29.2358 Y32.3975
G01 X29.2682 Y32.3975
G01 X29.2682 Y32.3375
G01 X29.2358 Y32.3375
G01 X29.2358 Y32.2775
G01 X29.2682 Y32.2775
G01 X29.2682 Y32.2175
G01 X29.2358 Y32.2175
G01 X29.2358 Y32.1575
G01 X29.2682 Y32.1575
G01 X29.2682 Y32.0975
G01 X29.2358 Y32.0975
G01 X29.2358 Y32.0375
G01 X29.2682 Y32.0375
G01 X29.2682 Y31.9775
G01 X29.2358 Y31.9775
G01 X29.2358 Y31.9175
G01 X29.2682 Y31.9175
G01 X29.2682 Y31.8575
G01 X29.2358 Y31.8575
G01 X29.2358 Y31.7975
G01 X29.2682 Y31.7975
G01 X29.2682 Y31.7375
G01 X29.2358 Y31.7375
G01 X29.2358 Y31.6775
G01 X29.2682 Y31.6775
G01 X29.2682 Y31.6175
G01 X29.2358 Y31.6175
G01 X29.2358 Y31.5575
G01 X29.2682 Y31.5575
G00 Z2.0000
G00 X29.4898 Y30.2617
G01 F60.00
G01 Z-0.0500
G01 F120.00
G01 X29.4898 Y29.1750
G01 X29.4898 Y30.2617
G01 X29.4901 Y30.2663
G01 X29.4911 Y30.2693
G01 X29.4926 Y30.2721
G01 X29.4946 Y30.2746
G01 X29.4970 Y30.2766
G01 X29.4998 Y30.2781
G01 X29.5028 Y30.2790
G01 X29.5060 Y30.2793
G01 X29.5092 Y30.2790
G01 X29.5122 Y30.2781
G01 X29.5150 Y30.2766
G01 X29.5174 Y30.2746
G01 X29.5194 Y30.2721
G01 X29.5209 Y30.2693
G01 X29.5219 Y30.2663
G01 X29.5222 Y30.2617
G01 X29.5222 Y29.2497
G01 X29.5227 Y29.2422
G01 X29.5243 Y29.2340
G01 X29.5266 Y29.2272
G01 X29.5302 Y29.2200
G01 X29.5340 Y29.2140
G01 X29.5386 Y29.2085
G01 X29.5438 Y29.2037
G01 X29.5503 Y29.1989
G01 X29.5566 Y29.1955
G01 X29.5632 Y29.1928
G01 X29.5701 Y29.1910
G01 X29.5781 Y29.1899
G01 X30.1268 Y29.1897
G01 X30.1315 Y29.1894
G01 X30.1345 Y29.1884
G01 X30.1373 Y29.1869
G01 X30.1397 Y29.1849
G01 X30.1417 Y29.1825
G01 X30.1432 Y29.1797
G01 X30.1442 Y29.1767
G01 X30.1445 Y29.1735
G01 X30.1442 Y29.1703
G01 X30.1432 Y29.1673
G01 X30.1417 Y29.1645
G01 X30.1397 Y29.1621
G01 X30.1373 Y29.1601
G01 X30.1345 Y29.1586
G01 X30.1315 Y29.1576
G01 X30.1268 Y29.1573
G01 X29.5075 Y29.1573
G01 X29.5028 Y29.1576
G01 X29.4984 Y29.1592
G01 X29.4946 Y29.1621
G01 X29.4917 Y29.1659
G01 X29.4901 Y29.1703
G01 X29.4898 Y29.1750
G01 X29.5498 Y29.1573
G01 X29.5498 Y29.1993
G00 Z2.0000
G00 X29.6098 Y29.1897
G01 F60.00
G01 Z-0.0500
G01 F120.00
G01 X29.6098 Y29.1573
G01 X29.6698 Y29.1573
G01 X29.6698 Y29.1897
G01 X29.7298 Y29.1897
G01 X29.7298 Y29.1573
G01 X29.7898 Y29.1573
G01 X29.7898 Y29.1897
G01 X29.8498 Y29.1897
G01 X29.8498 Y29.1573
G01 X29.9098 Y29.1573
G01 X29.9098 Y29.1897
G01 X29.9698 Y29.1897
G01 X29.9698 Y29.1573
G01 X30.0298 Y29.1573
G01 X30.0298 Y29.1897
G01 X30.0898 Y29.1897
G01 X30.0898 Y29.1573
G00 Z2.0000
G00 X30.5150 Y30.0956
G01 F60.00
G01 Z-0.0500
G01 F120.00
G01 X30.5150 Y30.0591
G01 X30.5750 Y30.0898
G01 X30.5750 Y30.1307
G00 Z2.0000
G00 X30.5576 Y30.1173
G01 F60.00
G01 Z-0.0500
G01 F120.00
G01 X30.5653 Y30.1221
G01 X30.5714 Y30.1271
G01 X30.7227 Y30.2757
G01 X30.7253 Y30.2775
G01 X30.7282 Y30.2787
G01 X30.7313 Y30.2793
G01 X30.7345 Y30.2792
G01 X30.7376 Y30.2786
G01 X30.7405 Y30.2774
G01 X30.7431 Y30.2756
G01 X30.7453 Y30.2734
G01 X30.7471 Y30.2708
G01 X30.7483 Y30.2678
G01 X30.7491 Y30.2617
G01 X30.7491 Y29.1750
G01 X30.7483 Y29.1688
G01 X30.7471 Y29.1659
G01 X30.7453 Y29.1632
G01 X30.7418 Y29.1601
G01 X30.7390 Y29.1586
G01 X30.7360 Y29.1576
G01 X30.7328 Y29.1573
G01 X30.7297 Y29.1576
G01 X30.7266 Y29.1586
G01 X30.7226 Y29.1610
G01 X30.7194 Y29.1645
G01 X30.7179 Y29.1673
G01 X30.7170 Y29.1703
G01 X30.7166 Y29.1750
G01 X30.7166 Y30.0812
G01 X30.7163 Y30.0866
G01 X30.7155 Y30.0924
G01 X30.7141 Y30.0981
G01 X30.7122 Y30.1036
G01 X30.7098 Y30.1089
G01 X30.7068 Y30.1140
G01 X30.7034 Y30.1188
G01 X30.6995 Y30.1231
G01 X30.6952 Y30.1271
G01 X30.6905 Y30.1307
G01 X30.6855 Y30.1338
G01 X30.6802 Y30.1363
G01 X30.6747 Y30.1384
G01 X30.6690 Y30.1399
G01 X30.6633 Y30.1408
G01 X30.6574 Y30.1412
G01 X30.6515 Y30.1410
G01 X30.6457 Y30.1402
G01 X30.6391 Y30.1386
G01 X30.6324 Y30.1361
G01 X30.6261 Y30.1329
G01 X30.6212 Y30.1297
G01 X30.6154 Y30.1248
G01 X30.5878 Y30.0977
G01 X30.5841 Y30.0947
G01 X30.4799 Y30.0411
G01 X30.4741 Y30.0390
G01 X30.4709 Y30.0387
G01 X30.4678 Y30.0391
G01 X30.4648 Y30.0401
G01 X30.4620 Y30.0416
G01 X30.4585 Y30.0448
G01 X30.4568 Y30.0475
G01 X30.4557 Y30.0505
G01 X30.4551 Y30.0536
G01 X30.4552 Y30.0567
G01 X30.4558 Y30.0598
G01 X30.4571 Y30.0627
G01 X30.4589 Y30.0654
G01 X30.4612 Y30.0676
G01 X30.4651 Y30.0700
G01 X30.5576 Y30.1173
G00 Z2.0000
G00 X30.6350 Y30.1372
G01 F60.00
G01 Z-0.0500
G01 F120.00
G01 X30.6350 Y30.1897
G01 X30.6950 Y30.2487
G01 X30.6950 Y30.1273
G00 Z2.0000
G00 X29.2358 Y30.2091
G01 F60.00
G01 Z-0.0500
G01 F120.00
G01 X29.2682 Y30.2091
G01 X29.2682 Y30.1491
G01 X29.2358 Y30.1491
G01 X29.2358 Y30.0891
G01 X29.2682 Y30.0891
G01 X29.2682 Y30.0291
G01 X29.2358 Y30.0291
G01 X29.2358 Y29.9691
G01 X29.2682 Y29.9691
G01 X29.2682 Y29.9091
G01 X29.2358 Y29.9091
G01 X29.2358 Y29.8491
G01 X29.2682 Y29.8491
G01 X29.2682 Y29.7891
G01 X29.2358 Y29.7891
G01 X29.2358 Y29.7291
G01 X29.2682 Y29.7291
G01 X29.2682 Y29.6691
G01 X29.2358 Y29.6691
G01 X29.2358 Y29.6091
G01 X29.2682 Y29.6091
G01 X29.2682 Y29.5491
G01 X29.2358 Y29.5491
G01 X29.2358 Y29.4891
G01 X29.2682 Y29.4891
G01 X29.2682 Y29.4291
G01 X29.2358 Y29.4291
G01 X29.2358 Y29.3691
G01 X29.2682 Y29.3691
G01 X29.2682 Y29.3091
G01 X29.2358 Y29.3091
G01 X29.2358 Y29.2491
G01 X29.2682 Y29.2491
G01 X29.2682 Y29.1891
G01 X29.2358 Y29.1891
G01 X29.2358 Y29.1291
G01 X29.2682 Y29.1291
G01 X29.2682 Y29.0691
G01 X29.2358 Y29.0691
G01 X29.2358 Y29.0091
G01 X29.2682 Y29.0091
G01 X29.2682 Y28.9491
G01 X29.2358 Y28.9491
G01 X29.2358 Y28.8891
G01 X29.2682 Y28.8891
G01 X29.2682 Y28.8574
G01 X29.2681 Y28.8543
G01 X29.2675 Y28.8512
G01 X29.2663 Y28.8483
G01 X29.2624 Y28.8434
G01 X29.0232 Y28.6041
G01 X29.0197 Y28.6011
G01 X29.0154 Y28.5991
G01 X29.0092 Y28.5983
G01 X26.9548 Y28.5983
G01 X26.9501 Y28.5987
G01 X26.9471 Y28.5996
G01 X26.9443 Y28.6011
G01 X26.9408 Y28.6041
G01 X26.6762 Y28.8688
G01 X26.6724 Y28.8737
G01 X26.6708 Y28.8781
G01 X26.6704 Y28.8828
G01 X26.6705 Y30.2545
G01 X26.6711 Y30.2576
G01 X26.6724 Y30.2605
G01 X26.6741 Y30.2631
G01 X26.6764 Y30.2654
G01 X26.6790 Y30.2671
G01 X26.6819 Y30.2683
G01 X26.6850 Y30.2690
G01 X26.6882 Y30.2690
G01 X26.6913 Y30.2683
G01 X26.6942 Y30.2671
G01 X26.6969 Y30.2654
G01 X26.6991 Y30.2631
G01 X26.7009 Y30.2605
G01 X26.7021 Y30.2576
G01 X26.7028 Y30.2514
G01 X26.7028 Y28.9129
G01 X26.7037 Y28.9028
G01 X26.7060 Y28.8938
G01 X26.7091 Y28.8861
G01 X26.7139 Y28.8781
G01 X26.7192 Y28.8717
G01 X26.9425 Y28.6484
G01 X26.9501 Y28.6419
G01 X26.9581 Y28.6371
G01 X26.9658 Y28.6339
G01 X26.9749 Y28.6317
G01 X26.9849 Y28.6308
G01 X28.9791 Y28.6308
G01 X28.9845 Y28.6311
G01 X28.9904 Y28.6319
G01 X28.9961 Y28.6333
G01 X29.0016 Y28.6352
G01 X29.0110 Y28.6400
G01 X29.0158 Y28.6434
G01 X29.0207 Y28.6475
G01 X29.2194 Y28.8463
G01 X29.2247 Y28.8527
G01 X29.2295 Y28.8607
G01 X29.2327 Y28.8684
G01 X29.2349 Y28.8774
G01 X29.2358 Y28.8875
G01 X29.2358 Y30.2514
G01 X29.2361 Y30.2560
G01 X29.2377 Y30.2605
G01 X29.2406 Y30.2643
G01 X29.2444 Y30.2671
G01 X29.2473 Y30.2683
G01 X29.2520 Y30.2690
G01 X29.2567 Y30.2683
G01 X29.2610 Y30.2663
G01 X29.2634 Y30.2643
G01 X29.2663 Y30.2605
G01 X29.2679 Y30.2560
G01 X29.2682 Y30.2514
G01 X29.2682 Y28.8574
G01 X29.2482 Y28.8291
G01 X29.2023 Y28.8291
G01 X29.1882 Y28.7691
G01 X29.1423 Y28.7691
G01 X29.1282 Y28.7091
G01 X29.0823 Y28.7091
G01 X29.0682 Y28.6491
G01 X29.0223 Y28.6491
G00 Z2.0000
G00 X29.5711 Y26.7851
G01 F60.00
G01 Z-0.0500
G01 F120.00
G01 X29.5711 Y26.7310
G01 X29.6711 Y26.7310
G01 X29.6711 Y26.7851
G01 X29.7711 Y26.7851
G01 X29.7711 Y26.7310
G01 X29.8711 Y26.7310
G01 X29.8711 Y26.7851
G01 X29.9711 Y26.7851
G01 X29.9711 Y26.7310
G01 X30.0711 Y26.7310
G01 X30.0711 Y26.7851
G01 X30.1711 Y26.7851
G01 X30.1711 Y26.7310
G01 X30.2711 Y26.7310
G01 X30.2711 Y26.7851
G01 X30.3711 Y26.7851
G01 X30.3711 Y26.7310
G01 X30.4711 Y26.7310
G01 X30.4711 Y26.7851
G01 X30.5711 Y26.7851
G01 X30.5711 Y26.7310
G01 X30.6711 Y26.7310
G01 X30.6711 Y26.7851
G01 X30.7711 Y26.7733
G01 X30.7711 Y26.6967
G01 X30.8711 Y26.6733
G01 X30.8711 Y26.5967
G01 X30.9711 Y26.5733
G01 X30.9711 Y26.4967
G01 X31.0711 Y26.4733
G01 X31.0711 Y25.1427
G01 X30.9711 Y25.1193
G01 X30.9711 Y25.0427
G01 X30.8711 Y25.0193
G01 X30.8711 Y24.9427
G01 X30.7711 Y24.9193
G01 X30.7711 Y24.8427
G01 X30.7457 Y24.8309
G01 X30.7534 Y24.8316
G01 X30.7584 Y24.8331
G01 X30.7631 Y24.8356
G01 X30.7686 Y24.8402
G01 X31.1155 Y25.1871
G01 X31.1205 Y25.1930
G01 X31.1229 Y25.1977
G01 X31.1245 Y25.2027
G01 X31.1251 Y25.2104
G01 X31.1251 Y26.4056
G01 X31.1245 Y26.4133
G01 X31.1229 Y26.4183
G01 X31.1218 Y26.4207
G01 X31.1189 Y26.4251
G01 X31.1155 Y26.4289
G01 X30.7684 Y26.7760
G01 X30.7631 Y26.7804
G01 X30.7584 Y26.7829
G01 X30.7534 Y26.7844
G01 X30.7457 Y26.7851
G01 X29.5005 Y26.7851
G01 X29.4928 Y26.7844
G01 X29.4878 Y26.7829
G01 X29.4831 Y26.7804
G01 X29.4790 Y26.7771
G01 X29.4757 Y26.7730
G01 X29.4732 Y26.7683
G01 X29.4717 Y26.7633
G01 X29.4711 Y26.7580
G01 X29.4713 Y26.7554
G01 X29.4723 Y26.7502
G01 X29.4743 Y26.7453
G01 X29.4773 Y26.7409
G01 X29.4810 Y26.7372
G01 X29.4854 Y26.7343
G01 X29.4903 Y26.7322
G01 X29.4954 Y26.7312
G01 X29.5005 Y26.7310
G01 X30.6954 Y26.7310
G01 X30.7089 Y26.7300
G01 X30.7209 Y26.7276
G01 X30.7326 Y26.7238
G01 X30.7436 Y26.7186
G01 X30.7550 Y26.7113
G01 X30.7639 Y26.7038
G01 X31.0438 Y26.4239
G01 X31.0491 Y26.4179
G01 X31.0548 Y26.4099
G01 X31.0592 Y26.4025
G01 X31.0634 Y26.3937
G01 X31.0667 Y26.3844
G01 X31.0688 Y26.3761
G01 X31.0701 Y26.3689
G01 X31.0709 Y26.3597
G01 X31.0710 Y25.2606
G01 X31.0705 Y25.2508
G01 X31.0688 Y25.2399
G01 X31.0651 Y25.2269
G01 X31.0629 Y25.2212
G01 X31.0592 Y25.2135
G01 X31.0520 Y25.2020
G01 X31.0438 Y25.1921
G01 X30.7639 Y24.9122
G01 X30.7579 Y24.9070
G01 X30.7500 Y24.9012
G01 X30.7426 Y24.8969
G01 X30.7337 Y24.8927
G01 X30.7245 Y24.8894
G01 X30.7149 Y24.8870
G01 X30.7052 Y24.8855
G01 X30.6973 Y24.8851
G01 X29.5005 Y24.8851
G01 X29.4928 Y24.8844
G01 X29.4878 Y24.8829
G01 X29.4831 Y24.8804
G01 X29.4790 Y24.8770
G01 X29.4757 Y24.8730
