(G-CODE GENERATED BY FLATCAM v8.994 - www.flatcam.org - Version Date: 2020/11/7)

(Name: Gerber_BottomLayer.GBL_iso_combined_cnc)
(Type: G-code from Geometry)
(Units: MM)

(Created on Friday, 03 May 2024 at 15:23)

(This preprocessor is the default preprocessor used by FlatCAM.)
(It is made to work with MACH3 compatible motion controllers.)

(TOOL DIAMETER: 0.2155 mm)
(Feedrate_XY: 120.0 mm/min)
(Feedrate_Z: 60.0 mm/min)
(Feedrate rapids 1500.0 mm/min)

(Z_Cut: -0.1 mm)
(Z_Move: 2.0 mm)
(Z Start: None mm)
(Z End: 15.0 mm)
(X,Y End: None mm)
(Steps per circle: 64)
(Preprocessor Geometry: default)

(X range:   15.6873 ...   68.3437  mm)
(Y range:   24.4221 ...   46.2149  mm)

(Spindle Speed: 0.0 RPM)
G21
G90
G94

G01 F120.00

M5
G00 Z15.0000
G00 X0.0000 Y0.0000
T1
M6    
(MSG, Change to Tool Dia = 0.2155)
M0
G00 Z15.0000

M03
G01 F120.00
G00 X17.7311 Y26.9271
G01 F60.00
G01 Z-0.1000
G01 F120.00
G01 X17.7311 Y26.8837
G01 X18.0600 Y26.8837
G01 X18.0679 Y26.8834
G01 X18.0784 Y26.8822
G01 X18.0862 Y26.8805
G01 X18.0963 Y26.8774
G01 X18.1037 Y26.8745
G01 X18.1131 Y26.8697
G01 X18.1220 Y26.8641
G01 X18.1284 Y26.8593
G01 X18.1362 Y26.8522
G01 X18.1416 Y26.8464
G01 X18.1481 Y26.8380
G01 X18.1538 Y26.8291
G01 X18.1574 Y26.8221
G01 X18.1615 Y26.8123
G01 X18.1645 Y26.8022
G01 X18.1666 Y26.7918
G01 X18.1675 Y26.7839
G01 X18.1677 Y26.7760
G01 X18.1677 Y26.4476
G01 X18.2116 Y26.4476
G01 X18.2116 Y26.7637
G01 X18.2061 Y26.8093
G01 X18.1952 Y26.8409
G01 X18.1770 Y26.8695
G01 X18.1534 Y26.8937
G01 X18.1251 Y26.9112
G01 X18.0937 Y26.9224
G01 X18.0486 Y26.9271
G01 X17.7311 Y26.9271
G00 Z2.0000
G00 X18.6974 Y30.4587
G01 F60.00
G01 Z-0.1000
G01 F120.00
G01 X18.7486 Y30.3454
G01 X18.8206 Y30.2260
G01 X18.9065 Y30.1169
G01 X19.0046 Y30.0188
G01 X19.0965 Y29.9468
G01 X19.0965 Y30.0003
G01 X19.0631 Y30.0254
G01 X18.9865 Y30.0949
G01 X18.9810 Y30.1005
G01 X18.9151 Y30.1732
G01 X18.9099 Y30.1793
G01 X18.8468 Y30.2646
G01 X18.7936 Y30.3532
G01 X18.7886 Y30.3625
G01 X18.7466 Y30.4512
G01 X18.7434 Y30.4587
G01 X18.6974 Y30.4587
G00 Z2.0000
G00 X20.4393 Y29.9468
G01 F60.00
G01 Z-0.1000
G01 F120.00
G01 X20.5312 Y30.0188
G01 X20.6293 Y30.1169
G01 X20.7152 Y30.2260
G01 X20.7871 Y30.3454
G01 X20.8384 Y30.4587
G01 X20.7924 Y30.4587
G01 X20.7892 Y30.4512
G01 X20.7472 Y30.3625
G01 X20.7422 Y30.3532
G01 X20.6890 Y30.2646
G01 X20.6259 Y30.1793
G01 X20.6207 Y30.1732
G01 X20.5548 Y30.1005
G01 X20.5493 Y30.0949
G01 X20.4727 Y30.0254
G01 X20.4393 Y30.0003
G01 X20.4393 Y29.9468
G00 Z2.0000
G00 X20.4393 Y32.8132
G01 F60.00
G01 Z-0.1000
G01 F120.00
G01 X20.4393 Y32.7597
G01 X20.4727 Y32.7346
G01 X20.5493 Y32.6651
G01 X20.5548 Y32.6595
G01 X20.6207 Y32.5868
G01 X20.6259 Y32.5807
G01 X20.6890 Y32.4954
G01 X20.7422 Y32.4068
G01 X20.7472 Y32.3975
G01 X20.7892 Y32.3088
G01 X20.7924 Y32.3013
G01 X20.8384 Y32.3013
G01 X20.7871 Y32.4151
G01 X20.7152 Y32.5339
G01 X20.6293 Y32.6431
G01 X20.5312 Y32.7412
G01 X20.4393 Y32.8132
G00 Z2.0000
G00 X18.6974 Y32.3013
G01 F60.00
G01 Z-0.1000
G01 F120.00
G01 X18.7434 Y32.3013
G01 X18.7466 Y32.3088
G01 X18.7886 Y32.3975
G01 X18.7936 Y32.4068
G01 X18.8468 Y32.4954
G01 X18.9099 Y32.5807
G01 X18.9151 Y32.5868
G01 X18.9810 Y32.6595
G01 X18.9865 Y32.6651
G01 X19.0631 Y32.7346
G01 X19.0965 Y32.7597
G01 X19.0965 Y32.8132
G01 X19.0046 Y32.7412
G01 X18.9065 Y32.6431
G01 X18.8206 Y32.5339
G01 X18.7486 Y32.4151
G01 X18.6974 Y32.3013
G00 Z2.0000
G00 X18.9660 Y37.5917
G01 F60.00
G01 Z-0.1000
G01 F120.00
G01 X18.9555 Y37.5912
G01 X18.9450 Y37.5897
G01 X18.9347 Y37.5871
G01 X18.9248 Y37.5835
G01 X18.9152 Y37.5790
G01 X18.9062 Y37.5736
G01 X18.8997 Y37.5689
G01 X18.8917 Y37.5620
G01 X18.8844 Y37.5544
G01 X18.8795 Y37.5482
G01 X18.8736 Y37.5394
G01 X18.8686 Y37.5301
G01 X18.8646 Y37.5203
G01 X18.8615 Y37.5102
G01 X18.8594 Y37.4998
G01 X18.8584 Y37.4893
G01 X18.8584 Y36.4787
G01 X18.8594 Y36.4682
G01 X18.8615 Y36.4578
G01 X18.8655 Y36.4452
G01 X18.8698 Y36.4355
G01 X18.8764 Y36.4241
G01 X18.8827 Y36.4156
G01 X18.8917 Y36.4060
G01 X18.8997 Y36.3990
G01 X18.9062 Y36.3944
G01 X18.9129 Y36.3902
G01 X18.9224 Y36.3855
G01 X18.9297 Y36.3825
G01 X18.9398 Y36.3795
G01 X18.9476 Y36.3778
G01 X18.9555 Y36.3768
G01 X18.9634 Y36.3763
G01 X20.7553 Y36.3762
G01 X21.4101 Y35.7215
G01 X21.4101 Y32.1322
G01 X21.3422 Y32.0817
G01 X21.2762 Y32.0219
G01 X21.2163 Y31.9559
G01 X21.1633 Y31.8843
G01 X21.1175 Y31.8079
G01 X21.0794 Y31.7274
G01 X21.0494 Y31.6435
G01 X21.0277 Y31.5571
G01 X21.0147 Y31.4690
G01 X21.0103 Y31.3800
G01 X21.0147 Y31.2910
G01 X21.0277 Y31.2029
G01 X21.0494 Y31.1165
G01 X21.0794 Y31.0326
G01 X21.1175 Y30.9521
G01 X21.1604 Y30.8801
G01 X21.1663 Y30.8713
G01 X21.2131 Y30.8083
G01 X21.2198 Y30.8001
G01 X21.2762 Y30.7381
G01 X21.3422 Y30.6783
G01 X21.4137 Y30.6252
G01 X21.4855 Y30.5820
G01 X21.4948 Y30.5771
G01 X21.5706 Y30.5413
G01 X21.6495 Y30.5130
G01 X21.6596 Y30.5099
G01 X21.7409 Y30.4897
G01 X21.8290 Y30.4766
G01 X21.9127 Y30.4724
G01 X21.9233 Y30.4724
G01 X22.0070 Y30.4766
G01 X22.0916 Y30.4891
G01 X24.4980 Y28.0827
G01 X24.5330 Y28.0511
G01 X24.5731 Y28.0214
G01 X24.6158 Y27.9958
G01 X24.6561 Y27.9766
G01 X24.6658 Y27.9726
G01 X24.7028 Y27.9593
G01 X24.7129 Y27.9563
G01 X24.7562 Y27.9456
G01 X24.8055 Y27.9383
G01 X24.8553 Y27.9358
G01 X30.2680 Y27.9358
G01 X30.3178 Y27.9383
G01 X30.3619 Y27.9447
G01 X30.3723 Y27.9467
G01 X30.4154 Y27.9577
G01 X30.4574 Y27.9726
G01 X30.4672 Y27.9766
G01 X30.5074 Y27.9958
G01 X30.5502 Y28.0214
G01 X30.5861 Y28.0479
G01 X30.5942 Y28.0546
G01 X30.6272 Y28.0846
G01 X37.0824 Y34.5398
G01 X43.4908 Y34.5398
G01 X43.5350 Y34.4999
G01 X43.5865 Y34.4616
G01 X43.5953 Y34.4557
G01 X43.6458 Y34.4254
G01 X43.6551 Y34.4204
G01 X43.7132 Y34.3931
G01 X43.7735 Y34.3714
G01 X43.7836 Y34.3683
G01 X43.8459 Y34.3528
G01 X43.9146 Y34.3426
G01 X43.9840 Y34.3392
G01 X44.0481 Y34.3423
G01 X44.0586 Y34.3433
G01 X44.1221 Y34.3528
G01 X44.1844 Y34.3683
G01 X44.1945 Y34.3714
G01 X44.2499 Y34.3912
G01 X44.2597 Y34.3953
G01 X44.3176 Y34.4228
G01 X44.3772 Y34.4585
G01 X44.4330 Y34.4999
G01 X44.4845 Y34.5465
G01 X44.5311 Y34.5980
G01 X44.5725 Y34.6538
G01 X44.6082 Y34.7134
G01 X44.6357 Y34.7713
G01 X44.6398 Y34.7811
G01 X44.6596 Y34.8365
G01 X44.6627 Y34.8466
G01 X44.6782 Y34.9089
G01 X44.6883 Y34.9776
G01 X44.6917 Y35.0470
G01 X44.6883 Y35.1164
G01 X44.6782 Y35.1851
G01 X44.6613 Y35.2524
G01 X44.6379 Y35.3178
G01 X44.6082 Y35.3806
G01 X44.5725 Y35.4402
G01 X44.5311 Y35.4960
G01 X44.4845 Y35.5474
G01 X44.4330 Y35.5941
G01 X44.3772 Y35.6355
G01 X44.3176 Y35.6712
G01 X44.2548 Y35.7009
G01 X44.1894 Y35.7243
G01 X44.1221 Y35.7411
G01 X44.0586 Y35.7507
G01 X44.0507 Y35.7516
G01 X43.9840 Y35.7547
G01 X43.9146 Y35.7513
G01 X43.8459 Y35.7411
G01 X43.7836 Y35.7257
G01 X43.7735 Y35.7226
G01 X43.7132 Y35.7009
G01 X43.6551 Y35.6735
G01 X43.6458 Y35.6686
G01 X43.5953 Y35.6383
G01 X43.5865 Y35.6324
G01 X43.5350 Y35.5941
G01 X43.4925 Y35.5557
G01 X36.8720 Y35.5557
G01 X36.8275 Y35.5536
G01 X36.8170 Y35.5526
G01 X36.7729 Y35.5459
G01 X36.7246 Y35.5338
G01 X36.6826 Y35.5189
G01 X36.6728 Y35.5149
G01 X36.6326 Y35.4957
G01 X36.5943 Y35.4729
G01 X36.5855 Y35.4670
G01 X36.5498 Y35.4404
G01 X36.5128 Y35.4069
G01 X30.0576 Y28.9517
G01 X25.0657 Y28.9517
G01 X23.3113 Y30.7061
G01 X23.3442 Y30.6766
G01 X23.4115 Y30.6267
G01 X23.4182 Y30.6224
G01 X23.4855 Y30.5820
G01 X23.4924 Y30.5782
G01 X23.5706 Y30.5413
G01 X23.6495 Y30.5130
G01 X23.6596 Y30.5099
G01 X23.7383 Y30.4902
G01 X23.7461 Y30.4888
G01 X23.8290 Y30.4766
G01 X23.9127 Y30.4724
G01 X23.9233 Y30.4724
G01 X24.0070 Y30.4766
G01 X24.0899 Y30.4888
G01 X24.1002 Y30.4909
G01 X24.1764 Y30.5099
G01 X24.1840 Y30.5121
G01 X24.2604 Y30.5394
G01 X24.2702 Y30.5435
G01 X24.3459 Y30.5794
G01 X24.4178 Y30.6224
G01 X24.4266 Y30.6283
G01 X24.4939 Y30.6783
G01 X24.5560 Y30.7345
G01 X24.5635 Y30.7419
G01 X24.6197 Y30.8041
G01 X24.6697 Y30.8713
G01 X24.6756 Y30.8801
G01 X24.7185 Y30.9521
G01 X24.7545 Y31.0278
G01 X24.7585 Y31.0375
G01 X24.7866 Y31.1165
G01 X24.8077 Y31.2003
G01 X24.8092 Y31.2081
G01 X24.8207 Y31.2858
G01 X24.8217 Y31.2963
G01 X24.8257 Y31.3800
G01 X24.8214 Y31.4690
G01 X24.8083 Y31.5571
G01 X24.7880 Y31.6384
G01 X24.7850 Y31.6485
G01 X24.7566 Y31.7274
G01 X24.7209 Y31.8032
G01 X24.7159 Y31.8125
G01 X24.6727 Y31.8843
G01 X24.6197 Y31.9559
G01 X24.5635 Y32.0181
G01 X24.5560 Y32.0255
G01 X24.4939 Y32.0817
G01 X24.4260 Y32.1322
G01 X24.4259 Y35.6820
G01 X29.2910 Y35.6820
G01 X29.3000 Y35.6676
G01 X29.3399 Y35.6140
G01 X29.3829 Y35.5664
G01 X29.3904 Y35.5589
G01 X29.4380 Y35.5159
G01 X29.4895 Y35.4776
G01 X29.4983 Y35.4717
G01 X29.5488 Y35.4414
G01 X29.5581 Y35.4364
G01 X29.6162 Y35.4091
G01 X29.6765 Y35.3874
G01 X29.6866 Y35.3843
G01 X29.7489 Y35.3688
G01 X29.8176 Y35.3586
G01 X29.8817 Y35.3554
G01 X29.8923 Y35.3554
G01 X29.9511 Y35.3583
G01 X29.9590 Y35.3589
G01 X30.0199 Y35.3679
G01 X30.0302 Y35.3700
G01 X30.0924 Y35.3857
G01 X30.1529 Y35.4072
G01 X30.1627 Y35.4113
G01 X30.2206 Y35.4388
G01 X30.2757 Y35.4717
G01 X30.2845 Y35.4776
G01 X30.3360 Y35.5159
G01 X30.3836 Y35.5589
G01 X30.3911 Y35.5664
G01 X30.4341 Y35.6140
G01 X30.4724 Y35.6655
G01 X30.4783 Y35.6743
G01 X30.5112 Y35.7294
G01 X30.5387 Y35.7873
G01 X30.5428 Y35.7971
G01 X30.5643 Y35.8575
G01 X30.5800 Y35.9198
G01 X30.5821 Y35.9301
G01 X30.5913 Y35.9936
G01 X30.5946 Y36.0577
G01 X30.5946 Y36.0683
G01 X30.5913 Y36.1324
G01 X30.5821 Y36.1959
G01 X30.5800 Y36.2062
G01 X30.5643 Y36.2684
G01 X30.5428 Y36.3289
G01 X30.5387 Y36.3387
G01 X30.5112 Y36.3966
G01 X30.4783 Y36.4517
G01 X30.4740 Y36.4584
G01 X30.4374 Y36.5078
G01 X30.4306 Y36.5160
G01 X30.3875 Y36.5634
G01 X30.3400 Y36.6066
G01 X30.3318 Y36.6133
G01 X30.2802 Y36.6515
G01 X30.2206 Y36.6872
G01 X30.1578 Y36.7169
G01 X30.0975 Y36.7386
G01 X30.0874 Y36.7417
G01 X30.0251 Y36.7571
G01 X29.9616 Y36.7667
G01 X29.9511 Y36.7677
G01 X29.8896 Y36.7707
G01 X29.8817 Y36.7706
G01 X29.8176 Y36.7673
G01 X29.7541 Y36.7580
G01 X29.7463 Y36.7566
G01 X29.6866 Y36.7417
G01 X29.6790 Y36.7395
G01 X29.6162 Y36.7169
G01 X29.5758 Y36.6979
G01 X23.9154 Y36.6979
G01 X23.8682 Y36.6955
G01 X23.8241 Y36.6891
G01 X23.8137 Y36.6870
G01 X23.7756 Y36.6775
G01 X23.7655 Y36.6744
G01 X23.7236 Y36.6593
G01 X23.6786 Y36.6380
G01 X23.6358 Y36.6123
G01 X23.5978 Y36.5843
G01 X23.5918 Y36.5792
G01 X23.5588 Y36.5492
G01 X23.5253 Y36.5122
G01 X23.4957 Y36.4722
G01 X23.4726 Y36.4340
G01 X23.4677 Y36.4247
G01 X23.4509 Y36.3892
G01 X23.4468 Y36.3794
G01 X23.4319 Y36.3374
G01 X23.4210 Y36.2942
G01 X23.4189 Y36.2839
G01 X23.4125 Y36.2398
G01 X23.4102 Y36.1953
G01 X23.4101 Y32.1322
G01 X23.3421 Y32.0817
G01 X23.2800 Y32.0255
G01 X23.2725 Y32.0181
G01 X23.2198 Y31.9599
G01 X23.2131 Y31.9517
G01 X23.1633 Y31.8843
G01 X23.1201 Y31.8125
G01 X23.1151 Y31.8032
G01 X23.0794 Y31.7274
G01 X23.0494 Y31.6435
G01 X23.0277 Y31.5571
G01 X23.0153 Y31.4742
G01 X23.0143 Y31.4637
G01 X23.0103 Y31.3800
G01 X23.0146 Y31.2910
G01 X23.0277 Y31.2029
G01 X23.0480 Y31.1216
G01 X23.0502 Y31.1140
G01 X23.0794 Y31.0326
G01 X23.1151 Y30.9568
G01 X23.1187 Y30.9498
G01 X23.1604 Y30.8801
G01 X23.1648 Y30.8735
G01 X23.2147 Y30.8062
G01 X23.2441 Y30.7733
G01 X22.8092 Y31.2082
G01 X22.8214 Y31.2910
G01 X22.8256 Y31.3747
G01 X22.8256 Y31.3853
G01 X22.8214 Y31.4690
G01 X22.8083 Y31.5571
G01 X22.7881 Y31.6384
G01 X22.7850 Y31.6485
G01 X22.7566 Y31.7274
G01 X22.7186 Y31.8079
G01 X22.6756 Y31.8799
G01 X22.6697 Y31.8887
G01 X22.6197 Y31.9559
G01 X22.5635 Y32.0181
G01 X22.5560 Y32.0255
G01 X22.4939 Y32.0817
G01 X22.4260 Y32.1322
G01 X22.4260 Y35.9319
G01 X22.4239 Y35.9764
G01 X22.4229 Y35.9870
G01 X22.4162 Y36.0310
G01 X22.4041 Y36.0794
G01 X22.3873 Y36.1263
G01 X22.3684 Y36.1666
G01 X22.3647 Y36.1737
G01 X22.3404 Y36.2141
G01 X22.3139 Y36.2500
G01 X22.3090 Y36.2562
G01 X22.2790 Y36.2892
G01 X22.1920 Y36.3762
G01 X22.7660 Y36.3762
G01 X22.7739 Y36.3765
G01 X22.7870 Y36.3783
G01 X22.7998 Y36.3817
G01 X22.8121 Y36.3866
G01 X22.8237 Y36.3930
G01 X22.8344 Y36.4007
G01 X22.8441 Y36.4097
G01 X22.8526 Y36.4198
G01 X22.8598 Y36.4309
G01 X22.8656 Y36.4428
G01 X22.8699 Y36.4553
G01 X22.8726 Y36.4682
G01 X22.8737 Y36.4813
G01 X22.8738 Y37.4840
G01 X22.8730 Y37.4972
G01 X22.8717 Y37.5050
G01 X22.8699 Y37.5127
G01 X22.8675 Y37.5203
G01 X22.8645 Y37.5277
G01 X22.8610 Y37.5348
G01 X22.8571 Y37.5416
G01 X22.8493 Y37.5523
G01 X22.8403 Y37.5620
G01 X22.8302 Y37.5705
G01 X22.8191 Y37.5777
G01 X22.8073 Y37.5835
G01 X22.7948 Y37.5878
G01 X22.7818 Y37.5906
G01 X22.7687 Y37.5917
G01 X18.9660 Y37.5917
G00 Z2.0000
G00 X18.9781 Y37.6357
G01 F60.00
G01 Z-0.1000
G01 F120.00
G01 X18.9333 Y37.6303
G01 X18.9007 Y37.6188
G01 X18.8722 Y37.6010
G01 X18.8487 Y37.5778
G01 X18.8311 Y37.5494
G01 X18.8197 Y37.5170
G01 X18.8147 Y37.4727
G01 X18.8147 Y36.4958
G01 X18.8197 Y36.4511
G01 X18.8310 Y36.4193
G01 X18.8487 Y36.3907
G01 X18.8728 Y36.3669
G01 X18.9015 Y36.3484
G01 X18.9324 Y36.3375
G01 X18.9772 Y36.3328
G01 X20.6511 Y36.3328
G01 X20.6622 Y36.3322
G01 X20.6705 Y36.3310
G01 X20.7170 Y36.3211
G01 X20.7245 Y36.3189
G01 X20.7319 Y36.3160
G01 X20.7390 Y36.3127
G01 X20.7459 Y36.3088
G01 X20.7854 Y36.2832
G01 X20.7914 Y36.2786
G01 X20.7989 Y36.2718
G01 X21.3073 Y35.7633
G01 X21.3129 Y35.7570
G01 X21.3179 Y35.7502
G01 X21.3427 Y35.7121
G01 X21.3490 Y35.7003
G01 X21.3538 Y35.6878
G01 X21.3565 Y35.6775
G01 X21.3652 Y35.6357
G01 X21.3663 Y35.6275
G01 X21.3669 Y35.6164
G01 X21.3668 Y32.2484
G01 X21.3661 Y32.2407
G01 X21.3649 Y32.2332
G01 X21.3534 Y32.1809
G01 X21.3509 Y32.1735
G01 X21.3478 Y32.1662
G01 X21.3430 Y32.1569
G01 X21.3388 Y32.1503
G01 X21.3082 Y32.1100
G01 X21.3031 Y32.1041
G01 X21.2976 Y32.0986
G01 X21.2315 Y32.0399
G01 X21.2202 Y32.0320
G01 X21.1982 Y32.0199
G01 X21.1956 Y32.0136
G01 X21.1919 Y32.0064
G01 X21.1697 Y31.9684
G01 X21.0945 Y31.8551
G01 X21.0393 Y31.7442
G01 X20.9998 Y31.6268
G01 X20.9755 Y31.5039
G01 X20.9673 Y31.3802
G01 X20.9755 Y31.2561
G01 X20.9997 Y31.1337
G01 X21.0394 Y31.0162
G01 X21.0946 Y30.9049
G01 X21.1691 Y30.7929
G01 X21.1917 Y30.7545
G01 X21.1954 Y30.7472
G01 X21.1983 Y30.7403
G01 X21.2209 Y30.7276
G01 X21.2314 Y30.7202
G01 X21.3392 Y30.6256
G01 X21.4427 Y30.5563
G01 X21.5537 Y30.5017
G01 X21.6721 Y30.4619
G01 X21.7941 Y30.4372
G01 X21.9179 Y30.4291
G01 X21.9848 Y30.4336
G01 X21.9975 Y30.4338
G01 X22.0076 Y30.4328
G01 X22.0523 Y30.4263
G01 X22.0624 Y30.4241
G01 X22.0698 Y30.4218
G01 X22.0794 Y30.4179
G01 X22.0863 Y30.4145
G01 X22.1290 Y30.3871
G01 X22.1391 Y30.3797
G01 X22.1466 Y30.3729
G01 X24.4595 Y28.0600
G01 X24.5316 Y27.9986
G01 X24.6051 Y27.9536
G01 X24.6851 Y27.9204
G01 X24.7690 Y27.9000
G01 X24.8634 Y27.8929
G01 X30.2599 Y27.8929
G01 X30.3543 Y27.9000
G01 X30.4382 Y27.9204
G01 X30.5181 Y27.9536
G01 X30.5917 Y27.9986
G01 X30.6638 Y28.0600
G01 X37.0391 Y34.4353
G01 X37.0466 Y34.4422
G01 X37.0527 Y34.4468
G01 X37.0899 Y34.4710
G01 X37.1017 Y34.4776
G01 X37.1118 Y34.4818
G01 X37.1222 Y34.4850
G01 X37.1660 Y34.4948
G01 X37.1764 Y34.4964
G01 X37.1870 Y34.4969
G01 X43.4030 Y34.4968
G01 X43.4162 Y34.4957
G01 X43.4535 Y34.4892
G01 X43.4664 Y34.4858
G01 X43.4764 Y34.4819
G01 X43.5101 Y34.4648
G01 X43.5196 Y34.4594
G01 X43.5263 Y34.4547
G01 X43.5782 Y34.4154
G01 X43.6723 Y34.3644
G01 X43.7728 Y34.3266
G01 X43.8769 Y34.3040
G01 X43.9840 Y34.2965
G01 X44.0911 Y34.3040
G01 X44.1953 Y34.3266
G01 X44.2958 Y34.3644
G01 X44.3900 Y34.4155
G01 X44.4757 Y34.4799
G01 X44.5515 Y34.5553
G01 X44.6155 Y34.6415
G01 X44.6671 Y34.7353
G01 X44.7043 Y34.8355
G01 X44.7270 Y34.9405
G01 X44.7350 Y35.0475
G01 X44.7270 Y35.1539
G01 X44.7043 Y35.2585
G01 X44.6670 Y35.3593
G01 X44.6155 Y35.4534
G01 X44.5516 Y35.5390
G01 X44.4757 Y35.6145
G01 X44.3900 Y35.6789
G01 X44.2959 Y35.7299
G01 X44.1953 Y35.7674
G01 X44.0909 Y35.7905
G01 X43.9840 Y35.7980
G01 X43.8771 Y35.7905
G01 X43.7728 Y35.7674
G01 X43.6721 Y35.7299
G01 X43.5782 Y35.6790
G01 X43.5283 Y35.6413
G01 X43.5216 Y35.6366
G01 X43.5122 Y35.6312
G01 X43.4784 Y35.6141
G01 X43.4659 Y35.6094
G01 X43.4555 Y35.6068
G01 X43.4182 Y35.6003
G01 X43.4050 Y35.5992
G01 X36.8802 Y35.5991
G01 X36.7858 Y35.5920
G01 X36.7018 Y35.5716
G01 X36.6219 Y35.5385
G01 X36.5484 Y35.4934
G01 X36.4762 Y35.4320
G01 X30.1009 Y29.0567
G01 X30.0933 Y29.0498
G01 X30.0872 Y29.0451
G01 X30.0520 Y29.0213
G01 X30.0452 Y29.0170
G01 X30.0331 Y29.0111
G01 X30.0255 Y29.0082
G01 X30.0178 Y29.0060
G01 X29.9713 Y28.9967
G01 X29.9635 Y28.9957
G01 X29.9530 Y28.9951
G01 X25.1702 Y28.9951
G01 X25.1597 Y28.9957
G01 X25.1494 Y28.9972
G01 X25.1081 Y29.0054
G01 X25.0977 Y29.0082
G01 X25.0877 Y29.0121
G01 X25.0804 Y29.0157
G01 X25.0712 Y29.0213
G01 X25.0361 Y29.0451
G01 X25.0300 Y29.0498
G01 X25.0243 Y29.0549
G01 X23.9851 Y30.0935
G01 X23.9799 Y30.0991
G01 X23.9721 Y30.1092
G01 X23.9454 Y30.1507
G01 X23.9403 Y30.1600
G01 X23.9371 Y30.1673
G01 X23.9337 Y30.1774
G01 X23.9313 Y30.1877
G01 X23.9246 Y30.2388
G01 X23.9241 Y30.2496
G01 X23.9243 Y30.2576
G01 X23.9256 Y30.2683
G01 X23.9280 Y30.2788
G01 X23.9440 Y30.3304
G01 X23.9493 Y30.3421
G01 X23.9560 Y30.3531
G01 X23.9640 Y30.3633
G01 X23.9983 Y30.4014
G01 X24.0041 Y30.4066
G01 X24.0123 Y30.4129
G01 X24.0189 Y30.4170
G01 X24.0257 Y30.4207
G01 X24.0700 Y30.4402
G01 X24.0805 Y30.4441
G01 X24.0913 Y30.4469
G01 X24.1637 Y30.4619
G01 X24.2823 Y30.5017
G01 X24.3933 Y30.5563
G01 X24.4969 Y30.6256
G01 X24.5904 Y30.7078
G01 X24.6726 Y30.8013
G01 X24.7467 Y30.9123
G01 X24.7548 Y30.9220
G01 X24.7864 Y30.9542
G01 X24.7945 Y30.9613
G01 X24.8010 Y30.9661
G01 X24.8102 Y30.9717
G01 X24.8175 Y30.9752
G01 X24.8565 Y30.9915
G01 X24.8640 Y30.9943
G01 X24.8768 Y30.9977
G01 X24.8900 Y30.9995
G01 X24.8979 Y30.9998
G01 X24.9434 Y30.9997
G01 X24.9540 Y30.9986
G01 X24.9644 Y30.9965
G01 X24.9771 Y30.9925
G01 X25.0186 Y30.9752
G01 X25.0282 Y30.9703
G01 X25.0394 Y30.9629
G01 X25.0456 Y30.9579
G01 X25.0515 Y30.9523
G01 X25.0795 Y30.9239
G01 X25.0862 Y30.9163
G01 X25.0922 Y30.9081
G01 X25.1635 Y30.8013
G01 X25.2456 Y30.7078
G01 X25.3392 Y30.6256
G01 X25.4427 Y30.5563
G01 X25.5537 Y30.5017
G01 X25.6721 Y30.4619
G01 X25.7941 Y30.4372
G01 X25.9180 Y30.4291
G01 X26.0419 Y30.4372
G01 X26.1639 Y30.4619
G01 X26.2823 Y30.5017
G01 X26.3933 Y30.5563
G01 X26.4968 Y30.6256
G01 X26.6047 Y30.7202
G01 X26.6151 Y30.7276
G01 X26.6377 Y30.7403
G01 X26.6404 Y30.7469
G01 X26.6441 Y30.7541
G01 X26.6663 Y30.7922
G01 X26.7415 Y30.9050
G01 X26.7966 Y31.0162
G01 X26.8363 Y31.1337
G01 X26.8605 Y31.2561
G01 X26.8687 Y31.3802
G01 X26.8605 Y31.5039
G01 X26.8363 Y31.6268
G01 X26.7967 Y31.7442
G01 X26.7414 Y31.8551
G01 X26.6669 Y31.9677
G01 X26.6443 Y32.0060
G01 X26.6406 Y32.0132
G01 X26.6378 Y32.0199
G01 X26.6158 Y32.0319
G01 X26.6047 Y32.0397
G01 X26.4968 Y32.1349
G01 X26.3935 Y32.2036
G01 X26.2823 Y32.2583
G01 X26.1637 Y32.2981
G01 X26.0419 Y32.3232
G01 X25.9180 Y32.3310
G01 X25.7941 Y32.3232
G01 X25.6723 Y32.2981
G01 X25.5537 Y32.2583
G01 X25.4425 Y32.2036
G01 X25.3392 Y32.1348
G01 X25.2456 Y32.0522
G01 X25.1634 Y31.9591
G01 X25.0893 Y31.8482
G01 X25.0812 Y31.8385
G01 X25.0496 Y31.8063
G01 X25.0436 Y31.8009
G01 X25.0350 Y31.7944
G01 X25.0282 Y31.7902
G01 X25.0186 Y31.7853
G01 X24.9795 Y31.7690
G01 X24.9720 Y31.7662
G01 X24.9592 Y31.7628
G01 X24.9487 Y31.7612
G01 X24.9381 Y31.7607
G01 X24.8953 Y31.7607
G01 X24.8847 Y31.7615
G01 X24.8716 Y31.7640
G01 X24.8590 Y31.7680
G01 X24.8150 Y31.7864
G01 X24.8079 Y31.7902
G01 X24.8010 Y31.7944
G01 X24.7904 Y31.8026
G01 X24.7845 Y31.8082
G01 X24.7548 Y31.8385
G01 X24.7467 Y31.8482
G01 X24.6726 Y31.9591
G01 X24.5903 Y32.0523
G01 X24.5403 Y32.0968
G01 X24.5329 Y32.1041
G01 X24.5262 Y32.1120
G01 X24.4958 Y32.1525
G01 X24.4905 Y32.1615
G01 X24.4871 Y32.1686
G01 X24.4843 Y32.1759
G01 X24.4819 Y32.1834
G01 X24.4711 Y32.2332
G01 X24.4696 Y32.2433
G01 X24.4692 Y32.2509
G01 X24.4692 Y33.7660
G01 X24.4697 Y33.7742
G01 X24.4713 Y33.7849
G01 X24.4800 Y33.8272
G01 X24.4822 Y33.8351
G01 X24.4849 Y33.8427
G01 X24.4894 Y33.8526
G01 X24.4949 Y33.8620
G01 X24.5224 Y33.9015
G01 X24.5293 Y33.9096
G01 X24.5349 Y33.9152
G01 X24.5431 Y33.9220
G01 X24.5497 Y33.9266
G01 X24.5904 Y33.9524
G01 X24.5973 Y33.9558
G01 X24.6045 Y33.9588
G01 X24.6168 Y33.9625
G01 X24.6672 Y33.9711
G01 X24.6777 Y33.9720
G01 X24.6856 Y33.9720
G01 X24.6935 Y33.9715
G01 X24.7040 Y33.9699
G01 X24.7457 Y33.9601
G01 X24.7561 Y33.9571
G01 X24.7637 Y33.9542
G01 X24.7711 Y33.9507
G01 X24.7827 Y33.9436
G01 X24.8217 Y33.9149
G01 X24.8276 Y33.9097
G01 X24.8350 Y33.9020
G01 X24.8400 Y33.8958
G01 X24.8445 Y33.8892
G01 X24.8682 Y33.8500
G01 X24.8743 Y33.8374
G01 X24.8808 Y33.8191
G01 X24.8991 Y33.7904
G01 X24.9224 Y33.7665
G01 X24.9505 Y33.7493
G01 X24.9827 Y33.7379
G01 X25.0279 Y33.7328
G01 X25.6949 Y33.7328
G01 X25.6949 Y33.7762
G01 X25.0160 Y33.7762
G01 X25.0081 Y33.7765
G01 X24.9976 Y33.7778
G01 X24.9872 Y33.7801
G01 X24.9797 Y33.7825
G01 X24.9675 Y33.7877
G01 X24.9561 Y33.7944
G01 X24.9456 Y33.8024
G01 X24.9361 Y33.8116
G01 X24.9310 Y33.8177
G01 X24.9264 Y33.8241
G01 X24.9197 Y33.8355
G01 X24.9145 Y33.8477
G01 X24.9108 Y33.8604
G01 X24.9090 Y33.8708
G01 X24.9082 Y33.8840
G01 X24.9082 Y34.0873
G01 X24.6785 Y34.0873
G01 X24.6701 Y34.0876
G01 X24.6590 Y34.0891
G01 X24.6126 Y34.0990
G01 X24.6026 Y34.1021
G01 X24.5930 Y34.1062
G01 X24.5817 Y34.1125
G01 X24.5443 Y34.1378
G01 X24.5343 Y34.1459
G01 X24.5253 Y34.1552
G01 X24.5189 Y34.1633
G01 X24.4941 Y34.2002
G01 X24.4890 Y34.2092
G01 X24.4847 Y34.2187
G01 X24.4821 Y34.2261
G01 X24.4801 Y34.2336
G01 X24.4714 Y34.2753
G01 X24.4697 Y34.2862
G01 X24.4691 Y34.2972
G01 X24.4693 Y34.9769
G01 X24.4709 Y34.9907
G01 X24.4796 Y35.0321
G01 X24.4815 Y35.0400
G01 X24.4851 Y35.0502
G01 X24.4896 Y35.0600
G01 X24.4937 Y35.0671
G01 X24.5200 Y35.1067
G01 X24.5248 Y35.1128
G01 X24.5301 Y35.1186
G01 X24.5358 Y35.1240
G01 X24.5419 Y35.1289
G01 X24.5814 Y35.1548
G01 X24.5908 Y35.1602
G01 X24.6008 Y35.1647
G01 X24.6111 Y35.1681
G01 X24.6576 Y35.1786
G01 X24.6680 Y35.1801
G01 X24.6785 Y35.1806
G01 X24.9082 Y35.1806
G01 X24.9082 Y35.3840
G01 X24.9087 Y35.3945
G01 X24.9108 Y35.4076
G01 X24.9145 Y35.4203
G01 X24.9197 Y35.4324
G01 X24.9264 Y35.4438
G01 X24.9344 Y35.4543
G01 X24.9436 Y35.4638
G01 X24.9539 Y35.4721
G01 X24.9652 Y35.4790
G01 X24.9772 Y35.4845
G01 X24.9872 Y35.4878
G01 X24.9976 Y35.4901
G01 X25.0081 Y35.4914
G01 X25.0160 Y35.4917
G01 X25.7051 Y35.4917
G01 X25.7071 Y35.4995
G01 X25.7106 Y35.5094
G01 X25.7151 Y35.5190
G01 X25.7204 Y35.5281
G01 X25.7469 Y35.5675
G01 X25.7555 Y35.5773
G01 X25.7612 Y35.5827
G01 X25.7673 Y35.5877
G01 X25.8089 Y35.6149
G01 X25.8182 Y35.6200
G01 X25.8255 Y35.6232
G01 X25.8355 Y35.6266
G01 X25.8432 Y35.6285
G01 X25.8851 Y35.6371
G01 X25.8988 Y35.6387
G01 X27.5334 Y35.6387
G01 X27.5471 Y35.6371
G01 X27.5889 Y35.6285
G01 X27.5968 Y35.6265
G01 X27.6070 Y35.6230
G01 X27.6144 Y35.6197
G01 X27.6238 Y35.6145
G01 X27.6586 Y35.5917
G01 X27.6651 Y35.5871
G01 X27.6751 Y35.5784
G01 X27.6840 Y35.5685
G01 X27.6887 Y35.5620
G01 X27.7126 Y35.5268
G01 X27.7179 Y35.5174
G01 X27.7213 Y35.5100
G01 X27.7250 Y35.4998
G01 X27.7271 Y35.4917
G01 X28.4160 Y35.4917
G01 X28.4239 Y35.4914
G01 X28.4344 Y35.4901
G01 X28.4422 Y35.4885
G01 X28.4498 Y35.4863
G01 X28.4620 Y35.4814
G01 X28.4691 Y35.4777
G01 X28.4758 Y35.4736
G01 X28.4823 Y35.4689
G01 X28.4883 Y35.4638
G01 X28.4940 Y35.4583
G01 X28.4993 Y35.4523
G01 X28.5041 Y35.4460
G01 X28.5084 Y35.4394
G01 X28.5122 Y35.4324
G01 X28.5155 Y35.4252
G01 X28.5198 Y35.4127
G01 X28.5226 Y35.3998
G01 X28.5237 Y35.3866
G01 X28.5237 Y35.1806
G01 X28.5672 Y35.1806
G01 X28.5672 Y35.3732
G01 X28.5634 Y35.4100
G01 X28.5632 Y35.4234
G01 X28.5677 Y35.4705
G01 X28.5692 Y35.4809
G01 X28.5710 Y35.4885
G01 X28.5734 Y35.4960
G01 X28.5763 Y35.5033
G01 X28.5797 Y35.5104
G01 X28.6045 Y35.5545
G01 X28.6091 Y35.5611
G01 X28.6159 Y35.5695
G01 X28.6216 Y35.5752
G01 X28.6298 Y35.5823
G01 X28.6687 Y35.6109
G01 X28.6778 Y35.6166
G01 X28.6851 Y35.6203
G01 X28.6926 Y35.6234
G01 X28.7003 Y35.6260
G01 X28.7081 Y35.6279
G01 X28.7493 Y35.6366
G01 X28.7603 Y35.6383
G01 X28.7714 Y35.6389
G01 X29.1684 Y35.6388
G01 X29.1768 Y35.6383
G01 X29.1851 Y35.6371
G01 X29.2265 Y35.6284
G01 X29.2366 Y35.6258
G01 X29.2465 Y35.6221
G01 X29.2582 Y35.6162
G01 X29.2957 Y35.5922
G01 X29.3040 Y35.5863
G01 X29.3135 Y35.5778
G01 X29.3955 Y35.4958
G01 X29.4811 Y35.4315
G01 X29.5753 Y35.3804
G01 X29.6758 Y35.3426
G01 X29.7799 Y35.3200
G01 X29.8870 Y35.3125
G01 X29.9941 Y35.3200
G01 X30.0983 Y35.3426
G01 X30.1988 Y35.3804
G01 X30.2930 Y35.4315
G01 X30.3787 Y35.4959
G01 X30.4545 Y35.5713
G01 X30.5185 Y35.6575
G01 X30.5701 Y35.7513
G01 X30.6073 Y35.8515
G01 X30.6300 Y35.9565
G01 X30.6380 Y36.0635
G01 X30.6300 Y36.1699
G01 X30.6073 Y36.2745
G01 X30.5700 Y36.3753
G01 X30.5185 Y36.4694
G01 X30.4546 Y36.5550
G01 X30.3787 Y36.6305
G01 X30.2930 Y36.6949
G01 X30.1989 Y36.7459
G01 X30.0983 Y36.7834
G01 X29.9939 Y36.8065
G01 X29.8870 Y36.8140
G01 X29.7801 Y36.8065
G01 X29.6755 Y36.7833
G01 X29.5973 Y36.7548
G01 X29.5875 Y36.7517
G01 X29.5417 Y36.7429
G01 X29.5333 Y36.7420
G01 X29.5248 Y36.7416
G01 X23.9264 Y36.7416
G01 X23.8317 Y36.7340
G01 X23.7476 Y36.7140
G01 X23.6679 Y36.6809
G01 X23.5945 Y36.6360
G01 X23.5286 Y36.5794
G01 X23.4726 Y36.5141
G01 X23.4277 Y36.4403
G01 X23.3944 Y36.3597
G01 X23.3740 Y36.2762
G01 X23.3669 Y36.1823
G01 X23.3669 Y32.2535
G01 X23.3666 Y32.2458
G01 X23.3658 Y32.2382
G01 X23.3553 Y32.1885
G01 X23.3526 Y32.1784
G01 X23.3489 Y32.1686
G01 X23.3455 Y32.1615
G01 X23.3416 Y32.1547
G01 X23.3373 Y32.1482
G01 X23.3098 Y32.1121
G01 X23.3031 Y32.1041
G01 X23.2957 Y32.0968
G01 X23.2457 Y32.0523
G01 X23.1634 Y31.9591
G01 X23.0893 Y31.8482
G01 X23.0812 Y31.8385
G01 X23.0515 Y31.8082
G01 X23.0457 Y31.8026
G01 X23.0372 Y31.7960
G01 X23.0305 Y31.7915
G01 X23.0234 Y31.7876
G01 X23.0161 Y31.7842
G01 X22.9795 Y31.7690
G01 X22.9670 Y31.7646
G01 X22.9566 Y31.7623
G01 X22.9434 Y31.7608
G01 X22.8979 Y31.7607
G01 X22.8873 Y31.7612
G01 X22.8742 Y31.7633
G01 X22.8615 Y31.7671
G01 X22.8175 Y31.7853
G01 X22.8055 Y31.7915
G01 X22.7966 Y31.7975
G01 X22.7883 Y31.8044
G01 X22.7514 Y31.8422
G01 X22.7438 Y31.8524
G01 X22.6726 Y31.9591
G01 X22.5903 Y32.0523
G01 X22.5404 Y32.0968
G01 X22.5329 Y32.1041
G01 X22.5262 Y32.1120
G01 X22.4972 Y32.1503
G01 X22.4917 Y32.1592
G01 X22.4882 Y32.1662
G01 X22.4852 Y32.1734
G01 X22.4827 Y32.1809
G01 X22.4716 Y32.2306
G01 X22.4696 Y32.2433
G01 X22.4691 Y32.2535
G01 X22.4691 Y35.9243
G01 X22.4620 Y36.0181
G01 X22.4483 Y36.0740
G01 X22.4466 Y36.0823
G01 X22.4454 Y36.0936
G01 X22.4432 Y36.1354
G01 X22.4439 Y36.1484
G01 X22.4451 Y36.1562
G01 X22.4469 Y36.1638
G01 X22.4603 Y36.2063
G01 X22.4631 Y36.2135
G01 X22.4663 Y36.2205
G01 X22.4701 Y36.2272
G01 X22.4759 Y36.2357
G01 X22.5015 Y36.2683
G01 X22.5069 Y36.2744
G01 X22.5128 Y36.2801
G01 X22.5235 Y36.2885
G01 X22.5304 Y36.2928
G01 X22.5641 Y36.3124
G01 X22.5756 Y36.3178
G01 X22.5828 Y36.3204
G01 X22.5927 Y36.3231
G01 X22.6312 Y36.3308
G01 X22.6416 Y36.3323
G01 X22.6494 Y36.3328
G01 X22.7547 Y36.3328
G01 X22.7998 Y36.3375
G01 X22.8302 Y36.3483
G01 X22.8591 Y36.3669
G01 X22.8835 Y36.3910
G01 X22.9012 Y36.4193
G01 X22.9121 Y36.4507
G01 X22.9172 Y36.4958
G01 X22.9172 Y37.4727
G01 X22.9121 Y37.5174
G01 X22.9012 Y37.5494
G01 X22.8835 Y37.5775
G01 X22.8597 Y37.6010
G01 X22.8310 Y37.6189
G01 X22.7990 Y37.6303
G01 X22.7538 Y37.6357
G01 X18.9781 Y37.6357
G00 Z2.0000
G00 X18.8147 Y38.5628
G01 F60.00
G01 Z-0.1000
G01 F120.00
G01 X18.8147 Y38.4953
G01 X18.8197 Y38.4510
G01 X18.8311 Y38.4186
G01 X18.8485 Y38.3905
G01 X18.8722 Y38.3674
G01 X18.9011 Y38.3490
G01 X18.9333 Y38.3377
G01 X18.9781 Y38.3323
G01 X19.7447 Y38.3323
G01 X19.7447 Y38.3762
G01 X18.9660 Y38.3762
G01 X18.9528 Y38.3771
G01 X18.9398 Y38.3795
G01 X18.9272 Y38.3835
G01 X18.9176 Y38.3877
G01 X18.9062 Y38.3944
G01 X18.8977 Y38.4007
G01 X18.8880 Y38.4097
G01 X18.8795 Y38.4198
G01 X18.8723 Y38.4309
G01 X18.8675 Y38.4403
G01 X18.8646 Y38.4477
G01 X18.8615 Y38.4578
G01 X18.8594 Y38.4682
G01 X18.8586 Y38.4761
G01 X18.8583 Y38.4840
G01 X18.8583 Y38.5628
G01 X18.8147 Y38.5628
G00 Z2.0000
G00 X18.9777 Y39.6357
G01 F60.00
G01 Z-0.1000
G01 F120.00
G01 X18.9329 Y39.6306
G01 X18.9015 Y39.6196
G01 X18.8725 Y39.6009
G01 X18.8485 Y39.5775
G01 X18.8310 Y39.5492
G01 X18.8197 Y39.5174
G01 X18.8147 Y39.4727
G01 X18.8147 Y39.4057
G01 X18.8583 Y39.4057
G01 X18.8583 Y39.4840
G01 X18.8586 Y39.4919
G01 X18.8594 Y39.4998
G01 X18.8615 Y39.5102
G01 X18.8646 Y39.5203
G01 X18.8686 Y39.5301
G01 X18.8750 Y39.5416
G01 X18.8827 Y39.5523
G01 X18.8917 Y39.5620
G01 X18.8997 Y39.5689
G01 X18.9106 Y39.5764
G01 X18.9200 Y39.5814
G01 X18.9322 Y39.5863
G01 X18.9450 Y39.5897
G01 X18.9555 Y39.5912
G01 X18.9660 Y39.5917
G01 X19.7447 Y39.5917
G01 X19.7447 Y39.6357
G01 X18.9777 Y39.6357
G00 Z2.0000
G00 X21.9871 Y39.6357
G01 F60.00
G01 Z-0.1000
G01 F120.00
G01 X21.9871 Y39.5917
G01 X22.7660 Y39.5917
G01 X22.7792 Y39.5909
G01 X22.7922 Y39.5885
G01 X22.8048 Y39.5845
G01 X22.8168 Y39.5790
G01 X22.8281 Y39.5721
G01 X22.8364 Y39.5656
G01 X22.8441 Y39.5583
G01 X22.8526 Y39.5482
G01 X22.8598 Y39.5371
G01 X22.8645 Y39.5277
G01 X22.8675 Y39.5203
G01 X22.8705 Y39.5102
G01 X22.8726 Y39.4998
G01 X22.8735 Y39.4919
G01 X22.8738 Y39.4840
G01 X22.8738 Y39.4057
G01 X22.9172 Y39.4057
G01 X22.9172 Y39.4727
G01 X22.9121 Y39.5178
G01 X22.9012 Y39.5492
G01 X22.8836 Y39.5772
G01 X22.8594 Y39.6009
G01 X22.8302 Y39.6197
G01 X22.7994 Y39.6306
G01 X22.7542 Y39.6357
G01 X21.9871 Y39.6357
G00 Z2.0000
G00 X22.8738 Y38.5628
G01 F60.00
G01 Z-0.1000
G01 F120.00
G01 X22.8738 Y38.4840
G01 X22.8735 Y38.4761
G01 X22.8722 Y38.4656
G01 X22.8705 Y38.4578
G01 X22.8675 Y38.4477
G01 X22.8645 Y38.4403
G01 X22.8598 Y38.4309
G01 X22.8526 Y38.4198
G01 X22.8441 Y38.4097
G01 X22.8344 Y38.4007
G01 X22.8259 Y38.3944
G01 X22.8145 Y38.3877
G01 X22.8023 Y38.3825
G01 X22.7922 Y38.3795
G01 X22.7792 Y38.3771
G01 X22.7660 Y38.3762
G01 X21.9871 Y38.3762
G01 X21.9871 Y38.3323
G01 X22.7538 Y38.3323
G01 X22.7990 Y38.3377
G01 X22.8306 Y38.3489
G01 X22.8597 Y38.3674
G01 X22.8836 Y38.3908
G01 X22.9012 Y38.4186
G01 X22.9121 Y38.4505
G01 X22.9172 Y38.4953
G01 X22.9172 Y38.5628
G01 X22.8738 Y38.5628
G00 Z2.0000
G00 X24.8645 Y40.7878
G01 F60.00
G01 Z-0.1000
G01 F120.00
G01 X24.8645 Y40.5954
G01 X24.8695 Y40.5509
G01 X24.8808 Y40.5187
G01 X24.8987 Y40.4904
G01 X24.9221 Y40.4670
G01 X24.9509 Y40.4492
G01 X24.9831 Y40.4378
G01 X25.0283 Y40.4323
G01 X25.6949 Y40.4323
G01 X25.6949 Y40.4763
G01 X25.0160 Y40.4763
G01 X25.0054 Y40.4768
G01 X24.9950 Y40.4783
G01 X24.9847 Y40.4809
G01 X24.9747 Y40.4845
G01 X24.9629 Y40.4903
G01 X24.9518 Y40.4975
G01 X24.9436 Y40.5042
G01 X24.9344 Y40.5136
G01 X24.9264 Y40.5242
G01 X24.9197 Y40.5356
G01 X24.9145 Y40.5477
G01 X24.9108 Y40.5604
G01 X24.9087 Y40.5735
G01 X24.9082 Y40.5840
G01 X24.9082 Y40.7878
G01 X24.8645 Y40.7878
G00 Z2.0000
G00 X25.0275 Y42.2351
G01 F60.00
G01 Z-0.1000
G01 F120.00
G01 X24.9823 Y42.2304
G01 X24.9509 Y42.2193
G01 X24.9227 Y42.2018
G01 X24.8991 Y42.1776
G01 X24.8806 Y42.1485
G01 X24.8695 Y42.1174
G01 X24.8645 Y42.0722
G01 X24.8645 Y41.8807
G01 X24.9082 Y41.8807
G01 X24.9082 Y42.0840
G01 X24.9090 Y42.0972
G01 X24.9108 Y42.1076
G01 X24.9145 Y42.1203
G01 X24.9197 Y42.1325
G01 X24.9264 Y42.1439
G01 X24.9344 Y42.1544
G01 X24.9436 Y42.1639
G01 X24.9539 Y42.1721
G01 X24.9652 Y42.1790
G01 X24.9772 Y42.1845
G01 X24.9872 Y42.1879
G01 X24.9976 Y42.1902
G01 X25.0081 Y42.1915
G01 X25.0160 Y42.1918
G01 X25.6949 Y42.1918
G01 X25.6949 Y42.2351
G01 X25.0275 Y42.2351
G00 Z2.0000
G00 X27.7372 Y42.2351
G01 F60.00
G01 Z-0.1000
G01 F120.00
G01 X27.7372 Y42.1918
G01 X28.4160 Y42.1918
G01 X28.4265 Y42.1913
G01 X28.4370 Y42.1897
G01 X28.4473 Y42.1871
G01 X28.4572 Y42.1836
G01 X28.4691 Y42.1778
G01 X28.4802 Y42.1706
G01 X28.4903 Y42.1621
G01 X28.4993 Y42.1524
G01 X28.5070 Y42.1417
G01 X28.5134 Y42.1301
G01 X28.5174 Y42.1203
G01 X28.5211 Y42.1076
G01 X28.5229 Y42.0972
G01 X28.5237 Y42.0840
G01 X28.5237 Y41.8807
G01 X28.5672 Y41.8807
G01 X28.5672 Y42.0722
G01 X28.5621 Y42.1178
G01 X28.5513 Y42.1489
G01 X28.5333 Y42.1773
G01 X28.5091 Y42.2018
G01 X28.4810 Y42.2194
G01 X28.4498 Y42.2304
G01 X28.4047 Y42.2351
G01 X27.7372 Y42.2351
G00 Z2.0000
G00 X28.5237 Y40.7878
G01 F60.00
G01 Z-0.1000
G01 F120.00
G01 X28.5237 Y40.5840
G01 X28.5229 Y40.5708
G01 X28.5211 Y40.5604
G01 X28.5174 Y40.5477
G01 X28.5122 Y40.5356
G01 X28.5070 Y40.5264
G01 X28.4993 Y40.5157
G01 X28.4922 Y40.5078
G01 X28.4823 Y40.4991
G01 X28.4714 Y40.4916
G01 X28.4596 Y40.4855
G01 X28.4498 Y40.4817
G01 X28.4396 Y40.4789
G01 X28.4292 Y40.4771
G01 X28.4186 Y40.4763
G01 X27.7372 Y40.4763
G01 X27.7372 Y40.4323
G01 X28.4038 Y40.4323
G01 X28.4490 Y40.4378
G01 X28.4810 Y40.4491
G01 X28.5096 Y40.4670
G01 X28.5336 Y40.4907
G01 X28.5511 Y40.5183
G01 X28.5621 Y40.5505
G01 X28.5672 Y40.5954
G01 X28.5672 Y40.7878
G01 X28.5237 Y40.7878
G00 Z2.0000
G00 X30.3200 Y38.5665
G01 F60.00
G01 Z-0.1000
G01 F120.00
G01 X30.3761 Y38.5665
G01 X30.4025 Y38.5954
G01 X30.4315 Y38.6219
G01 X30.4315 Y38.6777
G01 X30.4113 Y38.6625
G01 X30.3354 Y38.5870
G01 X30.3200 Y38.5665
G00 Z2.0000
G00 X30.3205 Y37.6235
G01 F60.00
G01 Z-0.1000
G01 F120.00
G01 X30.3355 Y37.6033
G01 X30.4113 Y37.5279
G01 X30.4315 Y37.5128
G01 X30.4315 Y37.5681
G01 X30.4025 Y37.5945
G01 X30.3761 Y37.6235
G01 X30.3205 Y37.6235
G00 Z2.0000
G00 X31.3745 Y37.5681
G01 F60.00
G01 Z-0.1000
G01 F120.00
G01 X31.3745 Y37.5128
G01 X31.3947 Y37.5279
G01 X31.4705 Y37.6033
G01 X31.4855 Y37.6235
G01 X31.4299 Y37.6235
G01 X31.4035 Y37.5945
G01 X31.3745 Y37.5681
G00 Z2.0000
G00 X31.3745 Y38.6777
G01 F60.00
G01 Z-0.1000
G01 F120.00
G01 X31.3745 Y38.6219
G01 X31.4035 Y38.5954
G01 X31.4299 Y38.5665
G01 X31.4860 Y38.5665
G01 X31.4706 Y38.5870
G01 X31.3947 Y38.6625
G01 X31.3745 Y38.6777
G00 Z2.0000
G00 X28.5237 Y34.0873
G01 F60.00
G01 Z-0.1000
G01 F120.00
G01 X28.5237 Y33.8840
G01 X28.5232 Y33.8734
G01 X28.5211 Y33.8604
G01 X28.5174 Y33.8477
G01 X28.5122 Y33.8355
G01 X28.5070 Y33.8263
G01 X28.4993 Y33.8156
G01 X28.4922 Y33.8078
G01 X28.4823 Y33.7990
G01 X28.4714 Y33.7915
G01 X28.4596 Y33.7855
G01 X28.4498 Y33.7816
G01 X28.4396 Y33.7788
G01 X28.4292 Y33.7770
G01 X28.4186 Y33.7762
G01 X27.7372 Y33.7762
G01 X27.7372 Y33.7328
G01 X28.4042 Y33.7328
G01 X28.4494 Y33.7379
G01 X28.4814 Y33.7493
G01 X28.5094 Y33.7665
G01 X28.5333 Y33.7907
G01 X28.5512 Y33.8189
G01 X28.5621 Y33.8506
G01 X28.5672 Y33.8958
G01 X28.5672 Y34.0873
G01 X28.5237 Y34.0873
G00 Z2.0000
G00 X28.7395 Y32.8132
G01 F60.00
G01 Z-0.1000
G01 F120.00
G01 X28.7395 Y32.7597
G01 X28.7729 Y32.7346
G01 X28.8495 Y32.6651
G01 X28.8551 Y32.6595
G01 X28.9210 Y32.5868
G01 X28.9261 Y32.5807
G01 X28.9892 Y32.4954
G01 X29.0424 Y32.4068
G01 X29.0474 Y32.3975
G01 X29.0894 Y32.3088
G01 X29.0926 Y32.3013
G01 X29.1386 Y32.3013
G01 X29.0874 Y32.4151
G01 X29.0154 Y32.5339
G01 X28.9295 Y32.6431
G01 X28.8314 Y32.7412
G01 X28.7395 Y32.8132
G00 Z2.0000
G00 X26.9976 Y32.3013
G01 F60.00
G01 Z-0.1000
G01 F120.00
G01 X27.0436 Y32.3013
G01 X27.0468 Y32.3088
G01 X27.0888 Y32.3975
G01 X27.0938 Y32.4068
G01 X27.1471 Y32.4954
G01 X27.2102 Y32.5807
G01 X27.2153 Y32.5868
G01 X27.2812 Y32.6595
G01 X27.2867 Y32.6651
G01 X27.3633 Y32.7346
G01 X27.3967 Y32.7597
G01 X27.3967 Y32.8132
G01 X27.3048 Y32.7412
G01 X27.2067 Y32.6431
G01 X27.1208 Y32.5339
G01 X27.0489 Y32.4151
G01 X26.9976 Y32.3013
G00 Z2.0000
G00 X25.9233 Y32.2876
G01 F60.00
G01 Z-0.1000
G01 F120.00
G01 X25.9127 Y32.2876
G01 X25.8290 Y32.2834
G01 X25.7409 Y32.2703
G01 X25.6545 Y32.2487
G01 X25.5706 Y32.2187
G01 X25.4901 Y32.1806
G01 X25.4137 Y32.1348
G01 X25.3421 Y32.0817
G01 X25.2761 Y32.0219
G01 X25.2163 Y31.9559
G01 X25.1633 Y31.8843
G01 X25.1175 Y31.8079
G01 X25.0794 Y31.7274
G01 X25.0494 Y31.6435
G01 X25.0277 Y31.5571
G01 X25.0146 Y31.4690
G01 X25.0103 Y31.3800
G01 X25.0146 Y31.2910
G01 X25.0277 Y31.2029
G01 X25.0494 Y31.1165
G01 X25.0794 Y31.0326
G01 X25.1175 Y30.9521
G01 X25.1633 Y30.8757
G01 X25.2163 Y30.8041
G01 X25.2761 Y30.7381
G01 X25.3421 Y30.6783
G01 X25.4137 Y30.6252
G01 X25.4901 Y30.5794
G01 X25.5706 Y30.5413
G01 X25.6545 Y30.5113
G01 X25.7409 Y30.4897
G01 X25.8290 Y30.4766
G01 X25.9180 Y30.4723
G01 X26.0070 Y30.4766
G01 X26.0951 Y30.4897
G01 X26.1815 Y30.5113
G01 X26.2654 Y30.5413
G01 X26.3459 Y30.5794
G01 X26.4223 Y30.6252
G01 X26.4939 Y30.6783
G01 X26.5599 Y30.7381
G01 X26.6197 Y30.8041
G01 X26.6727 Y30.8757
G01 X26.7185 Y30.9521
G01 X26.7566 Y31.0326
G01 X26.7866 Y31.1165
G01 X26.8083 Y31.2029
G01 X26.8214 Y31.2910
G01 X26.8257 Y31.3800
G01 X26.8214 Y31.4690
G01 X26.8083 Y31.5571
G01 X26.7866 Y31.6435
G01 X26.7566 Y31.7274
G01 X26.7185 Y31.8079
G01 X26.6727 Y31.8843
G01 X26.6197 Y31.9559
G01 X26.5599 Y32.0219
G01 X26.4939 Y32.0817
G01 X26.4223 Y32.1348
G01 X26.3459 Y32.1806
G01 X26.2654 Y32.2187
G01 X26.1815 Y32.2487
G01 X26.0951 Y32.2703
G01 X26.0070 Y32.2834
G01 X25.9233 Y32.2876
G00 Z2.0000
G00 X26.9976 Y30.4587
G01 F60.00
G01 Z-0.1000
G01 F120.00
G01 X27.0489 Y30.3454
G01 X27.1208 Y30.2260
G01 X27.2067 Y30.1169
G01 X27.3048 Y30.0188
G01 X27.3967 Y29.9468
G01 X27.3967 Y30.0003
G01 X27.3633 Y30.0254
G01 X27.2867 Y30.0949
G01 X27.2812 Y30.1005
G01 X27.2153 Y30.1732
G01 X27.2102 Y30.1793
G01 X27.1471 Y30.2646
G01 X27.0938 Y30.3532
G01 X27.0888 Y30.3625
G01 X27.0468 Y30.4512
G01 X27.0437 Y30.4587
G01 X26.9976 Y30.4587
G00 Z2.0000
G00 X28.7395 Y29.9468
G01 F60.00
G01 Z-0.1000
G01 F120.00
G01 X28.8314 Y30.0188
G01 X28.9295 Y30.1169
G01 X29.0154 Y30.2260
G01 X29.0874 Y30.3454
G01 X29.1386 Y30.4587
G01 X29.0926 Y30.4587
G01 X29.0894 Y30.4512
G01 X29.0474 Y30.3625
G01 X29.0424 Y30.3532
G01 X28.9892 Y30.2646
G01 X28.9261 Y30.1793
G01 X28.9210 Y30.1732
G01 X28.8551 Y30.1005
G01 X28.8495 Y30.0949
G01 X28.7729 Y30.0254
G01 X28.7395 Y30.0003
G01 X28.7395 Y29.9468
G00 Z2.0000
G00 X46.2286 Y33.7808
G01 F60.00
G01 Z-0.1000
G01 F120.00
G01 X46.2204 Y33.7935
G01 X46.1821 Y33.8450
G01 X46.1355 Y33.8964
G01 X46.0840 Y33.9431
G01 X46.0282 Y33.9845
G01 X45.9686 Y34.0202
G01 X45.9058 Y34.0499
G01 X45.8404 Y34.0733
G01 X45.7731 Y34.0901
G01 X45.7044 Y34.1003
G01 X45.6350 Y34.1037
G01 X45.5656 Y34.1003
G01 X45.4969 Y34.0901
G01 X45.4296 Y34.0733
G01 X45.3642 Y34.0499
G01 X45.3014 Y34.0202
G01 X45.2418 Y33.9845
G01 X45.1860 Y33.9431
G01 X45.1345 Y33.8964
G01 X45.0879 Y33.8450
G01 X45.0465 Y33.7892
G01 X45.0108 Y33.7296
G01 X44.9811 Y33.6668
G01 X44.9577 Y33.6014
G01 X44.9408 Y33.5341
G01 X44.9307 Y33.4654
G01 X44.9273 Y33.3960
G01 X44.9307 Y33.3266
G01 X44.9408 Y33.2579
G01 X44.9577 Y33.1905
G01 X44.9811 Y33.1251
G01 X45.0108 Y33.0624
G01 X45.0465 Y33.0028
G01 X45.0879 Y32.9470
G01 X45.1309 Y32.8994
G01 X45.1384 Y32.8919
G01 X45.1860 Y32.8489
G01 X45.2375 Y32.8106
G01 X45.2463 Y32.8047
G01 X45.3014 Y32.7718
G01 X45.3593 Y32.7443
G01 X45.3691 Y32.7402
G01 X45.4296 Y32.7187
G01 X45.4918 Y32.7030
G01 X45.5021 Y32.7009
G01 X45.5656 Y32.6916
G01 X45.6297 Y32.6884
G01 X45.6376 Y32.6883
G01 X45.7044 Y32.6916
G01 X45.7731 Y32.7018
G01 X45.8404 Y32.7187
G01 X45.9009 Y32.7402
G01 X45.9107 Y32.7443
G01 X45.9639 Y32.7694
G01 X45.9732 Y32.7744
G01 X46.0282 Y32.8075
G01 X46.0840 Y32.8489
G01 X46.1355 Y32.8955
G01 X46.1821 Y32.9470
G01 X46.2235 Y33.0028
G01 X46.2566 Y33.0578
G01 X46.2616 Y33.0671
G01 X46.2889 Y33.1251
G01 X46.3106 Y33.1855
G01 X46.3137 Y33.1956
G01 X46.3280 Y33.2528
G01 X46.3304 Y33.2652
G01 X55.4140 Y33.2652
G01 X55.4393 Y33.2664
G01 X55.4643 Y33.2701
G01 X55.4863 Y33.2755
G01 X55.4939 Y33.2779
G01 X55.5127 Y33.2848
G01 X55.5355 Y33.2956
G01 X55.5572 Y33.3086
G01 X55.5734 Y33.3204
G01 X55.5796 Y33.3254
G01 X55.5963 Y33.3407
G01 X58.6958 Y36.4402
G01 X59.9623 Y36.4402
G01 X59.9661 Y36.4296
G01 X59.9693 Y36.4223
G01 X59.9944 Y36.3691
G01 X59.9994 Y36.3598
G01 X60.0325 Y36.3048
G01 X60.0706 Y36.2532
G01 X60.0756 Y36.2470
G01 X60.1205 Y36.1975
G01 X60.1720 Y36.1509
G01 X60.2278 Y36.1095
G01 X60.2851 Y36.0751
G01 X60.2921 Y36.0714
G01 X60.3502 Y36.0441
G01 X60.4105 Y36.0224
G01 X60.4206 Y36.0193
G01 X60.4778 Y36.0050
G01 X60.4881 Y36.0029
G01 X60.5516 Y35.9936
G01 X60.6210 Y35.9902
G01 X60.6904 Y35.9936
G01 X60.7539 Y36.0029
G01 X60.7642 Y36.0050
G01 X60.8264 Y36.0207
G01 X60.8918 Y36.0441
G01 X60.9546 Y36.0738
G01 X61.0142 Y36.1095
G01 X61.0700 Y36.1509
G01 X61.1215 Y36.1975
G01 X61.1681 Y36.2490
G01 X61.2095 Y36.3048
G01 X61.2452 Y36.3644
G01 X61.2749 Y36.4271
G01 X61.2983 Y36.4925
G01 X61.3152 Y36.5599
G01 X61.3253 Y36.6286
G01 X61.3287 Y36.6980
G01 X61.3253 Y36.7674
G01 X61.3152 Y36.8361
G01 X61.2983 Y36.9034
G01 X61.2749 Y36.9688
G01 X61.2452 Y37.0316
G01 X61.2123 Y37.0867
G01 X61.2064 Y37.0955
G01 X61.1714 Y37.1428
G01 X61.1646 Y37.1510
G01 X61.1215 Y37.1984
G01 X61.0700 Y37.2451
G01 X61.0142 Y37.2865
G01 X60.9592 Y37.3196
G01 X60.9499 Y37.3245
G01 X60.8967 Y37.3497
G01 X60.8869 Y37.3538
G01 X60.8264 Y37.3753
G01 X60.7591 Y37.3921
G01 X60.6904 Y37.4023
G01 X60.6236 Y37.4057
G01 X60.6157 Y37.4056
G01 X60.5569 Y37.4027
G01 X60.5464 Y37.4017
G01 X60.4829 Y37.3921
G01 X60.4156 Y37.3753
G01 X60.3502 Y37.3519
G01 X60.2921 Y37.3245
G01 X60.2828 Y37.3196
G01 X60.2278 Y37.2865
G01 X60.1762 Y37.2483
G01 X60.1680 Y37.2416
G01 X60.1205 Y37.1984
G01 X60.0739 Y37.1470
G01 X60.0325 Y37.0912
G01 X59.9994 Y37.0362
G01 X59.9944 Y37.0269
G01 X59.9693 Y36.9737
G01 X59.9661 Y36.9664
G01 X59.9623 Y36.9558
G01 X58.5864 Y36.9558
G01 X58.5664 Y36.9548
G01 X58.5585 Y36.9539
G01 X58.5387 Y36.9509
G01 X58.5193 Y36.9461
G01 X58.5116 Y36.9439
G01 X58.4928 Y36.9372
G01 X58.4698 Y36.9266
G01 X58.4502 Y36.9152
G01 X58.4414 Y36.9093
G01 X58.4254 Y36.8973
G01 X58.4067 Y36.8803
G01 X55.3072 Y33.7808
G01 X46.2286 Y33.7808
G00 Z2.0000
G00 X46.1724 Y36.7111
G01 F60.00
G01 Z-0.1000
G01 F120.00
G01 X46.1574 Y36.7178
G01 X46.0970 Y36.7395
G01 X46.0894 Y36.7417
G01 X46.0271 Y36.7571
G01 X45.9584 Y36.7673
G01 X45.8890 Y36.7707
G01 X45.8196 Y36.7673
G01 X45.7509 Y36.7571
G01 X45.6836 Y36.7403
G01 X45.6182 Y36.7169
G01 X45.5554 Y36.6872
G01 X45.4958 Y36.6515
G01 X45.4400 Y36.6101
G01 X45.3885 Y36.5634
G01 X45.3419 Y36.5120
G01 X45.3005 Y36.4562
G01 X45.2648 Y36.3966
G01 X45.2351 Y36.3338
G01 X45.2117 Y36.2684
G01 X45.1948 Y36.2011
G01 X45.1847 Y36.1324
G01 X45.1813 Y36.0630
G01 X45.1847 Y35.9936
G01 X45.1948 Y35.9249
G01 X45.2117 Y35.8575
G01 X45.2351 Y35.7921
G01 X45.2648 Y35.7294
G01 X45.3005 Y35.6698
G01 X45.3419 Y35.6140
G01 X45.3885 Y35.5625
G01 X45.4400 Y35.5159
G01 X45.4958 Y35.4745
G01 X45.5554 Y35.4388
G01 X45.6182 Y35.4091
G01 X45.6836 Y35.3857
G01 X45.7458 Y35.3700
G01 X45.7561 Y35.3679
G01 X45.8196 Y35.3586
G01 X45.8890 Y35.3552
G01 X45.9531 Y35.3583
G01 X45.9636 Y35.3593
G01 X46.0271 Y35.3688
G01 X46.0894 Y35.3843
G01 X46.0995 Y35.3874
G01 X46.1598 Y35.4091
G01 X46.2226 Y35.4388
G01 X46.2822 Y35.4745
G01 X46.3338 Y35.5126
G01 X46.3420 Y35.5193
G01 X46.3895 Y35.5625
G01 X46.4326 Y35.6100
G01 X46.4394 Y35.6182
G01 X46.4775 Y35.6698
G01 X46.5132 Y35.7294
G01 X46.5429 Y35.7921
G01 X46.5646 Y35.8525
G01 X46.5677 Y35.8626
G01 X46.5832 Y35.9249
G01 X46.5933 Y35.9936
G01 X46.5966 Y36.0577
G01 X46.5966 Y36.0683
G01 X46.5933 Y36.1324
G01 X46.5832 Y36.2011
G01 X46.5677 Y36.2633
G01 X46.5646 Y36.2735
G01 X46.5448 Y36.3289
G01 X46.5418 Y36.3363
G01 X46.5371 Y36.3464
G01 X46.7578 Y36.5672
G01 X53.7630 Y36.5672
G01 X53.7883 Y36.5684
G01 X53.8081 Y36.5712
G01 X53.8185 Y36.5733
G01 X53.8404 Y36.5791
G01 X53.8617 Y36.5868
G01 X53.8822 Y36.5964
G01 X53.9018 Y36.6078
G01 X53.9106 Y36.6137
G01 X53.9266 Y36.6257
G01 X53.9434 Y36.6408
G01 X55.7748 Y38.4722
G01 X59.3510 Y38.4722
G01 X59.3763 Y38.4734
G01 X59.4013 Y38.4771
G01 X59.4258 Y38.4833
G01 X59.4447 Y38.4899
G01 X59.4521 Y38.4928
G01 X59.4725 Y38.5026
G01 X59.4942 Y38.5156
G01 X59.5146 Y38.5307
G01 X59.5333 Y38.5477
G01 X63.2007 Y42.2151
G01 X63.2330 Y42.2169
G01 X63.2939 Y42.2259
G01 X63.3017 Y42.2274
G01 X63.3664 Y42.2437
G01 X63.4269 Y42.2652
G01 X63.4343 Y42.2682
G01 X63.4946 Y42.2968
G01 X63.5542 Y42.3325
G01 X63.6100 Y42.3739
G01 X63.6576 Y42.4169
G01 X63.6633 Y42.4224
G01 X63.7081 Y42.4720
G01 X63.7464 Y42.5235
G01 X63.7523 Y42.5323
G01 X63.7852 Y42.5874
G01 X63.8127 Y42.6453
G01 X63.8168 Y42.6551
G01 X63.8383 Y42.7155
G01 X63.8552 Y42.7829
G01 X63.8653 Y42.8516
G01 X63.8686 Y42.9157
G01 X63.8686 Y42.9263
G01 X63.8653 Y42.9904
G01 X63.8561 Y43.0539
G01 X63.8540 Y43.0642
G01 X63.8383 Y43.1264
G01 X63.8168 Y43.1869
G01 X63.8127 Y43.1967
G01 X63.7852 Y43.2546
G01 X63.7523 Y43.3097
G01 X63.7464 Y43.3185
G01 X63.7081 Y43.3700
G01 X63.6651 Y43.4176
G01 X63.6576 Y43.4251
G01 X63.6100 Y43.4681
G01 X63.5542 Y43.5095
G01 X63.4992 Y43.5426
G01 X63.4899 Y43.5475
G01 X63.4318 Y43.5749
G01 X63.3715 Y43.5966
G01 X63.3614 Y43.5997
G01 X63.2991 Y43.6151
G01 X63.2304 Y43.6253
G01 X63.1663 Y43.6286
G01 X63.1557 Y43.6286
G01 X63.0916 Y43.6253
G01 X63.0281 Y43.6160
G01 X63.0178 Y43.6140
G01 X62.9556 Y43.5983
G01 X62.8902 Y43.5749
G01 X62.8321 Y43.5475
G01 X62.8228 Y43.5426
G01 X62.7678 Y43.5095
G01 X62.7162 Y43.4713
G01 X62.7080 Y43.4646
G01 X62.6644 Y43.4251
G01 X62.6569 Y43.4176
G01 X62.6139 Y43.3700
G01 X62.5725 Y43.3142
G01 X62.5368 Y43.2546
G01 X62.5071 Y43.1918
G01 X62.4837 Y43.1264
G01 X62.4668 Y43.0591
G01 X62.4567 Y42.9904
G01 X62.4533 Y42.9210
G01 X62.4567 Y42.8516
G01 X62.4668 Y42.7829
G01 X62.4837 Y42.7155
G01 X62.5071 Y42.6501
G01 X62.5368 Y42.5874
G01 X62.5725 Y42.5278
G01 X62.6139 Y42.4720
G01 X62.6587 Y42.4224
G01 X62.6690 Y42.4127
G01 X59.2442 Y38.9878
G01 X55.6680 Y38.9878
G01 X55.6427 Y38.9866
G01 X55.6229 Y38.9838
G01 X55.6125 Y38.9817
G01 X55.5906 Y38.9759
G01 X55.5718 Y38.9692
G01 X55.5645 Y38.9660
G01 X55.5465 Y38.9574
G01 X55.5292 Y38.9472
G01 X55.5226 Y38.9429
G01 X55.5044 Y38.9293
G01 X55.4857 Y38.9123
G01 X53.6562 Y37.0828
G01 X46.6510 Y37.0828
G01 X46.6310 Y37.0820
G01 X46.6231 Y37.0813
G01 X46.6059 Y37.0788
G01 X46.5955 Y37.0767
G01 X46.5762 Y37.0717
G01 X46.5523 Y37.0632
G01 X46.5318 Y37.0536
G01 X46.5249 Y37.0498
G01 X46.5078 Y37.0394
G01 X46.4874 Y37.0243
G01 X46.4687 Y37.0073
G01 X46.1724 Y36.7111
G00 Z2.0000
G00 X46.5765 Y38.5125
G01 F60.00
G01 Z-0.1000
G01 F120.00
G01 X46.5915 Y38.4923
G01 X46.6673 Y38.4169
G01 X46.6875 Y38.4018
G01 X46.6875 Y38.4571
G01 X46.6585 Y38.4835
G01 X46.6321 Y38.5125
G01 X46.5765 Y38.5125
G00 Z2.0000
G00 X46.5760 Y39.4555
G01 F60.00
G01 Z-0.1000
G01 F120.00
G01 X46.6321 Y39.4555
G01 X46.6585 Y39.4844
G01 X46.6875 Y39.5109
G01 X46.6875 Y39.5667
G01 X46.6673 Y39.5515
G01 X46.5914 Y39.4760
G01 X46.5760 Y39.4555
G00 Z2.0000
G00 X48.3980 Y46.2149
G01 F60.00
G01 Z-0.1000
G01 F120.00
G01 X48.3880 Y46.2144
G01 X48.3755 Y46.2125
G01 X48.3348 Y46.2038
G01 X48.3271 Y46.2017
G01 X48.3195 Y46.1989
G01 X48.3122 Y46.1956
G01 X48.3051 Y46.1918
G01 X48.2703 Y46.1701
G01 X48.2616 Y46.1640
G01 X48.2535 Y46.1571
G01 X48.2461 Y46.1494
G01 X48.2395 Y46.1411
G01 X48.2157 Y46.1074
G01 X48.2115 Y46.1006
G01 X48.2067 Y46.0912
G01 X48.2028 Y46.0813
G01 X48.2000 Y46.0710
G01 X48.1908 Y46.0305
G01 X48.1896 Y46.0230
G01 X48.1887 Y46.0130
G01 X47.8727 Y37.3410
G01 X47.8729 Y37.3334
G01 X47.8739 Y37.3233
G01 X47.8814 Y37.2807
G01 X47.8837 Y37.2706
G01 X47.8870 Y37.2607
G01 X47.8912 Y37.2513
G01 X47.8962 Y37.2422
G01 X47.9190 Y37.2060
G01 X47.9236 Y37.1996
G01 X47.9286 Y37.1936
G01 X47.9379 Y37.1844
G01 X47.9460 Y37.1779
G01 X47.9839 Y37.1521
G01 X47.9951 Y37.1457
G01 X48.0046 Y37.1417
G01 X48.0144 Y37.1385
G01 X48.0591 Y37.1286
G01 X48.0718 Y37.1267
G01 X48.0820 Y37.1262
G01 X53.5517 Y37.1262
G01 X53.5600 Y37.1265
G01 X53.5711 Y37.1279
G01 X53.6178 Y37.1379
G01 X53.6255 Y37.1402
G01 X53.6356 Y37.1443
G01 X53.6475 Y37.1507
G01 X53.6828 Y37.1740
G01 X53.6915 Y37.1805
G01 X53.6975 Y37.1858
G01 X55.4479 Y38.9356
G01 X55.5015 Y38.9797
G01 X55.5532 Y39.0079
G01 X55.6090 Y39.0245
G01 X55.6782 Y39.0312
G01 X59.1397 Y39.0312
G01 X59.1508 Y39.0318
G01 X59.1591 Y39.0329
G01 X59.2031 Y39.0422
G01 X59.2161 Y39.0461
G01 X59.2284 Y39.0517
G01 X59.2377 Y39.0572
G01 X59.2730 Y39.0806
G01 X59.2815 Y39.0872
G01 X59.2875 Y39.0927
G01 X62.4823 Y42.2875
G01 X62.4909 Y42.2972
G01 X62.4969 Y42.3057
G01 X62.5217 Y42.3446
G01 X62.5280 Y42.3566
G01 X62.5318 Y42.3667
G01 X62.5341 Y42.3744
G01 X62.5357 Y42.3824
G01 X62.5426 Y42.4303
G01 X62.5433 Y42.4431
G01 X62.5428 Y42.4534
G01 X62.5418 Y42.4610
G01 X62.5396 Y42.4711
G01 X62.5267 Y42.5147
G01 X62.5234 Y42.5242
G01 X62.5180 Y42.5356
G01 X62.4780 Y42.6091
G01 X62.4407 Y42.7095
G01 X62.4180 Y42.8145
G01 X62.4100 Y42.9215
G01 X62.4180 Y43.0279
G01 X62.4407 Y43.1325
G01 X62.4780 Y43.2333
G01 X62.5295 Y43.3274
G01 X62.5934 Y43.4130
G01 X62.6693 Y43.4885
G01 X62.7550 Y43.5529
G01 X62.8491 Y43.6039
G01 X62.9497 Y43.6414
G01 X63.0541 Y43.6645
G01 X63.1610 Y43.6720
G01 X63.2679 Y43.6645
G01 X63.3722 Y43.6414
G01 X63.4729 Y43.6039
G01 X63.5669 Y43.5529
G01 X63.6527 Y43.4885
G01 X63.7286 Y43.4130
G01 X63.7925 Y43.3274
G01 X63.8440 Y43.2333
G01 X63.8813 Y43.1325
G01 X63.9040 Y43.0279
G01 X63.9120 Y42.9215
G01 X63.9040 Y42.8145
G01 X63.8813 Y42.7095
G01 X63.8441 Y42.6093
G01 X63.7925 Y42.5155
G01 X63.7285 Y42.4293
G01 X63.6527 Y42.3539
G01 X63.5669 Y42.2895
G01 X63.4727 Y42.2384
G01 X63.3721 Y42.2006
G01 X63.2680 Y42.1777
G01 X63.2581 Y42.1744
G01 X63.2288 Y42.1634
G01 X63.2172 Y42.1579
G01 X63.2085 Y42.1525
G01 X63.1810 Y42.1328
G01 X63.1714 Y42.1247
G01 X59.5713 Y38.5241
G01 X59.5177 Y38.4804
G01 X59.4661 Y38.4522
G01 X59.4101 Y38.4359
G01 X59.3405 Y38.4288
G01 X55.8793 Y38.4288
G01 X55.8709 Y38.4285
G01 X55.8599 Y38.4270
G01 X55.8159 Y38.4178
G01 X55.8058 Y38.4149
G01 X55.7937 Y38.4099
G01 X55.7822 Y38.4034
G01 X55.7450 Y38.3792
G01 X55.7390 Y38.3746
G01 X55.7315 Y38.3678
G01 X53.9833 Y36.6191
G01 X53.9297 Y36.5754
G01 X53.8781 Y36.5472
G01 X53.8221 Y36.5309
G01 X53.7525 Y36.5238
G01 X48.0450 Y36.5238
G01 X48.0370 Y36.5235
G01 X48.0264 Y36.5222
G01 X47.9857 Y36.5141
G01 X47.9753 Y36.5115
G01 X47.9653 Y36.5078
G01 X47.9580 Y36.5045
G01 X47.9510 Y36.5006
G01 X47.9141 Y36.4769
G01 X47.9038 Y36.4691
G01 X47.8946 Y36.4600
G01 X47.8880 Y36.4521
G01 X47.8626 Y36.4163
G01 X47.8572 Y36.4073
G01 X47.8537 Y36.4002
G01 X47.8498 Y36.3904
G01 X47.8470 Y36.3802
G01 X47.8378 Y36.3401
G01 X47.8365 Y36.3326
G01 X47.8358 Y36.3250
G01 X47.7528 Y34.0388
G01 X47.7530 Y34.0308
G01 X47.7542 Y34.0201
G01 X47.7613 Y33.9774
G01 X47.7630 Y33.9699
G01 X47.7652 Y33.9625
G01 X47.7691 Y33.9529
G01 X47.7738 Y33.9437
G01 X47.7998 Y33.9030
G01 X47.8062 Y33.8945
G01 X47.8115 Y33.8886
G01 X47.8192 Y33.8813
G01 X47.8255 Y33.8764
G01 X47.8651 Y33.8491
G01 X47.8744 Y33.8439
G01 X47.8866 Y33.8388
G01 X47.8968 Y33.8358
G01 X47.9420 Y33.8261
G01 X47.9520 Y33.8247
G01 X47.9621 Y33.8242
G01 X55.2055 Y33.8242
G01 X55.2166 Y33.8251
G01 X55.2248 Y33.8265
G01 X55.2661 Y33.8352
G01 X55.2739 Y33.8374
G01 X55.2816 Y33.8401
G01 X55.2914 Y33.8447
G01 X55.3007 Y33.8502
G01 X55.3360 Y33.8736
G01 X55.3425 Y33.8785
G01 X55.3485 Y33.8838
G01 X58.3689 Y36.9036
G01 X58.4225 Y36.9477
G01 X58.4742 Y36.9759
G01 X58.5300 Y36.9925
G01 X58.5992 Y36.9992
G01 X59.8082 Y36.9992
G01 X59.8167 Y36.9995
G01 X59.8251 Y37.0005
G01 X59.8660 Y37.0081
G01 X59.8760 Y37.0107
G01 X59.8834 Y37.0133
G01 X59.8905 Y37.0165
G01 X59.8974 Y37.0201
G01 X59.9352 Y37.0432
G01 X59.9439 Y37.0497
G01 X59.9500 Y37.0552
G01 X59.9556 Y37.0611
G01 X59.9607 Y37.0674
G01 X60.0532 Y37.1898
G01 X60.1293 Y37.2655
G01 X60.2150 Y37.3299
G01 X60.3091 Y37.3809
G01 X60.4097 Y37.4184
G01 X60.5141 Y37.4415
G01 X60.6210 Y37.4490
G01 X60.7279 Y37.4415
G01 X60.8322 Y37.4184
G01 X60.9329 Y37.3809
G01 X61.0269 Y37.3299
G01 X61.1127 Y37.2655
G01 X61.1886 Y37.1900
G01 X61.2525 Y37.1044
G01 X61.3040 Y37.0103
G01 X61.3413 Y36.9095
G01 X61.3640 Y36.8049
G01 X61.3720 Y36.6985
G01 X61.3640 Y36.5915
G01 X61.3413 Y36.4865
G01 X61.3041 Y36.3863
G01 X61.2525 Y36.2925
G01 X61.1885 Y36.2063
G01 X61.1127 Y36.1309
G01 X61.0269 Y36.0665
G01 X60.9327 Y36.0154
G01 X60.8322 Y35.9776
G01 X60.7281 Y35.9550
G01 X60.6210 Y35.9475
G01 X60.5139 Y35.9550
G01 X60.4097 Y35.9776
G01 X60.3092 Y36.0154
G01 X60.2150 Y36.0665
G01 X60.1293 Y36.1309
G01 X60.0532 Y36.2067
G01 X59.9607 Y36.3291
G01 X59.9556 Y36.3354
G01 X59.9500 Y36.3413
G01 X59.9439 Y36.3468
G01 X59.9352 Y36.3533
G01 X59.8950 Y36.3777
G01 X59.8877 Y36.3813
G01 X59.8802 Y36.3843
G01 X59.8725 Y36.3868
G01 X59.8646 Y36.3887
G01 X59.8238 Y36.3957
G01 X59.8160 Y36.3965
G01 X59.8082 Y36.3968
G01 X58.8003 Y36.3968
G01 X58.7892 Y36.3962
G01 X58.7809 Y36.3950
G01 X58.7369 Y36.3858
G01 X58.7293 Y36.3837
G01 X58.7219 Y36.3810
G01 X58.7147 Y36.3779
G01 X58.7077 Y36.3742
G01 X58.6681 Y36.3487
G01 X58.6600 Y36.3426
G01 X58.6525 Y36.3358
G01 X55.6343 Y33.3171
G01 X55.5807 Y33.2734
G01 X55.5291 Y33.2452
G01 X55.4731 Y33.2289
G01 X55.4035 Y33.2218
G01 X47.9246 Y33.2218
G01 X47.9138 Y33.2213
G01 X47.9031 Y33.2197
G01 X47.8630 Y33.2115
G01 X47.8553 Y33.2094
G01 X47.8477 Y33.2068
G01 X47.8380 Y33.2024
G01 X47.8311 Y33.1986
G01 X47.7942 Y33.1749
G01 X47.7839 Y33.1670
G01 X47.7764 Y33.1599
G01 X47.7681 Y33.1500
G01 X47.7427 Y33.1143
G01 X47.7386 Y33.1076
G01 X47.7349 Y33.1006
G01 X47.7308 Y33.0909
G01 X47.7271 Y33.0782
G01 X47.7179 Y33.0382
G01 X47.7166 Y33.0306
G01 X47.7158 Y33.0204
G01 X47.4135 Y24.7273
G01 X47.4137 Y24.7164
G01 X47.4150 Y24.7055
G01 X47.4220 Y24.6637
G01 X47.4238 Y24.6559
G01 X47.4262 Y24.6483
G01 X47.4303 Y24.6384
G01 X47.4353 Y24.6290
G01 X47.4601 Y24.5899
G01 X47.4664 Y24.5813
G01 X47.4756 Y24.5715
G01 X47.4858 Y24.5629
G01 X47.5237 Y24.5365
G01 X47.5305 Y24.5324
G01 X47.5376 Y24.5287
G01 X47.5475 Y24.5247
G01 X47.5602 Y24.5211
G01 X47.6050 Y24.5125
G01 X47.6126 Y24.5115
G01 X47.6202 Y24.5111
G01 X51.7513 Y24.5110
G01 X51.7596 Y24.5113
G01 X51.7679 Y24.5123
G01 X51.8122 Y24.5204
G01 X51.8248 Y24.5237
G01 X51.8368 Y24.5286
G01 X51.8437 Y24.5322
G01 X51.8524 Y24.5377
G01 X51.8871 Y24.5622
G01 X51.8976 Y24.5710
G01 X51.9033 Y24.5769
G01 X51.9101 Y24.5854
G01 X51.9355 Y24.6223
G01 X51.9408 Y24.6313
G01 X51.9441 Y24.6383
G01 X51.9470 Y24.6456
G01 X51.9493 Y24.6531
G01 X51.9591 Y24.7023
G01 X51.9605 Y24.7152
G01 X51.9607 Y26.6684
G01 X51.9664 Y26.7140
G01 X51.9780 Y26.7447
G01 X52.0009 Y26.7781
G01 X52.0181 Y26.7956
G01 X52.0380 Y26.8101
G01 X52.0698 Y26.8244
G01 X52.1219 Y26.8326
G01 X55.1468 Y26.8326
G01 X55.1930 Y26.8264
G01 X55.2242 Y26.8150
G01 X55.2566 Y26.7925
G01 X55.2741 Y26.7754
G01 X55.2888 Y26.7549
G01 X55.3032 Y26.7232
G01 X55.3113 Y26.6713
G01 X55.3113 Y24.7559
G01 X55.3121 Y24.7430
G01 X55.3215 Y24.6937
G01 X55.3242 Y24.6837
G01 X55.3278 Y24.6739
G01 X55.3324 Y24.6646
G01 X55.3379 Y24.6557
G01 X55.3618 Y24.6211
G01 X55.3666 Y24.6149
G01 X55.3719 Y24.6090
G01 X55.3796 Y24.6019
G01 X55.3880 Y24.5955
G01 X55.4227 Y24.5717
G01 X55.4294 Y24.5677
G01 X55.4363 Y24.5642
G01 X55.4459 Y24.5603
G01 X55.4559 Y24.5573
G01 X55.5052 Y24.5477
G01 X55.5129 Y24.5469
G01 X55.5207 Y24.5466
G01 X66.2700 Y24.5466
G01 X66.2826 Y24.5473
G01 X66.2925 Y24.5490
G01 X66.3377 Y24.5587
G01 X66.3452 Y24.5608
G01 X66.3525 Y24.5634
G01 X66.3619 Y24.5677
G01 X66.3731 Y24.5743
G01 X66.4159 Y24.6064
G01 X66.4235 Y24.6134
G01 X66.4305 Y24.6210
G01 X66.4367 Y24.6294
G01 X66.4420 Y24.6382
G01 X66.4628 Y24.6768
G01 X66.4673 Y24.6863
G01 X66.4701 Y24.6936
G01 X66.4724 Y24.7011
G01 X66.4748 Y24.7140
G01 X66.4782 Y24.7687
G01 X66.4781 Y24.7792
G01 X66.4768 Y24.7898
G01 X66.4746 Y24.8001
G01 X66.4714 Y24.8102
G01 X66.4541 Y24.8528
G01 X66.4509 Y24.8600
G01 X66.4471 Y24.8670
G01 X66.4429 Y24.8737
G01 X66.4347 Y24.8840
G01 X66.3977 Y24.9202
G01 X66.3917 Y24.9256
G01 X66.3809 Y24.9335
G01 X66.3171 Y24.9722
G01 X66.2079 Y25.0577
G01 X66.1095 Y25.1562
G01 X66.0240 Y25.2653
G01 X65.9520 Y25.3842
G01 X65.8949 Y25.5110
G01 X65.8536 Y25.6434
G01 X65.8285 Y25.7803
G01 X65.8201 Y25.9192
G01 X65.8285 Y26.0581
G01 X65.8535 Y26.1946
G01 X65.8949 Y26.3270
G01 X65.9520 Y26.4542
G01 X66.0240 Y26.5727
G01 X66.1095 Y26.6824
G01 X66.2079 Y26.7808
G01 X66.3171 Y26.8662
G01 X66.4360 Y26.9382
G01 X66.5626 Y26.9953
G01 X66.6956 Y27.0362
G01 X66.8323 Y27.0618
G01 X66.9710 Y27.0701
G01 X67.1097 Y27.0618
G01 X67.2464 Y27.0362
G01 X67.3794 Y26.9953
G01 X67.5060 Y26.9382
G01 X67.6249 Y26.8662
G01 X67.7341 Y26.7808
G01 X67.8325 Y26.6824
G01 X67.9181 Y26.5726
G01 X67.9555 Y26.5113
G01 X67.9617 Y26.5022
G01 X67.9688 Y26.4938
G01 X68.0006 Y26.4599
G01 X68.0065 Y26.4543
G01 X68.0127 Y26.4493
G01 X68.0216 Y26.4433
G01 X68.0287 Y26.4393
G01 X68.0385 Y26.4350
G01 X68.0841 Y26.4174
G01 X68.0943 Y26.4146
G01 X68.1020 Y26.4132
G01 X68.1099 Y26.4123
G01 X68.1178 Y26.4120
G01 X68.1693 Y26.4143
G01 X68.1771 Y26.4151
G01 X68.1848 Y26.4165
G01 X68.1973 Y26.4200
G01 X68.2092 Y26.4250
G01 X68.2547 Y26.4500
G01 X68.2656 Y26.4573
G01 X68.2755 Y26.4659
G01 X68.2843 Y26.4756
G01 X68.3140 Y26.5143
G01 X68.3197 Y26.5231
G01 X68.3235 Y26.5301
G01 X68.3286 Y26.5423
G01 X68.3315 Y26.5525
G01 X68.3418 Y26.6002
G01 X68.3434 Y26.6127
G01 X68.3437 Y26.6203
G01 X68.3435 Y43.6377
G01 X68.3419 Y43.6514
G01 X68.3328 Y43.6957
G01 X68.3308 Y43.7036
G01 X68.3273 Y43.7138
G01 X68.3228 Y43.7237
G01 X68.3173 Y43.7330
G01 X68.2878 Y43.7736
G01 X68.2811 Y43.7815
G01 X68.2736 Y43.7888
G01 X68.2654 Y43.7953
G01 X68.2589 Y43.7996
G01 X68.2154 Y43.8249
G01 X68.2033 Y43.8302
G01 X68.1905 Y43.8341
G01 X68.1801 Y43.8360
G01 X68.1326 Y43.8412
G01 X68.1221 Y43.8415
G01 X68.1089 Y43.8405
G01 X68.0984 Y43.8385
G01 X68.0908 Y43.8364
G01 X68.0051 Y43.8066
G01 X67.9596 Y43.8019
G01 X67.6421 Y43.8019
G01 X67.6421 Y43.8452
G01 X67.9710 Y43.8452
G01 X67.9789 Y43.8455
G01 X67.9894 Y43.8468
G01 X67.9972 Y43.8485
G01 X68.0073 Y43.8515
G01 X68.0147 Y43.8545
G01 X68.0218 Y43.8580
G01 X68.0309 Y43.8634
G01 X68.0394 Y43.8697
G01 X68.0453 Y43.8750
G01 X68.0526 Y43.8826
G01 X68.0575 Y43.8888
G01 X68.0634 Y43.8976
G01 X68.0684 Y43.9069
G01 X68.0715 Y43.9142
G01 X68.0748 Y43.9243
G01 X68.0772 Y43.9346
G01 X68.0785 Y43.9451
G01 X68.0787 Y43.9530
G01 X68.0787 Y44.2814
G01 X68.1343 Y44.2814
G01 X68.1453 Y44.2819
G01 X68.1562 Y44.2836
G01 X68.2004 Y44.2929
G01 X68.2128 Y44.2969
G01 X68.2200 Y44.3000
G01 X68.2269 Y44.3037
G01 X68.2682 Y44.3311
G01 X68.2743 Y44.3358
G01 X68.2801 Y44.3410
G01 X68.2856 Y44.3465
G01 X68.2906 Y44.3524
G01 X68.3175 Y44.3917
G01 X68.3231 Y44.4010
G01 X68.3278 Y44.4108
G01 X68.3322 Y44.4236
G01 X68.3341 Y44.4315
G01 X68.3417 Y44.4706
G01 X68.3432 Y44.4809
G01 X68.3437 Y44.4912
G01 X68.3437 Y45.4148
G01 X68.3432 Y45.4252
G01 X68.3416 Y45.4356
G01 X68.3322 Y45.4820
G01 X68.3289 Y45.4920
G01 X68.3234 Y45.5041
G01 X68.3179 Y45.5132
G01 X68.2956 Y45.5467
G01 X68.2908 Y45.5533
G01 X68.2855 Y45.5596
G01 X68.2797 Y45.5654
G01 X68.2692 Y45.5741
G01 X68.2279 Y45.6022
G01 X68.2163 Y45.6081
G01 X68.2091 Y45.6109
G01 X68.2016 Y45.6132
G01 X68.1549 Y45.6226
G01 X68.1447 Y45.6241
G01 X68.1343 Y45.6246
G01 X68.0787 Y45.6246
G01 X68.0787 Y45.9530
G01 X68.0785 Y45.9609
G01 X68.0772 Y45.9714
G01 X68.0755 Y45.9792
G01 X68.0733 Y45.9868
G01 X68.0705 Y45.9942
G01 X68.0672 Y46.0014
G01 X68.0634 Y46.0084
G01 X68.0591 Y46.0150
G01 X68.0543 Y46.0213
G01 X68.0472 Y46.0292
G01 X68.0394 Y46.0363
G01 X68.0309 Y46.0426
G01 X68.0218 Y46.0480
G01 X68.0122 Y46.0525
G01 X68.0023 Y46.0561
G01 X67.9920 Y46.0587
G01 X67.9816 Y46.0602
G01 X67.9710 Y46.0607
G01 X67.6334 Y46.0607
G01 X67.6314 Y46.0705
G01 X67.6283 Y46.0808
G01 X67.6241 Y46.0908
G01 X67.6191 Y46.1002
G01 X67.5913 Y46.1416
G01 X67.5827 Y46.1518
G01 X67.5729 Y46.1608
G01 X67.5643 Y46.1671
G01 X67.5290 Y46.1904
G01 X67.5219 Y46.1944
G01 X67.5146 Y46.1980
G01 X67.5044 Y46.2018
G01 X67.4965 Y46.2039
G01 X67.4547 Y46.2127
G01 X67.4465 Y46.2140
G01 X67.4328 Y46.2149
G01 X66.5092 Y46.2149
G01 X66.5009 Y46.2146
G01 X66.4900 Y46.2132
G01 X66.4455 Y46.2039
G01 X66.4376 Y46.2018
G01 X66.4274 Y46.1980
G01 X66.4200 Y46.1944
G01 X66.4107 Y46.1889
G01 X66.3754 Y46.1656
G01 X66.3670 Y46.1591
G01 X66.3575 Y46.1498
G01 X66.3507 Y46.1416
G01 X66.3229 Y46.1002
G01 X66.3178 Y46.0908
G01 X66.3137 Y46.0808
G01 X66.3106 Y46.0705
G01 X66.3086 Y46.0607
G01 X65.9710 Y46.0607
G01 X65.9631 Y46.0604
G01 X65.9552 Y46.0596
G01 X65.9474 Y46.0581
G01 X65.9397 Y46.0561
G01 X65.9298 Y46.0525
G01 X65.9226 Y46.0492
G01 X65.9156 Y46.0454
G01 X65.9090 Y46.0411
G01 X65.9006 Y46.0346
G01 X65.8930 Y46.0273
G01 X65.8861 Y46.0193
G01 X65.8800 Y46.0106
G01 X65.8760 Y46.0038
G01 X65.8715 Y45.9942
G01 X65.8679 Y45.9843
G01 X65.8653 Y45.9740
G01 X65.8638 Y45.9636
G01 X65.8633 Y45.9530
G01 X65.8633 Y45.6246
G01 X65.8199 Y45.6246
G01 X65.8199 Y45.9414
G01 X65.8246 Y45.9856
G01 X65.8250 Y45.9965
G01 X65.8245 Y46.0047
G01 X65.8198 Y46.0520
G01 X65.8179 Y46.0622
G01 X65.8149 Y46.0721
G01 X65.8110 Y46.0817
G01 X65.8063 Y46.0908
G01 X65.7835 Y46.1297
G01 X65.7757 Y46.1408
G01 X65.7685 Y46.1488
G01 X65.7606 Y46.1561
G01 X65.7223 Y46.1849
G01 X65.7136 Y46.1907
G01 X65.7044 Y46.1957
G01 X65.6948 Y46.1998
G01 X65.6873 Y46.2022
G01 X65.6353 Y46.2132
G01 X65.6217 Y46.2148
G01 X55.5207 Y46.2149
G01 X55.5097 Y46.2143
G01 X55.4988 Y46.2127
G01 X55.4571 Y46.2040
G01 X55.4471 Y46.2011
G01 X55.4374 Y46.1973
G01 X55.4304 Y46.1939
G01 X55.4237 Y46.1899
G01 X55.3890 Y46.1666
G01 X55.3803 Y46.1602
G01 X55.3742 Y46.1547
G01 X55.3668 Y46.1468
G01 X55.3603 Y46.1383
G01 X55.3365 Y46.1036
G01 X55.3324 Y46.0969
G01 X55.3289 Y46.0899
G01 X55.3250 Y46.0803
G01 X55.3220 Y46.0703
G01 X55.3124 Y46.0210
G01 X55.3116 Y46.0133
G01 X55.3113 Y46.0056
G01 X55.3113 Y44.3466
G01 X55.3056 Y44.3014
G01 X55.2940 Y44.2704
G01 X55.2713 Y44.2376
G01 X55.2535 Y44.2196
G01 X55.2336 Y44.2047
G01 X55.2025 Y44.1907
G01 X55.1504 Y44.1829
G01 X51.9978 Y44.1829
G01 X51.9521 Y44.1886
G01 X51.9211 Y44.2003
G01 X51.8880 Y44.2232
G01 X51.8707 Y44.2400
G01 X51.8563 Y44.2599
G01 X51.8418 Y44.2921
G01 X51.8337 Y44.3437
G01 X51.8337 Y46.0056
G01 X51.8334 Y46.0133
G01 X51.8317 Y46.0262
G01 X51.8223 Y46.0729
G01 X51.8200 Y46.0803
G01 X51.8161 Y46.0900
G01 X51.8125 Y46.0969
G01 X51.8085 Y46.1036
G01 X51.7832 Y46.1405
G01 X51.7781 Y46.1468
G01 X51.7707 Y46.1547
G01 X51.7647 Y46.1602
G01 X51.7583 Y46.1651
G01 X51.7169 Y46.1926
G01 X51.7100 Y46.1962
G01 X51.7028 Y46.1993
G01 X51.6954 Y46.2019
G01 X51.6879 Y46.2040
G01 X51.6435 Y46.2132
G01 X51.6326 Y46.2146
G01 X51.6243 Y46.2149
G01 X48.3980 Y46.2149
G00 Z2.0000
G00 X60.9270 Y34.6295
G01 F60.00
G01 Z-0.1000
G01 F120.00
G01 X60.9831 Y34.6295
G01 X61.0095 Y34.6584
G01 X61.0385 Y34.6849
G01 X61.0385 Y34.7407
G01 X61.0183 Y34.7255
G01 X60.9424 Y34.6500
G01 X60.9270 Y34.6295
G00 Z2.0000
G00 X60.9275 Y33.6865
G01 F60.00
G01 Z-0.1000
G01 F120.00
G01 X60.9425 Y33.6663
G01 X61.0183 Y33.5909
G01 X61.0385 Y33.5758
G01 X61.0385 Y33.6311
G01 X61.0095 Y33.6575
G01 X60.9831 Y33.6865
G01 X60.9275 Y33.6865
G00 Z2.0000
G00 X61.9815 Y33.6311
G01 F60.00
G01 Z-0.1000
G01 F120.00
G01 X61.9815 Y33.5758
G01 X62.0017 Y33.5909
G01 X62.0775 Y33.6663
G01 X62.0925 Y33.6865
G01 X62.0369 Y33.6865
G01 X62.0105 Y33.6575
G01 X61.9815 Y33.6311
G00 Z2.0000
G00 X61.9815 Y34.7407
G01 F60.00
G01 Z-0.1000
G01 F120.00
G01 X61.9815 Y34.6849
G01 X62.0105 Y34.6584
G01 X62.0369 Y34.6295
G01 X62.0930 Y34.6295
G01 X62.0776 Y34.6500
G01 X62.0017 Y34.7255
G01 X61.9815 Y34.7407
G00 Z2.0000
G00 X65.8199 Y44.2814
G01 F60.00
G01 Z-0.1000
G01 F120.00
G01 X65.8199 Y43.9648
G01 X65.8250 Y43.9192
G01 X65.8358 Y43.8881
G01 X65.8538 Y43.8597
G01 X65.8776 Y43.8356
G01 X65.9063 Y43.8176
G01 X65.9373 Y43.8066
G01 X65.9824 Y43.8019
G01 X66.2999 Y43.8019
G01 X66.2999 Y43.8452
G01 X65.9710 Y43.8452
G01 X65.9631 Y43.8455
G01 X65.9552 Y43.8464
G01 X65.9448 Y43.8485
G01 X65.9347 Y43.8515
G01 X65.9249 Y43.8556
G01 X65.9156 Y43.8606
G01 X65.9090 Y43.8649
G01 X65.9026 Y43.8697
G01 X65.8948 Y43.8768
G01 X65.8877 Y43.8846
G01 X65.8829 Y43.8909
G01 X65.8772 Y43.8999
G01 X65.8736 Y43.9069
G01 X65.8695 Y43.9167
G01 X65.8672 Y43.9243
G01 X65.8648 Y43.9346
G01 X65.8635 Y43.9451
G01 X65.8633 Y43.9530
G01 X65.8633 Y44.2814
G01 X65.8199 Y44.2814
G00 Z2.0000
G00 X68.0786 Y25.9137
G01 F60.00
G01 Z-0.1000
G01 F120.00
G01 X68.0786 Y25.9243
G01 X68.0734 Y26.0276
G01 X68.0575 Y26.1351
G01 X68.0311 Y26.2406
G01 X67.9944 Y26.3429
G01 X67.9479 Y26.4412
G01 X67.8921 Y26.5344
G01 X67.8273 Y26.6217
G01 X67.7543 Y26.7023
G01 X67.6737 Y26.7753
G01 X67.5864 Y26.8401
G01 X67.4932 Y26.8959
G01 X67.3949 Y26.9424
G01 X67.2926 Y26.9791
G01 X67.1871 Y27.0055
G01 X67.0796 Y27.0214
G01 X66.9710 Y27.0267
G01 X66.8624 Y27.0214
G01 X66.7549 Y27.0055
G01 X66.6494 Y26.9791
G01 X66.5471 Y26.9424
G01 X66.4488 Y26.8959
G01 X66.3556 Y26.8401
G01 X66.2683 Y26.7753
G01 X66.1877 Y26.7023
G01 X66.1147 Y26.6217
G01 X66.0499 Y26.5344
G01 X65.9941 Y26.4412
G01 X65.9476 Y26.3429
G01 X65.9109 Y26.2406
G01 X65.8845 Y26.1351
G01 X65.8686 Y26.0276
G01 X65.8633 Y25.9190
G01 X65.8686 Y25.8104
G01 X65.8845 Y25.7029
G01 X65.9109 Y25.5974
G01 X65.9476 Y25.4951
G01 X65.9941 Y25.3968
G01 X66.0499 Y25.3036
G01 X66.1147 Y25.2163
G01 X66.1877 Y25.1357
G01 X66.2683 Y25.0627
G01 X66.3556 Y24.9979
G01 X66.4488 Y24.9421
G01 X66.5471 Y24.8956
G01 X66.6494 Y24.8589
G01 X66.7549 Y24.8325
G01 X66.8624 Y24.8166
G01 X66.9710 Y24.8112
G01 X67.0796 Y24.8166
G01 X67.1871 Y24.8325
G01 X67.2926 Y24.8589
G01 X67.3949 Y24.8956
G01 X67.4932 Y24.9421
G01 X67.5864 Y24.9979
G01 X67.6737 Y25.0627
G01 X67.7543 Y25.1357
G01 X67.8273 Y25.2163
G01 X67.8921 Y25.3036
G01 X67.9479 Y25.3968
G01 X67.9944 Y25.4951
G01 X68.0311 Y25.5974
G01 X68.0575 Y25.7029
G01 X68.0734 Y25.8104
G01 X68.0786 Y25.9137
G00 Z2.0000
G00 X68.1243 Y25.4264
G01 F60.00
G01 Z-0.1000
G01 F120.00
G01 X68.1138 Y25.4265
G01 X68.1034 Y25.4255
G01 X68.0905 Y25.4230
G01 X68.0805 Y25.4198
G01 X68.0302 Y25.3994
G01 X68.0233 Y25.3957
G01 X68.0166 Y25.3915
G01 X68.0063 Y25.3835
G01 X67.9988 Y25.3762
G01 X67.9688 Y25.3442
G01 X67.9617 Y25.3358
G01 X67.9555 Y25.3267
G01 X67.9181 Y25.2655
G01 X67.8325 Y25.1562
G01 X67.7341 Y25.0577
G01 X67.6249 Y24.9722
G01 X67.5634 Y24.9349
G01 X67.5523 Y24.9273
G01 X67.5443 Y24.9202
G01 X67.5109 Y24.8879
G01 X67.5039 Y24.8800
G01 X67.4976 Y24.8715
G01 X67.4923 Y24.8624
G01 X67.4889 Y24.8552
G01 X67.4716 Y24.8127
G01 X67.4674 Y24.8001
G01 X67.4651 Y24.7898
G01 X67.4639 Y24.7792
G01 X67.4639 Y24.7660
G01 X67.4666 Y24.7192
G01 X67.4680 Y24.7088
G01 X67.4696 Y24.7011
G01 X67.4737 Y24.6887
G01 X67.4779 Y24.6791
G01 X67.5012 Y24.6360
G01 X67.5053 Y24.6294
G01 X67.5099 Y24.6231
G01 X67.5166 Y24.6152
G01 X67.5261 Y24.6064
G01 X67.5647 Y24.5773
G01 X67.5711 Y24.5728
G01 X67.5778 Y24.5689
G01 X67.5847 Y24.5654
G01 X67.5943 Y24.5616
G01 X67.6018 Y24.5593
G01 X67.6520 Y24.5485
G01 X67.6594 Y24.5473
G01 X67.6670 Y24.5467
G01 X68.1343 Y24.5466
G01 X68.1472 Y24.5474
G01 X68.1940 Y24.5562
G01 X68.2041 Y24.5587
G01 X68.2115 Y24.5612
G01 X68.2187 Y24.5642
G01 X68.2256 Y24.5677
G01 X68.2323 Y24.5717
G01 X68.2691 Y24.5970
G01 X68.2773 Y24.6036
G01 X68.2830 Y24.6090
G01 X68.2883 Y24.6149
G01 X68.2932 Y24.6211
G01 X68.3185 Y24.6579
G01 X68.3225 Y24.6646
G01 X68.3271 Y24.6739
G01 X68.3300 Y24.6812
G01 X68.3323 Y24.6886
G01 X68.3421 Y24.7379
G01 X68.3432 Y24.7456
G01 X68.3436 Y24.7533
G01 X68.3436 Y25.2202
G01 X68.3429 Y25.2302
G01 X68.3418 Y25.2376
G01 X68.3309 Y25.2885
G01 X68.3276 Y25.2988
G01 X68.3233 Y25.3087
G01 X68.3181 Y25.3181
G01 X68.3135 Y25.3248
G01 X68.2805 Y25.3669
G01 X68.2714 Y25.3759
G01 X68.2612 Y25.3838
G01 X68.2525 Y25.3892
G01 X68.2115 Y25.4118
G01 X68.2018 Y25.4163
G01 X68.1942 Y25.4190
G01 X68.1839 Y25.4217
G01 X68.1733 Y25.4234
G01 X68.1243 Y25.4264
G00 Z2.0000
G00 X18.1676 Y44.8367
G01 F60.00
G01 Z-0.1000
G01 F120.00
G01 X18.1676 Y44.8473
G01 X18.1624 Y44.9506
G01 X18.1465 Y45.0581
G01 X18.1201 Y45.1636
G01 X18.0834 Y45.2659
G01 X18.0369 Y45.3642
G01 X17.9811 Y45.4574
G01 X17.9163 Y45.5447
G01 X17.8433 Y45.6253
G01 X17.7627 Y45.6983
G01 X17.6754 Y45.7631
G01 X17.5822 Y45.8189
G01 X17.4839 Y45.8654
G01 X17.3816 Y45.9020
G01 X17.2761 Y45.9285
G01 X17.1686 Y45.9444
G01 X17.0600 Y45.9497
G01 X16.9514 Y45.9444
G01 X16.8439 Y45.9285
G01 X16.7384 Y45.9020
G01 X16.6361 Y45.8654
G01 X16.5378 Y45.8189
G01 X16.4446 Y45.7631
G01 X16.3573 Y45.6983
G01 X16.2767 Y45.6253
G01 X16.2037 Y45.5447
G01 X16.1389 Y45.4574
G01 X16.0831 Y45.3642
G01 X16.0366 Y45.2659
G01 X15.9999 Y45.1636
G01 X15.9735 Y45.0581
G01 X15.9576 Y44.9506
G01 X15.9523 Y44.8420
G01 X15.9576 Y44.7334
G01 X15.9735 Y44.6259
G01 X15.9999 Y44.5204
G01 X16.0366 Y44.4181
G01 X16.0831 Y44.3198
G01 X16.1389 Y44.2266
G01 X16.2037 Y44.1392
G01 X16.2767 Y44.0587
G01 X16.3573 Y43.9857
G01 X16.4446 Y43.9209
G01 X16.5378 Y43.8650
G01 X16.6361 Y43.8186
G01 X16.7384 Y43.7819
G01 X16.8439 Y43.7555
G01 X16.9514 Y43.7396
G01 X17.0600 Y43.7342
G01 X17.1686 Y43.7396
G01 X17.2761 Y43.7555
G01 X17.3816 Y43.7819
G01 X17.4839 Y43.8186
G01 X17.5822 Y43.8650
G01 X17.6754 Y43.9209
G01 X17.7627 Y43.9857
G01 X17.8433 Y44.0587
G01 X17.9163 Y44.1392
G01 X17.9811 Y44.2266
G01 X18.0369 Y44.3198
G01 X18.0834 Y44.4181
G01 X18.1201 Y44.5204
G01 X18.1465 Y44.6259
G01 X18.1624 Y44.7334
G01 X18.1676 Y44.8367
G00 Z2.0000
G00 X17.7610 Y46.2149
G01 F60.00
G01 Z-0.1000
G01 F120.00
G01 X17.7535 Y46.2146
G01 X17.7434 Y46.2135
G01 X17.6958 Y46.2034
G01 X17.6856 Y46.2007
G01 X17.6733 Y46.1959
G01 X17.6662 Y46.1923
G01 X17.6572 Y46.1867
G01 X17.6184 Y46.1572
G01 X17.6083 Y46.1484
G01 X17.5993 Y46.1384
G01 X17.5946 Y46.1319
G01 X17.5903 Y46.1251
G01 X17.5670 Y46.0818
G01 X17.5618 Y46.0699
G01 X17.5580 Y46.0573
G01 X17.5565 Y46.0496
G01 X17.5556 Y46.0419
G01 X17.5527 Y45.9903
G01 X17.5529 Y45.9824
G01 X17.5537 Y45.9746
G01 X17.5551 Y45.9668
G01 X17.5578 Y45.9567
G01 X17.5604 Y45.9493
G01 X17.5777 Y45.9062
G01 X17.5811 Y45.8989
G01 X17.5865 Y45.8897
G01 X17.5928 Y45.8811
G01 X17.5980 Y45.8751
G01 X17.6333 Y45.8408
G01 X17.6416 Y45.8335
G01 X17.6505 Y45.8272
G01 X17.7141 Y45.7891
G01 X17.8231 Y45.7038
G01 X17.9215 Y45.6054
G01 X18.0070 Y45.4957
G01 X18.0790 Y45.3772
G01 X18.1361 Y45.2500
G01 X18.1775 Y45.1176
G01 X18.2025 Y44.9811
G01 X18.2109 Y44.8422
G01 X18.2025 Y44.7033
G01 X18.1774 Y44.5663
G01 X18.1361 Y44.4340
G01 X18.0790 Y44.3072
G01 X18.0070 Y44.1883
G01 X17.9215 Y44.0792
G01 X17.8231 Y43.9807
G01 X17.7139 Y43.8953
G01 X17.5950 Y43.8232
G01 X17.4683 Y43.7661
G01 X17.3354 Y43.7248
G01 X17.1987 Y43.6997
G01 X17.0600 Y43.6909
G01 X16.9213 Y43.6997
G01 X16.7846 Y43.7248
G01 X16.6518 Y43.7661
G01 X16.5250 Y43.8232
G01 X16.4061 Y43.8953
G01 X16.2969 Y43.9807
G01 X16.1985 Y44.0792
G01 X16.1129 Y44.1885
G01 X16.0755 Y44.2497
G01 X16.0693 Y44.2588
G01 X16.0622 Y44.2672
G01 X16.0286 Y44.3029
G01 X16.0227 Y44.3082
G01 X16.0165 Y44.3130
G01 X16.0100 Y44.3173
G01 X16.0031 Y44.3212
G01 X15.9936 Y44.3256
G01 X15.9505 Y44.3428
G01 X15.9405 Y44.3460
G01 X15.9328 Y44.3477
G01 X15.9250 Y44.3489
G01 X15.9146 Y44.3495
G01 X15.9067 Y44.3494
G01 X15.8603 Y44.3466
G01 X15.8471 Y44.3447
G01 X15.8342 Y44.3411
G01 X15.8219 Y44.3360
G01 X15.7785 Y44.3122
G01 X15.7675 Y44.3052
G01 X15.7574 Y44.2969
G01 X15.7518 Y44.2914
G01 X15.7467 Y44.2854
G01 X15.7171 Y44.2467
G01 X15.7126 Y44.2401
G01 X15.7087 Y44.2332
G01 X15.7033 Y44.2212
G01 X15.6995 Y44.2085
G01 X15.6892 Y44.1608
G01 X15.6876 Y44.1483
G01 X15.6873 Y44.1407
G01 X15.6875 Y27.0912
G01 X15.6891 Y27.0774
G01 X15.6983 Y27.0335
G01 X15.7002 Y27.0257
G01 X15.7037 Y27.0155
G01 X15.7082 Y27.0057
G01 X15.7137 Y26.9965
G01 X15.7433 Y26.9559
G01 X15.7503 Y26.9476
G01 X15.7560 Y26.9420
G01 X15.7622 Y26.9367
G01 X15.7711 Y26.9305
G01 X15.8167 Y26.9035
G01 X15.8285 Y26.8984
G01 X15.8409 Y26.8948
G01 X15.8510 Y26.8930
G01 X15.8984 Y26.8878
G01 X15.9089 Y26.8875
G01 X15.9221 Y26.8885
G01 X15.9300 Y26.8898
G01 X15.9402 Y26.8926
G01 X16.0259 Y26.9223
G01 X16.0714 Y26.9271
G01 X16.3889 Y26.9271
G01 X16.3889 Y26.8837
G01 X16.0600 Y26.8837
G01 X16.0521 Y26.8834
G01 X16.0416 Y26.8822
G01 X16.0338 Y26.8805
G01 X16.0237 Y26.8774
G01 X16.0163 Y26.8745
G01 X16.0092 Y26.8710
G01 X16.0001 Y26.8656
G01 X15.9937 Y26.8609
G01 X15.9857 Y26.8540
G01 X15.9784 Y26.8464
G01 X15.9735 Y26.8402
G01 X15.9676 Y26.8314
G01 X15.9626 Y26.8221
G01 X15.9585 Y26.8123
G01 X15.9555 Y26.8022
G01 X15.9534 Y26.7918
G01 X15.9525 Y26.7839
G01 X15.9523 Y26.7760
G01 X15.9523 Y26.4476
G01 X15.8967 Y26.4476
G01 X15.8863 Y26.4471
G01 X15.8761 Y26.4456
G01 X15.8294 Y26.4362
G01 X15.8171 Y26.4321
G01 X15.8100 Y26.4289
G01 X15.8031 Y26.4252
G01 X15.7618 Y26.3971
G01 X15.7555 Y26.3922
G01 X15.7496 Y26.3868
G01 X15.7406 Y26.3768
G01 X15.7135 Y26.3373
G01 X15.7066 Y26.3256
G01 X15.7012 Y26.3132
G01 X15.6981 Y26.3028
G01 X15.6889 Y26.2558
G01 X15.6878 Y26.2481
G01 X15.6873 Y26.2378
G01 X15.6873 Y25.3142
G01 X15.6878 Y25.3039
G01 X15.6889 Y25.2962
G01 X15.6969 Y25.2545
G01 X15.6988 Y25.2466
G01 X15.7012 Y25.2388
G01 X15.7054 Y25.2288
G01 X15.7092 Y25.2216
G01 X15.7135 Y25.2147
G01 X15.7358 Y25.1817
G01 X15.7420 Y25.1734
G01 X15.7509 Y25.1640
G01 X15.7607 Y25.1556
G01 X15.8019 Y25.1280
G01 X15.8087 Y25.1242
G01 X15.8158 Y25.1209
G01 X15.8281 Y25.1166
G01 X15.8356 Y25.1147
G01 X15.8802 Y25.1056
G01 X15.8939 Y25.1044
G01 X15.9523 Y25.1044
G01 X15.9523 Y24.7760
G01 X15.9528 Y24.7654
G01 X15.9549 Y24.7524
G01 X15.9577 Y24.7422
G01 X15.9615 Y24.7323
G01 X15.9662 Y24.7229
G01 X15.9719 Y24.7139
G01 X15.9784 Y24.7056
G01 X15.9876 Y24.6962
G01 X15.9958 Y24.6894
G01 X16.0024 Y24.6850
G01 X16.0092 Y24.6810
G01 X16.0163 Y24.6775
G01 X16.0237 Y24.6745
G01 X16.0313 Y24.6721
G01 X16.0390 Y24.6703
G01 X16.0468 Y24.6691
G01 X16.0547 Y24.6684
G01 X16.3889 Y24.6682
G01 X16.3889 Y24.6284
G01 X16.3897 Y24.6180
G01 X16.3985 Y24.5712
G01 X16.4010 Y24.5612
G01 X16.4054 Y24.5490
G01 X16.4113 Y24.5374
G01 X16.4155 Y24.5308
G01 X16.4424 Y24.4921
G01 X16.4511 Y24.4825
G01 X16.4568 Y24.4772
G01 X16.4629 Y24.4724
G01 X16.5002 Y24.4476
G01 X16.5115 Y24.4411
G01 X16.5236 Y24.4359
G01 X16.5336 Y24.4329
G01 X16.5800 Y24.4237
G01 X16.5905 Y24.4224
G01 X16.5985 Y24.4221
G01 X17.5225 Y24.4241
G01 X17.5336 Y24.4247
G01 X17.5418 Y24.4259
G01 X17.5884 Y24.4358
G01 X17.5987 Y24.4391
G01 X17.6086 Y24.4434
G01 X17.6203 Y24.4502
G01 X17.6578 Y24.4751
G01 X17.6682 Y24.4838
G01 X17.6738 Y24.4896
G01 X17.6790 Y24.4958
G01 X17.6838 Y24.5024
G01 X17.7084 Y24.5399
G01 X17.7144 Y24.5515
G01 X17.7189 Y24.5638
G01 X17.7215 Y24.5740
G01 X17.7303 Y24.6204
G01 X17.7311 Y24.6309
G01 X17.7311 Y24.6682
G01 X18.0600 Y24.6682
G01 X18.0679 Y24.6685
G01 X18.0784 Y24.6698
G01 X18.0887 Y24.6721
G01 X18.0988 Y24.6755
G01 X18.1061 Y24.6786
G01 X18.1131 Y24.6822
G01 X18.1220 Y24.6879
G01 X18.1304 Y24.6944
G01 X18.1362 Y24.6998
G01 X18.1433 Y24.7076
G01 X18.1481 Y24.7139
G01 X18.1538 Y24.7229
G01 X18.1574 Y24.7299
G01 X18.1615 Y24.7397
G01 X18.1645 Y24.7498
G01 X18.1666 Y24.7602
G01 X18.1675 Y24.7681
G01 X18.1677 Y24.7760
G01 X18.1677 Y25.1044
G01 X18.2116 Y25.1044
G01 X18.2116 Y24.7883
G01 X18.2062 Y24.7431
G01 X18.1920 Y24.7030
G01 X18.1892 Y24.6927
G01 X18.1822 Y24.6457
G01 X18.1812 Y24.6353
G01 X18.1813 Y24.6249
G01 X18.1827 Y24.6120
G01 X18.1935 Y24.5678
G01 X18.1957 Y24.5601
G01 X18.1996 Y24.5501
G01 X18.2044 Y24.5405
G01 X18.2086 Y24.5337
G01 X18.2372 Y24.4939
G01 X18.2460 Y24.4844
G01 X18.2558 Y24.4761
G01 X18.2970 Y24.4494
G01 X18.3040 Y24.4455
G01 X18.3138 Y24.4411
G01 X18.3214 Y24.4385
G01 X18.3317 Y24.4359
G01 X18.3725 Y24.4278
G01 X18.3858 Y24.4263
G01 X31.0257 Y24.4567
G01 X31.0360 Y24.4572
G01 X31.0437 Y24.4582
G01 X31.0900 Y24.4675
G01 X31.1001 Y24.4705
G01 X31.1098 Y24.4745
G01 X31.1213 Y24.4808
G01 X31.1587 Y24.5055
G01 X31.1671 Y24.5120
G01 X31.1748 Y24.5193
G01 X31.1801 Y24.5253
G01 X31.1850 Y24.5316
G01 X31.2083 Y24.5663
G01 X31.2137 Y24.5752
G01 X31.2182 Y24.5845
G01 X31.2217 Y24.5942
G01 X31.2238 Y24.6017
G01 X31.2330 Y24.6454
G01 X31.2344 Y24.6561
G01 X31.2348 Y24.6641
G01 X31.2596 Y27.6860
G01 X31.2653 Y27.7308
G01 X31.2776 Y27.7619
G01 X31.3002 Y27.7947
G01 X31.3165 Y27.8107
G01 X31.3379 Y27.8265
G01 X31.3695 Y27.8404
G01 X31.4210 Y27.8486
G01 X34.0648 Y27.8486
G01 X34.1110 Y27.8424
G01 X34.1422 Y27.8310
G01 X34.1746 Y27.8085
G01 X34.1921 Y27.7914
G01 X34.2068 Y27.7709
G01 X34.2212 Y27.7393
G01 X34.2293 Y27.6874
G01 X34.2295 Y24.7152
G01 X34.2309 Y24.7023
G01 X34.2389 Y24.6606
G01 X34.2407 Y24.6531
G01 X34.2439 Y24.6432
G01 X34.2480 Y24.6336
G01 X34.2531 Y24.6245
G01 X34.2799 Y24.5854
G01 X34.2886 Y24.5749
G01 X34.2986 Y24.5656
G01 X34.3051 Y24.5606
G01 X34.3376 Y24.5377
G01 X34.3441 Y24.5335
G01 X34.3532 Y24.5286
G01 X34.3628 Y24.5246
G01 X34.3727 Y24.5215
G01 X34.4221 Y24.5123
G01 X34.4304 Y24.5113
G01 X34.4387 Y24.5110
G01 X47.1600 Y24.5110
G01 X47.1675 Y24.5113
G01 X47.1773 Y24.5124
G01 X47.2205 Y24.5205
G01 X47.2308 Y24.5232
G01 X47.2432 Y24.5280
G01 X47.2550 Y24.5344
G01 X47.2941 Y24.5602
G01 X47.3004 Y24.5652
G01 X47.3064 Y24.5706
G01 X47.3119 Y24.5764
G01 X47.3169 Y24.5827
G01 X47.3438 Y24.6207
G01 X47.3491 Y24.6300
G01 X47.3534 Y24.6397
G01 X47.3574 Y24.6523
G01 X47.3667 Y24.6930
G01 X47.3685 Y24.7029
G01 X47.3693 Y24.7129
G01 X47.6477 Y32.3522
G01 X47.6477 Y33.0150
G01 X47.6473 Y33.0228
G01 X47.6462 Y33.0305
G01 X47.6381 Y33.0722
G01 X47.6363 Y33.0801
G01 X47.6338 Y33.0878
G01 X47.6297 Y33.0979
G01 X47.6259 Y33.1051
G01 X47.6216 Y33.1120
G01 X47.5945 Y33.1514
G01 X47.5857 Y33.1613
G01 X47.5756 Y33.1700
G01 X47.5691 Y33.1747
G01 X47.5344 Y33.1975
G01 X47.5273 Y33.2015
G01 X47.5175 Y33.2060
G01 X47.5099 Y33.2087
G01 X47.5021 Y33.2108
G01 X47.4603 Y33.2195
G01 X47.4522 Y33.2209
G01 X47.4384 Y33.2218
G01 X46.5149 Y33.2218
G01 X46.5047 Y33.2213
G01 X46.4947 Y33.2199
G01 X46.4470 Y33.2095
G01 X46.4371 Y33.2064
G01 X46.4275 Y33.2023
G01 X46.4162 Y33.1959
G01 X46.3805 Y33.1716
G01 X46.3721 Y33.1652
G01 X46.3644 Y33.1581
G01 X46.3557 Y33.1482
G01 X46.3484 Y33.1373
G01 X46.2667 Y32.9908
G01 X46.2025 Y32.9043
G01 X46.1267 Y32.8289
G01 X46.0409 Y32.7645
G01 X45.9467 Y32.7134
G01 X45.8462 Y32.6756
G01 X45.7421 Y32.6530
G01 X45.6350 Y32.6455
G01 X45.5279 Y32.6530
G01 X45.4237 Y32.6756
G01 X45.3232 Y32.7134
G01 X45.2290 Y32.7645
G01 X45.1433 Y32.8289
G01 X45.0675 Y32.9043
G01 X45.0035 Y32.9905
G01 X44.9519 Y33.0843
G01 X44.9147 Y33.1845
G01 X44.8920 Y33.2895
G01 X44.8840 Y33.3965
G01 X44.8920 Y33.5029
G01 X44.9147 Y33.6075
G01 X44.9520 Y33.7083
G01 X45.0035 Y33.8024
G01 X45.0674 Y33.8880
G01 X45.1433 Y33.9635
G01 X45.2290 Y34.0279
G01 X45.3231 Y34.0789
G01 X45.4237 Y34.1164
G01 X45.5281 Y34.1395
G01 X45.6350 Y34.1470
G01 X45.7419 Y34.1395
G01 X45.8462 Y34.1164
G01 X45.9469 Y34.0789
G01 X46.0409 Y34.0279
G01 X46.1265 Y33.9636
G01 X46.2045 Y33.8857
G01 X46.2125 Y33.8785
G01 X46.2212 Y33.8720
G01 X46.2565 Y33.8487
G01 X46.2635 Y33.8447
G01 X46.2709 Y33.8412
G01 X46.2836 Y33.8366
G01 X46.2915 Y33.8346
G01 X46.3301 Y33.8265
G01 X46.3439 Y33.8245
G01 X46.3523 Y33.8242
G01 X47.4384 Y33.8242
G01 X47.4494 Y33.8247
G01 X47.4603 Y33.8264
G01 X47.5020 Y33.8351
G01 X47.5120 Y33.8380
G01 X47.5193 Y33.8407
G01 X47.5264 Y33.8440
G01 X47.5354 Y33.8492
G01 X47.5701 Y33.8725
G01 X47.5767 Y33.8772
G01 X47.5868 Y33.8863
G01 X47.5940 Y33.8943
G01 X47.5988 Y33.9008
G01 X47.6226 Y33.9355
G01 X47.6279 Y33.9445
G01 X47.6312 Y33.9515
G01 X47.6349 Y33.9612
G01 X47.6376 Y33.9713
G01 X47.6462 Y34.0155
G01 X47.6475 Y34.0258
G01 X47.6477 Y34.0335
G01 X47.6477 Y36.3170
G01 X47.6473 Y36.3248
G01 X47.6462 Y36.3325
G01 X47.6376 Y36.3768
G01 X47.6347 Y36.3873
G01 X47.6308 Y36.3974
G01 X47.6272 Y36.4047
G01 X47.6231 Y36.4117
G01 X47.5977 Y36.4492
G01 X47.5894 Y36.4595
G01 X47.5798 Y36.4687
G01 X47.5714 Y36.4752
G01 X47.5344 Y36.4995
G01 X47.5273 Y36.5035
G01 X47.5175 Y36.5080
G01 X47.5099 Y36.5107
G01 X47.5021 Y36.5128
G01 X47.4603 Y36.5215
G01 X47.4494 Y36.5232
G01 X47.4384 Y36.5238
G01 X46.8623 Y36.5238
G01 X46.8539 Y36.5235
G01 X46.8429 Y36.5220
G01 X46.8015 Y36.5134
G01 X46.7939 Y36.5114
G01 X46.7839 Y36.5080
G01 X46.7767 Y36.5049
G01 X46.7675 Y36.4998
G01 X46.7280 Y36.4742
G01 X46.7220 Y36.4696
G01 X46.7163 Y36.4645
G01 X46.6716 Y36.4196
G01 X46.6645 Y36.4110
G01 X46.6436 Y36.3808
G01 X46.6369 Y36.3697
G01 X46.6316 Y36.3580
G01 X46.6291 Y36.3507
G01 X46.6181 Y36.3136
G01 X46.6157 Y36.3008
G01 X46.6149 Y36.2904
G01 X46.6150 Y36.2826
G01 X46.6169 Y36.2440
G01 X46.6188 Y36.2314
G01 X46.6320 Y36.1700
G01 X46.6400 Y36.0635
G01 X46.6320 Y35.9565
G01 X46.6093 Y35.8515
G01 X46.5721 Y35.7513
G01 X46.5205 Y35.6575
G01 X46.4565 Y35.5713
G01 X46.3807 Y35.4959
G01 X46.2949 Y35.4315
G01 X46.2007 Y35.3804
G01 X46.1002 Y35.3426
G01 X45.9961 Y35.3200
G01 X45.8890 Y35.3125
G01 X45.7819 Y35.3200
G01 X45.6777 Y35.3426
G01 X45.5772 Y35.3804
G01 X45.4830 Y35.4315
G01 X45.3973 Y35.4959
G01 X45.3215 Y35.5713
G01 X45.2575 Y35.6575
G01 X45.2059 Y35.7513
G01 X45.1687 Y35.8515
G01 X45.1460 Y35.9565
G01 X45.1380 Y36.0635
G01 X45.1460 Y36.1699
G01 X45.1687 Y36.2745
G01 X45.2060 Y36.3753
G01 X45.2575 Y36.4694
G01 X45.3214 Y36.5550
G01 X45.3973 Y36.6305
G01 X45.4830 Y36.6949
G01 X45.5771 Y36.7459
G01 X45.6777 Y36.7834
G01 X45.7821 Y36.8065
G01 X45.8890 Y36.8140
G01 X45.9962 Y36.8064
G01 X46.0641 Y36.7920
G01 X46.1055 Y36.7887
G01 X46.1134 Y36.7884
G01 X46.1266 Y36.7892
G01 X46.1395 Y36.7915
G01 X46.1839 Y36.8051
G01 X46.1956 Y36.8103
G01 X46.2044 Y36.8155
G01 X46.2361 Y36.8382
G01 X46.2449 Y36.8454
G01 X46.4308 Y37.0305
G01 X46.4845 Y37.0747
G01 X46.5362 Y37.1029
G01 X46.5920 Y37.1195
G01 X46.6612 Y37.1262
G01 X47.4384 Y37.1262
G01 X47.4467 Y37.1265
G01 X47.4549 Y37.1274
G01 X47.5020 Y37.1371
G01 X47.5120 Y37.1400
G01 X47.5193 Y37.1427
G01 X47.5287 Y37.1472
G01 X47.5354 Y37.1512
G01 X47.5701 Y37.1745
G01 X47.5767 Y37.1792
G01 X47.5868 Y37.1883
G01 X47.5940 Y37.1963
G01 X47.5988 Y37.2028
G01 X47.6226 Y37.2375
G01 X47.6279 Y37.2465
G01 X47.6312 Y37.2535
G01 X47.6341 Y37.2608
G01 X47.6370 Y37.2707
G01 X47.6462 Y37.3175
G01 X47.6473 Y37.3252
G01 X47.6477 Y37.3329
G01 X47.6477 Y38.0655
G01 X47.6469 Y38.0791
G01 X47.6410 Y38.1169
G01 X47.6392 Y38.1244
G01 X47.6368 Y38.1319
G01 X47.6305 Y38.1466
G01 X47.6305 Y38.4571
G01 X47.6613 Y38.4854
G01 X47.7044 Y38.5330
G01 X47.7094 Y38.5392
G01 X47.7460 Y38.5886
G01 X47.7503 Y38.5953
G01 X47.7832 Y38.6504
G01 X47.8118 Y38.7107
G01 X47.8148 Y38.7181
G01 X47.8363 Y38.7785
G01 X47.8532 Y38.8459
G01 X47.8633 Y38.9146
G01 X47.8667 Y38.9840
G01 X47.8633 Y39.0534
G01 X47.8532 Y39.1221
G01 X47.8363 Y39.1894
G01 X47.8148 Y39.2499
G01 X47.8118 Y39.2573
G01 X47.7832 Y39.3176
G01 X47.7503 Y39.3727
G01 X47.7460 Y39.3794
G01 X47.7094 Y39.4288
G01 X47.7044 Y39.4350
G01 X47.6613 Y39.4826
G01 X47.6305 Y39.5109
G01 X47.6305 Y39.8218
G01 X47.6343 Y39.8303
G01 X47.6373 Y39.8380
G01 X47.6410 Y39.8513
G01 X47.6469 Y39.8894
G01 X47.6477 Y39.9030
G01 X47.6477 Y46.0056
G01 X47.6475 Y46.0133
G01 X47.6462 Y46.0236
G01 X47.6376 Y46.0678
G01 X47.6341 Y46.0803
G01 X47.6302 Y46.0900
G01 X47.6266 Y46.0969
G01 X47.6226 Y46.1036
G01 X47.5956 Y46.1426
G01 X47.5905 Y46.1489
G01 X47.5848 Y46.1547
G01 X47.5745 Y46.1635
G01 X47.5332 Y46.1913
G01 X47.5240 Y46.1962
G01 X47.5144 Y46.2002
G01 X47.5020 Y46.2040
G01 X47.4576 Y46.2132
G01 X47.4467 Y46.2146
G01 X47.4384 Y46.2149
G01 X34.6927 Y46.2149
G01 X34.6817 Y46.2143
G01 X34.6708 Y46.2127
G01 X34.6266 Y46.2033
G01 X34.6166 Y46.2002
G01 X34.6070 Y46.1962
G01 X34.5957 Y46.1899
G01 X34.5587 Y46.1651
G01 X34.5502 Y46.1584
G01 X34.5425 Y46.1509
G01 X34.5338 Y46.1405
G01 X34.5099 Y46.1057
G01 X34.5045 Y46.0969
G01 X34.4999 Y46.0876
G01 X34.4962 Y46.0779
G01 X34.4935 Y46.0678
G01 X34.4849 Y46.0236
G01 X34.4836 Y46.0133
G01 X34.4833 Y46.0056
G01 X34.4833 Y43.0766
G01 X34.4776 Y43.0314
G01 X34.4660 Y43.0004
G01 X34.4433 Y42.9676
G01 X34.4255 Y42.9496
G01 X34.4056 Y42.9347
G01 X34.3745 Y42.9207
G01 X34.3225 Y42.9129
G01 X31.6778 Y42.9129
G01 X31.6321 Y42.9186
G01 X31.6011 Y42.9303
G01 X31.5680 Y42.9532
G01 X31.5507 Y42.9700
G01 X31.5363 Y42.9899
G01 X31.5218 Y43.0221
G01 X31.5137 Y43.0737
G01 X31.5135 Y46.0107
G01 X31.5121 Y46.0236
G01 X31.5041 Y46.0653
G01 X31.5016 Y46.0754
G01 X31.4982 Y46.0852
G01 X31.4938 Y46.0946
G01 X31.4885 Y46.1036
G01 X31.4616 Y46.1426
G01 X31.4527 Y46.1528
G01 X31.4426 Y46.1619
G01 X31.4360 Y46.1666
G01 X31.4035 Y46.1885
G01 X31.3946 Y46.1939
G01 X31.3852 Y46.1983
G01 X31.3779 Y46.2011
G01 X31.3679 Y46.2040
G01 X31.3235 Y46.2132
G01 X31.3153 Y46.2143
G01 X31.3043 Y46.2149
G01 X17.7610 Y46.2149
G00 Z2.0000
G00 X15.8967 Y46.2149
G01 F60.00
G01 Z-0.1000
G01 F120.00
G01 X15.8884 Y46.2146
G01 X15.8775 Y46.2132
G01 X15.8331 Y46.2040
G01 X15.8206 Y46.2002
G01 X15.8110 Y46.1962
G01 X15.8019 Y46.1913
G01 X15.7627 Y46.1651
G01 X15.7542 Y46.1584
G01 X15.7483 Y46.1528
G01 X15.7429 Y46.1468
G01 X15.7378 Y46.1405
G01 X15.7097 Y46.0992
G01 X15.7049 Y46.0900
G01 X15.7002 Y46.0779
G01 X15.6975 Y46.0678
G01 X15.6893 Y46.0262
G01 X15.6881 Y46.0185
G01 X15.6874 Y46.0082
G01 X15.6874 Y45.5408
G01 X15.6878 Y45.5332
G01 X15.6892 Y45.5232
G01 X15.6989 Y45.4780
G01 X15.7024 Y45.4653
G01 X15.7064 Y45.4555
G01 X15.7126 Y45.4439
G01 X15.7186 Y45.4352
G01 X15.7467 Y45.3986
G01 X15.7536 Y45.3907
G01 X15.7593 Y45.3853
G01 X15.7675 Y45.3788
G01 X15.7785 Y45.3718
G01 X15.8194 Y45.3492
G01 X15.8289 Y45.3448
G01 X15.8362 Y45.3422
G01 X15.8462 Y45.3395
G01 X15.8591 Y45.3375
G01 X15.9079 Y45.3351
G01 X15.9158 Y45.3350
G01 X15.9237 Y45.3355
G01 X15.9316 Y45.3366
G01 X15.9444 Y45.3396
G01 X15.9925 Y45.3580
G01 X16.0023 Y45.3624
G01 X16.0094 Y45.3663
G01 X16.0183 Y45.3723
G01 X16.0245 Y45.3773
G01 X16.0322 Y45.3848
G01 X16.0622 Y45.4168
G01 X16.0693 Y45.4252
G01 X16.0755 Y45.4343
G01 X16.1129 Y45.4956
G01 X16.1985 Y45.6054
G01 X16.2969 Y45.7038
G01 X16.4059 Y45.7891
G01 X16.4671 Y45.8257
G01 X16.4763 Y45.8319
G01 X16.4847 Y45.8389
G01 X16.5201 Y45.8731
G01 X16.5255 Y45.8790
G01 X16.5305 Y45.8853
G01 X16.5349 Y45.8920
G01 X16.5389 Y45.8989
G01 X16.5433 Y45.9086
G01 X16.5596 Y45.9493
G01 X16.5630 Y45.9592
G01 X16.5654 Y45.9694
G01 X16.5669 Y45.9798
G01 X16.5672 Y45.9929
G01 X16.5644 Y46.0419
G01 X16.5630 Y46.0522
G01 X16.5607 Y46.0624
G01 X16.5573 Y46.0723
G01 X16.5531 Y46.0818
G01 X16.5310 Y46.1228
G01 X16.5269 Y46.1297
G01 X16.5223 Y46.1363
G01 X16.5155 Y46.1445
G01 X16.5078 Y46.1521
G01 X16.5016 Y46.1572
G01 X16.4606 Y46.1882
G01 X16.4538 Y46.1923
G01 X16.4468 Y46.1959
G01 X16.4344 Y46.2007
G01 X16.4242 Y46.2034
G01 X16.3790 Y46.2130
G01 X16.3716 Y46.2142
G01 X16.3615 Y46.2149
G01 X15.8967 Y46.2149
G00 Z2.0000
M05
G00 Z2.0000
G00 Z15.00


