(G-CODE GENERATED BY FLATCAM v8.994 - www.flatcam.org - Version Date: 2020/11/7)

(Name: Gerber_BottomSolderMaskLayer.GBS_mt_paint_cnc)
(Type: G-code from Geometry)
(Units: MM)

(Created on Tuesday, 28 May 2024 at 20:29)

(This preprocessor is the default preprocessor used by FlatCAM.)
(It is made to work with MACH3 compatible motion controllers.)

(TOOL DIAMETER: 0.2268 mm)
(Feedrate_XY: 120.0 mm/min)
(Feedrate_Z: 60.0 mm/min)
(Feedrate rapids 1500.0 mm/min)

(Z_Cut: 0.1366 mm)
(Z_Move: 2.0 mm)
(Z Start: None mm)
(Z End: 15.0 mm)
(X,Y End: None mm)
(Steps per circle: 64)
(Preprocessor Geometry: default)

(X range:   24.1076 ...   75.8934  mm)
(Y range:   24.5216 ...   45.4623  mm)

(Spindle Speed: 0.0 RPM)
G21
G90
G94

G01 F120.00

M5
G00 Z15.0000
G00 X0.0000 Y0.0000
T1
M6    
(MSG, Change to Tool Dia = 0.2268)
M0
G00 Z15.0000

M03
G01 F120.00
G00 X24.1076 Y24.5216
G01 F60.00
G01 Z0.1366
G01 F120.00
G01 X24.1076 Y26.3964
G01 X25.9824 Y26.3964
G01 X25.9824 Y24.5216
G01 X24.1076 Y24.5216
G00 Z2.0000
G00 X24.3295 Y24.5216
G01 F60.00
G01 Z0.1366
G01 F120.00
G01 X24.2968 Y24.5473
G01 X24.2747 Y24.5660
G01 X24.2530 Y24.5851
G01 X24.2318 Y24.6048
G01 X24.2111 Y24.6251
G01 X24.1909 Y24.6458
G01 X24.1712 Y24.6670
G01 X24.1520 Y24.6887
G01 X24.1333 Y24.7108
G01 X24.1076 Y24.7435
G01 X24.1076 Y25.1169
G01 X24.1139 Y25.0998
G01 X24.1230 Y25.0771
G01 X24.1327 Y25.0546
G01 X24.1429 Y25.0323
G01 X24.1536 Y25.0103
G01 X24.1649 Y24.9886
G01 X24.1767 Y24.9671
G01 X24.1891 Y24.9460
G01 X24.2019 Y24.9251
G01 X24.2153 Y24.9046
G01 X24.2291 Y24.8844
G01 X24.2435 Y24.8645
G01 X24.2583 Y24.8450
G01 X24.2736 Y24.8259
G01 X24.2894 Y24.8072
G01 X24.3056 Y24.7888
G01 X24.3223 Y24.7709
G01 X24.3394 Y24.7534
G01 X24.3569 Y24.7362
G01 X24.3748 Y24.7196
G01 X24.3932 Y24.7034
G01 X24.4119 Y24.6876
G01 X24.4310 Y24.6723
G01 X24.4505 Y24.6575
G01 X24.4704 Y24.6431
G01 X24.4906 Y24.6292
G01 X24.5111 Y24.6159
G01 X24.5320 Y24.6030
G01 X24.5531 Y24.5907
G01 X24.5746 Y24.5789
G01 X24.5963 Y24.5676
G01 X24.6183 Y24.5569
G01 X24.6406 Y24.5467
G01 X24.6631 Y24.5370
G01 X24.6859 Y24.5279
G01 X24.7029 Y24.5216
G00 Z2.0000
G00 X25.3871 Y24.5216
G01 F60.00
G01 Z0.1366
G01 F120.00
G01 X25.4041 Y24.5279
G01 X25.4269 Y24.5370
G01 X25.4494 Y24.5467
G01 X25.4717 Y24.5569
G01 X25.4937 Y24.5676
G01 X25.5154 Y24.5789
G01 X25.5369 Y24.5907
G01 X25.5580 Y24.6030
G01 X25.5789 Y24.6159
G01 X25.5994 Y24.6292
G01 X25.6196 Y24.6431
G01 X25.6395 Y24.6575
G01 X25.6590 Y24.6723
G01 X25.6781 Y24.6876
G01 X25.6968 Y24.7034
G01 X25.7152 Y24.7196
G01 X25.7331 Y24.7362
G01 X25.7506 Y24.7534
G01 X25.7677 Y24.7709
G01 X25.7844 Y24.7888
G01 X25.8006 Y24.8072
G01 X25.8164 Y24.8259
G01 X25.8317 Y24.8450
G01 X25.8465 Y24.8645
G01 X25.8609 Y24.8844
G01 X25.8747 Y24.9046
G01 X25.8881 Y24.9251
G01 X25.9009 Y24.9460
G01 X25.9133 Y24.9671
G01 X25.9251 Y24.9886
G01 X25.9364 Y25.0103
G01 X25.9471 Y25.0323
G01 X25.9573 Y25.0546
G01 X25.9670 Y25.0771
G01 X25.9761 Y25.0998
G01 X25.9824 Y25.1169
G01 X25.8615 Y25.4590
G01 X25.8605 Y25.4189
G01 X25.8575 Y25.3790
G01 X25.8526 Y25.3392
G01 X25.8458 Y25.2997
G01 X25.8370 Y25.2606
G01 X25.8263 Y25.2220
G01 X25.8138 Y25.1839
G01 X25.7993 Y25.1465
G01 X25.7831 Y25.1099
G01 X25.7651 Y25.0741
G01 X25.7453 Y25.0392
G01 X25.7239 Y25.0054
G01 X25.7008 Y24.9726
G01 X25.6761 Y24.9410
G01 X25.6500 Y24.9107
G01 X25.6223 Y24.8817
G01 X25.5933 Y24.8540
G01 X25.5630 Y24.8278
G01 X25.5314 Y24.8032
G01 X25.4986 Y24.7801
G01 X25.4648 Y24.7587
G01 X25.4299 Y24.7389
G01 X25.3941 Y24.7209
G01 X25.3575 Y24.7047
G01 X25.3201 Y24.6902
G01 X25.2820 Y24.6777
G01 X25.2434 Y24.6670
G01 X25.2043 Y24.6582
G01 X25.1648 Y24.6513
G01 X25.1250 Y24.6464
G01 X25.0851 Y24.6435
G01 X25.0450 Y24.6425
G01 X25.0049 Y24.6435
G01 X24.9650 Y24.6464
G01 X24.9252 Y24.6513
G01 X24.8857 Y24.6582
G01 X24.8466 Y24.6670
G01 X24.8080 Y24.6777
G01 X24.7699 Y24.6902
G01 X24.7325 Y24.7047
G01 X24.6959 Y24.7209
G01 X24.6601 Y24.7389
G01 X24.6252 Y24.7587
G01 X24.5914 Y24.7801
G01 X24.5586 Y24.8032
G01 X24.5270 Y24.8278
G01 X24.4967 Y24.8540
G01 X24.4677 Y24.8817
G01 X24.4400 Y24.9107
G01 X24.4139 Y24.9410
G01 X24.3892 Y24.9726
G01 X24.3661 Y25.0054
G01 X24.3447 Y25.0392
G01 X24.3249 Y25.0741
G01 X24.3069 Y25.1099
G01 X24.2907 Y25.1465
G01 X24.2762 Y25.1839
G01 X24.2637 Y25.2220
G01 X24.2530 Y25.2606
G01 X24.2442 Y25.2997
G01 X24.2374 Y25.3392
G01 X24.2325 Y25.3790
G01 X24.2295 Y25.4189
G01 X24.2285 Y25.4590
G01 X24.2295 Y25.4991
G01 X24.2325 Y25.5390
G01 X24.2347 Y25.5589
G01 X24.2405 Y25.5986
G01 X24.2484 Y25.6379
G01 X24.2530 Y25.6574
G01 X24.2637 Y25.6960
G01 X24.2762 Y25.7341
G01 X24.2832 Y25.7528
G01 X24.2986 Y25.7899
G01 X24.3069 Y25.8081
G01 X24.3249 Y25.8439
G01 X24.3447 Y25.8787
G01 X24.3661 Y25.9126
G01 X24.3775 Y25.9291
G01 X24.4013 Y25.9613
G01 X24.4139 Y25.9770
G01 X24.4400 Y26.0073
G01 X24.4537 Y26.0220
G01 X24.4820 Y26.0503
G01 X24.5117 Y26.0772
G01 X24.5270 Y26.0901
G01 X24.5586 Y26.1148
G01 X24.5914 Y26.1379
G01 X24.6082 Y26.1488
G01 X24.6426 Y26.1694
G01 X24.6779 Y26.1883
G01 X24.6959 Y26.1971
G01 X24.7325 Y26.2133
G01 X24.7699 Y26.2277
G01 X24.8080 Y26.2403
G01 X24.8466 Y26.2510
G01 X24.8661 Y26.2556
G01 X24.9054 Y26.2634
G01 X24.9252 Y26.2666
G01 X24.9650 Y26.2715
G01 X24.9849 Y26.2733
G01 X25.0250 Y26.2752
G01 X25.0650 Y26.2752
G01 X25.1051 Y26.2733
G01 X25.1250 Y26.2715
G01 X25.1648 Y26.2666
G01 X25.2043 Y26.2598
G01 X25.2239 Y26.2556
G01 X25.2628 Y26.2459
G01 X25.3011 Y26.2343
G01 X25.3388 Y26.2208
G01 X25.3575 Y26.2133
G01 X25.3759 Y26.2054
G01 X25.4121 Y26.1883
G01 X25.4474 Y26.1694
G01 X25.4648 Y26.1593
G01 X25.4818 Y26.1488
G01 X25.5151 Y26.1265
G01 X25.5314 Y26.1148
G01 X25.5630 Y26.0901
G01 X25.5933 Y26.0640
G01 X25.6080 Y26.0503
G01 X25.6223 Y26.0363
G01 X25.6500 Y26.0073
G01 X25.6632 Y25.9923
G01 X25.6887 Y25.9613
G01 X25.7125 Y25.9291
G01 X25.7348 Y25.8958
G01 X25.7453 Y25.8787
G01 X25.7651 Y25.8439
G01 X25.7831 Y25.8081
G01 X25.7914 Y25.7899
G01 X25.8068 Y25.7528
G01 X25.8138 Y25.7341
G01 X25.8203 Y25.7151
G01 X25.8263 Y25.6960
G01 X25.8319 Y25.6768
G01 X25.8370 Y25.6574
G01 X25.8458 Y25.6183
G01 X25.8526 Y25.5788
G01 X25.8553 Y25.5589
G01 X25.8593 Y25.5191
G01 X25.8612 Y25.4790
G01 X25.8615 Y25.4590
G01 X25.6800 Y25.4590
G01 X25.6793 Y25.4278
G01 X25.6770 Y25.3967
G01 X25.6753 Y25.3813
G01 X25.6707 Y25.3504
G01 X25.6646 Y25.3199
G01 X25.6570 Y25.2896
G01 X25.6480 Y25.2598
G01 X25.6429 Y25.2451
G01 X25.6317 Y25.2160
G01 X25.6191 Y25.1875
G01 X25.6122 Y25.1735
G01 X25.5975 Y25.1460
G01 X25.5815 Y25.1192
G01 X25.5642 Y25.0933
G01 X25.5456 Y25.0683
G01 X25.5259 Y25.0442
G01 X25.5155 Y25.0325
G01 X25.4940 Y25.0099
G01 X25.4715 Y24.9885
G01 X25.4479 Y24.9681
G01 X25.4233 Y24.9489
G01 X25.4107 Y24.9398
G01 X25.3847 Y24.9225
G01 X25.3580 Y24.9064
G01 X25.3444 Y24.8989
G01 X25.3305 Y24.8918
G01 X25.3023 Y24.8784
G01 X25.2880 Y24.8723
G01 X25.2589 Y24.8611
G01 X25.2293 Y24.8513
G01 X25.1993 Y24.8430
G01 X25.1841 Y24.8394
G01 X25.1536 Y24.8333
G01 X25.1382 Y24.8308
G01 X25.1072 Y24.8270
G01 X25.0917 Y24.8257
G01 X25.0762 Y24.8247
G01 X25.0450 Y24.8240
G01 X25.0294 Y24.8241
G01 X24.9983 Y24.8257
G01 X24.9828 Y24.8270
G01 X24.9518 Y24.8308
G01 X24.9211 Y24.8362
G01 X24.8907 Y24.8430
G01 X24.8756 Y24.8470
G01 X24.8458 Y24.8560
G01 X24.8311 Y24.8611
G01 X24.8165 Y24.8665
G01 X24.7877 Y24.8784
G01 X24.7735 Y24.8849
G01 X24.7456 Y24.8989
G01 X24.7185 Y24.9143
G01 X24.7053 Y24.9225
G01 X24.6793 Y24.9398
G01 X24.6543 Y24.9584
G01 X24.6421 Y24.9681
G01 X24.6185 Y24.9885
G01 X24.6071 Y24.9991
G01 X24.5851 Y25.0211
G01 X24.5745 Y25.0325
G01 X24.5541 Y25.0561
G01 X24.5444 Y25.0683
G01 X24.5349 Y25.0807
G01 X24.5170 Y25.1062
G01 X24.5003 Y25.1325
G01 X24.4925 Y25.1460
G01 X24.4849 Y25.1596
G01 X24.4709 Y25.1875
G01 X24.4583 Y25.2160
G01 X24.4525 Y25.2304
G01 X24.4420 Y25.2598
G01 X24.4373 Y25.2746
G01 X24.4290 Y25.3047
G01 X24.4254 Y25.3199
G01 X24.4193 Y25.3504
G01 X24.4168 Y25.3658
G01 X24.4130 Y25.3967
G01 X24.4107 Y25.4278
G01 X24.4100 Y25.4590
G01 X24.4102 Y25.4746
G01 X24.4117 Y25.5057
G01 X24.4147 Y25.5367
G01 X24.4193 Y25.5676
G01 X24.4222 Y25.5829
G01 X24.4290 Y25.6133
G01 X24.4330 Y25.6284
G01 X24.4420 Y25.6582
G01 X24.4525 Y25.6875
G01 X24.4644 Y25.7163
G01 X24.4778 Y25.7445
G01 X24.4925 Y25.7720
G01 X24.5003 Y25.7855
G01 X24.5170 Y25.8118
G01 X24.5349 Y25.8373
G01 X24.5444 Y25.8497
G01 X24.5641 Y25.8738
G01 X24.5745 Y25.8855
G01 X24.5960 Y25.9080
G01 X24.6071 Y25.9189
G01 X24.6302 Y25.9398
G01 X24.6543 Y25.9596
G01 X24.6793 Y25.9782
G01 X24.7053 Y25.9955
G01 X24.7320 Y26.0115
G01 X24.7595 Y26.0262
G01 X24.7735 Y26.0331
G01 X24.7877 Y26.0395
G01 X24.8165 Y26.0515
G01 X24.8458 Y26.0620
G01 X24.8756 Y26.0710
G01 X24.9059 Y26.0786
G01 X24.9211 Y26.0818
G01 X24.9518 Y26.0872
G01 X24.9828 Y26.0910
G01 X24.9983 Y26.0923
G01 X25.0138 Y26.0933
G01 X25.0450 Y26.0940
G01 X25.0762 Y26.0933
G01 X25.0917 Y26.0923
G01 X25.1227 Y26.0893
G01 X25.1536 Y26.0847
G01 X25.1841 Y26.0786
G01 X25.2144 Y26.0710
G01 X25.2293 Y26.0667
G01 X25.2589 Y26.0569
G01 X25.2735 Y26.0515
G01 X25.2880 Y26.0457
G01 X25.3165 Y26.0331
G01 X25.3305 Y26.0262
G01 X25.3580 Y26.0115
G01 X25.3847 Y25.9955
G01 X25.3978 Y25.9870
G01 X25.4233 Y25.9691
G01 X25.4357 Y25.9596
G01 X25.4479 Y25.9499
G01 X25.4715 Y25.9295
G01 X25.4940 Y25.9080
G01 X25.5049 Y25.8969
G01 X25.5259 Y25.8738
G01 X25.5456 Y25.8497
G01 X25.5551 Y25.8373
G01 X25.5730 Y25.8118
G01 X25.5815 Y25.7987
G01 X25.5897 Y25.7855
G01 X25.6051 Y25.7583
G01 X25.6122 Y25.7445
G01 X25.6256 Y25.7163
G01 X25.6317 Y25.7020
G01 X25.6429 Y25.6729
G01 X25.6480 Y25.6582
G01 X25.6570 Y25.6284
G01 X25.6646 Y25.5981
G01 X25.6678 Y25.5829
G01 X25.6732 Y25.5522
G01 X25.6770 Y25.5212
G01 X25.6783 Y25.5057
G01 X25.6793 Y25.4901
G01 X25.6800 Y25.4590
G01 X25.4986 Y25.4590
G01 X25.4981 Y25.4367
G01 X25.4964 Y25.4145
G01 X25.4937 Y25.3924
G01 X25.4899 Y25.3705
G01 X25.4850 Y25.3488
G01 X25.4791 Y25.3273
G01 X25.4721 Y25.3062
G01 X25.4641 Y25.2854
G01 X25.4550 Y25.2651
G01 X25.4450 Y25.2452
G01 X25.4341 Y25.2258
G01 X25.4222 Y25.2070
G01 X25.4093 Y25.1888
G01 X25.3956 Y25.1712
G01 X25.3811 Y25.1544
G01 X25.3657 Y25.1382
G01 X25.3578 Y25.1305
G01 X25.3413 Y25.1155
G01 X25.3241 Y25.1014
G01 X25.3152 Y25.0947
G01 X25.2970 Y25.0818
G01 X25.2877 Y25.0758
G01 X25.2686 Y25.0643
G01 X25.2588 Y25.0590
G01 X25.2389 Y25.0489
G01 X25.2288 Y25.0443
G01 X25.2082 Y25.0358
G01 X25.1978 Y25.0319
G01 X25.1767 Y25.0249
G01 X25.1552 Y25.0190
G01 X25.1335 Y25.0141
G01 X25.1225 Y25.0121
G01 X25.1005 Y25.0088
G01 X25.0895 Y25.0076
G01 X25.0673 Y25.0059
G01 X25.0561 Y25.0055
G01 X25.0450 Y25.0054
G01 X25.0227 Y25.0059
G01 X25.0116 Y25.0066
G01 X24.9895 Y25.0088
G01 X24.9675 Y25.0121
G01 X24.9565 Y25.0141
G01 X24.9348 Y25.0190
G01 X24.9240 Y25.0218
G01 X24.9027 Y25.0283
G01 X24.8922 Y25.0319
G01 X24.8818 Y25.0358
G01 X24.8612 Y25.0443
G01 X24.8511 Y25.0489
G01 X24.8312 Y25.0590
G01 X24.8118 Y25.0699
G01 X24.8023 Y25.0758
G01 X24.7838 Y25.0881
G01 X24.7748 Y25.0947
G01 X24.7659 Y25.1014
G01 X24.7487 Y25.1155
G01 X24.7404 Y25.1229
G01 X24.7243 Y25.1382
G01 X24.7089 Y25.1544
G01 X24.7015 Y25.1627
G01 X24.6944 Y25.1712
G01 X24.6807 Y25.1888
G01 X24.6678 Y25.2070
G01 X24.6618 Y25.2163
G01 X24.6503 Y25.2354
G01 X24.6450 Y25.2452
G01 X24.6398 Y25.2550
G01 X24.6303 Y25.2752
G01 X24.6259 Y25.2854
G01 X24.6179 Y25.3062
G01 X24.6109 Y25.3273
G01 X24.6078 Y25.3380
G01 X24.6050 Y25.3488
G01 X24.6001 Y25.3705
G01 X24.5963 Y25.3924
G01 X24.5948 Y25.4035
G01 X24.5926 Y25.4256
G01 X24.5919 Y25.4367
G01 X24.5914 Y25.4590
G01 X24.5915 Y25.4701
G01 X24.5926 Y25.4924
G01 X24.5948 Y25.5145
G01 X24.5963 Y25.5255
G01 X24.5981 Y25.5365
G01 X24.6024 Y25.5584
G01 X24.6078 Y25.5800
G01 X24.6143 Y25.6013
G01 X24.6179 Y25.6118
G01 X24.6259 Y25.6326
G01 X24.6350 Y25.6529
G01 X24.6450 Y25.6728
G01 X24.6503 Y25.6826
G01 X24.6559 Y25.6922
G01 X24.6678 Y25.7110
G01 X24.6807 Y25.7292
G01 X24.6944 Y25.7468
G01 X24.7015 Y25.7553
G01 X24.7165 Y25.7718
G01 X24.7243 Y25.7797
G01 X24.7322 Y25.7875
G01 X24.7487 Y25.8025
G01 X24.7659 Y25.8166
G01 X24.7838 Y25.8298
G01 X24.8023 Y25.8422
G01 X24.8118 Y25.8481
G01 X24.8312 Y25.8590
G01 X24.8411 Y25.8642
G01 X24.8511 Y25.8690
G01 X24.8714 Y25.8781
G01 X24.8922 Y25.8861
G01 X24.9027 Y25.8897
G01 X24.9240 Y25.8962
G01 X24.9456 Y25.9016
G01 X24.9565 Y25.9039
G01 X24.9784 Y25.9077
G01 X25.0005 Y25.9104
G01 X25.0116 Y25.9114
G01 X25.0339 Y25.9125
G01 X25.0450 Y25.9126
G01 X25.0673 Y25.9120
G01 X25.0895 Y25.9104
G01 X25.1116 Y25.9077
G01 X25.1225 Y25.9059
G01 X25.1444 Y25.9016
G01 X25.1660 Y25.8962
G01 X25.1767 Y25.8931
G01 X25.1978 Y25.8861
G01 X25.2186 Y25.8781
G01 X25.2288 Y25.8737
G01 X25.2489 Y25.8642
G01 X25.2588 Y25.8590
G01 X25.2782 Y25.8481
G01 X25.2877 Y25.8422
G01 X25.3062 Y25.8298
G01 X25.3241 Y25.8166
G01 X25.3328 Y25.8096
G01 X25.3496 Y25.7951
G01 X25.3578 Y25.7875
G01 X25.3657 Y25.7797
G01 X25.3811 Y25.7636
G01 X25.3956 Y25.7468
G01 X25.4026 Y25.7381
G01 X25.4159 Y25.7202
G01 X25.4222 Y25.7110
G01 X25.4341 Y25.6922
G01 X25.4450 Y25.6728
G01 X25.4550 Y25.6529
G01 X25.4597 Y25.6428
G01 X25.4682 Y25.6222
G01 X25.4721 Y25.6118
G01 X25.4757 Y25.6013
G01 X25.4791 Y25.5907
G01 X25.4822 Y25.5800
G01 X25.4876 Y25.5584
G01 X25.4919 Y25.5365
G01 X25.4937 Y25.5255
G01 X25.4964 Y25.5035
G01 X25.4974 Y25.4924
G01 X25.4985 Y25.4701
G01 X25.4986 Y25.4590
G01 X25.3172 Y25.4590
G01 X25.3164 Y25.4390
G01 X25.3151 Y25.4257
G01 X25.3132 Y25.4125
G01 X25.3090 Y25.3929
G01 X25.3054 Y25.3800
G01 X25.3013 Y25.3673
G01 X25.2964 Y25.3548
G01 X25.2910 Y25.3426
G01 X25.2818 Y25.3248
G01 X25.2713 Y25.3078
G01 X25.2596 Y25.2915
G01 X25.2467 Y25.2762
G01 X25.2327 Y25.2619
G01 X25.2228 Y25.2529
G01 X25.2124 Y25.2444
G01 X25.1962 Y25.2327
G01 X25.1791 Y25.2222
G01 X25.1674 Y25.2159
G01 X25.1553 Y25.2102
G01 X25.1367 Y25.2027
G01 X25.1240 Y25.1985
G01 X25.1111 Y25.1950
G01 X25.0915 Y25.1908
G01 X25.0783 Y25.1889
G01 X25.0650 Y25.1876
G01 X25.0517 Y25.1869
G01 X25.0383 Y25.1869
G01 X25.0183 Y25.1881
G01 X24.9985 Y25.1908
G01 X24.9854 Y25.1934
G01 X24.9724 Y25.1967
G01 X24.9533 Y25.2027
G01 X24.9408 Y25.2075
G01 X24.9286 Y25.2130
G01 X24.9167 Y25.2190
G01 X24.9051 Y25.2256
G01 X24.8883 Y25.2365
G01 X24.8776 Y25.2444
G01 X24.8672 Y25.2529
G01 X24.8526 Y25.2665
G01 X24.8433 Y25.2762
G01 X24.8346 Y25.2863
G01 X24.8225 Y25.3023
G01 X24.8116 Y25.3191
G01 X24.8050 Y25.3307
G01 X24.7990 Y25.3426
G01 X24.7936 Y25.3548
G01 X24.7887 Y25.3673
G01 X24.7827 Y25.3864
G01 X24.7795 Y25.3994
G01 X24.7768 Y25.4125
G01 X24.7742 Y25.4323
G01 X24.7729 Y25.4523
G01 X24.7729 Y25.4657
G01 X24.7736 Y25.4790
G01 X24.7749 Y25.4923
G01 X24.7768 Y25.5055
G01 X24.7810 Y25.5251
G01 X24.7866 Y25.5444
G01 X24.7911 Y25.5569
G01 X24.7962 Y25.5693
G01 X24.8019 Y25.5814
G01 X24.8082 Y25.5931
G01 X24.8187 Y25.6102
G01 X24.8264 Y25.6211
G01 X24.8346 Y25.6316
G01 X24.8479 Y25.6467
G01 X24.8573 Y25.6561
G01 X24.8672 Y25.6651
G01 X24.8776 Y25.6735
G01 X24.8883 Y25.6815
G01 X24.8994 Y25.6889
G01 X24.9167 Y25.6990
G01 X24.9286 Y25.7050
G01 X24.9408 Y25.7104
G01 X24.9533 Y25.7152
G01 X24.9660 Y25.7194
G01 X24.9789 Y25.7230
G01 X24.9919 Y25.7259
G01 X25.0117 Y25.7291
G01 X25.0250 Y25.7304
G01 X25.0383 Y25.7311
G01 X25.0517 Y25.7311
G01 X25.0650 Y25.7304
G01 X25.0783 Y25.7291
G01 X25.0915 Y25.7271
G01 X25.1046 Y25.7245
G01 X25.1240 Y25.7194
G01 X25.1367 Y25.7152
G01 X25.1492 Y25.7104
G01 X25.1614 Y25.7050
G01 X25.1791 Y25.6958
G01 X25.1906 Y25.6889
G01 X25.2017 Y25.6815
G01 X25.2124 Y25.6735
G01 X25.2228 Y25.6651
G01 X25.2327 Y25.6561
G01 X25.2421 Y25.6467
G01 X25.2511 Y25.6368
G01 X25.2596 Y25.6264
G01 X25.2675 Y25.6157
G01 X25.2784 Y25.5989
G01 X25.2850 Y25.5873
G01 X25.2938 Y25.5693
G01 X25.2989 Y25.5569
G01 X25.3054 Y25.5380
G01 X25.3073 Y25.5316
G01 X25.3090 Y25.5251
G01 X25.3119 Y25.5121
G01 X25.3151 Y25.4923
G01 X25.3164 Y25.4790
G01 X25.3172 Y25.4590
G01 X25.1357 Y25.4590
G01 X25.1355 Y25.4523
G01 X25.1344 Y25.4435
G01 X25.1324 Y25.4348
G01 X25.1296 Y25.4263
G01 X25.1260 Y25.4182
G01 X25.1216 Y25.4105
G01 X25.1165 Y25.4032
G01 X25.1122 Y25.3981
G01 X25.1076 Y25.3933
G01 X25.1008 Y25.3875
G01 X25.0935 Y25.3823
G01 X25.0858 Y25.3780
G01 X25.0797 Y25.3752
G01 X25.0713 Y25.3722
G01 X25.0627 Y25.3700
G01 X25.0539 Y25.3687
G01 X25.0450 Y25.3683
G01 X25.0383 Y25.3685
G01 X25.0295 Y25.3696
G01 X25.0208 Y25.3716
G01 X25.0144 Y25.3736
G01 X25.0062 Y25.3770
G01 X25.0003 Y25.3801
G01 X24.9928 Y25.3848
G01 X24.9874 Y25.3889
G01 X24.9809 Y25.3948
G01 X24.9749 Y25.4014
G01 X24.9708 Y25.4068
G01 X24.9672 Y25.4124
G01 X24.9630 Y25.4202
G01 X24.9604 Y25.4263
G01 X24.9576 Y25.4348
G01 X24.9560 Y25.4413
G01 X24.9547 Y25.4501
G01 X24.9543 Y25.4590
G01 X24.9545 Y25.4657
G01 X24.9556 Y25.4745
G01 X24.9576 Y25.4832
G01 X24.9596 Y25.4896
G01 X24.9630 Y25.4978
G01 X24.9661 Y25.5037
G01 X24.9708 Y25.5112
G01 X24.9749 Y25.5165
G01 X24.9809 Y25.5231
G01 X24.9857 Y25.5277
G01 X24.9928 Y25.5332
G01 X24.9984 Y25.5368
G01 X25.0062 Y25.5410
G01 X25.0165 Y25.5451
G01 X25.0273 Y25.5480
G01 X25.0383 Y25.5495
G01 X25.0495 Y25.5496
G01 X25.0605 Y25.5484
G01 X25.0735 Y25.5451
G01 X25.0838 Y25.5410
G01 X25.0935 Y25.5356
G01 X25.1026 Y25.5291
G01 X25.1107 Y25.5215
G01 X25.1192 Y25.5112
G01 X25.1250 Y25.5018
G01 X25.1296 Y25.4916
G01 X25.1330 Y25.4810
G01 X25.1350 Y25.4701
G01 X25.1357 Y25.4590
G01 X25.9824 Y25.8011
G01 X25.9761 Y25.8181
G01 X25.9670 Y25.8409
G01 X25.9573 Y25.8634
G01 X25.9471 Y25.8857
G01 X25.9364 Y25.9077
G01 X25.9251 Y25.9294
G01 X25.9133 Y25.9509
G01 X25.9009 Y25.9720
G01 X25.8881 Y25.9929
G01 X25.8747 Y26.0134
G01 X25.8609 Y26.0336
G01 X25.8465 Y26.0535
G01 X25.8317 Y26.0729
G01 X25.8164 Y26.0921
G01 X25.8006 Y26.1108
G01 X25.7844 Y26.1292
G01 X25.7677 Y26.1471
G01 X25.7506 Y26.1646
G01 X25.7331 Y26.1817
G01 X25.7152 Y26.1984
G01 X25.6968 Y26.2146
G01 X25.6781 Y26.2304
G01 X25.6590 Y26.2457
G01 X25.6395 Y26.2605
G01 X25.6196 Y26.2749
G01 X25.5994 Y26.2887
G01 X25.5789 Y26.3021
G01 X25.5580 Y26.3149
G01 X25.5369 Y26.3273
G01 X25.5154 Y26.3391
G01 X25.4937 Y26.3504
G01 X25.4717 Y26.3611
G01 X25.4494 Y26.3713
G01 X25.4269 Y26.3809
G01 X25.4041 Y26.3900
G01 X25.3871 Y26.3964
G00 Z2.0000
G00 X25.7605 Y26.3964
G01 F60.00
G01 Z0.1366
G01 F120.00
G01 X25.7932 Y26.3706
G01 X25.8153 Y26.3520
G01 X25.8370 Y26.3328
G01 X25.8582 Y26.3131
G01 X25.8789 Y26.2929
G01 X25.8991 Y26.2722
G01 X25.9188 Y26.2510
G01 X25.9380 Y26.2293
G01 X25.9567 Y26.2072
G01 X25.9824 Y26.1745
G01 X24.7029 Y26.3964
G01 X24.6859 Y26.3900
G01 X24.6631 Y26.3809
G01 X24.6406 Y26.3713
G01 X24.6183 Y26.3611
G01 X24.5963 Y26.3504
G01 X24.5746 Y26.3391
G01 X24.5531 Y26.3273
G01 X24.5320 Y26.3149
G01 X24.5111 Y26.3021
G01 X24.4906 Y26.2887
G01 X24.4704 Y26.2749
G01 X24.4505 Y26.2605
G01 X24.4310 Y26.2457
G01 X24.4119 Y26.2304
G01 X24.3932 Y26.2146
G01 X24.3748 Y26.1984
G01 X24.3569 Y26.1817
G01 X24.3394 Y26.1646
G01 X24.3223 Y26.1471
G01 X24.3056 Y26.1292
G01 X24.2894 Y26.1108
G01 X24.2736 Y26.0921
G01 X24.2583 Y26.0729
G01 X24.2435 Y26.0535
G01 X24.2291 Y26.0336
G01 X24.2153 Y26.0134
G01 X24.2019 Y25.9929
G01 X24.1891 Y25.9720
G01 X24.1767 Y25.9509
G01 X24.1649 Y25.9294
G01 X24.1536 Y25.9077
G01 X24.1429 Y25.8857
G01 X24.1327 Y25.8634
G01 X24.1230 Y25.8409
G01 X24.1139 Y25.8181
G01 X24.1076 Y25.8011
G01 X24.1076 Y26.1745
G01 X24.1333 Y26.2072
G01 X24.1520 Y26.2293
G01 X24.1712 Y26.2510
G01 X24.1909 Y26.2722
G01 X24.2111 Y26.2929
G01 X24.2318 Y26.3131
G01 X24.2530 Y26.3328
G01 X24.2747 Y26.3520
G01 X24.2968 Y26.3706
G01 X24.3295 Y26.3964
G00 Z2.0000
G00 X25.9824 Y24.7435
G01 F60.00
G01 Z0.1366
G01 F120.00
G01 X25.9567 Y24.7108
G01 X25.9380 Y24.6887
G01 X25.9188 Y24.6670
G01 X25.8991 Y24.6458
G01 X25.8789 Y24.6251
G01 X25.8582 Y24.6048
G01 X25.8370 Y24.5851
G01 X25.8153 Y24.5660
G01 X25.7932 Y24.5473
G01 X25.7605 Y24.5216
G00 Z2.0000
G00 X27.7529 Y29.6257
G01 F60.00
G01 Z0.1366
G01 F120.00
G01 X27.6610 Y29.6303
G01 X27.5700 Y29.6437
G01 X27.4808 Y29.6661
G01 X27.3942 Y29.6971
G01 X27.3111 Y29.7364
G01 X27.2322 Y29.7837
G01 X27.1583 Y29.8385
G01 X27.0902 Y29.9003
G01 X27.0284 Y29.9684
G01 X26.9736 Y30.0423
G01 X26.9263 Y30.1212
G01 X26.8870 Y30.2043
G01 X26.8560 Y30.2909
G01 X26.8336 Y30.3802
G01 X26.8202 Y30.4711
G01 X26.8155 Y30.5658
G01 X26.8155 Y31.5602
G01 X26.8202 Y31.6549
G01 X26.8336 Y31.7458
G01 X26.8560 Y31.8351
G01 X26.8870 Y31.9217
G01 X26.9263 Y32.0048
G01 X26.9736 Y32.0837
G01 X27.0284 Y32.1576
G01 X27.0902 Y32.2257
G01 X27.1583 Y32.2875
G01 X27.2322 Y32.3423
G01 X27.3111 Y32.3896
G01 X27.3942 Y32.4289
G01 X27.4808 Y32.4599
G01 X27.5700 Y32.4823
G01 X27.6610 Y32.4957
G01 X27.7529 Y32.5003
G01 X27.8448 Y32.4957
G01 X27.9358 Y32.4823
G01 X28.0250 Y32.4599
G01 X28.1116 Y32.4289
G01 X28.1947 Y32.3896
G01 X28.2736 Y32.3423
G01 X28.3475 Y32.2875
G01 X28.4156 Y32.2257
G01 X28.4774 Y32.1576
G01 X28.5322 Y32.0837
G01 X28.5795 Y32.0048
G01 X28.6188 Y31.9217
G01 X28.6498 Y31.8351
G01 X28.6722 Y31.7458
G01 X28.6856 Y31.6549
G01 X28.6903 Y31.5602
G01 X28.6903 Y30.5658
G01 X28.6856 Y30.4711
G01 X28.6722 Y30.3802
G01 X28.6498 Y30.2909
G01 X28.6188 Y30.2043
G01 X28.5795 Y30.1212
G01 X28.5322 Y30.0423
G01 X28.4774 Y29.9684
G01 X28.4156 Y29.9003
G01 X28.3475 Y29.8385
G01 X28.2736 Y29.7837
G01 X28.1947 Y29.7364
G01 X28.1116 Y29.6971
G01 X28.0250 Y29.6661
G01 X27.9358 Y29.6437
G01 X27.8448 Y29.6303
G01 X27.7529 Y29.6257
G00 Z2.0000
G00 X28.3489 Y29.8398
G01 F60.00
G01 Z0.1366
G01 F120.00
G01 X28.3347 Y29.8329
G01 X28.3044 Y29.8189
G01 X28.2737 Y29.8058
G01 X28.2426 Y29.7934
G01 X28.2113 Y29.7817
G01 X28.1798 Y29.7709
G01 X28.1479 Y29.7608
G01 X28.1158 Y29.7515
G01 X28.0835 Y29.7430
G01 X28.0511 Y29.7353
G01 X28.0184 Y29.7283
G01 X27.9855 Y29.7222
G01 X27.9526 Y29.7169
G01 X27.9195 Y29.7124
G01 X27.8863 Y29.7088
G01 X27.8530 Y29.7059
G01 X27.8197 Y29.7038
G01 X27.7863 Y29.7026
G01 X27.7529 Y29.7022
G01 X27.7195 Y29.7026
G01 X27.6861 Y29.7038
G01 X27.6528 Y29.7059
G01 X27.6195 Y29.7088
G01 X27.5863 Y29.7124
G01 X27.5532 Y29.7169
G01 X27.5203 Y29.7222
G01 X27.4874 Y29.7283
G01 X27.4547 Y29.7353
G01 X27.4223 Y29.7430
G01 X27.3900 Y29.7515
G01 X27.3579 Y29.7608
G01 X27.3260 Y29.7709
G01 X27.2945 Y29.7817
G01 X27.2632 Y29.7934
G01 X27.2321 Y29.8058
G01 X27.2014 Y29.8189
G01 X27.1711 Y29.8329
G01 X27.1569 Y29.8398
G01 X26.8537 Y30.3000
G01 X26.8791 Y30.2710
G01 X26.8988 Y30.2498
G01 X26.9190 Y30.2291
G01 X26.9397 Y30.2089
G01 X26.9609 Y30.1892
G01 X26.9826 Y30.1700
G01 X27.0047 Y30.1513
G01 X27.0273 Y30.1333
G01 X27.0504 Y30.1157
G01 X27.0738 Y30.0988
G01 X27.0977 Y30.0824
G01 X27.1219 Y30.0666
G01 X27.1466 Y30.0514
G01 X27.1716 Y30.0369
G01 X27.1970 Y30.0229
G01 X27.2226 Y30.0096
G01 X27.2487 Y29.9969
G01 X27.2750 Y29.9848
G01 X27.3016 Y29.9734
G01 X27.3285 Y29.9627
G01 X27.3556 Y29.9526
G01 X27.3830 Y29.9432
G01 X27.4105 Y29.9344
G01 X27.4383 Y29.9264
G01 X27.4663 Y29.9190
G01 X27.4945 Y29.9123
G01 X27.5228 Y29.9063
G01 X27.5513 Y29.9010
G01 X27.5799 Y29.8964
G01 X27.6085 Y29.8925
G01 X27.6373 Y29.8893
G01 X27.6661 Y29.8868
G01 X27.6950 Y29.8851
G01 X27.7240 Y29.8840
G01 X27.7529 Y29.8836
G01 X27.7818 Y29.8840
G01 X27.8108 Y29.8851
G01 X27.8397 Y29.8868
G01 X27.8685 Y29.8893
G01 X27.8973 Y29.8925
G01 X27.9259 Y29.8964
G01 X27.9545 Y29.9010
G01 X27.9830 Y29.9063
G01 X28.0113 Y29.9123
G01 X28.0395 Y29.9190
G01 X28.0675 Y29.9264
G01 X28.0953 Y29.9344
G01 X28.1228 Y29.9432
G01 X28.1502 Y29.9526
G01 X28.1773 Y29.9627
G01 X28.2042 Y29.9734
G01 X28.2308 Y29.9848
G01 X28.2571 Y29.9969
G01 X28.2832 Y30.0096
G01 X28.3088 Y30.0229
G01 X28.3342 Y30.0369
G01 X28.3592 Y30.0514
G01 X28.3839 Y30.0666
G01 X28.4081 Y30.0824
G01 X28.4320 Y30.0988
G01 X28.4554 Y30.1157
G01 X28.4785 Y30.1333
G01 X28.5011 Y30.1513
G01 X28.5232 Y30.1700
G01 X28.5449 Y30.1892
G01 X28.5661 Y30.2089
G01 X28.5868 Y30.2291
G01 X28.6070 Y30.2498
G01 X28.6267 Y30.2710
G01 X28.6521 Y30.3000
G01 X28.6903 Y30.7209
G01 X28.6840 Y30.7039
G01 X28.6749 Y30.6811
G01 X28.6652 Y30.6586
G01 X28.6550 Y30.6363
G01 X28.6443 Y30.6143
G01 X28.6330 Y30.5926
G01 X28.6212 Y30.5711
G01 X28.6088 Y30.5500
G01 X28.5960 Y30.5291
G01 X28.5826 Y30.5086
G01 X28.5688 Y30.4884
G01 X28.5544 Y30.4685
G01 X28.5396 Y30.4490
G01 X28.5243 Y30.4299
G01 X28.5085 Y30.4112
G01 X28.4923 Y30.3928
G01 X28.4756 Y30.3749
G01 X28.4585 Y30.3574
G01 X28.4410 Y30.3403
G01 X28.4231 Y30.3236
G01 X28.4047 Y30.3074
G01 X28.3860 Y30.2916
G01 X28.3669 Y30.2763
G01 X28.3474 Y30.2615
G01 X28.3275 Y30.2471
G01 X28.3073 Y30.2333
G01 X28.2868 Y30.2199
G01 X28.2659 Y30.2071
G01 X28.2448 Y30.1947
G01 X28.2233 Y30.1829
G01 X28.2016 Y30.1716
G01 X28.1796 Y30.1609
G01 X28.1573 Y30.1507
G01 X28.1348 Y30.1410
G01 X28.1120 Y30.1319
G01 X28.0891 Y30.1234
G01 X28.0659 Y30.1154
G01 X28.0426 Y30.1081
G01 X28.0191 Y30.1012
G01 X27.9954 Y30.0950
G01 X27.9715 Y30.0893
G01 X27.9476 Y30.0843
G01 X27.9235 Y30.0798
G01 X27.8993 Y30.0759
G01 X27.8751 Y30.0726
G01 X27.8507 Y30.0699
G01 X27.8263 Y30.0678
G01 X27.8019 Y30.0663
G01 X27.7774 Y30.0654
G01 X27.7529 Y30.0651
G01 X27.7284 Y30.0654
G01 X27.7039 Y30.0663
G01 X27.6795 Y30.0678
G01 X27.6551 Y30.0699
G01 X27.6307 Y30.0726
G01 X27.6065 Y30.0759
G01 X27.5823 Y30.0798
G01 X27.5582 Y30.0843
G01 X27.5343 Y30.0893
G01 X27.5104 Y30.0950
G01 X27.4867 Y30.1012
G01 X27.4632 Y30.1081
G01 X27.4399 Y30.1154
G01 X27.4167 Y30.1234
G01 X27.3938 Y30.1319
G01 X27.3710 Y30.1410
G01 X27.3485 Y30.1507
G01 X27.3262 Y30.1609
G01 X27.3042 Y30.1716
G01 X27.2825 Y30.1829
G01 X27.2610 Y30.1947
G01 X27.2399 Y30.2071
G01 X27.2190 Y30.2199
G01 X27.1985 Y30.2333
G01 X27.1783 Y30.2471
G01 X27.1584 Y30.2615
G01 X27.1389 Y30.2763
G01 X27.1198 Y30.2916
G01 X27.1011 Y30.3074
G01 X27.0827 Y30.3236
G01 X27.0648 Y30.3403
G01 X27.0473 Y30.3574
G01 X27.0302 Y30.3749
G01 X27.0135 Y30.3928
G01 X26.9973 Y30.4112
G01 X26.9815 Y30.4299
G01 X26.9662 Y30.4490
G01 X26.9514 Y30.4685
G01 X26.9370 Y30.4884
G01 X26.9232 Y30.5086
G01 X26.9098 Y30.5291
G01 X26.8970 Y30.5500
G01 X26.8846 Y30.5711
G01 X26.8728 Y30.5926
G01 X26.8615 Y30.6143
G01 X26.8508 Y30.6363
G01 X26.8406 Y30.6586
G01 X26.8309 Y30.6811
G01 X26.8218 Y30.7039
G01 X26.8155 Y30.7209
G00 Z2.0000
G00 X26.8155 Y31.4051
G01 F60.00
G01 Z0.1366
G01 F120.00
G01 X26.8218 Y31.4221
G01 X26.8309 Y31.4449
G01 X26.8406 Y31.4674
G01 X26.8508 Y31.4897
G01 X26.8615 Y31.5117
G01 X26.8728 Y31.5334
G01 X26.8846 Y31.5549
G01 X26.8970 Y31.5760
G01 X26.9098 Y31.5969
G01 X26.9232 Y31.6174
G01 X26.9370 Y31.6376
G01 X26.9514 Y31.6575
G01 X26.9662 Y31.6770
G01 X26.9815 Y31.6961
G01 X26.9973 Y31.7148
G01 X27.0135 Y31.7332
G01 X27.0302 Y31.7511
G01 X27.0473 Y31.7686
G01 X27.0648 Y31.7857
G01 X27.0827 Y31.8024
G01 X27.1011 Y31.8186
G01 X27.1198 Y31.8344
G01 X27.1389 Y31.8497
G01 X27.1584 Y31.8645
G01 X27.1783 Y31.8789
G01 X27.1985 Y31.8927
G01 X27.2190 Y31.9061
G01 X27.2399 Y31.9189
G01 X27.2610 Y31.9313
G01 X27.2825 Y31.9431
G01 X27.3042 Y31.9544
G01 X27.3262 Y31.9651
G01 X27.3485 Y31.9753
G01 X27.3710 Y31.9850
G01 X27.3938 Y31.9941
G01 X27.4167 Y32.0026
G01 X27.4399 Y32.0106
G01 X27.4632 Y32.0179
G01 X27.4867 Y32.0248
G01 X27.5104 Y32.0310
G01 X27.5343 Y32.0367
G01 X27.5582 Y32.0417
G01 X27.5823 Y32.0462
G01 X27.6065 Y32.0501
G01 X27.6307 Y32.0534
G01 X27.6551 Y32.0561
G01 X27.6795 Y32.0582
G01 X27.7039 Y32.0597
G01 X27.7284 Y32.0606
G01 X27.7529 Y32.0609
G01 X27.7774 Y32.0606
G01 X27.8019 Y32.0597
G01 X27.8263 Y32.0582
G01 X27.8507 Y32.0561
G01 X27.8751 Y32.0534
G01 X27.8993 Y32.0501
G01 X27.9235 Y32.0462
G01 X27.9476 Y32.0417
G01 X27.9715 Y32.0367
G01 X27.9954 Y32.0310
G01 X28.0191 Y32.0248
G01 X28.0426 Y32.0179
G01 X28.0659 Y32.0106
G01 X28.0891 Y32.0026
G01 X28.1120 Y31.9941
G01 X28.1348 Y31.9850
G01 X28.1573 Y31.9753
G01 X28.1796 Y31.9651
G01 X28.2016 Y31.9544
G01 X28.2233 Y31.9431
G01 X28.2448 Y31.9313
G01 X28.2659 Y31.9189
G01 X28.2868 Y31.9061
G01 X28.3073 Y31.8927
G01 X28.3275 Y31.8789
G01 X28.3474 Y31.8645
G01 X28.3669 Y31.8497
G01 X28.3860 Y31.8344
G01 X28.4047 Y31.8186
G01 X28.4231 Y31.8024
G01 X28.4410 Y31.7857
G01 X28.4585 Y31.7686
G01 X28.4756 Y31.7511
G01 X28.4923 Y31.7332
G01 X28.5085 Y31.7148
G01 X28.5243 Y31.6961
G01 X28.5396 Y31.6770
G01 X28.5544 Y31.6575
G01 X28.5688 Y31.6376
G01 X28.5826 Y31.6174
G01 X28.5960 Y31.5969
G01 X28.6088 Y31.5760
G01 X28.6212 Y31.5549
G01 X28.6330 Y31.5334
G01 X28.6443 Y31.5117
G01 X28.6550 Y31.4897
G01 X28.6652 Y31.4674
G01 X28.6749 Y31.4449
G01 X28.6840 Y31.4221
G01 X28.6903 Y31.4051
G01 X28.5694 Y31.0630
G01 X28.5691 Y31.0430
G01 X28.5672 Y31.0029
G01 X28.5632 Y30.9631
G01 X28.5574 Y30.9234
G01 X28.5537 Y30.9037
G01 X28.5449 Y30.8646
G01 X28.5342 Y30.8260
G01 X28.5282 Y30.8069
G01 X28.5147 Y30.7692
G01 X28.4993 Y30.7321
G01 X28.4822 Y30.6959
G01 X28.4633 Y30.6606
G01 X28.4532 Y30.6432
G01 X28.4427 Y30.6262
G01 X28.4204 Y30.5929
G01 X28.4087 Y30.5766
G01 X28.3840 Y30.5450
G01 X28.3711 Y30.5297
G01 X28.3442 Y30.5000
G01 X28.3302 Y30.4857
G01 X28.3012 Y30.4580
G01 X28.2862 Y30.4448
G01 X28.2552 Y30.4193
G01 X28.2230 Y30.3955
G01 X28.2065 Y30.3841
G01 X28.1727 Y30.3627
G01 X28.1553 Y30.3526
G01 X28.1200 Y30.3337
G01 X28.1020 Y30.3249
G01 X28.0654 Y30.3087
G01 X28.0467 Y30.3012
G01 X28.0090 Y30.2877
G01 X27.9899 Y30.2817
G01 X27.9513 Y30.2710
G01 X27.9318 Y30.2664
G01 X27.8925 Y30.2585
G01 X27.8727 Y30.2554
G01 X27.8329 Y30.2505
G01 X27.8130 Y30.2487
G01 X27.7729 Y30.2468
G01 X27.7329 Y30.2468
G01 X27.6928 Y30.2487
G01 X27.6729 Y30.2505
G01 X27.6530 Y30.2527
G01 X27.6133 Y30.2585
G01 X27.5740 Y30.2664
G01 X27.5545 Y30.2710
G01 X27.5159 Y30.2817
G01 X27.4968 Y30.2877
G01 X27.4591 Y30.3012
G01 X27.4404 Y30.3087
G01 X27.4038 Y30.3249
G01 X27.3858 Y30.3337
G01 X27.3680 Y30.3429
G01 X27.3331 Y30.3627
G01 X27.3161 Y30.3732
G01 X27.2828 Y30.3955
G01 X27.2665 Y30.4072
G01 X27.2349 Y30.4319
G01 X27.2046 Y30.4580
G01 X27.1899 Y30.4717
G01 X27.1616 Y30.5000
G01 X27.1479 Y30.5147
G01 X27.1218 Y30.5450
G01 X27.1092 Y30.5607
G01 X27.0854 Y30.5929
G01 X27.0740 Y30.6094
G01 X27.0631 Y30.6262
G01 X27.0425 Y30.6606
G01 X27.0328 Y30.6781
G01 X27.0148 Y30.7139
G01 X26.9986 Y30.7505
G01 X26.9911 Y30.7692
G01 X26.9841 Y30.7879
G01 X26.9716 Y30.8260
G01 X26.9660 Y30.8452
G01 X26.9563 Y30.8841
G01 X26.9484 Y30.9234
G01 X26.9426 Y30.9631
G01 X26.9386 Y31.0029
G01 X26.9374 Y31.0229
G01 X26.9367 Y31.0430
G01 X26.9367 Y31.0830
G01 X26.9374 Y31.1031
G01 X26.9404 Y31.1430
G01 X26.9453 Y31.1828
G01 X26.9484 Y31.2026
G01 X26.9563 Y31.2419
G01 X26.9609 Y31.2614
G01 X26.9716 Y31.3000
G01 X26.9776 Y31.3191
G01 X26.9911 Y31.3568
G01 X27.0065 Y31.3939
G01 X27.0148 Y31.4121
G01 X27.0236 Y31.4301
G01 X27.0425 Y31.4654
G01 X27.0631 Y31.4998
G01 X27.0854 Y31.5331
G01 X27.1092 Y31.5653
G01 X27.1218 Y31.5810
G01 X27.1347 Y31.5963
G01 X27.1616 Y31.6260
G01 X27.1899 Y31.6543
G01 X27.2196 Y31.6812
G01 X27.2349 Y31.6941
G01 X27.2665 Y31.7188
G01 X27.2828 Y31.7305
G01 X27.3161 Y31.7528
G01 X27.3505 Y31.7734
G01 X27.3858 Y31.7923
G01 X27.4038 Y31.8011
G01 X27.4404 Y31.8173
G01 X27.4591 Y31.8248
G01 X27.4968 Y31.8383
G01 X27.5159 Y31.8443
G01 X27.5545 Y31.8550
G01 X27.5740 Y31.8596
G01 X27.6133 Y31.8675
G01 X27.6530 Y31.8733
G01 X27.6928 Y31.8773
G01 X27.7329 Y31.8792
G01 X27.7529 Y31.8795
G01 X27.7930 Y31.8785
G01 X27.8329 Y31.8755
G01 X27.8528 Y31.8733
G01 X27.8727 Y31.8706
G01 X27.9122 Y31.8638
G01 X27.9513 Y31.8550
G01 X27.9899 Y31.8443
G01 X28.0090 Y31.8383
G01 X28.0467 Y31.8248
G01 X28.0838 Y31.8094
G01 X28.1020 Y31.8011
G01 X28.1378 Y31.7831
G01 X28.1553 Y31.7734
G01 X28.1897 Y31.7528
G01 X28.2230 Y31.7305
G01 X28.2393 Y31.7188
G01 X28.2709 Y31.6941
G01 X28.3012 Y31.6680
G01 X28.3302 Y31.6403
G01 X28.3579 Y31.6113
G01 X28.3711 Y31.5963
G01 X28.3840 Y31.5810
G01 X28.3966 Y31.5653
G01 X28.4204 Y31.5331
G01 X28.4427 Y31.4998
G01 X28.4633 Y31.4654
G01 X28.4822 Y31.4301
G01 X28.4993 Y31.3939
G01 X28.5147 Y31.3568
G01 X28.5282 Y31.3191
G01 X28.5342 Y31.3000
G01 X28.5449 Y31.2614
G01 X28.5537 Y31.2223
G01 X28.5605 Y31.1828
G01 X28.5654 Y31.1430
G01 X28.5684 Y31.1031
G01 X28.5694 Y31.0630
G01 X28.3879 Y31.0630
G01 X28.3877 Y31.0474
G01 X28.3862 Y31.0163
G01 X28.3832 Y30.9853
G01 X28.3786 Y30.9544
G01 X28.3725 Y30.9239
G01 X28.3689 Y30.9087
G01 X28.3649 Y30.8936
G01 X28.3559 Y30.8638
G01 X28.3508 Y30.8491
G01 X28.3396 Y30.8200
G01 X28.3270 Y30.7915
G01 X28.3130 Y30.7636
G01 X28.3054 Y30.7500
G01 X28.2894 Y30.7233
G01 X28.2721 Y30.6973
G01 X28.2630 Y30.6847
G01 X28.2438 Y30.6601
G01 X28.2338 Y30.6482
G01 X28.2234 Y30.6365
G01 X28.2019 Y30.6140
G01 X28.1794 Y30.5925
G01 X28.1677 Y30.5821
G01 X28.1436 Y30.5624
G01 X28.1186 Y30.5438
G01 X28.0926 Y30.5265
G01 X28.0794 Y30.5183
G01 X28.0659 Y30.5105
G01 X28.0384 Y30.4958
G01 X28.0102 Y30.4824
G01 X27.9959 Y30.4763
G01 X27.9668 Y30.4651
G01 X27.9372 Y30.4553
G01 X27.9072 Y30.4470
G01 X27.8920 Y30.4434
G01 X27.8615 Y30.4373
G01 X27.8461 Y30.4348
G01 X27.8151 Y30.4310
G01 X27.7996 Y30.4297
G01 X27.7685 Y30.4282
G01 X27.7529 Y30.4280
G01 X27.7373 Y30.4282
G01 X27.7062 Y30.4297
G01 X27.6907 Y30.4310
G01 X27.6597 Y30.4348
G01 X27.6443 Y30.4373
G01 X27.6138 Y30.4434
G01 X27.5986 Y30.4470
G01 X27.5686 Y30.4553
G01 X27.5537 Y30.4600
G01 X27.5244 Y30.4705
G01 X27.5099 Y30.4763
G01 X27.4814 Y30.4889
G01 X27.4535 Y30.5029
G01 X27.4399 Y30.5105
G01 X27.4264 Y30.5183
G01 X27.4001 Y30.5350
G01 X27.3872 Y30.5438
G01 X27.3622 Y30.5624
G01 X27.3500 Y30.5721
G01 X27.3264 Y30.5925
G01 X27.3150 Y30.6031
G01 X27.2930 Y30.6251
G01 X27.2824 Y30.6365
G01 X27.2620 Y30.6601
G01 X27.2428 Y30.6847
G01 X27.2337 Y30.6973
G01 X27.2249 Y30.7102
G01 X27.2082 Y30.7365
G01 X27.1928 Y30.7636
G01 X27.1857 Y30.7775
G01 X27.1788 Y30.7915
G01 X27.1662 Y30.8200
G01 X27.1604 Y30.8345
G01 X27.1499 Y30.8638
G01 X27.1452 Y30.8787
G01 X27.1369 Y30.9087
G01 X27.1333 Y30.9239
G01 X27.1272 Y30.9544
G01 X27.1247 Y30.9698
G01 X27.1209 Y31.0008
G01 X27.1196 Y31.0163
G01 X27.1181 Y31.0474
G01 X27.1181 Y31.0786
G01 X27.1186 Y31.0942
G01 X27.1196 Y31.1097
G01 X27.1226 Y31.1407
G01 X27.1272 Y31.1716
G01 X27.1301 Y31.1869
G01 X27.1369 Y31.2173
G01 X27.1409 Y31.2324
G01 X27.1499 Y31.2622
G01 X27.1604 Y31.2915
G01 X27.1662 Y31.3060
G01 X27.1723 Y31.3203
G01 X27.1857 Y31.3485
G01 X27.2004 Y31.3760
G01 X27.2164 Y31.4027
G01 X27.2249 Y31.4158
G01 X27.2428 Y31.4413
G01 X27.2620 Y31.4659
G01 X27.2720 Y31.4778
G01 X27.2930 Y31.5009
G01 X27.3150 Y31.5229
G01 X27.3264 Y31.5335
G01 X27.3500 Y31.5539
G01 X27.3622 Y31.5636
G01 X27.3872 Y31.5822
G01 X27.4132 Y31.5995
G01 X27.4399 Y31.6155
G01 X27.4535 Y31.6231
G01 X27.4814 Y31.6371
G01 X27.4956 Y31.6436
G01 X27.5244 Y31.6555
G01 X27.5537 Y31.6660
G01 X27.5835 Y31.6750
G01 X27.6138 Y31.6826
G01 X27.6290 Y31.6858
G01 X27.6597 Y31.6912
G01 X27.6907 Y31.6950
G01 X27.7217 Y31.6973
G01 X27.7529 Y31.6980
G01 X27.7685 Y31.6978
G01 X27.7996 Y31.6963
G01 X27.8306 Y31.6933
G01 X27.8461 Y31.6912
G01 X27.8768 Y31.6858
G01 X27.8920 Y31.6826
G01 X27.9223 Y31.6750
G01 X27.9521 Y31.6660
G01 X27.9668 Y31.6609
G01 X27.9959 Y31.6497
G01 X28.0244 Y31.6371
G01 X28.0384 Y31.6302
G01 X28.0659 Y31.6155
G01 X28.0926 Y31.5995
G01 X28.1057 Y31.5910
G01 X28.1312 Y31.5731
G01 X28.1558 Y31.5539
G01 X28.1794 Y31.5335
G01 X28.2019 Y31.5120
G01 X28.2234 Y31.4895
G01 X28.2438 Y31.4659
G01 X28.2535 Y31.4537
G01 X28.2630 Y31.4413
G01 X28.2809 Y31.4158
G01 X28.2976 Y31.3895
G01 X28.3130 Y31.3624
G01 X28.3270 Y31.3345
G01 X28.3396 Y31.3060
G01 X28.3508 Y31.2769
G01 X28.3606 Y31.2473
G01 X28.3689 Y31.2173
G01 X28.3757 Y31.1869
G01 X28.3811 Y31.1562
G01 X28.3849 Y31.1252
G01 X28.3872 Y31.0942
G01 X28.3879 Y31.0630
G01 X28.2065 Y31.0630
G01 X28.2060 Y31.0407
G01 X28.2053 Y31.0296
G01 X28.2031 Y31.0075
G01 X28.1998 Y30.9855
G01 X28.1978 Y30.9745
G01 X28.1929 Y30.9528
G01 X28.1870 Y30.9313
G01 X28.1836 Y30.9207
G01 X28.1761 Y30.8998
G01 X28.1676 Y30.8792
G01 X28.1629 Y30.8691
G01 X28.1529 Y30.8492
G01 X28.1476 Y30.8394
G01 X28.1361 Y30.8203
G01 X28.1301 Y30.8110
G01 X28.1172 Y30.7928
G01 X28.1105 Y30.7839
G01 X28.0964 Y30.7667
G01 X28.0814 Y30.7502
G01 X28.0736 Y30.7423
G01 X28.0657 Y30.7345
G01 X28.0492 Y30.7195
G01 X28.0320 Y30.7054
G01 X28.0231 Y30.6987
G01 X28.0049 Y30.6858
G01 X27.9956 Y30.6798
G01 X27.9765 Y30.6683
G01 X27.9667 Y30.6630
G01 X27.9468 Y30.6530
G01 X27.9367 Y30.6483
G01 X27.9161 Y30.6398
G01 X27.8952 Y30.6323
G01 X27.8846 Y30.6289
G01 X27.8631 Y30.6230
G01 X27.8414 Y30.6181
G01 X27.8304 Y30.6161
G01 X27.8084 Y30.6128
G01 X27.7863 Y30.6106
G01 X27.7752 Y30.6099
G01 X27.7529 Y30.6094
G01 X27.7306 Y30.6099
G01 X27.7195 Y30.6106
G01 X27.6974 Y30.6128
G01 X27.6863 Y30.6143
G01 X27.6754 Y30.6161
G01 X27.6535 Y30.6204
G01 X27.6427 Y30.6230
G01 X27.6212 Y30.6289
G01 X27.6106 Y30.6323
G01 X27.5897 Y30.6398
G01 X27.5691 Y30.6483
G01 X27.5490 Y30.6578
G01 X27.5391 Y30.6630
G01 X27.5197 Y30.6739
G01 X27.5102 Y30.6798
G01 X27.4917 Y30.6921
G01 X27.4738 Y30.7054
G01 X27.4651 Y30.7124
G01 X27.4483 Y30.7269
G01 X27.4401 Y30.7345
G01 X27.4322 Y30.7423
G01 X27.4168 Y30.7584
G01 X27.4023 Y30.7752
G01 X27.3953 Y30.7839
G01 X27.3820 Y30.8018
G01 X27.3757 Y30.8110
G01 X27.3638 Y30.8298
G01 X27.3582 Y30.8394
G01 X27.3477 Y30.8591
G01 X27.3429 Y30.8691
G01 X27.3338 Y30.8894
G01 X27.3258 Y30.9102
G01 X27.3188 Y30.9313
G01 X27.3157 Y30.9420
G01 X27.3129 Y30.9528
G01 X27.3080 Y30.9745
G01 X27.3042 Y30.9964
G01 X27.3027 Y31.0075
G01 X27.3005 Y31.0296
G01 X27.2998 Y31.0407
G01 X27.2993 Y31.0630
G01 X27.2994 Y31.0741
G01 X27.2998 Y31.0853
G01 X27.3015 Y31.1075
G01 X27.3042 Y31.1296
G01 X27.3060 Y31.1405
G01 X27.3103 Y31.1624
G01 X27.3129 Y31.1732
G01 X27.3188 Y31.1947
G01 X27.3222 Y31.2053
G01 X27.3258 Y31.2158
G01 X27.3338 Y31.2366
G01 X27.3429 Y31.2569
G01 X27.3529 Y31.2768
G01 X27.3582 Y31.2866
G01 X27.3697 Y31.3057
G01 X27.3757 Y31.3150
G01 X27.3886 Y31.3332
G01 X27.4023 Y31.3508
G01 X27.4168 Y31.3676
G01 X27.4322 Y31.3837
G01 X27.4401 Y31.3915
G01 X27.4566 Y31.4065
G01 X27.4738 Y31.4206
G01 X27.4917 Y31.4339
G01 X27.5102 Y31.4462
G01 X27.5197 Y31.4521
G01 X27.5391 Y31.4630
G01 X27.5590 Y31.4730
G01 X27.5793 Y31.4821
G01 X27.6001 Y31.4901
G01 X27.6106 Y31.4937
G01 X27.6319 Y31.5002
G01 X27.6535 Y31.5056
G01 X27.6754 Y31.5099
G01 X27.6974 Y31.5132
G01 X27.7195 Y31.5154
G01 X27.7306 Y31.5161
G01 X27.7529 Y31.5166
G01 X27.7752 Y31.5161
G01 X27.7974 Y31.5144
G01 X27.8195 Y31.5117
G01 X27.8304 Y31.5099
G01 X27.8523 Y31.5056
G01 X27.8739 Y31.5002
G01 X27.8952 Y31.4937
G01 X27.9057 Y31.4901
G01 X27.9265 Y31.4821
G01 X27.9468 Y31.4730
G01 X27.9667 Y31.4630
G01 X27.9861 Y31.4521
G01 X27.9956 Y31.4462
G01 X28.0141 Y31.4339
G01 X28.0320 Y31.4206
G01 X28.0492 Y31.4065
G01 X28.0575 Y31.3991
G01 X28.0736 Y31.3837
G01 X28.0890 Y31.3676
G01 X28.1035 Y31.3508
G01 X28.1172 Y31.3332
G01 X28.1238 Y31.3242
G01 X28.1301 Y31.3150
G01 X28.1420 Y31.2962
G01 X28.1529 Y31.2768
G01 X28.1629 Y31.2569
G01 X28.1720 Y31.2366
G01 X28.1800 Y31.2158
G01 X28.1870 Y31.1947
G01 X28.1929 Y31.1732
G01 X28.1978 Y31.1515
G01 X28.2016 Y31.1296
G01 X28.2043 Y31.1075
G01 X28.2060 Y31.0853
G01 X28.2065 Y31.0630
G01 X28.0251 Y31.0630
G01 X28.0243 Y31.0430
G01 X28.0221 Y31.0231
G01 X28.0184 Y31.0034
G01 X28.0133 Y30.9840
G01 X28.0068 Y30.9651
G01 X27.9989 Y30.9466
G01 X27.9897 Y30.9289
G01 X27.9792 Y30.9118
G01 X27.9675 Y30.8956
G01 X27.9546 Y30.8802
G01 X27.9406 Y30.8659
G01 X27.9256 Y30.8526
G01 X27.9096 Y30.8405
G01 X27.8928 Y30.8296
G01 X27.8753 Y30.8199
G01 X27.8571 Y30.8116
G01 X27.8446 Y30.8067
G01 X27.8319 Y30.8026
G01 X27.8125 Y30.7975
G01 X27.7928 Y30.7938
G01 X27.7729 Y30.7916
G01 X27.7596 Y30.7909
G01 X27.7462 Y30.7909
G01 X27.7262 Y30.7922
G01 X27.7064 Y30.7948
G01 X27.6933 Y30.7975
G01 X27.6803 Y30.8007
G01 X27.6612 Y30.8067
G01 X27.6426 Y30.8142
G01 X27.6246 Y30.8230
G01 X27.6130 Y30.8296
G01 X27.6017 Y30.8367
G01 X27.5855 Y30.8484
G01 X27.5701 Y30.8613
G01 X27.5558 Y30.8753
G01 X27.5468 Y30.8852
G01 X27.5383 Y30.8956
G01 X27.5304 Y30.9063
G01 X27.5230 Y30.9174
G01 X27.5129 Y30.9347
G01 X27.5041 Y30.9527
G01 X27.4990 Y30.9651
G01 X27.4945 Y30.9776
G01 X27.4889 Y30.9969
G01 X27.4847 Y31.0165
G01 X27.4828 Y31.0297
G01 X27.4815 Y31.0430
G01 X27.4807 Y31.0630
G01 X27.4815 Y31.0830
G01 X27.4828 Y31.0963
G01 X27.4847 Y31.1095
G01 X27.4889 Y31.1291
G01 X27.4945 Y31.1484
G01 X27.4990 Y31.1609
G01 X27.5041 Y31.1733
G01 X27.5129 Y31.1913
G01 X27.5195 Y31.2029
G01 X27.5266 Y31.2142
G01 X27.5383 Y31.2304
G01 X27.5468 Y31.2408
G01 X27.5558 Y31.2507
G01 X27.5701 Y31.2647
G01 X27.5855 Y31.2776
G01 X27.6017 Y31.2893
G01 X27.6130 Y31.2964
G01 X27.6246 Y31.3030
G01 X27.6426 Y31.3118
G01 X27.6612 Y31.3193
G01 X27.6803 Y31.3253
G01 X27.6998 Y31.3299
G01 X27.7196 Y31.3331
G01 X27.7395 Y31.3348
G01 X27.7596 Y31.3351
G01 X27.7729 Y31.3344
G01 X27.7862 Y31.3331
G01 X27.8060 Y31.3299
G01 X27.8255 Y31.3253
G01 X27.8446 Y31.3193
G01 X27.8632 Y31.3118
G01 X27.8753 Y31.3061
G01 X27.8870 Y31.2998
G01 X27.9041 Y31.2893
G01 X27.9203 Y31.2776
G01 X27.9357 Y31.2647
G01 X27.9500 Y31.2507
G01 X27.9633 Y31.2357
G01 X27.9754 Y31.2197
G01 X27.9863 Y31.2029
G01 X27.9897 Y31.1971
G01 X27.9960 Y31.1854
G01 X28.0017 Y31.1733
G01 X28.0068 Y31.1609
G01 X28.0133 Y31.1420
G01 X28.0184 Y31.1226
G01 X28.0221 Y31.1029
G01 X28.0243 Y31.0830
G01 X28.0251 Y31.0630
G01 X27.8436 Y31.0630
G01 X27.8432 Y31.0541
G01 X27.8419 Y31.0453
G01 X27.8397 Y31.0367
G01 X27.8367 Y31.0283
G01 X27.8329 Y31.0202
G01 X27.8283 Y31.0126
G01 X27.8230 Y31.0054
G01 X27.8170 Y30.9989
G01 X27.8105 Y30.9929
G01 X27.8033 Y30.9876
G01 X27.7957 Y30.9830
G01 X27.7876 Y30.9792
G01 X27.7792 Y30.9762
G01 X27.7706 Y30.9740
G01 X27.7618 Y30.9727
G01 X27.7529 Y30.9723
G01 X27.7440 Y30.9727
G01 X27.7352 Y30.9740
G01 X27.7266 Y30.9762
G01 X27.7182 Y30.9792
G01 X27.7101 Y30.9830
G01 X27.7025 Y30.9876
G01 X27.6953 Y30.9929
G01 X27.6888 Y30.9989
G01 X27.6828 Y31.0054
G01 X27.6775 Y31.0126
G01 X27.6729 Y31.0202
G01 X27.6691 Y31.0283
G01 X27.6661 Y31.0367
G01 X27.6639 Y31.0453
G01 X27.6626 Y31.0541
G01 X27.6622 Y31.0630
G01 X27.6626 Y31.0719
G01 X27.6639 Y31.0807
G01 X27.6661 Y31.0893
G01 X27.6691 Y31.0977
G01 X27.6729 Y31.1058
G01 X27.6775 Y31.1134
G01 X27.6828 Y31.1206
G01 X27.6888 Y31.1271
G01 X27.6953 Y31.1331
G01 X27.7025 Y31.1384
G01 X27.7101 Y31.1430
G01 X27.7182 Y31.1468
G01 X27.7266 Y31.1498
G01 X27.7352 Y31.1520
G01 X27.7440 Y31.1533
G01 X27.7529 Y31.1537
G01 X27.7618 Y31.1533
G01 X27.7706 Y31.1520
G01 X27.7792 Y31.1498
G01 X27.7876 Y31.1468
G01 X27.7957 Y31.1430
G01 X27.8033 Y31.1384
G01 X27.8105 Y31.1331
G01 X27.8170 Y31.1271
G01 X27.8230 Y31.1206
G01 X27.8283 Y31.1134
G01 X27.8329 Y31.1058
G01 X27.8367 Y31.0977
G01 X27.8397 Y31.0893
G01 X27.8419 Y31.0807
G01 X27.8432 Y31.0719
G01 X27.8436 Y31.0630
G01 X28.6521 Y31.8260
G01 X28.6459 Y31.8333
G01 X28.6267 Y31.8550
G01 X28.6070 Y31.8762
G01 X28.5868 Y31.8969
G01 X28.5661 Y31.9171
G01 X28.5449 Y31.9368
G01 X28.5232 Y31.9560
G01 X28.5011 Y31.9747
G01 X28.4785 Y31.9927
G01 X28.4554 Y32.0103
G01 X28.4320 Y32.0272
G01 X28.4081 Y32.0436
G01 X28.3839 Y32.0594
G01 X28.3592 Y32.0746
G01 X28.3342 Y32.0891
G01 X28.3088 Y32.1031
G01 X28.2832 Y32.1164
G01 X28.2571 Y32.1291
G01 X28.2308 Y32.1412
G01 X28.2042 Y32.1526
G01 X28.1773 Y32.1633
G01 X28.1502 Y32.1734
G01 X28.1228 Y32.1828
G01 X28.0953 Y32.1916
G01 X28.0675 Y32.1996
G01 X28.0395 Y32.2070
G01 X28.0113 Y32.2137
G01 X27.9830 Y32.2197
G01 X27.9545 Y32.2250
G01 X27.9259 Y32.2296
G01 X27.8973 Y32.2335
G01 X27.8685 Y32.2367
G01 X27.8397 Y32.2392
G01 X27.8108 Y32.2409
G01 X27.7818 Y32.2420
G01 X27.7529 Y32.2424
G01 X27.7240 Y32.2420
G01 X27.6950 Y32.2409
G01 X27.6661 Y32.2392
G01 X27.6373 Y32.2367
G01 X27.6085 Y32.2335
G01 X27.5799 Y32.2296
G01 X27.5513 Y32.2250
G01 X27.5228 Y32.2197
G01 X27.4945 Y32.2137
G01 X27.4663 Y32.2070
G01 X27.4383 Y32.1996
G01 X27.4105 Y32.1916
G01 X27.3830 Y32.1828
G01 X27.3556 Y32.1734
G01 X27.3285 Y32.1633
G01 X27.3016 Y32.1526
G01 X27.2750 Y32.1412
G01 X27.2487 Y32.1291
G01 X27.2226 Y32.1164
G01 X27.1970 Y32.1031
G01 X27.1716 Y32.0891
G01 X27.1466 Y32.0746
G01 X27.1219 Y32.0594
G01 X27.0977 Y32.0436
G01 X27.0738 Y32.0272
G01 X27.0504 Y32.0103
G01 X27.0273 Y31.9927
G01 X27.0047 Y31.9747
G01 X26.9826 Y31.9560
G01 X26.9609 Y31.9368
G01 X26.9397 Y31.9171
G01 X26.9190 Y31.8969
G01 X26.8988 Y31.8762
G01 X26.8791 Y31.8550
G01 X26.8537 Y31.8260
G01 X27.1569 Y32.2862
G01 X27.1711 Y32.2931
G01 X27.2014 Y32.3071
G01 X27.2321 Y32.3202
G01 X27.2632 Y32.3326
G01 X27.2945 Y32.3443
G01 X27.3260 Y32.3551
G01 X27.3579 Y32.3652
G01 X27.3900 Y32.3745
G01 X27.4223 Y32.3830
G01 X27.4547 Y32.3907
G01 X27.4874 Y32.3977
G01 X27.5203 Y32.4038
G01 X27.5532 Y32.4091
G01 X27.5863 Y32.4136
G01 X27.6195 Y32.4172
G01 X27.6528 Y32.4201
G01 X27.6861 Y32.4222
G01 X27.7195 Y32.4234
G01 X27.7529 Y32.4238
G01 X27.7863 Y32.4234
G01 X27.8197 Y32.4222
G01 X27.8530 Y32.4201
G01 X27.8863 Y32.4172
G01 X27.9195 Y32.4136
G01 X27.9526 Y32.4091
G01 X27.9855 Y32.4038
G01 X28.0184 Y32.3977
G01 X28.0511 Y32.3907
G01 X28.0835 Y32.3830
G01 X28.1158 Y32.3745
G01 X28.1479 Y32.3652
G01 X28.1798 Y32.3551
G01 X28.2113 Y32.3443
G01 X28.2426 Y32.3326
G01 X28.2737 Y32.3202
G01 X28.3044 Y32.3071
G01 X28.3347 Y32.2931
G01 X28.3489 Y32.2862
G00 Z2.0000
G00 X29.9030 Y30.3257
G01 F60.00
G01 Z0.1366
G01 F120.00
G01 X29.8307 Y30.3293
G01 X29.7592 Y30.3399
G01 X29.6890 Y30.3575
G01 X29.6209 Y30.3819
G01 X29.5555 Y30.4128
G01 X29.4934 Y30.4500
G01 X29.4353 Y30.4931
G01 X29.3817 Y30.5417
G01 X29.3331 Y30.5953
G01 X29.2900 Y30.6534
G01 X29.2528 Y30.7154
G01 X29.2219 Y30.7808
G01 X29.1975 Y30.8490
G01 X29.1799 Y30.9191
G01 X29.1693 Y30.9907
G01 X29.1658 Y31.0630
G01 X29.1693 Y31.1353
G01 X29.1799 Y31.2069
G01 X29.1975 Y31.2770
G01 X29.2219 Y31.3452
G01 X29.2528 Y31.4106
G01 X29.2900 Y31.4726
G01 X29.3331 Y31.5307
G01 X29.3817 Y31.5843
G01 X29.4353 Y31.6329
G01 X29.4934 Y31.6760
G01 X29.5555 Y31.7132
G01 X29.6209 Y31.7441
G01 X29.6890 Y31.7685
G01 X29.7592 Y31.7861
G01 X29.8307 Y31.7967
G01 X29.9030 Y31.8003
G01 X29.9753 Y31.7967
G01 X30.0468 Y31.7861
G01 X30.1170 Y31.7685
G01 X30.1851 Y31.7441
G01 X30.2505 Y31.7132
G01 X30.3126 Y31.6760
G01 X30.3707 Y31.6329
G01 X30.4243 Y31.5843
G01 X30.4729 Y31.5307
G01 X30.5160 Y31.4726
G01 X30.5532 Y31.4106
G01 X30.5841 Y31.3452
G01 X30.6085 Y31.2770
G01 X30.6261 Y31.2069
G01 X30.6367 Y31.1353
G01 X30.6402 Y31.0630
G01 X30.6367 Y30.9907
G01 X30.6261 Y30.9191
G01 X30.6085 Y30.8490
G01 X30.5841 Y30.7808
G01 X30.5532 Y30.7154
G01 X30.5160 Y30.6534
G01 X30.4729 Y30.5953
G01 X30.4243 Y30.5417
G01 X30.3707 Y30.4931
G01 X30.3126 Y30.4500
G01 X30.2505 Y30.4128
G01 X30.1851 Y30.3819
G01 X30.1170 Y30.3575
G01 X30.0468 Y30.3399
G01 X29.9753 Y30.3293
G01 X29.9030 Y30.3257
G01 X29.9937 Y31.0630
G01 X29.9930 Y31.0519
G01 X29.9915 Y31.0431
G01 X29.9910 Y31.0410
G01 X29.9904 Y31.0388
G01 X29.9892 Y31.0345
G01 X29.9850 Y31.0242
G01 X29.9797 Y31.0145
G01 X29.9745 Y31.0072
G01 X29.9672 Y30.9989
G01 X29.9606 Y30.9929
G01 X29.9534 Y30.9876
G01 X29.9458 Y30.9830
G01 X29.9377 Y30.9792
G01 X29.9272 Y30.9756
G01 X29.9185 Y30.9736
G01 X29.9075 Y30.9724
G01 X29.8986 Y30.9724
G01 X29.8875 Y30.9736
G01 X29.8788 Y30.9756
G01 X29.8683 Y30.9792
G01 X29.8602 Y30.9830
G01 X29.8508 Y30.9888
G01 X29.8438 Y30.9943
G01 X29.8373 Y31.0004
G01 X29.8315 Y31.0072
G01 X29.8252 Y31.0164
G01 X29.8210 Y31.0242
G01 X29.8169 Y31.0345
G01 X29.8140 Y31.0453
G01 X29.8127 Y31.0541
G01 X29.8123 Y31.0630
G01 X29.8130 Y31.0741
G01 X29.8145 Y31.0829
G01 X29.8176 Y31.0936
G01 X29.8210 Y31.1018
G01 X29.8241 Y31.1077
G01 X29.8288 Y31.1152
G01 X29.8329 Y31.1206
G01 X29.8373 Y31.1256
G01 X29.8438 Y31.1317
G01 X29.8545 Y31.1396
G01 X29.8602 Y31.1430
G01 X29.8683 Y31.1468
G01 X29.8810 Y31.1510
G01 X29.8897 Y31.1527
G01 X29.8963 Y31.1535
G01 X29.9097 Y31.1535
G01 X29.9185 Y31.1524
G01 X29.9272 Y31.1504
G01 X29.9336 Y31.1484
G01 X29.9418 Y31.1450
G01 X29.9477 Y31.1419
G01 X29.9552 Y31.1372
G01 X29.9623 Y31.1317
G01 X29.9687 Y31.1256
G01 X29.9745 Y31.1188
G01 X29.9784 Y31.1134
G01 X29.9830 Y31.1058
G01 X29.9868 Y31.0977
G01 X29.9898 Y31.0893
G01 X29.9920 Y31.0807
G01 X29.9933 Y31.0719
G01 X29.9937 Y31.0630
G01 X30.1752 Y31.0630
G01 X30.1744 Y31.0430
G01 X30.1731 Y31.0297
G01 X30.1712 Y31.0165
G01 X30.1686 Y31.0034
G01 X30.1635 Y30.9840
G01 X30.1593 Y30.9713
G01 X30.1545 Y30.9588
G01 X30.1461 Y30.9406
G01 X30.1398 Y30.9289
G01 X30.1293 Y30.9118
G01 X30.1216 Y30.9009
G01 X30.1134 Y30.8903
G01 X30.1047 Y30.8802
G01 X30.0955 Y30.8706
G01 X30.0808 Y30.8569
G01 X30.0705 Y30.8484
G01 X30.0597 Y30.8405
G01 X30.0429 Y30.8296
G01 X30.0313 Y30.8230
G01 X30.0194 Y30.8170
G01 X30.0072 Y30.8116
G01 X29.9884 Y30.8046
G01 X29.9691 Y30.7990
G01 X29.9626 Y30.7975
G01 X29.9561 Y30.7961
G01 X29.9363 Y30.7929
G01 X29.9230 Y30.7916
G01 X29.9097 Y30.7909
G01 X29.8963 Y30.7909
G01 X29.8830 Y30.7916
G01 X29.8631 Y30.7938
G01 X29.8434 Y30.7975
G01 X29.8304 Y30.8007
G01 X29.8113 Y30.8067
G01 X29.7989 Y30.8116
G01 X29.7866 Y30.8170
G01 X29.7747 Y30.8230
G01 X29.7631 Y30.8296
G01 X29.7463 Y30.8405
G01 X29.7356 Y30.8484
G01 X29.7202 Y30.8613
G01 X29.7059 Y30.8753
G01 X29.6969 Y30.8852
G01 X29.6885 Y30.8956
G01 X29.6805 Y30.9063
G01 X29.6696 Y30.9231
G01 X29.6630 Y30.9347
G01 X29.6570 Y30.9466
G01 X29.6491 Y30.9651
G01 X29.6446 Y30.9776
G01 X29.6390 Y30.9969
G01 X29.6361 Y31.0099
G01 X29.6338 Y31.0231
G01 X29.6316 Y31.0430
G01 X29.6309 Y31.0563
G01 X29.6309 Y31.0697
G01 X29.6316 Y31.0830
G01 X29.6329 Y31.0963
G01 X29.6349 Y31.1095
G01 X29.6375 Y31.1226
G01 X29.6426 Y31.1420
G01 X29.6468 Y31.1547
G01 X29.6542 Y31.1733
G01 X29.6599 Y31.1854
G01 X29.6696 Y31.2029
G01 X29.6805 Y31.2197
G01 X29.6926 Y31.2357
G01 X29.7059 Y31.2507
G01 X29.7202 Y31.2647
G01 X29.7304 Y31.2734
G01 X29.7409 Y31.2816
G01 X29.7574 Y31.2929
G01 X29.7747 Y31.3030
G01 X29.7927 Y31.3118
G01 X29.8113 Y31.3193
G01 X29.8304 Y31.3253
G01 X29.8499 Y31.3299
G01 X29.8697 Y31.3331
G01 X29.8897 Y31.3348
G01 X29.9097 Y31.3351
G01 X29.9230 Y31.3344
G01 X29.9363 Y31.3331
G01 X29.9561 Y31.3299
G01 X29.9691 Y31.3270
G01 X29.9820 Y31.3234
G01 X30.0010 Y31.3169
G01 X30.0133 Y31.3118
G01 X30.0254 Y31.3061
G01 X30.0429 Y31.2964
G01 X30.0597 Y31.2855
G01 X30.0705 Y31.2776
G01 X30.0808 Y31.2691
G01 X30.0955 Y31.2554
G01 X30.1047 Y31.2458
G01 X30.1134 Y31.2357
G01 X30.1255 Y31.2197
G01 X30.1329 Y31.2086
G01 X30.1398 Y31.1971
G01 X30.1461 Y31.1854
G01 X30.1518 Y31.1733
G01 X30.1593 Y31.1547
G01 X30.1653 Y31.1356
G01 X30.1686 Y31.1226
G01 X30.1712 Y31.1095
G01 X30.1731 Y31.0963
G01 X30.1744 Y31.0830
G01 X30.1752 Y31.0630
G01 X30.3566 Y31.0630
G01 X30.3561 Y31.0407
G01 X30.3554 Y31.0296
G01 X30.3532 Y31.0075
G01 X30.3499 Y30.9855
G01 X30.3479 Y30.9745
G01 X30.3430 Y30.9528
G01 X30.3371 Y30.9313
G01 X30.3337 Y30.9207
G01 X30.3262 Y30.8998
G01 X30.3177 Y30.8792
G01 X30.3131 Y30.8691
G01 X30.3030 Y30.8492
G01 X30.2921 Y30.8298
G01 X30.2802 Y30.8110
G01 X30.2739 Y30.8018
G01 X30.2606 Y30.7839
G01 X30.2465 Y30.7667
G01 X30.2315 Y30.7502
G01 X30.2158 Y30.7345
G01 X30.2076 Y30.7269
G01 X30.1993 Y30.7195
G01 X30.1821 Y30.7054
G01 X30.1642 Y30.6921
G01 X30.1550 Y30.6858
G01 X30.1362 Y30.6739
G01 X30.1168 Y30.6630
G01 X30.0969 Y30.6530
G01 X30.0868 Y30.6483
G01 X30.0663 Y30.6398
G01 X30.0453 Y30.6323
G01 X30.0347 Y30.6289
G01 X30.0132 Y30.6230
G01 X29.9915 Y30.6181
G01 X29.9806 Y30.6161
G01 X29.9585 Y30.6128
G01 X29.9475 Y30.6116
G01 X29.9364 Y30.6106
G01 X29.9253 Y30.6099
G01 X29.9030 Y30.6094
G01 X29.8808 Y30.6099
G01 X29.8696 Y30.6106
G01 X29.8475 Y30.6128
G01 X29.8255 Y30.6161
G01 X29.8145 Y30.6181
G01 X29.7928 Y30.6230
G01 X29.7820 Y30.6258
G01 X29.7607 Y30.6323
G01 X29.7398 Y30.6398
G01 X29.7192 Y30.6483
G01 X29.7091 Y30.6530
G01 X29.6892 Y30.6630
G01 X29.6698 Y30.6739
G01 X29.6603 Y30.6798
G01 X29.6418 Y30.6921
G01 X29.6239 Y30.7054
G01 X29.6067 Y30.7195
G01 X29.5984 Y30.7269
G01 X29.5823 Y30.7423
G01 X29.5669 Y30.7584
G01 X29.5524 Y30.7752
G01 X29.5454 Y30.7839
G01 X29.5322 Y30.8018
G01 X29.5259 Y30.8110
G01 X29.5139 Y30.8298
G01 X29.5030 Y30.8492
G01 X29.4930 Y30.8691
G01 X29.4839 Y30.8894
G01 X29.4798 Y30.8998
G01 X29.4723 Y30.9207
G01 X29.4689 Y30.9313
G01 X29.4630 Y30.9528
G01 X29.4581 Y30.9745
G01 X29.4543 Y30.9964
G01 X29.4528 Y31.0075
G01 X29.4506 Y31.0296
G01 X29.4500 Y31.0407
G01 X29.4494 Y31.0630
G01 X29.4500 Y31.0853
G01 X29.4506 Y31.0964
G01 X29.4528 Y31.1185
G01 X29.4561 Y31.1405
G01 X29.4604 Y31.1624
G01 X29.4630 Y31.1732
G01 X29.4689 Y31.1947
G01 X29.4759 Y31.2158
G01 X29.4839 Y31.2366
G01 X29.4930 Y31.2569
G01 X29.4978 Y31.2669
G01 X29.5083 Y31.2866
G01 X29.5139 Y31.2962
G01 X29.5259 Y31.3150
G01 X29.5387 Y31.3332
G01 X29.5524 Y31.3508
G01 X29.5595 Y31.3593
G01 X29.5745 Y31.3758
G01 X29.5823 Y31.3837
G01 X29.5902 Y31.3915
G01 X29.6067 Y31.4065
G01 X29.6239 Y31.4206
G01 X29.6328 Y31.4273
G01 X29.6418 Y31.4339
G01 X29.6603 Y31.4462
G01 X29.6698 Y31.4521
G01 X29.6892 Y31.4630
G01 X29.7091 Y31.4730
G01 X29.7192 Y31.4777
G01 X29.7294 Y31.4821
G01 X29.7502 Y31.4901
G01 X29.7607 Y31.4937
G01 X29.7820 Y31.5002
G01 X29.8036 Y31.5056
G01 X29.8145 Y31.5079
G01 X29.8365 Y31.5117
G01 X29.8585 Y31.5144
G01 X29.8696 Y31.5154
G01 X29.8919 Y31.5165
G01 X29.9030 Y31.5166
G01 X29.9253 Y31.5161
G01 X29.9364 Y31.5154
G01 X29.9585 Y31.5132
G01 X29.9696 Y31.5117
G01 X29.9806 Y31.5099
G01 X30.0024 Y31.5056
G01 X30.0240 Y31.5002
G01 X30.0347 Y31.4971
G01 X30.0558 Y31.4901
G01 X30.0766 Y31.4821
G01 X30.0969 Y31.4730
G01 X30.1070 Y31.4682
G01 X30.1266 Y31.4577
G01 X30.1362 Y31.4521
G01 X30.1457 Y31.4462
G01 X30.1642 Y31.4339
G01 X30.1821 Y31.4206
G01 X30.1908 Y31.4136
G01 X30.2076 Y31.3991
G01 X30.2158 Y31.3915
G01 X30.2238 Y31.3837
G01 X30.2391 Y31.3676
G01 X30.2536 Y31.3508
G01 X30.2673 Y31.3332
G01 X30.2802 Y31.3150
G01 X30.2862 Y31.3057
G01 X30.2977 Y31.2866
G01 X30.3030 Y31.2768
G01 X30.3131 Y31.2569
G01 X30.3177 Y31.2468
G01 X30.3262 Y31.2262
G01 X30.3337 Y31.2053
G01 X30.3402 Y31.1840
G01 X30.3456 Y31.1624
G01 X30.3499 Y31.1405
G01 X30.3517 Y31.1296
G01 X30.3544 Y31.1075
G01 X30.3554 Y31.0964
G01 X30.3565 Y31.0741
G01 X30.3566 Y31.0630
G01 X30.5381 Y31.0630
G01 X30.5379 Y31.0474
G01 X30.5363 Y31.0163
G01 X30.5333 Y30.9853
G01 X30.5287 Y30.9544
G01 X30.5226 Y30.9239
G01 X30.5190 Y30.9087
G01 X30.5107 Y30.8787
G01 X30.5009 Y30.8491
G01 X30.4897 Y30.8200
G01 X30.4836 Y30.8057
G01 X30.4702 Y30.7775
G01 X30.4556 Y30.7500
G01 X30.4395 Y30.7233
G01 X30.4310 Y30.7102
G01 X30.4131 Y30.6847
G01 X30.3939 Y30.6601
G01 X30.3839 Y30.6482
G01 X30.3735 Y30.6365
G01 X30.3521 Y30.6140
G01 X30.3295 Y30.5925
G01 X30.3059 Y30.5721
G01 X30.2813 Y30.5529
G01 X30.2687 Y30.5438
G01 X30.2428 Y30.5265
G01 X30.2160 Y30.5105
G01 X30.2024 Y30.5029
G01 X30.1885 Y30.4958
G01 X30.1604 Y30.4824
G01 X30.1316 Y30.4705
G01 X30.1169 Y30.4651
G01 X30.0874 Y30.4553
G01 X30.0573 Y30.4470
G01 X30.0421 Y30.4434
G01 X30.0116 Y30.4373
G01 X29.9807 Y30.4327
G01 X29.9497 Y30.4297
G01 X29.9342 Y30.4287
G01 X29.9186 Y30.4282
G01 X29.9030 Y30.4280
G01 X29.8874 Y30.4282
G01 X29.8563 Y30.4297
G01 X29.8253 Y30.4327
G01 X29.7944 Y30.4373
G01 X29.7639 Y30.4434
G01 X29.7487 Y30.4470
G01 X29.7336 Y30.4510
G01 X29.7038 Y30.4600
G01 X29.6745 Y30.4705
G01 X29.6457 Y30.4824
G01 X29.6175 Y30.4958
G01 X29.6037 Y30.5029
G01 X29.5765 Y30.5183
G01 X29.5502 Y30.5350
G01 X29.5373 Y30.5438
G01 X29.5123 Y30.5624
G01 X29.4882 Y30.5821
G01 X29.4651 Y30.6031
G01 X29.4431 Y30.6251
G01 X29.4325 Y30.6365
G01 X29.4121 Y30.6601
G01 X29.3929 Y30.6847
G01 X29.3838 Y30.6973
G01 X29.3750 Y30.7102
G01 X29.3583 Y30.7365
G01 X29.3430 Y30.7636
G01 X29.3289 Y30.7915
G01 X29.3225 Y30.8057
G01 X29.3105 Y30.8345
G01 X29.3051 Y30.8491
G01 X29.2953 Y30.8787
G01 X29.2870 Y30.9087
G01 X29.2834 Y30.9239
G01 X29.2773 Y30.9544
G01 X29.2727 Y30.9853
G01 X29.2697 Y31.0163
G01 X29.2687 Y31.0318
G01 X29.2680 Y31.0630
G01 X29.2682 Y31.0786
G01 X29.2697 Y31.1097
G01 X29.2727 Y31.1407
G01 X29.2773 Y31.1716
G01 X29.2802 Y31.1869
G01 X29.2870 Y31.2173
G01 X29.2910 Y31.2324
G01 X29.3000 Y31.2622
G01 X29.3105 Y31.2915
G01 X29.3225 Y31.3203
G01 X29.3358 Y31.3485
G01 X29.3505 Y31.3760
G01 X29.3665 Y31.4027
G01 X29.3750 Y31.4158
G01 X29.3929 Y31.4413
G01 X29.4121 Y31.4659
G01 X29.4222 Y31.4778
G01 X29.4431 Y31.5009
G01 X29.4540 Y31.5120
G01 X29.4651 Y31.5229
G01 X29.4882 Y31.5439
G01 X29.5123 Y31.5636
G01 X29.5247 Y31.5731
G01 X29.5502 Y31.5910
G01 X29.5633 Y31.5995
G01 X29.5900 Y31.6155
G01 X29.6037 Y31.6231
G01 X29.6315 Y31.6371
G01 X29.6457 Y31.6436
G01 X29.6745 Y31.6555
G01 X29.6891 Y31.6609
G01 X29.7038 Y31.6660
G01 X29.7336 Y31.6750
G01 X29.7639 Y31.6826
G01 X29.7791 Y31.6858
G01 X29.8098 Y31.6912
G01 X29.8253 Y31.6933
G01 X29.8408 Y31.6950
G01 X29.8719 Y31.6973
G01 X29.9030 Y31.6980
G01 X29.9186 Y31.6978
G01 X29.9497 Y31.6963
G01 X29.9807 Y31.6933
G01 X29.9962 Y31.6912
G01 X30.0269 Y31.6858
G01 X30.0421 Y31.6826
G01 X30.0724 Y31.6750
G01 X30.0874 Y31.6707
G01 X30.1169 Y31.6609
G01 X30.1460 Y31.6497
G01 X30.1604 Y31.6436
G01 X30.1885 Y31.6302
G01 X30.2024 Y31.6231
G01 X30.2160 Y31.6155
G01 X30.2428 Y31.5995
G01 X30.2558 Y31.5910
G01 X30.2813 Y31.5731
G01 X30.3059 Y31.5539
G01 X30.3178 Y31.5439
G01 X30.3295 Y31.5335
G01 X30.3521 Y31.5120
G01 X30.3629 Y31.5009
G01 X30.3839 Y31.4778
G01 X30.4036 Y31.4537
G01 X30.4222 Y31.4287
G01 X30.4310 Y31.4158
G01 X30.4477 Y31.3895
G01 X30.4631 Y31.3624
G01 X30.4702 Y31.3485
G01 X30.4836 Y31.3203
G01 X30.4897 Y31.3060
G01 X30.5009 Y31.2769
G01 X30.5060 Y31.2622
G01 X30.5150 Y31.2324
G01 X30.5226 Y31.2021
G01 X30.5258 Y31.1869
G01 X30.5312 Y31.1562
G01 X30.5350 Y31.1252
G01 X30.5363 Y31.1097
G01 X30.5373 Y31.0942
G01 X30.5381 Y31.0630
G00 Z2.0000
G00 X31.9030 Y30.3257
G01 F60.00
G01 Z0.1366
G01 F120.00
G01 X31.8307 Y30.3293
G01 X31.7592 Y30.3399
G01 X31.6890 Y30.3575
G01 X31.6209 Y30.3819
G01 X31.5555 Y30.4128
G01 X31.4934 Y30.4500
G01 X31.4353 Y30.4931
G01 X31.3817 Y30.5417
G01 X31.3331 Y30.5953
G01 X31.2900 Y30.6534
G01 X31.2528 Y30.7154
G01 X31.2219 Y30.7808
G01 X31.1975 Y30.8490
G01 X31.1799 Y30.9191
G01 X31.1693 Y30.9907
G01 X31.1658 Y31.0630
G01 X31.1693 Y31.1353
G01 X31.1799 Y31.2069
G01 X31.1975 Y31.2770
G01 X31.2219 Y31.3452
G01 X31.2528 Y31.4106
G01 X31.2900 Y31.4726
G01 X31.3331 Y31.5307
G01 X31.3817 Y31.5843
G01 X31.4353 Y31.6329
G01 X31.4934 Y31.6760
G01 X31.5555 Y31.7132
G01 X31.6209 Y31.7441
G01 X31.6890 Y31.7685
G01 X31.7592 Y31.7861
G01 X31.8307 Y31.7967
G01 X31.9030 Y31.8003
G01 X31.9753 Y31.7967
G01 X32.0468 Y31.7861
G01 X32.1170 Y31.7685
G01 X32.1851 Y31.7441
G01 X32.2505 Y31.7132
G01 X32.3126 Y31.6760
G01 X32.3707 Y31.6329
G01 X32.4243 Y31.5843
G01 X32.4729 Y31.5307
G01 X32.5160 Y31.4726
G01 X32.5532 Y31.4106
G01 X32.5841 Y31.3452
G01 X32.6085 Y31.2770
G01 X32.6261 Y31.2069
G01 X32.6367 Y31.1353
G01 X32.6402 Y31.0630
G01 X32.6367 Y30.9907
G01 X32.6261 Y30.9191
G01 X32.6085 Y30.8490
G01 X32.5841 Y30.7808
G01 X32.5532 Y30.7154
G01 X32.5160 Y30.6534
G01 X32.4729 Y30.5953
G01 X32.4243 Y30.5417
G01 X32.3707 Y30.4931
G01 X32.3126 Y30.4500
G01 X32.2505 Y30.4128
G01 X32.1851 Y30.3819
G01 X32.1170 Y30.3575
G01 X32.0468 Y30.3399
G01 X31.9753 Y30.3293
G01 X31.9030 Y30.3257
G01 X31.9937 Y31.0630
G01 X31.9930 Y31.0519
G01 X31.9915 Y31.0431
G01 X31.9910 Y31.0410
G01 X31.9904 Y31.0388
G01 X31.9891 Y31.0345
G01 X31.9850 Y31.0242
G01 X31.9796 Y31.0145
G01 X31.9745 Y31.0072
G01 X31.9671 Y30.9989
G01 X31.9606 Y30.9929
G01 X31.9534 Y30.9876
G01 X31.9458 Y30.9830
G01 X31.9377 Y30.9792
G01 X31.9272 Y30.9756
G01 X31.9185 Y30.9736
G01 X31.9075 Y30.9724
G01 X31.8985 Y30.9724
G01 X31.8875 Y30.9736
G01 X31.8788 Y30.9756
G01 X31.8683 Y30.9792
G01 X31.8602 Y30.9830
G01 X31.8508 Y30.9888
G01 X31.8437 Y30.9943
G01 X31.8373 Y31.0004
G01 X31.8315 Y31.0072
G01 X31.8252 Y31.0164
G01 X31.8210 Y31.0242
G01 X31.8169 Y31.0345
G01 X31.8140 Y31.0453
G01 X31.8127 Y31.0541
G01 X31.8123 Y31.0630
G01 X31.8130 Y31.0741
G01 X31.8145 Y31.0829
G01 X31.8176 Y31.0936
G01 X31.8210 Y31.1018
G01 X31.8241 Y31.1077
G01 X31.8288 Y31.1152
G01 X31.8329 Y31.1206
G01 X31.8373 Y31.1256
G01 X31.8437 Y31.1317
G01 X31.8545 Y31.1396
G01 X31.8602 Y31.1430
G01 X31.8683 Y31.1468
G01 X31.8810 Y31.1510
G01 X31.8897 Y31.1527
G01 X31.8963 Y31.1535
G01 X31.9097 Y31.1535
G01 X31.9185 Y31.1524
G01 X31.9272 Y31.1504
G01 X31.9336 Y31.1484
G01 X31.9418 Y31.1450
G01 X31.9477 Y31.1419
G01 X31.9552 Y31.1372
G01 X31.9623 Y31.1317
G01 X31.9687 Y31.1256
G01 X31.9745 Y31.1188
G01 X31.9784 Y31.1134
G01 X31.9830 Y31.1058
G01 X31.9868 Y31.0977
G01 X31.9898 Y31.0893
G01 X31.9920 Y31.0807
G01 X31.9933 Y31.0719
G01 X31.9937 Y31.0630
G01 X32.1752 Y31.0630
G01 X32.1744 Y31.0430
G01 X32.1731 Y31.0297
G01 X32.1699 Y31.0099
G01 X32.1670 Y30.9969
G01 X32.1634 Y30.9840
G01 X32.1569 Y30.9651
G01 X32.1518 Y30.9527
G01 X32.1461 Y30.9406
G01 X32.1398 Y30.9289
G01 X32.1293 Y30.9118
G01 X32.1216 Y30.9009
G01 X32.1134 Y30.8903
G01 X32.1001 Y30.8753
G01 X32.0907 Y30.8659
G01 X32.0808 Y30.8569
G01 X32.0704 Y30.8484
G01 X32.0597 Y30.8405
G01 X32.0486 Y30.8331
G01 X32.0313 Y30.8230
G01 X32.0194 Y30.8170
G01 X32.0009 Y30.8091
G01 X31.9884 Y30.8046
G01 X31.9691 Y30.7990
G01 X31.9626 Y30.7975
G01 X31.9561 Y30.7961
G01 X31.9363 Y30.7929
G01 X31.9230 Y30.7916
G01 X31.9097 Y30.7909
G01 X31.8963 Y30.7909
G01 X31.8830 Y30.7916
G01 X31.8631 Y30.7938
G01 X31.8434 Y30.7975
G01 X31.8304 Y30.8007
G01 X31.8113 Y30.8067
G01 X31.7988 Y30.8116
G01 X31.7866 Y30.8170
G01 X31.7747 Y30.8230
G01 X31.7631 Y30.8296
G01 X31.7463 Y30.8405
G01 X31.7356 Y30.8484
G01 X31.7202 Y30.8613
G01 X31.7059 Y30.8753
G01 X31.6969 Y30.8852
G01 X31.6884 Y30.8956
G01 X31.6805 Y30.9063
G01 X31.6696 Y30.9231
G01 X31.6630 Y30.9347
G01 X31.6570 Y30.9466
G01 X31.6491 Y30.9651
G01 X31.6446 Y30.9776
G01 X31.6390 Y30.9969
G01 X31.6361 Y31.0099
G01 X31.6338 Y31.0231
G01 X31.6316 Y31.0430
G01 X31.6309 Y31.0563
G01 X31.6309 Y31.0697
G01 X31.6316 Y31.0830
G01 X31.6329 Y31.0963
G01 X31.6348 Y31.1095
G01 X31.6375 Y31.1226
G01 X31.6426 Y31.1420
G01 X31.6467 Y31.1547
G01 X31.6542 Y31.1733
G01 X31.6599 Y31.1854
G01 X31.6696 Y31.2029
G01 X31.6805 Y31.2197
G01 X31.6926 Y31.2357
G01 X31.7059 Y31.2507
G01 X31.7202 Y31.2647
G01 X31.7303 Y31.2734
G01 X31.7409 Y31.2816
G01 X31.7574 Y31.2929
G01 X31.7747 Y31.3030
G01 X31.7927 Y31.3118
G01 X31.8113 Y31.3193
G01 X31.8304 Y31.3253
G01 X31.8499 Y31.3299
G01 X31.8697 Y31.3331
G01 X31.8896 Y31.3348
G01 X31.9097 Y31.3351
G01 X31.9230 Y31.3344
G01 X31.9363 Y31.3331
G01 X31.9561 Y31.3299
G01 X31.9691 Y31.3270
G01 X31.9820 Y31.3234
G01 X32.0009 Y31.3169
G01 X32.0194 Y31.3090
G01 X32.0313 Y31.3030
G01 X32.0429 Y31.2964
G01 X32.0597 Y31.2855
G01 X32.0704 Y31.2776
G01 X32.0808 Y31.2691
G01 X32.0954 Y31.2554
G01 X32.1047 Y31.2458
G01 X32.1134 Y31.2357
G01 X32.1255 Y31.2197
G01 X32.1329 Y31.2086
G01 X32.1398 Y31.1971
G01 X32.1461 Y31.1854
G01 X32.1518 Y31.1733
G01 X32.1593 Y31.1547
G01 X32.1653 Y31.1356
G01 X32.1685 Y31.1226
G01 X32.1712 Y31.1095
G01 X32.1738 Y31.0897
G01 X32.1748 Y31.0764
G01 X32.1752 Y31.0630
G01 X32.3566 Y31.0630
G01 X32.3561 Y31.0407
G01 X32.3554 Y31.0296
G01 X32.3532 Y31.0075
G01 X32.3499 Y30.9855
G01 X32.3456 Y30.9636
G01 X32.3430 Y30.9528
G01 X32.3371 Y30.9313
G01 X32.3301 Y30.9102
G01 X32.3262 Y30.8998
G01 X32.3221 Y30.8894
G01 X32.3130 Y30.8691
G01 X32.3030 Y30.8492
G01 X32.2921 Y30.8298
G01 X32.2802 Y30.8110
G01 X32.2739 Y30.8018
G01 X32.2606 Y30.7839
G01 X32.2465 Y30.7667
G01 X32.2315 Y30.7502
G01 X32.2158 Y30.7345
G01 X32.2076 Y30.7269
G01 X32.1993 Y30.7195
G01 X32.1821 Y30.7054
G01 X32.1642 Y30.6921
G01 X32.1550 Y30.6858
G01 X32.1362 Y30.6739
G01 X32.1168 Y30.6630
G01 X32.0969 Y30.6530
G01 X32.0868 Y30.6483
G01 X32.0662 Y30.6398
G01 X32.0453 Y30.6323
G01 X32.0347 Y30.6289
G01 X32.0132 Y30.6230
G01 X31.9915 Y30.6181
G01 X31.9805 Y30.6161
G01 X31.9585 Y30.6128
G01 X31.9475 Y30.6116
G01 X31.9364 Y30.6106
G01 X31.9253 Y30.6099
G01 X31.9030 Y30.6094
G01 X31.8807 Y30.6099
G01 X31.8696 Y30.6106
G01 X31.8475 Y30.6128
G01 X31.8255 Y30.6161
G01 X31.8145 Y30.6181
G01 X31.7928 Y30.6230
G01 X31.7820 Y30.6258
G01 X31.7607 Y30.6323
G01 X31.7398 Y30.6398
G01 X31.7192 Y30.6483
G01 X31.7091 Y30.6530
G01 X31.6892 Y30.6630
G01 X31.6698 Y30.6739
G01 X31.6603 Y30.6798
G01 X31.6418 Y30.6921
G01 X31.6239 Y30.7054
G01 X31.6067 Y30.7195
G01 X31.5984 Y30.7269
G01 X31.5823 Y30.7423
G01 X31.5669 Y30.7584
G01 X31.5524 Y30.7752
G01 X31.5454 Y30.7839
G01 X31.5321 Y30.8018
G01 X31.5258 Y30.8110
G01 X31.5139 Y30.8298
G01 X31.5030 Y30.8492
G01 X31.4930 Y30.8691
G01 X31.4839 Y30.8894
G01 X31.4798 Y30.8998
G01 X31.4723 Y30.9207
G01 X31.4689 Y30.9313
G01 X31.4630 Y30.9528
G01 X31.4581 Y30.9745
G01 X31.4543 Y30.9964
G01 X31.4528 Y31.0075
G01 X31.4506 Y31.0296
G01 X31.4499 Y31.0407
G01 X31.4494 Y31.0630
G01 X31.4499 Y31.0853
G01 X31.4506 Y31.0964
G01 X31.4528 Y31.1185
G01 X31.4561 Y31.1405
G01 X31.4604 Y31.1624
G01 X31.4630 Y31.1732
G01 X31.4689 Y31.1947
G01 X31.4759 Y31.2158
G01 X31.4839 Y31.2366
G01 X31.4930 Y31.2569
G01 X31.4978 Y31.2669
G01 X31.5083 Y31.2866
G01 X31.5139 Y31.2962
G01 X31.5258 Y31.3150
G01 X31.5387 Y31.3332
G01 X31.5524 Y31.3508
G01 X31.5595 Y31.3593
G01 X31.5745 Y31.3758
G01 X31.5823 Y31.3837
G01 X31.5902 Y31.3915
G01 X31.6067 Y31.4065
G01 X31.6239 Y31.4206
G01 X31.6328 Y31.4273
G01 X31.6418 Y31.4339
G01 X31.6603 Y31.4462
G01 X31.6698 Y31.4521
G01 X31.6892 Y31.4630
G01 X31.7091 Y31.4730
G01 X31.7192 Y31.4777
G01 X31.7294 Y31.4821
G01 X31.7502 Y31.4901
G01 X31.7607 Y31.4937
G01 X31.7820 Y31.5002
G01 X31.8036 Y31.5056
G01 X31.8145 Y31.5079
G01 X31.8364 Y31.5117
G01 X31.8475 Y31.5132
G01 X31.8696 Y31.5154
G01 X31.8807 Y31.5161
G01 X31.9030 Y31.5166
G01 X31.9253 Y31.5161
G01 X31.9364 Y31.5154
G01 X31.9585 Y31.5132
G01 X31.9696 Y31.5117
G01 X31.9805 Y31.5099
G01 X32.0024 Y31.5056
G01 X32.0240 Y31.5002
G01 X32.0347 Y31.4971
G01 X32.0558 Y31.4901
G01 X32.0766 Y31.4821
G01 X32.0969 Y31.4730
G01 X32.1069 Y31.4682
G01 X32.1266 Y31.4577
G01 X32.1362 Y31.4521
G01 X32.1550 Y31.4402
G01 X32.1642 Y31.4339
G01 X32.1821 Y31.4206
G01 X32.1908 Y31.4136
G01 X32.1993 Y31.4065
G01 X32.2158 Y31.3915
G01 X32.2237 Y31.3837
G01 X32.2391 Y31.3676
G01 X32.2536 Y31.3508
G01 X32.2673 Y31.3332
G01 X32.2802 Y31.3150
G01 X32.2921 Y31.2962
G01 X32.2977 Y31.2866
G01 X32.3082 Y31.2669
G01 X32.3130 Y31.2569
G01 X32.3221 Y31.2366
G01 X32.3301 Y31.2158
G01 X32.3337 Y31.2053
G01 X32.3371 Y31.1947
G01 X32.3430 Y31.1732
G01 X32.3479 Y31.1515
G01 X32.3517 Y31.1296
G01 X32.3532 Y31.1185
G01 X32.3554 Y31.0964
G01 X32.3561 Y31.0853
G01 X32.3566 Y31.0630
G01 X32.5380 Y31.0630
G01 X32.5373 Y31.0318
G01 X32.5363 Y31.0163
G01 X32.5333 Y30.9853
G01 X32.5287 Y30.9544
G01 X32.5226 Y30.9239
G01 X32.5190 Y30.9087
G01 X32.5150 Y30.8936
G01 X32.5060 Y30.8638
G01 X32.4955 Y30.8345
G01 X32.4836 Y30.8057
G01 X32.4771 Y30.7915
G01 X32.4631 Y30.7636
G01 X32.4477 Y30.7365
G01 X32.4310 Y30.7102
G01 X32.4222 Y30.6973
G01 X32.4036 Y30.6723
G01 X32.3839 Y30.6482
G01 X32.3629 Y30.6251
G01 X32.3520 Y30.6140
G01 X32.3295 Y30.5925
G01 X32.3059 Y30.5721
G01 X32.2813 Y30.5529
G01 X32.2687 Y30.5438
G01 X32.2427 Y30.5265
G01 X32.2160 Y30.5105
G01 X32.1885 Y30.4958
G01 X32.1603 Y30.4824
G01 X32.1460 Y30.4763
G01 X32.1169 Y30.4651
G01 X32.0873 Y30.4553
G01 X32.0724 Y30.4510
G01 X32.0573 Y30.4470
G01 X32.0269 Y30.4402
G01 X31.9962 Y30.4348
G01 X31.9652 Y30.4310
G01 X31.9497 Y30.4297
G01 X31.9186 Y30.4282
G01 X31.9030 Y30.4280
G01 X31.8874 Y30.4282
G01 X31.8563 Y30.4297
G01 X31.8408 Y30.4310
G01 X31.8253 Y30.4327
G01 X31.7944 Y30.4373
G01 X31.7639 Y30.4434
G01 X31.7336 Y30.4510
G01 X31.7038 Y30.4600
G01 X31.6891 Y30.4651
G01 X31.6600 Y30.4763
G01 X31.6315 Y30.4889
G01 X31.6175 Y30.4958
G01 X31.6036 Y30.5029
G01 X31.5765 Y30.5183
G01 X31.5502 Y30.5350
G01 X31.5247 Y30.5529
G01 X31.5001 Y30.5721
G01 X31.4765 Y30.5925
G01 X31.4651 Y30.6031
G01 X31.4431 Y30.6251
G01 X31.4325 Y30.6365
G01 X31.4121 Y30.6601
G01 X31.3929 Y30.6847
G01 X31.3750 Y30.7102
G01 X31.3583 Y30.7365
G01 X31.3505 Y30.7500
G01 X31.3429 Y30.7636
G01 X31.3289 Y30.7915
G01 X31.3163 Y30.8200
G01 X31.3105 Y30.8345
G01 X31.3000 Y30.8638
G01 X31.2910 Y30.8936
G01 X31.2834 Y30.9239
G01 X31.2773 Y30.9544
G01 X31.2748 Y30.9698
G01 X31.2710 Y31.0008
G01 X31.2697 Y31.0163
G01 X31.2682 Y31.0474
G01 X31.2682 Y31.0786
G01 X31.2697 Y31.1097
G01 X31.2710 Y31.1252
G01 X31.2727 Y31.1407
G01 X31.2773 Y31.1716
G01 X31.2834 Y31.2021
G01 X31.2910 Y31.2324
G01 X31.3000 Y31.2622
G01 X31.3051 Y31.2769
G01 X31.3163 Y31.3060
G01 X31.3224 Y31.3203
G01 X31.3358 Y31.3485
G01 X31.3505 Y31.3760
G01 X31.3665 Y31.4027
G01 X31.3750 Y31.4158
G01 X31.3929 Y31.4413
G01 X31.4121 Y31.4659
G01 X31.4221 Y31.4778
G01 X31.4431 Y31.5009
G01 X31.4540 Y31.5120
G01 X31.4651 Y31.5229
G01 X31.4882 Y31.5439
G01 X31.5123 Y31.5636
G01 X31.5247 Y31.5731
G01 X31.5502 Y31.5910
G01 X31.5633 Y31.5995
G01 X31.5900 Y31.6155
G01 X31.6036 Y31.6231
G01 X31.6315 Y31.6371
G01 X31.6457 Y31.6436
G01 X31.6745 Y31.6555
G01 X31.6891 Y31.6609
G01 X31.7038 Y31.6660
G01 X31.7336 Y31.6750
G01 X31.7639 Y31.6826
G01 X31.7791 Y31.6858
G01 X31.8098 Y31.6912
G01 X31.8253 Y31.6933
G01 X31.8408 Y31.6950
G01 X31.8718 Y31.6973
G01 X31.9030 Y31.6980
G01 X31.9186 Y31.6978
G01 X31.9497 Y31.6963
G01 X31.9807 Y31.6933
G01 X31.9962 Y31.6912
G01 X32.0269 Y31.6858
G01 X32.0421 Y31.6826
G01 X32.0724 Y31.6750
G01 X32.0873 Y31.6707
G01 X32.1169 Y31.6609
G01 X32.1460 Y31.6497
G01 X32.1745 Y31.6371
G01 X32.1885 Y31.6302
G01 X32.2160 Y31.6155
G01 X32.2427 Y31.5995
G01 X32.2558 Y31.5910
G01 X32.2813 Y31.5731
G01 X32.2937 Y31.5636
G01 X32.3178 Y31.5439
G01 X32.3295 Y31.5335
G01 X32.3520 Y31.5120
G01 X32.3629 Y31.5009
G01 X32.3839 Y31.4778
G01 X32.3939 Y31.4659
G01 X32.4036 Y31.4537
G01 X32.4222 Y31.4287
G01 X32.4310 Y31.4158
G01 X32.4477 Y31.3895
G01 X32.4631 Y31.3624
G01 X32.4771 Y31.3345
G01 X32.4836 Y31.3203
G01 X32.4955 Y31.2915
G01 X32.5060 Y31.2622
G01 X32.5107 Y31.2473
G01 X32.5150 Y31.2324
G01 X32.5226 Y31.2021
G01 X32.5287 Y31.1716
G01 X32.5312 Y31.1562
G01 X32.5333 Y31.1407
G01 X32.5363 Y31.1097
G01 X32.5378 Y31.0786
G01 X32.5380 Y31.0630
G00 Z2.0000
G00 X33.9030 Y30.3257
G01 F60.00
G01 Z0.1366
G01 F120.00
G01 X33.8307 Y30.3293
G01 X33.7592 Y30.3399
G01 X33.6890 Y30.3575
G01 X33.6209 Y30.3819
G01 X33.5555 Y30.4128
G01 X33.4934 Y30.4500
G01 X33.4353 Y30.4931
G01 X33.3817 Y30.5417
G01 X33.3331 Y30.5953
G01 X33.2900 Y30.6534
G01 X33.2528 Y30.7154
G01 X33.2219 Y30.7808
G01 X33.1975 Y30.8490
G01 X33.1799 Y30.9191
G01 X33.1693 Y30.9907
G01 X33.1658 Y31.0630
G01 X33.1693 Y31.1353
G01 X33.1799 Y31.2069
G01 X33.1975 Y31.2770
G01 X33.2219 Y31.3452
G01 X33.2528 Y31.4106
G01 X33.2900 Y31.4726
G01 X33.3331 Y31.5307
G01 X33.3817 Y31.5843
G01 X33.4353 Y31.6329
G01 X33.4934 Y31.6760
G01 X33.5555 Y31.7132
G01 X33.6209 Y31.7441
G01 X33.6890 Y31.7685
G01 X33.7592 Y31.7861
G01 X33.8307 Y31.7967
G01 X33.9030 Y31.8003
G01 X33.9753 Y31.7967
G01 X34.0468 Y31.7861
G01 X34.1170 Y31.7685
G01 X34.1851 Y31.7441
G01 X34.2505 Y31.7132
G01 X34.3126 Y31.6760
G01 X34.3707 Y31.6329
G01 X34.4243 Y31.5843
G01 X34.4729 Y31.5307
G01 X34.5160 Y31.4726
G01 X34.5532 Y31.4106
G01 X34.5841 Y31.3452
G01 X34.6085 Y31.2770
G01 X34.6261 Y31.2069
G01 X34.6367 Y31.1353
G01 X34.6402 Y31.0630
G01 X34.6367 Y30.9907
G01 X34.6261 Y30.9191
G01 X34.6085 Y30.8490
G01 X34.5841 Y30.7808
G01 X34.5532 Y30.7154
G01 X34.5160 Y30.6534
G01 X34.4729 Y30.5953
G01 X34.4243 Y30.5417
G01 X34.3707 Y30.4931
G01 X34.3126 Y30.4500
G01 X34.2505 Y30.4128
G01 X34.1851 Y30.3819
G01 X34.1170 Y30.3575
G01 X34.0468 Y30.3399
G01 X33.9753 Y30.3293
G01 X33.9030 Y30.3257
G01 X33.9937 Y31.0630
G01 X33.9930 Y31.0519
G01 X33.9915 Y31.0431
G01 X33.9910 Y31.0410
G01 X33.9904 Y31.0388
G01 X33.9891 Y31.0345
G01 X33.9850 Y31.0242
G01 X33.9808 Y31.0164
G01 X33.9745 Y31.0072
G01 X33.9687 Y31.0004
G01 X33.9606 Y30.9929
G01 X33.9534 Y30.9876
G01 X33.9438 Y30.9820
G01 X33.9336 Y30.9776
G01 X33.9250 Y30.9750
G01 X33.9163 Y30.9733
G01 X33.9075 Y30.9724
G01 X33.8985 Y30.9724
G01 X33.8875 Y30.9736
G01 X33.8767 Y30.9762
G01 X33.8683 Y30.9792
G01 X33.8602 Y30.9830
G01 X33.8526 Y30.9876
G01 X33.8454 Y30.9929
G01 X33.8373 Y31.0004
G01 X33.8315 Y31.0072
G01 X33.8252 Y31.0164
G01 X33.8201 Y31.0262
G01 X33.8169 Y31.0345
G01 X33.8140 Y31.0453
G01 X33.8127 Y31.0541
G01 X33.8123 Y31.0652
G01 X33.8130 Y31.0741
G01 X33.8150 Y31.0850
G01 X33.8176 Y31.0936
G01 X33.8210 Y31.1018
G01 X33.8241 Y31.1077
G01 X33.8315 Y31.1188
G01 X33.8404 Y31.1287
G01 X33.8454 Y31.1331
G01 X33.8526 Y31.1384
G01 X33.8602 Y31.1430
G01 X33.8662 Y31.1459
G01 X33.8745 Y31.1491
G01 X33.8810 Y31.1510
G01 X33.8897 Y31.1527
G01 X33.8963 Y31.1535
G01 X33.9097 Y31.1535
G01 X33.9185 Y31.1524
G01 X33.9272 Y31.1504
G01 X33.9336 Y31.1484
G01 X33.9418 Y31.1450
G01 X33.9477 Y31.1419
G01 X33.9552 Y31.1372
G01 X33.9623 Y31.1317
G01 X33.9687 Y31.1256
G01 X33.9745 Y31.1188
G01 X33.9796 Y31.1115
G01 X33.9840 Y31.1038
G01 X33.9868 Y31.0977
G01 X33.9898 Y31.0893
G01 X33.9920 Y31.0807
G01 X33.9933 Y31.0719
G01 X33.9937 Y31.0630
G01 X34.1752 Y31.0630
G01 X34.1744 Y31.0430
G01 X34.1731 Y31.0297
G01 X34.1699 Y31.0099
G01 X34.1670 Y30.9969
G01 X34.1634 Y30.9840
G01 X34.1569 Y30.9651
G01 X34.1518 Y30.9527
G01 X34.1461 Y30.9406
G01 X34.1398 Y30.9289
G01 X34.1293 Y30.9118
G01 X34.1216 Y30.9009
G01 X34.1134 Y30.8903
G01 X34.1001 Y30.8753
G01 X34.0907 Y30.8659
G01 X34.0808 Y30.8569
G01 X34.0704 Y30.8484
G01 X34.0597 Y30.8405
G01 X34.0486 Y30.8331
G01 X34.0313 Y30.8230
G01 X34.0194 Y30.8170
G01 X34.0009 Y30.8091
G01 X33.9884 Y30.8046
G01 X33.9691 Y30.7990
G01 X33.9626 Y30.7975
G01 X33.9561 Y30.7961
G01 X33.9363 Y30.7929
G01 X33.9230 Y30.7916
G01 X33.9097 Y30.7909
G01 X33.8963 Y30.7909
G01 X33.8830 Y30.7916
G01 X33.8631 Y30.7938
G01 X33.8434 Y30.7975
G01 X33.8304 Y30.8007
G01 X33.8113 Y30.8067
G01 X33.7988 Y30.8116
G01 X33.7866 Y30.8170
G01 X33.7747 Y30.8230
G01 X33.7574 Y30.8331
G01 X33.7463 Y30.8405
G01 X33.7356 Y30.8484
G01 X33.7202 Y30.8613
G01 X33.7059 Y30.8753
G01 X33.6969 Y30.8852
G01 X33.6884 Y30.8956
G01 X33.6805 Y30.9063
G01 X33.6731 Y30.9174
G01 X33.6662 Y30.9289
G01 X33.6570 Y30.9466
G01 X33.6516 Y30.9588
G01 X33.6467 Y30.9713
G01 X33.6426 Y30.9840
G01 X33.6390 Y30.9969
G01 X33.6348 Y31.0165
G01 X33.6322 Y31.0363
G01 X33.6312 Y31.0496
G01 X33.6309 Y31.0697
G01 X33.6316 Y31.0830
G01 X33.6329 Y31.0963
G01 X33.6361 Y31.1161
G01 X33.6390 Y31.1291
G01 X33.6446 Y31.1484
G01 X33.6491 Y31.1609
G01 X33.6570 Y31.1794
G01 X33.6630 Y31.1913
G01 X33.6696 Y31.2029
G01 X33.6805 Y31.2197
G01 X33.6926 Y31.2357
G01 X33.7059 Y31.2507
G01 X33.7153 Y31.2601
G01 X33.7252 Y31.2691
G01 X33.7409 Y31.2816
G01 X33.7574 Y31.2929
G01 X33.7747 Y31.3030
G01 X33.7927 Y31.3118
G01 X33.8113 Y31.3193
G01 X33.8304 Y31.3253
G01 X33.8499 Y31.3299
G01 X33.8697 Y31.3331
G01 X33.8896 Y31.3348
G01 X33.9097 Y31.3351
G01 X33.9230 Y31.3344
G01 X33.9363 Y31.3331
G01 X33.9561 Y31.3299
G01 X33.9691 Y31.3270
G01 X33.9820 Y31.3234
G01 X34.0009 Y31.3169
G01 X34.0194 Y31.3090
G01 X34.0313 Y31.3030
G01 X34.0429 Y31.2964
G01 X34.0597 Y31.2855
G01 X34.0704 Y31.2776
G01 X34.0808 Y31.2691
G01 X34.0954 Y31.2554
G01 X34.1047 Y31.2458
G01 X34.1134 Y31.2357
G01 X34.1255 Y31.2197
G01 X34.1329 Y31.2086
G01 X34.1398 Y31.1971
G01 X34.1461 Y31.1854
G01 X34.1518 Y31.1733
G01 X34.1593 Y31.1547
G01 X34.1653 Y31.1356
G01 X34.1685 Y31.1226
G01 X34.1712 Y31.1095
G01 X34.1738 Y31.0897
G01 X34.1748 Y31.0764
G01 X34.1752 Y31.0630
G01 X34.3566 Y31.0630
G01 X34.3561 Y31.0407
G01 X34.3554 Y31.0296
G01 X34.3532 Y31.0075
G01 X34.3499 Y30.9855
G01 X34.3456 Y30.9636
G01 X34.3430 Y30.9528
G01 X34.3371 Y30.9313
G01 X34.3301 Y30.9102
G01 X34.3262 Y30.8998
G01 X34.3221 Y30.8894
G01 X34.3130 Y30.8691
G01 X34.3030 Y30.8492
G01 X34.2921 Y30.8298
G01 X34.2802 Y30.8110
G01 X34.2739 Y30.8018
G01 X34.2606 Y30.7839
G01 X34.2465 Y30.7667
G01 X34.2315 Y30.7502
G01 X34.2158 Y30.7345
G01 X34.2076 Y30.7269
G01 X34.1993 Y30.7195
G01 X34.1821 Y30.7054
G01 X34.1642 Y30.6921
G01 X34.1550 Y30.6858
G01 X34.1362 Y30.6739
G01 X34.1168 Y30.6630
G01 X34.0969 Y30.6530
G01 X34.0868 Y30.6483
G01 X34.0662 Y30.6398
G01 X34.0453 Y30.6323
G01 X34.0347 Y30.6289
G01 X34.0132 Y30.6230
G01 X33.9915 Y30.6181
G01 X33.9805 Y30.6161
G01 X33.9585 Y30.6128
G01 X33.9475 Y30.6116
G01 X33.9364 Y30.6106
G01 X33.9253 Y30.6099
G01 X33.9030 Y30.6094
G01 X33.8807 Y30.6099
G01 X33.8696 Y30.6106
G01 X33.8475 Y30.6128
G01 X33.8255 Y30.6161
G01 X33.8145 Y30.6181
G01 X33.7928 Y30.6230
G01 X33.7713 Y30.6289
G01 X33.7502 Y30.6359
G01 X33.7398 Y30.6398
G01 X33.7192 Y30.6483
G01 X33.7091 Y30.6530
G01 X33.6892 Y30.6630
G01 X33.6794 Y30.6683
G01 X33.6603 Y30.6798
G01 X33.6418 Y30.6921
G01 X33.6239 Y30.7054
G01 X33.6067 Y30.7195
G01 X33.5984 Y30.7269
G01 X33.5902 Y30.7345
G01 X33.5745 Y30.7502
G01 X33.5595 Y30.7667
G01 X33.5454 Y30.7839
G01 X33.5321 Y30.8018
G01 X33.5198 Y30.8203
G01 X33.5139 Y30.8298
G01 X33.5030 Y30.8492
G01 X33.4930 Y30.8691
G01 X33.4883 Y30.8792
G01 X33.4798 Y30.8998
G01 X33.4723 Y30.9207
G01 X33.4689 Y30.9313
G01 X33.4630 Y30.9528
G01 X33.4604 Y30.9636
G01 X33.4561 Y30.9855
G01 X33.4528 Y31.0075
G01 X33.4506 Y31.0296
G01 X33.4499 Y31.0407
G01 X33.4494 Y31.0630
G01 X33.4499 Y31.0853
G01 X33.4506 Y31.0964
G01 X33.4528 Y31.1185
G01 X33.4543 Y31.1296
G01 X33.4581 Y31.1515
G01 X33.4630 Y31.1732
G01 X33.4689 Y31.1947
G01 X33.4759 Y31.2158
G01 X33.4839 Y31.2366
G01 X33.4883 Y31.2468
G01 X33.4978 Y31.2669
G01 X33.5083 Y31.2866
G01 X33.5139 Y31.2962
G01 X33.5258 Y31.3150
G01 X33.5387 Y31.3332
G01 X33.5524 Y31.3508
G01 X33.5595 Y31.3593
G01 X33.5669 Y31.3676
G01 X33.5823 Y31.3837
G01 X33.5984 Y31.3991
G01 X33.6067 Y31.4065
G01 X33.6239 Y31.4206
G01 X33.6328 Y31.4273
G01 X33.6418 Y31.4339
G01 X33.6603 Y31.4462
G01 X33.6794 Y31.4577
G01 X33.6892 Y31.4630
G01 X33.7091 Y31.4730
G01 X33.7294 Y31.4821
G01 X33.7398 Y31.4862
G01 X33.7502 Y31.4901
G01 X33.7713 Y31.4971
G01 X33.7820 Y31.5002
G01 X33.8036 Y31.5056
G01 X33.8145 Y31.5079
G01 X33.8364 Y31.5117
G01 X33.8585 Y31.5144
G01 X33.8696 Y31.5154
G01 X33.8919 Y31.5165
G01 X33.9030 Y31.5166
G01 X33.9253 Y31.5161
G01 X33.9364 Y31.5154
G01 X33.9585 Y31.5132
G01 X33.9696 Y31.5117
G01 X33.9805 Y31.5099
G01 X34.0024 Y31.5056
G01 X34.0240 Y31.5002
G01 X34.0347 Y31.4971
G01 X34.0558 Y31.4901
G01 X34.0766 Y31.4821
G01 X34.0969 Y31.4730
G01 X34.1069 Y31.4682
G01 X34.1266 Y31.4577
G01 X34.1362 Y31.4521
G01 X34.1550 Y31.4402
G01 X34.1642 Y31.4339
G01 X34.1821 Y31.4206
G01 X34.1908 Y31.4136
G01 X34.1993 Y31.4065
G01 X34.2158 Y31.3915
G01 X34.2237 Y31.3837
G01 X34.2391 Y31.3676
G01 X34.2536 Y31.3508
G01 X34.2673 Y31.3332
G01 X34.2802 Y31.3150
G01 X34.2921 Y31.2962
G01 X34.2977 Y31.2866
G01 X34.3082 Y31.2669
G01 X34.3130 Y31.2569
G01 X34.3221 Y31.2366
G01 X34.3301 Y31.2158
G01 X34.3337 Y31.2053
G01 X34.3371 Y31.1947
G01 X34.3430 Y31.1732
G01 X34.3479 Y31.1515
G01 X34.3517 Y31.1296
G01 X34.3532 Y31.1185
G01 X34.3554 Y31.0964
G01 X34.3561 Y31.0853
G01 X34.3566 Y31.0630
G01 X34.5380 Y31.0630
G01 X34.5373 Y31.0318
G01 X34.5363 Y31.0163
G01 X34.5333 Y30.9853
G01 X34.5287 Y30.9544
G01 X34.5226 Y30.9239
G01 X34.5190 Y30.9087
G01 X34.5150 Y30.8936
G01 X34.5060 Y30.8638
G01 X34.4955 Y30.8345
G01 X34.4836 Y30.8057
G01 X34.4771 Y30.7915
G01 X34.4631 Y30.7636
G01 X34.4477 Y30.7365
G01 X34.4310 Y30.7102
G01 X34.4222 Y30.6973
G01 X34.4036 Y30.6723
G01 X34.3839 Y30.6482
G01 X34.3735 Y30.6365
G01 X34.3520 Y30.6140
G01 X34.3295 Y30.5925
G01 X34.3178 Y30.5821
G01 X34.3059 Y30.5721
G01 X34.2813 Y30.5529
G01 X34.2558 Y30.5350
G01 X34.2427 Y30.5265
G01 X34.2160 Y30.5105
G01 X34.1885 Y30.4958
G01 X34.1603 Y30.4824
G01 X34.1460 Y30.4763
G01 X34.1169 Y30.4651
G01 X34.0873 Y30.4553
G01 X34.0573 Y30.4470
G01 X34.0421 Y30.4434
G01 X34.0116 Y30.4373
G01 X33.9962 Y30.4348
G01 X33.9652 Y30.4310
G01 X33.9342 Y30.4287
G01 X33.9186 Y30.4282
G01 X33.9030 Y30.4280
G01 X33.8874 Y30.4282
G01 X33.8563 Y30.4297
G01 X33.8253 Y30.4327
G01 X33.7944 Y30.4373
G01 X33.7639 Y30.4434
G01 X33.7487 Y30.4470
G01 X33.7336 Y30.4510
G01 X33.7038 Y30.4600
G01 X33.6745 Y30.4705
G01 X33.6457 Y30.4824
G01 X33.6315 Y30.4889
G01 X33.6036 Y30.5029
G01 X33.5765 Y30.5183
G01 X33.5502 Y30.5350
G01 X33.5373 Y30.5438
G01 X33.5123 Y30.5624
G01 X33.5001 Y30.5721
G01 X33.4765 Y30.5925
G01 X33.4540 Y30.6140
G01 X33.4325 Y30.6365
G01 X33.4221 Y30.6482
G01 X33.4121 Y30.6601
G01 X33.3929 Y30.6847
G01 X33.3750 Y30.7102
G01 X33.3665 Y30.7233
G01 X33.3505 Y30.7500
G01 X33.3358 Y30.7775
G01 X33.3224 Y30.8057
G01 X33.3105 Y30.8345
G01 X33.3051 Y30.8491
G01 X33.2953 Y30.8787
G01 X33.2870 Y30.9087
G01 X33.2834 Y30.9239
G01 X33.2773 Y30.9544
G01 X33.2727 Y30.9853
G01 X33.2697 Y31.0163
G01 X33.2682 Y31.0474
G01 X33.2680 Y31.0630
G01 X33.2687 Y31.0942
G01 X33.2697 Y31.1097
G01 X33.2727 Y31.1407
G01 X33.2773 Y31.1716
G01 X33.2834 Y31.2021
G01 X33.2870 Y31.2173
G01 X33.2953 Y31.2473
G01 X33.3051 Y31.2769
G01 X33.3163 Y31.3060
G01 X33.3289 Y31.3345
G01 X33.3358 Y31.3485
G01 X33.3429 Y31.3624
G01 X33.3583 Y31.3895
G01 X33.3750 Y31.4158
G01 X33.3929 Y31.4413
G01 X33.4121 Y31.4659
G01 X33.4221 Y31.4778
G01 X33.4325 Y31.4895
G01 X33.4540 Y31.5120
G01 X33.4765 Y31.5335
G01 X33.4882 Y31.5439
G01 X33.5123 Y31.5636
G01 X33.5247 Y31.5731
G01 X33.5373 Y31.5822
G01 X33.5633 Y31.5995
G01 X33.5900 Y31.6155
G01 X33.6036 Y31.6231
G01 X33.6315 Y31.6371
G01 X33.6457 Y31.6436
G01 X33.6600 Y31.6497
G01 X33.6891 Y31.6609
G01 X33.7038 Y31.6660
G01 X33.7336 Y31.6750
G01 X33.7639 Y31.6826
G01 X33.7791 Y31.6858
G01 X33.8098 Y31.6912
G01 X33.8253 Y31.6933
G01 X33.8408 Y31.6950
G01 X33.8718 Y31.6973
G01 X33.9030 Y31.6980
G01 X33.9186 Y31.6978
G01 X33.9497 Y31.6963
G01 X33.9807 Y31.6933
G01 X33.9962 Y31.6912
G01 X34.0269 Y31.6858
G01 X34.0421 Y31.6826
G01 X34.0724 Y31.6750
G01 X34.0873 Y31.6707
G01 X34.1169 Y31.6609
G01 X34.1460 Y31.6497
G01 X34.1603 Y31.6436
G01 X34.1885 Y31.6302
G01 X34.2160 Y31.6155
G01 X34.2427 Y31.5995
G01 X34.2558 Y31.5910
G01 X34.2813 Y31.5731
G01 X34.2937 Y31.5636
G01 X34.3059 Y31.5539
G01 X34.3295 Y31.5335
G01 X34.3520 Y31.5120
G01 X34.3629 Y31.5009
G01 X34.3839 Y31.4778
G01 X34.3939 Y31.4659
G01 X34.4036 Y31.4537
G01 X34.4222 Y31.4287
G01 X34.4310 Y31.4158
G01 X34.4477 Y31.3895
G01 X34.4631 Y31.3624
G01 X34.4771 Y31.3345
G01 X34.4836 Y31.3203
G01 X34.4955 Y31.2915
G01 X34.5060 Y31.2622
G01 X34.5107 Y31.2473
G01 X34.5150 Y31.2324
G01 X34.5226 Y31.2021
G01 X34.5287 Y31.1716
G01 X34.5312 Y31.1562
G01 X34.5333 Y31.1407
G01 X34.5363 Y31.1097
G01 X34.5378 Y31.0786
G01 X34.5380 Y31.0630
G00 Z2.0000
G00 X35.1157 Y31.4051
G01 F60.00
G01 Z0.1366
G01 F120.00
G01 X35.1221 Y31.4221
G01 X35.1312 Y31.4449
G01 X35.1408 Y31.4674
G01 X35.1510 Y31.4897
G01 X35.1617 Y31.5117
G01 X35.1730 Y31.5334
G01 X35.1848 Y31.5549
G01 X35.1972 Y31.5760
G01 X35.2100 Y31.5969
G01 X35.2234 Y31.6174
G01 X35.2372 Y31.6376
G01 X35.2516 Y31.6575
G01 X35.2664 Y31.6770
G01 X35.2817 Y31.6961
G01 X35.2975 Y31.7148
G01 X35.3137 Y31.7332
G01 X35.3304 Y31.7511
G01 X35.3475 Y31.7686
G01 X35.3650 Y31.7857
G01 X35.3829 Y31.8024
G01 X35.4013 Y31.8186
G01 X35.4200 Y31.8344
G01 X35.4392 Y31.8497
G01 X35.4586 Y31.8645
G01 X35.4785 Y31.8789
G01 X35.4987 Y31.8927
G01 X35.5192 Y31.9061
G01 X35.5401 Y31.9189
G01 X35.5612 Y31.9313
G01 X35.5827 Y31.9431
G01 X35.6044 Y31.9544
G01 X35.6264 Y31.9651
G01 X35.6487 Y31.9753
G01 X35.6712 Y31.9850
G01 X35.6940 Y31.9941
G01 X35.7169 Y32.0026
G01 X35.7401 Y32.0106
G01 X35.7634 Y32.0179
G01 X35.7870 Y32.0248
G01 X35.8106 Y32.0310
G01 X35.8345 Y32.0367
G01 X35.8584 Y32.0417
G01 X35.8825 Y32.0462
G01 X35.9067 Y32.0501
G01 X35.9310 Y32.0534
G01 X35.9553 Y32.0561
G01 X35.9797 Y32.0582
G01 X36.0041 Y32.0597
G01 X36.0286 Y32.0606
G01 X36.0531 Y32.0609
G01 X36.0776 Y32.0606
G01 X36.1021 Y32.0597
G01 X36.1265 Y32.0582
G01 X36.1509 Y32.0561
G01 X36.1753 Y32.0534
G01 X36.1995 Y32.0501
G01 X36.2237 Y32.0462
G01 X36.2478 Y32.0417
G01 X36.2718 Y32.0367
G01 X36.2956 Y32.0310
G01 X36.3193 Y32.0248
G01 X36.3428 Y32.0179
G01 X36.3661 Y32.0106
G01 X36.3893 Y32.0026
G01 X36.4123 Y31.9941
G01 X36.4350 Y31.9850
G01 X36.4575 Y31.9753
G01 X36.4798 Y31.9651
G01 X36.5018 Y31.9544
G01 X36.5235 Y31.9431
G01 X36.5450 Y31.9313
G01 X36.5661 Y31.9189
G01 X36.5870 Y31.9061
G01 X36.6075 Y31.8927
G01 X36.6277 Y31.8789
G01 X36.6476 Y31.8645
G01 X36.6671 Y31.8497
G01 X36.6862 Y31.8344
G01 X36.7049 Y31.8186
G01 X36.7233 Y31.8024
G01 X36.7412 Y31.7857
G01 X36.7587 Y31.7686
G01 X36.7759 Y31.7511
G01 X36.7925 Y31.7332
G01 X36.8087 Y31.7148
G01 X36.8245 Y31.6961
G01 X36.8398 Y31.6770
G01 X36.8546 Y31.6575
G01 X36.8690 Y31.6376
G01 X36.8829 Y31.6174
G01 X36.8962 Y31.5969
G01 X36.9091 Y31.5760
G01 X36.9214 Y31.5549
G01 X36.9332 Y31.5334
G01 X36.9445 Y31.5117
G01 X36.9552 Y31.4897
G01 X36.9654 Y31.4674
G01 X36.9751 Y31.4449
G01 X36.9842 Y31.4221
G01 X36.9905 Y31.4051
G01 X36.8696 Y31.0630
G01 X36.8693 Y31.0430
G01 X36.8674 Y31.0029
G01 X36.8634 Y30.9631
G01 X36.8608 Y30.9432
G01 X36.8539 Y30.9037
G01 X36.8451 Y30.8646
G01 X36.8344 Y30.8260
G01 X36.8219 Y30.7879
G01 X36.8149 Y30.7692
G01 X36.7995 Y30.7321
G01 X36.7824 Y30.6959
G01 X36.7732 Y30.6781
G01 X36.7534 Y30.6432
G01 X36.7429 Y30.6262
G01 X36.7207 Y30.5929
G01 X36.6968 Y30.5607
G01 X36.6843 Y30.5450
G01 X36.6581 Y30.5147
G01 X36.6444 Y30.5000
G01 X36.6304 Y30.4857
G01 X36.6014 Y30.4580
G01 X36.5864 Y30.4448
G01 X36.5554 Y30.4193
G01 X36.5232 Y30.3955
G01 X36.5067 Y30.3841
G01 X36.4729 Y30.3627
G01 X36.4556 Y30.3526
G01 X36.4202 Y30.3337
G01 X36.4022 Y30.3249
G01 X36.3656 Y30.3087
G01 X36.3470 Y30.3012
G01 X36.3092 Y30.2877
G01 X36.2901 Y30.2817
G01 X36.2515 Y30.2710
G01 X36.2124 Y30.2622
G01 X36.1927 Y30.2585
G01 X36.1531 Y30.2527
G01 X36.1132 Y30.2487
G01 X36.0932 Y30.2475
G01 X36.0731 Y30.2468
G01 X36.0331 Y30.2468
G01 X35.9930 Y30.2487
G01 X35.9731 Y30.2505
G01 X35.9532 Y30.2527
G01 X35.9135 Y30.2585
G01 X35.8938 Y30.2622
G01 X35.8547 Y30.2710
G01 X35.8161 Y30.2817
G01 X35.7970 Y30.2877
G01 X35.7780 Y30.2942
G01 X35.7407 Y30.3087
G01 X35.7222 Y30.3166
G01 X35.6860 Y30.3337
G01 X35.6682 Y30.3429
G01 X35.6334 Y30.3627
G01 X35.6163 Y30.3732
G01 X35.5830 Y30.3955
G01 X35.5667 Y30.4072
G01 X35.5351 Y30.4319
G01 X35.5048 Y30.4580
G01 X35.4901 Y30.4717
G01 X35.4618 Y30.5000
G01 X35.4481 Y30.5147
G01 X35.4220 Y30.5450
G01 X35.3973 Y30.5766
G01 X35.3856 Y30.5929
G01 X35.3633 Y30.6262
G01 X35.3528 Y30.6432
G01 X35.3330 Y30.6781
G01 X35.3150 Y30.7139
G01 X35.3067 Y30.7321
G01 X35.2988 Y30.7505
G01 X35.2844 Y30.7879
G01 X35.2778 Y30.8069
G01 X35.2662 Y30.8452
G01 X35.2611 Y30.8646
G01 X35.2523 Y30.9037
G01 X35.2455 Y30.9432
G01 X35.2428 Y30.9631
G01 X35.2406 Y30.9830
G01 X35.2376 Y31.0229
G01 X35.2369 Y31.0430
G01 X35.2369 Y31.0830
G01 X35.2388 Y31.1231
G01 X35.2406 Y31.1430
G01 X35.2428 Y31.1629
G01 X35.2487 Y31.2026
G01 X35.2565 Y31.2419
G01 X35.2611 Y31.2614
G01 X35.2718 Y31.3000
G01 X35.2778 Y31.3191
G01 X35.2913 Y31.3568
G01 X35.2988 Y31.3755
G01 X35.3150 Y31.4121
G01 X35.3330 Y31.4479
G01 X35.3427 Y31.4654
G01 X35.3633 Y31.4998
G01 X35.3742 Y31.5166
G01 X35.3973 Y31.5494
G01 X35.4220 Y31.5810
G01 X35.4481 Y31.6113
G01 X35.4618 Y31.6260
G01 X35.4901 Y31.6543
G01 X35.5048 Y31.6680
G01 X35.5351 Y31.6941
G01 X35.5667 Y31.7188
G01 X35.5830 Y31.7305
G01 X35.6163 Y31.7528
G01 X35.6507 Y31.7734
G01 X35.6860 Y31.7923
G01 X35.7040 Y31.8011
G01 X35.7407 Y31.8173
G01 X35.7593 Y31.8248
G01 X35.7970 Y31.8383
G01 X35.8161 Y31.8443
G01 X35.8547 Y31.8550
G01 X35.8938 Y31.8638
G01 X35.9333 Y31.8706
G01 X35.9532 Y31.8733
G01 X35.9930 Y31.8773
G01 X36.0331 Y31.8792
G01 X36.0531 Y31.8795
G01 X36.0932 Y31.8785
G01 X36.1331 Y31.8755
G01 X36.1531 Y31.8733
G01 X36.1729 Y31.8706
G01 X36.2124 Y31.8638
G01 X36.2515 Y31.8550
G01 X36.2901 Y31.8443
G01 X36.3092 Y31.8383
G01 X36.3470 Y31.8248
G01 X36.3840 Y31.8094
G01 X36.4022 Y31.8011
G01 X36.4380 Y31.7831
G01 X36.4729 Y31.7633
G01 X36.4899 Y31.7528
G01 X36.5232 Y31.7305
G01 X36.5395 Y31.7188
G01 X36.5711 Y31.6941
G01 X36.6014 Y31.6680
G01 X36.6304 Y31.6403
G01 X36.6581 Y31.6113
G01 X36.6714 Y31.5963
G01 X36.6843 Y31.5810
G01 X36.6968 Y31.5653
G01 X36.7207 Y31.5331
G01 X36.7429 Y31.4998
G01 X36.7635 Y31.4654
G01 X36.7824 Y31.4301
G01 X36.7995 Y31.3939
G01 X36.8149 Y31.3568
G01 X36.8284 Y31.3191
G01 X36.8344 Y31.3000
G01 X36.8451 Y31.2614
G01 X36.8539 Y31.2223
G01 X36.8608 Y31.1828
G01 X36.8657 Y31.1430
G01 X36.8686 Y31.1031
G01 X36.8696 Y31.0630
G01 X36.6882 Y31.0630
G01 X36.6874 Y31.0318
G01 X36.6864 Y31.0163
G01 X36.6834 Y30.9853
G01 X36.6788 Y30.9544
G01 X36.6727 Y30.9239
G01 X36.6691 Y30.9087
G01 X36.6651 Y30.8936
G01 X36.6561 Y30.8638
G01 X36.6456 Y30.8345
G01 X36.6337 Y30.8057
G01 X36.6272 Y30.7915
G01 X36.6132 Y30.7636
G01 X36.5978 Y30.7365
G01 X36.5896 Y30.7233
G01 X36.5811 Y30.7102
G01 X36.5632 Y30.6847
G01 X36.5537 Y30.6723
G01 X36.5340 Y30.6482
G01 X36.5130 Y30.6251
G01 X36.5022 Y30.6140
G01 X36.4796 Y30.5925
G01 X36.4679 Y30.5821
G01 X36.4438 Y30.5624
G01 X36.4188 Y30.5438
G01 X36.3929 Y30.5265
G01 X36.3796 Y30.5183
G01 X36.3661 Y30.5105
G01 X36.3386 Y30.4958
G01 X36.3105 Y30.4824
G01 X36.2961 Y30.4763
G01 X36.2670 Y30.4651
G01 X36.2375 Y30.4553
G01 X36.2074 Y30.4470
G01 X36.1770 Y30.4402
G01 X36.1617 Y30.4373
G01 X36.1463 Y30.4348
G01 X36.1154 Y30.4310
G01 X36.0998 Y30.4297
G01 X36.0687 Y30.4282
G01 X36.0375 Y30.4282
G01 X36.0220 Y30.4287
G01 X36.0064 Y30.4297
G01 X35.9754 Y30.4327
G01 X35.9445 Y30.4373
G01 X35.9292 Y30.4402
G01 X35.8988 Y30.4470
G01 X35.8837 Y30.4510
G01 X35.8539 Y30.4600
G01 X35.8392 Y30.4651
G01 X35.8101 Y30.4763
G01 X35.7958 Y30.4824
G01 X35.7816 Y30.4889
G01 X35.7538 Y30.5029
G01 X35.7401 Y30.5105
G01 X35.7134 Y30.5265
G01 X35.6874 Y30.5438
G01 X35.6748 Y30.5529
G01 X35.6502 Y30.5721
G01 X35.6383 Y30.5821
G01 X35.6266 Y30.5925
G01 X35.6041 Y30.6140
G01 X35.5826 Y30.6365
G01 X35.5723 Y30.6482
G01 X35.5622 Y30.6601
G01 X35.5430 Y30.6847
G01 X35.5251 Y30.7102
G01 X35.5166 Y30.7233
G01 X35.5006 Y30.7500
G01 X35.4931 Y30.7636
G01 X35.4790 Y30.7915
G01 X35.4726 Y30.8057
G01 X35.4606 Y30.8345
G01 X35.4552 Y30.8491
G01 X35.4501 Y30.8638
G01 X35.4411 Y30.8936
G01 X35.4371 Y30.9087
G01 X35.4303 Y30.9391
G01 X35.4274 Y30.9544
G01 X35.4228 Y30.9853
G01 X35.4198 Y31.0163
G01 X35.4188 Y31.0318
G01 X35.4183 Y31.0474
G01 X35.4183 Y31.0786
G01 X35.4188 Y31.0942
G01 X35.4211 Y31.1252
G01 X35.4228 Y31.1407
G01 X35.4274 Y31.1716
G01 X35.4335 Y31.2021
G01 X35.4371 Y31.2173
G01 X35.4454 Y31.2473
G01 X35.4501 Y31.2622
G01 X35.4552 Y31.2769
G01 X35.4664 Y31.3060
G01 X35.4790 Y31.3345
G01 X35.4859 Y31.3485
G01 X35.4931 Y31.3624
G01 X35.5084 Y31.3895
G01 X35.5251 Y31.4158
G01 X35.5430 Y31.4413
G01 X35.5622 Y31.4659
G01 X35.5723 Y31.4778
G01 X35.5826 Y31.4895
G01 X35.6041 Y31.5120
G01 X35.6266 Y31.5335
G01 X35.6502 Y31.5539
G01 X35.6624 Y31.5636
G01 X35.6874 Y31.5822
G01 X35.7134 Y31.5995
G01 X35.7401 Y31.6155
G01 X35.7676 Y31.6302
G01 X35.7816 Y31.6371
G01 X35.8101 Y31.6497
G01 X35.8246 Y31.6555
G01 X35.8539 Y31.6660
G01 X35.8837 Y31.6750
G01 X35.9140 Y31.6826
G01 X35.9292 Y31.6858
G01 X35.9599 Y31.6912
G01 X35.9909 Y31.6950
G01 X36.0220 Y31.6973
G01 X36.0375 Y31.6978
G01 X36.0687 Y31.6978
G01 X36.0998 Y31.6963
G01 X36.1154 Y31.6950
G01 X36.1463 Y31.6912
G01 X36.1770 Y31.6858
G01 X36.1922 Y31.6826
G01 X36.2225 Y31.6750
G01 X36.2523 Y31.6660
G01 X36.2817 Y31.6555
G01 X36.3105 Y31.6436
G01 X36.3246 Y31.6371
G01 X36.3386 Y31.6302
G01 X36.3661 Y31.6155
G01 X36.3929 Y31.5995
G01 X36.4188 Y31.5822
G01 X36.4438 Y31.5636
G01 X36.4560 Y31.5539
G01 X36.4796 Y31.5335
G01 X36.5022 Y31.5120
G01 X36.5236 Y31.4895
G01 X36.5440 Y31.4659
G01 X36.5537 Y31.4537
G01 X36.5632 Y31.4413
G01 X36.5811 Y31.4158
G01 X36.5978 Y31.3895
G01 X36.6132 Y31.3624
G01 X36.6272 Y31.3345
G01 X36.6398 Y31.3060
G01 X36.6510 Y31.2769
G01 X36.6608 Y31.2473
G01 X36.6691 Y31.2173
G01 X36.6759 Y31.1869
G01 X36.6813 Y31.1562
G01 X36.6851 Y31.1252
G01 X36.6874 Y31.0942
G01 X36.6882 Y31.0630
G01 X36.5067 Y31.0630
G01 X36.5062 Y31.0407
G01 X36.5055 Y31.0296
G01 X36.5033 Y31.0075
G01 X36.5018 Y30.9964
G01 X36.4980 Y30.9745
G01 X36.4957 Y30.9636
G01 X36.4903 Y30.9420
G01 X36.4872 Y30.9313
G01 X36.4802 Y30.9102
G01 X36.4763 Y30.8998
G01 X36.4722 Y30.8894
G01 X36.4632 Y30.8691
G01 X36.4531 Y30.8492
G01 X36.4478 Y30.8394
G01 X36.4363 Y30.8203
G01 X36.4240 Y30.8018
G01 X36.4107 Y30.7839
G01 X36.4037 Y30.7752
G01 X36.3966 Y30.7667
G01 X36.3816 Y30.7502
G01 X36.3659 Y30.7345
G01 X36.3494 Y30.7195
G01 X36.3322 Y30.7054
G01 X36.3233 Y30.6987
G01 X36.3143 Y30.6921
G01 X36.2958 Y30.6798
G01 X36.2863 Y30.6739
G01 X36.2669 Y30.6630
G01 X36.2470 Y30.6530
G01 X36.2369 Y30.6483
G01 X36.2164 Y30.6398
G01 X36.1954 Y30.6323
G01 X36.1848 Y30.6289
G01 X36.1633 Y30.6230
G01 X36.1416 Y30.6181
G01 X36.1307 Y30.6161
G01 X36.1086 Y30.6128
G01 X36.0865 Y30.6106
G01 X36.0754 Y30.6099
G01 X36.0531 Y30.6094
G01 X36.0309 Y30.6099
G01 X36.0197 Y30.6106
G01 X35.9976 Y30.6128
G01 X35.9866 Y30.6143
G01 X35.9756 Y30.6161
G01 X35.9537 Y30.6204
G01 X35.9429 Y30.6230
G01 X35.9214 Y30.6289
G01 X35.9003 Y30.6359
G01 X35.8899 Y30.6398
G01 X35.8693 Y30.6483
G01 X35.8592 Y30.6530
G01 X35.8393 Y30.6630
G01 X35.8295 Y30.6683
G01 X35.8104 Y30.6798
G01 X35.8011 Y30.6858
G01 X35.7829 Y30.6987
G01 X35.7740 Y30.7054
G01 X35.7568 Y30.7195
G01 X35.7485 Y30.7269
G01 X35.7403 Y30.7345
G01 X35.7246 Y30.7502
G01 X35.7096 Y30.7667
G01 X35.6955 Y30.7839
G01 X35.6823 Y30.8018
G01 X35.6760 Y30.8110
G01 X35.6640 Y30.8298
G01 X35.6584 Y30.8394
G01 X35.6531 Y30.8492
G01 X35.6431 Y30.8691
G01 X35.6384 Y30.8792
G01 X35.6299 Y30.8998
G01 X35.6224 Y30.9207
G01 X35.6190 Y30.9313
G01 X35.6131 Y30.9528
G01 X35.6105 Y30.9636
G01 X35.6082 Y30.9745
G01 X35.6044 Y30.9964
G01 X35.6017 Y31.0185
G01 X35.6001 Y31.0407
G01 X35.5995 Y31.0630
G01 X35.6001 Y31.0853
G01 X35.6007 Y31.0964
G01 X35.6029 Y31.1185
G01 X35.6044 Y31.1296
G01 X35.6082 Y31.1515
G01 X35.6131 Y31.1732
G01 X35.6159 Y31.1840
G01 X35.6190 Y31.1947
G01 X35.6260 Y31.2158
G01 X35.6340 Y31.2366
G01 X35.6384 Y31.2468
G01 X35.6431 Y31.2569
G01 X35.6531 Y31.2768
G01 X35.6640 Y31.2962
G01 X35.6699 Y31.3057
G01 X35.6760 Y31.3150
G01 X35.6888 Y31.3332
G01 X35.7025 Y31.3508
G01 X35.7170 Y31.3676
G01 X35.7324 Y31.3837
G01 X35.7485 Y31.3991
G01 X35.7653 Y31.4136
G01 X35.7740 Y31.4206
G01 X35.7919 Y31.4339
G01 X35.8104 Y31.4462
G01 X35.8295 Y31.4577
G01 X35.8393 Y31.4630
G01 X35.8592 Y31.4730
G01 X35.8795 Y31.4821
G01 X35.9003 Y31.4901
G01 X35.9214 Y31.4971
G01 X35.9429 Y31.5030
G01 X35.9646 Y31.5079
G01 X35.9866 Y31.5117
G01 X35.9976 Y31.5132
G01 X36.0197 Y31.5154
G01 X36.0309 Y31.5161
G01 X36.0531 Y31.5166
G01 X36.0754 Y31.5161
G01 X36.0976 Y31.5144
G01 X36.1197 Y31.5117
G01 X36.1307 Y31.5099
G01 X36.1525 Y31.5056
G01 X36.1741 Y31.5002
G01 X36.1954 Y31.4937
G01 X36.2059 Y31.4901
G01 X36.2267 Y31.4821
G01 X36.2470 Y31.4730
G01 X36.2669 Y31.4630
G01 X36.2863 Y31.4521
G01 X36.3051 Y31.4402
G01 X36.3143 Y31.4339
G01 X36.3322 Y31.4206
G01 X36.3494 Y31.4065
G01 X36.3659 Y31.3915
G01 X36.3739 Y31.3837
G01 X36.3892 Y31.3676
G01 X36.4037 Y31.3508
G01 X36.4174 Y31.3332
G01 X36.4240 Y31.3242
G01 X36.4303 Y31.3150
G01 X36.4422 Y31.2962
G01 X36.4531 Y31.2768
G01 X36.4632 Y31.2569
G01 X36.4722 Y31.2366
G01 X36.4802 Y31.2158
G01 X36.4872 Y31.1947
G01 X36.4931 Y31.1732
G01 X36.4980 Y31.1515
G01 X36.5018 Y31.1296
G01 X36.5045 Y31.1075
G01 X36.5062 Y31.0853
G01 X36.5067 Y31.0630
G01 X36.3253 Y31.0630
G01 X36.3245 Y31.0430
G01 X36.3223 Y31.0231
G01 X36.3187 Y31.0034
G01 X36.3136 Y30.9840
G01 X36.3070 Y30.9651
G01 X36.2991 Y30.9466
G01 X36.2899 Y30.9289
G01 X36.2794 Y30.9118
G01 X36.2677 Y30.8956
G01 X36.2548 Y30.8802
G01 X36.2408 Y30.8659
G01 X36.2258 Y30.8526
G01 X36.2098 Y30.8405
G01 X36.1930 Y30.8296
G01 X36.1755 Y30.8199
G01 X36.1573 Y30.8116
G01 X36.1385 Y30.8046
G01 X36.1257 Y30.8007
G01 X36.1127 Y30.7975
G01 X36.0930 Y30.7938
G01 X36.0731 Y30.7916
G01 X36.0598 Y30.7909
G01 X36.0464 Y30.7909
G01 X36.0264 Y30.7922
G01 X36.0066 Y30.7948
G01 X35.9935 Y30.7975
G01 X35.9805 Y30.8007
G01 X35.9614 Y30.8067
G01 X35.9428 Y30.8142
G01 X35.9248 Y30.8230
G01 X35.9132 Y30.8296
G01 X35.9019 Y30.8367
G01 X35.8857 Y30.8484
G01 X35.8753 Y30.8569
G01 X35.8654 Y30.8659
G01 X35.8515 Y30.8802
G01 X35.8386 Y30.8956
G01 X35.8306 Y30.9063
G01 X35.8232 Y30.9174
G01 X35.8131 Y30.9347
G01 X35.8071 Y30.9466
G01 X35.8017 Y30.9588
G01 X35.7947 Y30.9776
G01 X35.7891 Y30.9969
G01 X35.7850 Y31.0165
G01 X35.7823 Y31.0363
G01 X35.7813 Y31.0496
G01 X35.7810 Y31.0630
G01 X35.7813 Y31.0764
G01 X35.7823 Y31.0897
G01 X35.7850 Y31.1095
G01 X35.7891 Y31.1291
G01 X35.7947 Y31.1484
G01 X35.8017 Y31.1672
G01 X35.8071 Y31.1794
G01 X35.8131 Y31.1913
G01 X35.8232 Y31.2086
G01 X35.8306 Y31.2197
G01 X35.8386 Y31.2304
G01 X35.8515 Y31.2458
G01 X35.8654 Y31.2601
G01 X35.8805 Y31.2734
G01 X35.8910 Y31.2816
G01 X35.9019 Y31.2893
G01 X35.9190 Y31.2998
G01 X35.9367 Y31.3090
G01 X35.9552 Y31.3169
G01 X35.9741 Y31.3234
G01 X35.9870 Y31.3270
G01 X36.0000 Y31.3299
G01 X36.0198 Y31.3331
G01 X36.0398 Y31.3348
G01 X36.0598 Y31.3351
G01 X36.0798 Y31.3338
G01 X36.0996 Y31.3312
G01 X36.1192 Y31.3270
G01 X36.1385 Y31.3214
G01 X36.1573 Y31.3144
G01 X36.1695 Y31.3090
G01 X36.1814 Y31.3030
G01 X36.1987 Y31.2929
G01 X36.2152 Y31.2816
G01 X36.2309 Y31.2691
G01 X36.2456 Y31.2554
G01 X36.2592 Y31.2408
G01 X36.2677 Y31.2304
G01 X36.2756 Y31.2197
G01 X36.2865 Y31.2029
G01 X36.2899 Y31.1971
G01 X36.2962 Y31.1854
G01 X36.3046 Y31.1672
G01 X36.3094 Y31.1547
G01 X36.3136 Y31.1420
G01 X36.3187 Y31.1226
G01 X36.3223 Y31.1029
G01 X36.3245 Y31.0830
G01 X36.3253 Y31.0630
G01 X36.1438 Y31.0630
G01 X36.1434 Y31.0541
G01 X36.1421 Y31.0453
G01 X36.1399 Y31.0367
G01 X36.1369 Y31.0283
G01 X36.1331 Y31.0202
G01 X36.1285 Y31.0126
G01 X36.1232 Y31.0054
G01 X36.1173 Y30.9989
G01 X36.1107 Y30.9929
G01 X36.1035 Y30.9876
G01 X36.0959 Y30.9830
G01 X36.0878 Y30.9792
G01 X36.0794 Y30.9762
G01 X36.0708 Y30.9740
G01 X36.0620 Y30.9727
G01 X36.0531 Y30.9723
G01 X36.0442 Y30.9727
G01 X36.0354 Y30.9740
G01 X36.0268 Y30.9762
G01 X36.0184 Y30.9792
G01 X36.0103 Y30.9830
G01 X36.0027 Y30.9876
G01 X35.9956 Y30.9929
G01 X35.9890 Y30.9989
G01 X35.9830 Y31.0054
G01 X35.9777 Y31.0126
G01 X35.9731 Y31.0202
G01 X35.9693 Y31.0283
G01 X35.9663 Y31.0367
G01 X35.9641 Y31.0453
G01 X35.9628 Y31.0541
G01 X35.9624 Y31.0630
G01 X35.9628 Y31.0719
G01 X35.9641 Y31.0807
G01 X35.9663 Y31.0893
G01 X35.9693 Y31.0977
G01 X35.9731 Y31.1058
G01 X35.9777 Y31.1134
G01 X35.9830 Y31.1206
G01 X35.9890 Y31.1271
G01 X35.9956 Y31.1331
G01 X36.0027 Y31.1384
G01 X36.0103 Y31.1430
G01 X36.0184 Y31.1468
G01 X36.0268 Y31.1498
G01 X36.0354 Y31.1520
G01 X36.0442 Y31.1533
G01 X36.0531 Y31.1537
G01 X36.0620 Y31.1533
G01 X36.0708 Y31.1520
G01 X36.0794 Y31.1498
G01 X36.0878 Y31.1468
G01 X36.0959 Y31.1430
G01 X36.1035 Y31.1384
G01 X36.1107 Y31.1331
G01 X36.1173 Y31.1271
G01 X36.1232 Y31.1206
G01 X36.1285 Y31.1134
G01 X36.1331 Y31.1058
G01 X36.1369 Y31.0977
G01 X36.1399 Y31.0893
G01 X36.1421 Y31.0807
G01 X36.1434 Y31.0719
G01 X36.1438 Y31.0630
G01 X36.9523 Y31.8260
G01 X36.9461 Y31.8333
G01 X36.9270 Y31.8550
G01 X36.9073 Y31.8762
G01 X36.8870 Y31.8969
G01 X36.8663 Y31.9171
G01 X36.8451 Y31.9368
G01 X36.8234 Y31.9560
G01 X36.8013 Y31.9747
G01 X36.7787 Y31.9927
G01 X36.7557 Y32.0103
G01 X36.7322 Y32.0272
G01 X36.7083 Y32.0436
G01 X36.6841 Y32.0594
G01 X36.6594 Y32.0746
G01 X36.6344 Y32.0891
G01 X36.6091 Y32.1031
G01 X36.5834 Y32.1164
G01 X36.5574 Y32.1291
G01 X36.5310 Y32.1412
G01 X36.5044 Y32.1526
G01 X36.4776 Y32.1633
G01 X36.4504 Y32.1734
G01 X36.4231 Y32.1828
G01 X36.3955 Y32.1916
G01 X36.3677 Y32.1996
G01 X36.3397 Y32.2070
G01 X36.3115 Y32.2137
G01 X36.2832 Y32.2197
G01 X36.2547 Y32.2250
G01 X36.2262 Y32.2296
G01 X36.1975 Y32.2335
G01 X36.1687 Y32.2367
G01 X36.1399 Y32.2392
G01 X36.1110 Y32.2409
G01 X36.0821 Y32.2420
G01 X36.0531 Y32.2424
G01 X36.0242 Y32.2420
G01 X35.9952 Y32.2409
G01 X35.9664 Y32.2392
G01 X35.9375 Y32.2367
G01 X35.9087 Y32.2335
G01 X35.8801 Y32.2296
G01 X35.8515 Y32.2250
G01 X35.8230 Y32.2197
G01 X35.7947 Y32.2137
G01 X35.7665 Y32.2070
G01 X35.7386 Y32.1996
G01 X35.7108 Y32.1916
G01 X35.6832 Y32.1828
G01 X35.6558 Y32.1734
G01 X35.6287 Y32.1633
G01 X35.6018 Y32.1526
G01 X35.5752 Y32.1412
G01 X35.5489 Y32.1291
G01 X35.5229 Y32.1164
G01 X35.4972 Y32.1031
G01 X35.4718 Y32.0891
G01 X35.4468 Y32.0746
G01 X35.4222 Y32.0594
G01 X35.3979 Y32.0436
G01 X35.3740 Y32.0272
G01 X35.3506 Y32.0103
G01 X35.3275 Y31.9927
G01 X35.3049 Y31.9747
G01 X35.2828 Y31.9560
G01 X35.2611 Y31.9368
G01 X35.2399 Y31.9171
G01 X35.2192 Y31.8969
G01 X35.1990 Y31.8762
G01 X35.1793 Y31.8550
G01 X35.1539 Y31.8260
G01 X35.4571 Y32.2862
G01 X35.4713 Y32.2931
G01 X35.5017 Y32.3071
G01 X35.5324 Y32.3202
G01 X35.5634 Y32.3326
G01 X35.5947 Y32.3443
G01 X35.6263 Y32.3551
G01 X35.6581 Y32.3652
G01 X35.6902 Y32.3745
G01 X35.7225 Y32.3830
G01 X35.7550 Y32.3907
G01 X35.7876 Y32.3977
G01 X35.8205 Y32.4038
G01 X35.8534 Y32.4091
G01 X35.8865 Y32.4136
G01 X35.9197 Y32.4172
G01 X35.9530 Y32.4201
G01 X35.9863 Y32.4222
G01 X36.0197 Y32.4234
G01 X36.0531 Y32.4238
G01 X36.0865 Y32.4234
G01 X36.1199 Y32.4222
G01 X36.1532 Y32.4201
G01 X36.1865 Y32.4172
G01 X36.2197 Y32.4136
G01 X36.2528 Y32.4091
G01 X36.2858 Y32.4038
G01 X36.3186 Y32.3977
G01 X36.3513 Y32.3907
G01 X36.3838 Y32.3830
G01 X36.4161 Y32.3745
G01 X36.4481 Y32.3652
G01 X36.4800 Y32.3551
G01 X36.5115 Y32.3443
G01 X36.5429 Y32.3326
G01 X36.5739 Y32.3202
G01 X36.6046 Y32.3071
G01 X36.6349 Y32.2931
G01 X36.6491 Y32.2862
G00 Z2.0000
G00 X36.2816 Y33.6296
G01 F60.00
G01 Z0.1366
G01 F120.00
G01 X36.2935 Y33.6574
G01 X36.3093 Y33.6966
