(G-CODE GENERATED BY FLATCAM v8.994 - www.flatcam.org - Version Date: 2020/11/7)

(Name: Gerber_TopSolderMaskLayer.GTS_mt_paint_cnc)
(Type: G-code from Geometry)
(Units: MM)

(Created on Tuesday, 28 May 2024 at 20:16)

(This preprocessor is the default preprocessor used by FlatCAM.)
(It is made to work with MACH3 compatible motion controllers.)

(TOOL DIAMETER: 0.2268 mm)
(Feedrate_XY: 120.0 mm/min)
(Feedrate_Z: 60.0 mm/min)
(Feedrate rapids 1500.0 mm/min)

(Z_Cut: 0.1366 mm)
(Z_Move: 2.0 mm)
(Z Start: None mm)
(Z End: 15.0 mm)
(X,Y End: None mm)
(Steps per circle: 64)
(Preprocessor Geometry: default)

(X range:   24.1076 ...   75.8934  mm)
(Y range:   24.5377 ...   45.4784  mm)

(Spindle Speed: 0.0 RPM)
G21
G90
G94

G01 F120.00

M5
G00 Z15.0000
G00 X0.0000 Y0.0000
T1
M6    
(MSG, Change to Tool Dia = 0.2268)
M0
G00 Z15.0000

M03
G01 F120.00
G00 X25.1357 Y25.5209
G01 F60.00
G01 Z0.1366
G01 F120.00
G01 X25.1353 Y25.5120
G01 X25.1340 Y25.5032
G01 X25.1318 Y25.4946
G01 X25.1288 Y25.4862
G01 X25.1250 Y25.4782
G01 X25.1204 Y25.4705
G01 X25.1151 Y25.4634
G01 X25.1091 Y25.4568
G01 X25.1026 Y25.4508
G01 X25.0954 Y25.4455
G01 X25.0878 Y25.4409
G01 X25.0797 Y25.4371
G01 X25.0713 Y25.4341
G01 X25.0627 Y25.4320
G01 X25.0539 Y25.4307
G01 X25.0450 Y25.4302
G01 X25.0361 Y25.4307
G01 X25.0273 Y25.4320
G01 X25.0187 Y25.4341
G01 X25.0103 Y25.4371
G01 X25.0022 Y25.4409
G01 X24.9946 Y25.4455
G01 X24.9874 Y25.4508
G01 X24.9809 Y25.4568
G01 X24.9749 Y25.4634
G01 X24.9696 Y25.4705
G01 X24.9650 Y25.4782
G01 X24.9612 Y25.4862
G01 X24.9582 Y25.4946
G01 X24.9560 Y25.5032
G01 X24.9547 Y25.5120
G01 X24.9543 Y25.5209
G01 X24.9550 Y25.5320
G01 X24.9570 Y25.5430
G01 X24.9596 Y25.5515
G01 X24.9640 Y25.5617
G01 X24.9684 Y25.5695
G01 X24.9749 Y25.5785
G01 X24.9824 Y25.5866
G01 X24.9892 Y25.5925
G01 X24.9965 Y25.5976
G01 X25.0062 Y25.6029
G01 X25.0165 Y25.6071
G01 X25.0273 Y25.6099
G01 X25.0383 Y25.6114
G01 X25.0472 Y25.6116
G01 X25.0583 Y25.6107
G01 X25.0670 Y25.6089
G01 X25.0797 Y25.6047
G01 X25.0878 Y25.6009
G01 X25.0935 Y25.5976
G01 X25.1008 Y25.5925
G01 X25.1059 Y25.5882
G01 X25.1107 Y25.5835
G01 X25.1165 Y25.5767
G01 X25.1204 Y25.5713
G01 X25.1250 Y25.5637
G01 X25.1288 Y25.5557
G01 X25.1311 Y25.5494
G01 X25.1335 Y25.5408
G01 X25.1347 Y25.5342
G01 X25.1357 Y25.5209
G01 X25.3172 Y25.5209
G01 X25.3164 Y25.5009
G01 X25.3151 Y25.4876
G01 X25.3132 Y25.4744
G01 X25.3090 Y25.4548
G01 X25.3034 Y25.4356
G01 X25.2964 Y25.4168
G01 X25.2881 Y25.3986
G01 X25.2784 Y25.3810
G01 X25.2713 Y25.3697
G01 X25.2636 Y25.3588
G01 X25.2511 Y25.3432
G01 X25.2374 Y25.3285
G01 X25.2228 Y25.3149
G01 X25.2124 Y25.3064
G01 X25.2017 Y25.2984
G01 X25.1849 Y25.2875
G01 X25.1674 Y25.2778
G01 X25.1492 Y25.2695
G01 X25.1367 Y25.2647
G01 X25.1240 Y25.2605
G01 X25.1046 Y25.2554
G01 X25.0849 Y25.2517
G01 X25.0650 Y25.2495
G01 X25.0450 Y25.2488
G01 X25.0316 Y25.2491
G01 X25.0183 Y25.2501
G01 X25.0051 Y25.2517
G01 X24.9919 Y25.2540
G01 X24.9789 Y25.2569
G01 X24.9660 Y25.2605
G01 X24.9533 Y25.2647
G01 X24.9408 Y25.2695
G01 X24.9286 Y25.2749
G01 X24.9167 Y25.2809
G01 X24.9051 Y25.2875
G01 X24.8938 Y25.2946
G01 X24.8829 Y25.3023
G01 X24.8723 Y25.3106
G01 X24.8622 Y25.3193
G01 X24.8526 Y25.3285
G01 X24.8433 Y25.3382
G01 X24.8346 Y25.3483
G01 X24.8264 Y25.3588
G01 X24.8187 Y25.3697
G01 X24.8116 Y25.3810
G01 X24.8050 Y25.3926
G01 X24.7990 Y25.4046
G01 X24.7936 Y25.4168
G01 X24.7887 Y25.4292
G01 X24.7846 Y25.4419
G01 X24.7810 Y25.4548
G01 X24.7781 Y25.4678
G01 X24.7758 Y25.4810
G01 X24.7742 Y25.4943
G01 X24.7732 Y25.5076
G01 X24.7728 Y25.5209
G01 X24.7736 Y25.5410
G01 X24.7749 Y25.5542
G01 X24.7768 Y25.5675
G01 X24.7795 Y25.5806
G01 X24.7827 Y25.5935
G01 X24.7866 Y25.6063
G01 X24.7911 Y25.6189
G01 X24.7962 Y25.6312
G01 X24.8019 Y25.6433
G01 X24.8082 Y25.6551
G01 X24.8187 Y25.6721
G01 X24.8264 Y25.6831
G01 X24.8346 Y25.6936
G01 X24.8433 Y25.7037
G01 X24.8526 Y25.7134
G01 X24.8622 Y25.7226
G01 X24.8723 Y25.7313
G01 X24.8883 Y25.7434
G01 X24.8994 Y25.7509
G01 X24.9109 Y25.7577
G01 X24.9226 Y25.7640
G01 X24.9347 Y25.7697
G01 X24.9471 Y25.7749
G01 X24.9596 Y25.7794
G01 X24.9789 Y25.7849
G01 X24.9919 Y25.7879
G01 X25.0051 Y25.7901
G01 X25.0183 Y25.7918
G01 X25.0383 Y25.7930
G01 X25.0517 Y25.7930
G01 X25.0650 Y25.7924
G01 X25.0783 Y25.7910
G01 X25.0981 Y25.7879
G01 X25.1111 Y25.7849
G01 X25.1240 Y25.7814
G01 X25.1367 Y25.7772
G01 X25.1492 Y25.7724
G01 X25.1614 Y25.7670
G01 X25.1733 Y25.7610
G01 X25.1849 Y25.7544
G01 X25.1962 Y25.7472
G01 X25.2124 Y25.7355
G01 X25.2228 Y25.7270
G01 X25.2327 Y25.7180
G01 X25.2467 Y25.7037
G01 X25.2554 Y25.6936
G01 X25.2636 Y25.6831
G01 X25.2713 Y25.6721
G01 X25.2784 Y25.6609
G01 X25.2881 Y25.6433
G01 X25.2938 Y25.6312
G01 X25.2989 Y25.6189
G01 X25.3034 Y25.6063
G01 X25.3073 Y25.5935
G01 X25.3119 Y25.5740
G01 X25.3142 Y25.5609
G01 X25.3158 Y25.5476
G01 X25.3168 Y25.5343
G01 X25.3172 Y25.5209
G01 X25.4986 Y25.5209
G01 X25.4981 Y25.4987
G01 X25.4964 Y25.4765
G01 X25.4937 Y25.4544
G01 X25.4899 Y25.4324
G01 X25.4850 Y25.4107
G01 X25.4791 Y25.3893
G01 X25.4757 Y25.3786
G01 X25.4682 Y25.3577
G01 X25.4597 Y25.3371
G01 X25.4550 Y25.3270
G01 X25.4450 Y25.3071
G01 X25.4341 Y25.2877
G01 X25.4222 Y25.2689
G01 X25.4093 Y25.2507
G01 X25.4026 Y25.2419
G01 X25.3885 Y25.2247
G01 X25.3735 Y25.2082
G01 X25.3578 Y25.1924
G01 X25.3413 Y25.1775
G01 X25.3328 Y25.1703
G01 X25.3152 Y25.1566
G01 X25.3062 Y25.1501
G01 X25.2877 Y25.1377
G01 X25.2686 Y25.1263
G01 X25.2588 Y25.1209
G01 X25.2389 Y25.1109
G01 X25.2186 Y25.1019
G01 X25.1978 Y25.0938
G01 X25.1767 Y25.0869
G01 X25.1552 Y25.0809
G01 X25.1335 Y25.0760
G01 X25.1225 Y25.0740
G01 X25.1005 Y25.0707
G01 X25.0784 Y25.0686
G01 X25.0673 Y25.0679
G01 X25.0450 Y25.0673
G01 X25.0227 Y25.0679
G01 X25.0005 Y25.0695
G01 X24.9784 Y25.0722
G01 X24.9565 Y25.0760
G01 X24.9348 Y25.0809
G01 X24.9133 Y25.0869
G01 X24.8922 Y25.0938
G01 X24.8714 Y25.1019
G01 X24.8511 Y25.1109
G01 X24.8312 Y25.1209
G01 X24.8118 Y25.1319
G01 X24.7930 Y25.1438
G01 X24.7748 Y25.1566
G01 X24.7572 Y25.1703
G01 X24.7404 Y25.1848
G01 X24.7243 Y25.2002
G01 X24.7089 Y25.2163
G01 X24.6944 Y25.2332
G01 X24.6807 Y25.2507
G01 X24.6678 Y25.2689
G01 X24.6559 Y25.2877
G01 X24.6450 Y25.3071
G01 X24.6350 Y25.3270
G01 X24.6259 Y25.3473
G01 X24.6179 Y25.3681
G01 X24.6109 Y25.3893
G01 X24.6050 Y25.4107
G01 X24.6001 Y25.4324
G01 X24.5963 Y25.4544
G01 X24.5936 Y25.4765
G01 X24.5919 Y25.4987
G01 X24.5914 Y25.5209
G01 X24.5919 Y25.5432
G01 X24.5926 Y25.5543
G01 X24.5948 Y25.5765
G01 X24.5981 Y25.5985
G01 X24.6024 Y25.6203
G01 X24.6078 Y25.6419
G01 X24.6143 Y25.6632
G01 X24.6218 Y25.6842
G01 X24.6303 Y25.7048
G01 X24.6398 Y25.7249
G01 X24.6503 Y25.7445
G01 X24.6559 Y25.7541
G01 X24.6678 Y25.7729
G01 X24.6807 Y25.7911
G01 X24.6944 Y25.8087
G01 X24.7089 Y25.8256
G01 X24.7243 Y25.8417
G01 X24.7404 Y25.8570
G01 X24.7572 Y25.8716
G01 X24.7748 Y25.8853
G01 X24.7930 Y25.8981
G01 X24.8118 Y25.9100
G01 X24.8312 Y25.9210
G01 X24.8511 Y25.9310
G01 X24.8714 Y25.9400
G01 X24.8922 Y25.9480
G01 X24.9027 Y25.9516
G01 X24.9240 Y25.9581
G01 X24.9456 Y25.9635
G01 X24.9675 Y25.9679
G01 X24.9895 Y25.9711
G01 X25.0116 Y25.9733
G01 X25.0227 Y25.9740
G01 X25.0450 Y25.9745
G01 X25.0673 Y25.9740
G01 X25.0895 Y25.9723
G01 X25.1116 Y25.9696
G01 X25.1225 Y25.9679
G01 X25.1444 Y25.9635
G01 X25.1660 Y25.9581
G01 X25.1873 Y25.9516
G01 X25.1978 Y25.9480
G01 X25.2186 Y25.9400
G01 X25.2389 Y25.9310
G01 X25.2489 Y25.9261
G01 X25.2686 Y25.9156
G01 X25.2877 Y25.9042
G01 X25.3062 Y25.8918
G01 X25.3241 Y25.8785
G01 X25.3328 Y25.8716
G01 X25.3496 Y25.8570
G01 X25.3578 Y25.8495
G01 X25.3735 Y25.8337
G01 X25.3885 Y25.8172
G01 X25.4026 Y25.8000
G01 X25.4159 Y25.7821
G01 X25.4282 Y25.7636
G01 X25.4397 Y25.7445
G01 X25.4502 Y25.7249
G01 X25.4597 Y25.7048
G01 X25.4682 Y25.6842
G01 X25.4757 Y25.6632
G01 X25.4822 Y25.6419
G01 X25.4876 Y25.6203
G01 X25.4919 Y25.5985
G01 X25.4937 Y25.5875
G01 X25.4964 Y25.5654
G01 X25.4981 Y25.5432
G01 X25.4986 Y25.5209
G01 X25.6800 Y25.5209
G01 X25.6798 Y25.5053
G01 X25.6783 Y25.4742
G01 X25.6770 Y25.4587
G01 X25.6732 Y25.4278
G01 X25.6678 Y25.3970
G01 X25.6610 Y25.3666
G01 X25.6570 Y25.3516
G01 X25.6480 Y25.3217
G01 X25.6375 Y25.2924
G01 X25.6256 Y25.2636
G01 X25.6122 Y25.2354
G01 X25.5975 Y25.2079
G01 X25.5815 Y25.1812
G01 X25.5642 Y25.1553
G01 X25.5551 Y25.1426
G01 X25.5359 Y25.1181
G01 X25.5155 Y25.0945
G01 X25.4940 Y25.0719
G01 X25.4715 Y25.0504
G01 X25.4598 Y25.0401
G01 X25.4357 Y25.0203
G01 X25.4107 Y25.0017
G01 X25.3847 Y24.9844
G01 X25.3580 Y24.9684
G01 X25.3305 Y24.9537
G01 X25.3023 Y24.9404
G01 X25.2880 Y24.9342
G01 X25.2589 Y24.9230
G01 X25.2293 Y24.9132
G01 X25.1993 Y24.9049
G01 X25.1841 Y24.9013
G01 X25.1536 Y24.8952
G01 X25.1227 Y24.8907
G01 X25.0917 Y24.8876
G01 X25.0606 Y24.8861
G01 X25.0450 Y24.8859
G01 X25.0138 Y24.8867
G01 X24.9828 Y24.8890
G01 X24.9518 Y24.8928
G01 X24.9211 Y24.8981
G01 X24.8907 Y24.9049
G01 X24.8607 Y24.9132
G01 X24.8311 Y24.9230
G01 X24.8020 Y24.9342
G01 X24.7735 Y24.9469
G01 X24.7456 Y24.9609
G01 X24.7185 Y24.9762
G01 X24.6922 Y24.9929
G01 X24.6667 Y25.0109
G01 X24.6421 Y25.0300
G01 X24.6185 Y25.0504
G01 X24.5960 Y25.0719
G01 X24.5745 Y25.0945
G01 X24.5541 Y25.1181
G01 X24.5349 Y25.1426
G01 X24.5170 Y25.1681
G01 X24.5003 Y25.1945
G01 X24.4849 Y25.2216
G01 X24.4709 Y25.2494
G01 X24.4583 Y25.2779
G01 X24.4471 Y25.3070
G01 X24.4373 Y25.3366
G01 X24.4290 Y25.3666
G01 X24.4222 Y25.3970
G01 X24.4168 Y25.4278
G01 X24.4130 Y25.4587
G01 X24.4107 Y25.4898
G01 X24.4100 Y25.5209
G01 X24.4107 Y25.5521
G01 X24.4130 Y25.5832
G01 X24.4168 Y25.6141
G01 X24.4222 Y25.6448
G01 X24.4290 Y25.6752
G01 X24.4373 Y25.7053
G01 X24.4471 Y25.7349
G01 X24.4583 Y25.7640
G01 X24.4709 Y25.7924
G01 X24.4849 Y25.8203
G01 X24.5003 Y25.8474
G01 X24.5170 Y25.8737
G01 X24.5349 Y25.8992
G01 X24.5541 Y25.9238
G01 X24.5641 Y25.9357
G01 X24.5851 Y25.9588
G01 X24.6071 Y25.9809
G01 X24.6302 Y26.0018
G01 X24.6543 Y26.0216
G01 X24.6793 Y26.0401
G01 X24.7053 Y26.0574
G01 X24.7320 Y26.0735
G01 X24.7595 Y26.0882
G01 X24.7735 Y26.0950
G01 X24.8020 Y26.1076
G01 X24.8311 Y26.1189
G01 X24.8607 Y26.1286
G01 X24.8907 Y26.1369
G01 X24.9211 Y26.1438
G01 X24.9518 Y26.1491
G01 X24.9828 Y26.1529
G01 X25.0138 Y26.1552
G01 X25.0450 Y26.1560
G01 X25.0606 Y26.1558
G01 X25.0917 Y26.1543
G01 X25.1227 Y26.1512
G01 X25.1382 Y26.1491
G01 X25.1689 Y26.1438
G01 X25.1993 Y26.1369
G01 X25.2293 Y26.1286
G01 X25.2589 Y26.1189
G01 X25.2880 Y26.1076
G01 X25.3023 Y26.1015
G01 X25.3305 Y26.0882
G01 X25.3580 Y26.0735
G01 X25.3847 Y26.0574
G01 X25.3978 Y26.0490
G01 X25.4233 Y26.0310
G01 X25.4479 Y26.0118
G01 X25.4715 Y25.9915
G01 X25.4829 Y25.9809
G01 X25.5049 Y25.9588
G01 X25.5259 Y25.9357
G01 X25.5456 Y25.9116
G01 X25.5551 Y25.8992
G01 X25.5730 Y25.8737
G01 X25.5897 Y25.8474
G01 X25.6051 Y25.8203
G01 X25.6191 Y25.7924
G01 X25.6317 Y25.7640
G01 X25.6429 Y25.7349
G01 X25.6527 Y25.7053
G01 X25.6610 Y25.6752
G01 X25.6678 Y25.6448
G01 X25.6732 Y25.6141
G01 X25.6770 Y25.5832
G01 X25.6793 Y25.5521
G01 X25.6800 Y25.5209
G01 X25.8615 Y25.5209
G01 X25.8612 Y25.5009
G01 X25.8593 Y25.4609
G01 X25.8553 Y25.4210
G01 X25.8495 Y25.3813
G01 X25.8458 Y25.3616
G01 X25.8370 Y25.3225
G01 X25.8263 Y25.2839
G01 X25.8138 Y25.2459
G01 X25.7993 Y25.2085
G01 X25.7831 Y25.1718
G01 X25.7651 Y25.1360
G01 X25.7453 Y25.1012
G01 X25.7239 Y25.0673
G01 X25.7008 Y25.0346
G01 X25.6761 Y25.0030
G01 X25.6500 Y24.9726
G01 X25.6223 Y24.9436
G01 X25.6080 Y24.9296
G01 X25.5783 Y24.9027
G01 X25.5473 Y24.8773
G01 X25.5151 Y24.8534
G01 X25.4818 Y24.8311
G01 X25.4648 Y24.8206
G01 X25.4474 Y24.8105
G01 X25.4121 Y24.7916
G01 X25.3759 Y24.7745
G01 X25.3388 Y24.7592
G01 X25.3011 Y24.7457
G01 X25.2628 Y24.7340
G01 X25.2239 Y24.7243
G01 X25.1846 Y24.7165
G01 X25.1449 Y24.7106
G01 X25.1051 Y24.7067
G01 X25.0650 Y24.7047
G01 X25.0450 Y24.7045
G01 X25.0049 Y24.7054
G01 X24.9650 Y24.7084
G01 X24.9252 Y24.7133
G01 X24.8857 Y24.7201
G01 X24.8466 Y24.7289
G01 X24.8080 Y24.7396
G01 X24.7699 Y24.7522
G01 X24.7325 Y24.7666
G01 X24.6959 Y24.7828
G01 X24.6601 Y24.8009
G01 X24.6252 Y24.8206
G01 X24.5914 Y24.8421
G01 X24.5586 Y24.8651
G01 X24.5270 Y24.8898
G01 X24.4967 Y24.9160
G01 X24.4677 Y24.9436
G01 X24.4400 Y24.9726
G01 X24.4139 Y25.0030
G01 X24.3892 Y25.0346
G01 X24.3661 Y25.0673
G01 X24.3447 Y25.1012
G01 X24.3249 Y25.1360
G01 X24.3069 Y25.1718
G01 X24.2907 Y25.2085
G01 X24.2762 Y25.2459
G01 X24.2637 Y25.2839
G01 X24.2530 Y25.3225
G01 X24.2442 Y25.3616
G01 X24.2374 Y25.4011
G01 X24.2325 Y25.4409
G01 X24.2295 Y25.4809
G01 X24.2285 Y25.5209
G01 X24.2295 Y25.5610
G01 X24.2307 Y25.5810
G01 X24.2325 Y25.6010
G01 X24.2374 Y25.6407
G01 X24.2405 Y25.6605
G01 X24.2484 Y25.6998
G01 X24.2581 Y25.7387
G01 X24.2637 Y25.7579
G01 X24.2762 Y25.7960
G01 X24.2832 Y25.8148
G01 X24.2986 Y25.8518
G01 X24.3157 Y25.8880
G01 X24.3346 Y25.9234
G01 X24.3447 Y25.9407
G01 X24.3661 Y25.9745
G01 X24.3775 Y25.9911
G01 X24.4013 Y26.0233
G01 X24.4139 Y26.0389
G01 X24.4400 Y26.0692
G01 X24.4537 Y26.0839
G01 X24.4820 Y26.1123
G01 X24.5117 Y26.1392
G01 X24.5270 Y26.1521
G01 X24.5586 Y26.1767
G01 X24.5749 Y26.1885
G01 X24.6082 Y26.2107
G01 X24.6252 Y26.2213
G01 X24.6426 Y26.2313
G01 X24.6779 Y26.2502
G01 X24.6959 Y26.2590
G01 X24.7325 Y26.2753
G01 X24.7512 Y26.2827
G01 X24.7889 Y26.2962
G01 X24.8080 Y26.3023
G01 X24.8466 Y26.3129
G01 X24.8857 Y26.3217
G01 X24.9252 Y26.3286
G01 X24.9451 Y26.3313
G01 X24.9849 Y26.3352
G01 X25.0250 Y26.3372
G01 X25.0450 Y26.3374
G01 X25.0851 Y26.3364
G01 X25.1051 Y26.3352
G01 X25.1250 Y26.3335
G01 X25.1648 Y26.3286
G01 X25.2043 Y26.3217
G01 X25.2239 Y26.3176
G01 X25.2628 Y26.3078
G01 X25.2820 Y26.3023
G01 X25.3201 Y26.2897
G01 X25.3388 Y26.2827
G01 X25.3759 Y26.2674
G01 X25.3941 Y26.2590
G01 X25.4299 Y26.2410
G01 X25.4474 Y26.2313
G01 X25.4818 Y26.2107
G01 X25.5151 Y26.1885
G01 X25.5314 Y26.1767
G01 X25.5630 Y26.1521
G01 X25.5933 Y26.1259
G01 X25.6223 Y26.0983
G01 X25.6500 Y26.0692
G01 X25.6632 Y26.0542
G01 X25.6887 Y26.0233
G01 X25.7125 Y25.9911
G01 X25.7348 Y25.9577
G01 X25.7453 Y25.9407
G01 X25.7651 Y25.9058
G01 X25.7831 Y25.8700
G01 X25.7914 Y25.8518
G01 X25.8068 Y25.8148
G01 X25.8203 Y25.7770
G01 X25.8263 Y25.7579
G01 X25.8370 Y25.7193
G01 X25.8458 Y25.6802
G01 X25.8526 Y25.6407
G01 X25.8553 Y25.6209
G01 X25.8593 Y25.5810
G01 X25.8605 Y25.5610
G01 X25.8615 Y25.5209
G01 X25.9823 Y25.4750
G01 X25.9777 Y25.3831
G01 X25.9643 Y25.2921
G01 X25.9419 Y25.2029
G01 X25.9109 Y25.1163
G01 X25.8716 Y25.0332
G01 X25.8243 Y24.9543
G01 X25.7695 Y24.8804
G01 X25.7077 Y24.8123
G01 X25.6396 Y24.7505
G01 X25.5657 Y24.6957
G01 X25.4868 Y24.6484
G01 X25.4037 Y24.6091
G01 X25.3171 Y24.5781
G01 X25.2279 Y24.5557
G01 X25.1369 Y24.5423
G01 X25.0450 Y24.5377
G01 X24.9531 Y24.5423
G01 X24.8621 Y24.5557
G01 X24.7729 Y24.5781
G01 X24.6863 Y24.6091
G01 X24.6032 Y24.6484
G01 X24.5243 Y24.6957
G01 X24.4504 Y24.7505
G01 X24.3823 Y24.8123
G01 X24.3205 Y24.8804
G01 X24.2657 Y24.9543
G01 X24.2184 Y25.0332
G01 X24.1791 Y25.1163
G01 X24.1481 Y25.2029
G01 X24.1257 Y25.2921
G01 X24.1123 Y25.3831
G01 X24.1077 Y25.4750
G01 X24.1123 Y25.5669
G01 X24.1257 Y25.6579
G01 X24.1481 Y25.7471
G01 X24.1791 Y25.8337
G01 X24.2184 Y25.9168
G01 X24.2657 Y25.9957
G01 X24.3205 Y26.0696
G01 X24.3823 Y26.1377
G01 X24.4504 Y26.1995
G01 X24.5243 Y26.2543
G01 X24.6032 Y26.3016
G01 X24.6863 Y26.3409
G01 X24.7729 Y26.3719
G01 X24.8621 Y26.3943
G01 X24.9531 Y26.4077
G01 X25.0450 Y26.4123
G01 X25.1369 Y26.4077
G01 X25.2279 Y26.3943
G01 X25.3171 Y26.3719
G01 X25.4037 Y26.3409
G01 X25.4868 Y26.3016
G01 X25.5657 Y26.2543
G01 X25.6396 Y26.1995
G01 X25.7077 Y26.1377
G01 X25.7695 Y26.0696
G01 X25.8243 Y25.9957
G01 X25.8716 Y25.9168
G01 X25.9109 Y25.8337
G01 X25.9419 Y25.7471
G01 X25.9643 Y25.6579
G01 X25.9777 Y25.5669
G01 X25.9823 Y25.4750
G00 Z2.0000
G00 X27.7529 Y37.4997
G01 F60.00
G01 Z0.1366
G01 F120.00
G01 X27.6610 Y37.5042
G01 X27.5700 Y37.5177
G01 X27.4808 Y37.5401
G01 X27.3942 Y37.5711
G01 X27.3111 Y37.6104
G01 X27.2322 Y37.6577
G01 X27.1583 Y37.7125
G01 X27.0902 Y37.7742
G01 X27.0284 Y37.8424
G01 X26.9736 Y37.9163
G01 X26.9263 Y37.9952
G01 X26.8870 Y38.0783
G01 X26.8560 Y38.1649
G01 X26.8336 Y38.2541
G01 X26.8202 Y38.3451
G01 X26.8155 Y38.4398
G01 X26.8155 Y39.4342
G01 X26.8202 Y39.5289
G01 X26.8336 Y39.6198
G01 X26.8560 Y39.7091
G01 X26.8870 Y39.7957
G01 X26.9263 Y39.8788
G01 X26.9736 Y39.9577
G01 X27.0284 Y40.0316
G01 X27.0902 Y40.0997
G01 X27.1583 Y40.1615
G01 X27.2322 Y40.2163
G01 X27.3111 Y40.2636
G01 X27.3942 Y40.3029
G01 X27.4808 Y40.3339
G01 X27.5700 Y40.3562
G01 X27.6610 Y40.3697
G01 X27.7529 Y40.3743
G01 X27.8448 Y40.3697
G01 X27.9358 Y40.3562
G01 X28.0250 Y40.3339
G01 X28.1116 Y40.3029
G01 X28.1947 Y40.2636
G01 X28.2736 Y40.2163
G01 X28.3475 Y40.1615
G01 X28.4156 Y40.0997
G01 X28.4774 Y40.0316
G01 X28.5322 Y39.9577
G01 X28.5795 Y39.8788
G01 X28.6188 Y39.7957
G01 X28.6498 Y39.7091
G01 X28.6722 Y39.6198
G01 X28.6856 Y39.5289
G01 X28.6903 Y39.4342
G01 X28.6903 Y38.4398
G01 X28.6856 Y38.3451
G01 X28.6722 Y38.2541
G01 X28.6498 Y38.1649
G01 X28.6188 Y38.0783
G01 X28.5795 Y37.9952
G01 X28.5322 Y37.9163
G01 X28.4774 Y37.8424
G01 X28.4156 Y37.7742
G01 X28.3475 Y37.7125
G01 X28.2736 Y37.6577
G01 X28.1947 Y37.6104
G01 X28.1116 Y37.5711
G01 X28.0250 Y37.5401
G01 X27.9358 Y37.5177
G01 X27.8448 Y37.5042
G01 X27.7529 Y37.4997
G00 Z2.0000
G00 X28.3489 Y37.7138
G01 F60.00
G01 Z0.1366
G01 F120.00
G01 X28.3347 Y37.7068
G01 X28.3044 Y37.6929
G01 X28.2737 Y37.6798
G01 X28.2426 Y37.6674
G01 X28.2113 Y37.6557
G01 X28.1798 Y37.6449
G01 X28.1479 Y37.6348
G01 X28.1158 Y37.6255
G01 X28.0835 Y37.6170
G01 X28.0511 Y37.6093
G01 X28.0184 Y37.6023
G01 X27.9855 Y37.5962
G01 X27.9526 Y37.5909
G01 X27.9195 Y37.5864
G01 X27.8863 Y37.5827
G01 X27.8530 Y37.5799
G01 X27.8197 Y37.5778
G01 X27.7863 Y37.5766
G01 X27.7529 Y37.5762
G01 X27.7195 Y37.5766
G01 X27.6861 Y37.5778
G01 X27.6528 Y37.5799
G01 X27.6195 Y37.5827
G01 X27.5863 Y37.5864
G01 X27.5532 Y37.5909
G01 X27.5203 Y37.5962
G01 X27.4874 Y37.6023
G01 X27.4547 Y37.6093
G01 X27.4223 Y37.6170
G01 X27.3900 Y37.6255
G01 X27.3579 Y37.6348
G01 X27.3260 Y37.6449
G01 X27.2945 Y37.6557
G01 X27.2632 Y37.6674
G01 X27.2321 Y37.6798
G01 X27.2014 Y37.6929
G01 X27.1711 Y37.7068
G01 X27.1569 Y37.7138
G01 X26.8537 Y38.1740
G01 X26.8791 Y38.1450
G01 X26.8988 Y38.1238
G01 X26.9190 Y38.1031
G01 X26.9397 Y38.0828
G01 X26.9609 Y38.0631
G01 X26.9826 Y38.0440
G01 X27.0047 Y38.0253
G01 X27.0273 Y38.0072
G01 X27.0504 Y37.9897
G01 X27.0738 Y37.9728
G01 X27.0977 Y37.9564
G01 X27.1219 Y37.9406
G01 X27.1466 Y37.9254
G01 X27.1716 Y37.9108
G01 X27.1970 Y37.8969
G01 X27.2226 Y37.8836
G01 X27.2487 Y37.8709
G01 X27.2750 Y37.8588
G01 X27.3016 Y37.8474
G01 X27.3285 Y37.8367
G01 X27.3556 Y37.8266
G01 X27.3830 Y37.8172
G01 X27.4105 Y37.8084
G01 X27.4383 Y37.8004
G01 X27.4663 Y37.7930
G01 X27.4945 Y37.7863
G01 X27.5228 Y37.7803
G01 X27.5513 Y37.7750
G01 X27.5799 Y37.7704
G01 X27.6085 Y37.7665
G01 X27.6373 Y37.7633
G01 X27.6661 Y37.7608
G01 X27.6950 Y37.7591
G01 X27.7240 Y37.7580
G01 X27.7529 Y37.7576
G01 X27.7818 Y37.7580
G01 X27.8108 Y37.7591
G01 X27.8397 Y37.7608
G01 X27.8685 Y37.7633
G01 X27.8973 Y37.7665
G01 X27.9259 Y37.7704
G01 X27.9545 Y37.7750
G01 X27.9830 Y37.7803
G01 X28.0113 Y37.7863
G01 X28.0395 Y37.7930
G01 X28.0675 Y37.8004
G01 X28.0953 Y37.8084
G01 X28.1228 Y37.8172
G01 X28.1502 Y37.8266
G01 X28.1773 Y37.8367
G01 X28.2042 Y37.8474
G01 X28.2308 Y37.8588
G01 X28.2571 Y37.8709
G01 X28.2832 Y37.8836
G01 X28.3088 Y37.8969
G01 X28.3342 Y37.9108
G01 X28.3592 Y37.9254
G01 X28.3839 Y37.9406
G01 X28.4081 Y37.9564
G01 X28.4320 Y37.9728
G01 X28.4554 Y37.9897
G01 X28.4785 Y38.0072
G01 X28.5011 Y38.0253
G01 X28.5232 Y38.0440
G01 X28.5449 Y38.0631
G01 X28.5661 Y38.0828
G01 X28.5868 Y38.1031
G01 X28.6070 Y38.1238
G01 X28.6267 Y38.1450
G01 X28.6521 Y38.1740
G01 X28.6903 Y38.5949
G01 X28.6840 Y38.5778
G01 X28.6749 Y38.5551
G01 X28.6652 Y38.5326
G01 X28.6550 Y38.5103
G01 X28.6443 Y38.4883
G01 X28.6330 Y38.4666
G01 X28.6212 Y38.4451
G01 X28.6088 Y38.4240
G01 X28.5960 Y38.4031
G01 X28.5826 Y38.3826
G01 X28.5688 Y38.3624
G01 X28.5544 Y38.3425
G01 X28.5396 Y38.3230
G01 X28.5243 Y38.3039
G01 X28.5085 Y38.2852
G01 X28.4923 Y38.2668
G01 X28.4756 Y38.2489
G01 X28.4585 Y38.2314
G01 X28.4410 Y38.2142
G01 X28.4231 Y38.1976
G01 X28.4047 Y38.1814
G01 X28.3860 Y38.1656
G01 X28.3669 Y38.1503
G01 X28.3474 Y38.1355
G01 X28.3275 Y38.1211
G01 X28.3073 Y38.1072
G01 X28.2868 Y38.0939
G01 X28.2659 Y38.0810
G01 X28.2448 Y38.0687
G01 X28.2233 Y38.0569
G01 X28.2016 Y38.0456
G01 X28.1796 Y38.0349
G01 X28.1573 Y38.0247
G01 X28.1348 Y38.0150
G01 X28.1120 Y38.0059
G01 X28.0891 Y37.9974
G01 X28.0659 Y37.9894
G01 X28.0426 Y37.9820
G01 X28.0191 Y37.9752
G01 X27.9954 Y37.9690
G01 X27.9715 Y37.9633
G01 X27.9476 Y37.9582
G01 X27.9235 Y37.9538
G01 X27.8993 Y37.9499
G01 X27.8751 Y37.9466
G01 X27.8507 Y37.9439
G01 X27.8263 Y37.9418
G01 X27.8019 Y37.9403
G01 X27.7774 Y37.9394
G01 X27.7529 Y37.9391
G01 X27.7284 Y37.9394
G01 X27.7039 Y37.9403
G01 X27.6795 Y37.9418
G01 X27.6551 Y37.9439
G01 X27.6307 Y37.9466
G01 X27.6065 Y37.9499
G01 X27.5823 Y37.9538
G01 X27.5582 Y37.9582
G01 X27.5343 Y37.9633
G01 X27.5104 Y37.9690
G01 X27.4867 Y37.9752
G01 X27.4632 Y37.9820
G01 X27.4399 Y37.9894
G01 X27.4167 Y37.9974
G01 X27.3938 Y38.0059
G01 X27.3710 Y38.0150
G01 X27.3485 Y38.0247
G01 X27.3262 Y38.0349
G01 X27.3042 Y38.0456
G01 X27.2825 Y38.0569
G01 X27.2610 Y38.0687
G01 X27.2399 Y38.0810
G01 X27.2190 Y38.0939
G01 X27.1985 Y38.1072
G01 X27.1783 Y38.1211
G01 X27.1584 Y38.1355
G01 X27.1389 Y38.1503
G01 X27.1198 Y38.1656
G01 X27.1011 Y38.1814
G01 X27.0827 Y38.1976
G01 X27.0648 Y38.2142
G01 X27.0473 Y38.2314
G01 X27.0302 Y38.2489
G01 X27.0135 Y38.2668
G01 X26.9973 Y38.2852
G01 X26.9815 Y38.3039
G01 X26.9662 Y38.3230
G01 X26.9514 Y38.3425
G01 X26.9370 Y38.3624
G01 X26.9232 Y38.3826
G01 X26.9098 Y38.4031
G01 X26.8970 Y38.4240
G01 X26.8846 Y38.4451
G01 X26.8728 Y38.4666
G01 X26.8615 Y38.4883
G01 X26.8508 Y38.5103
G01 X26.8406 Y38.5326
G01 X26.8309 Y38.5551
G01 X26.8218 Y38.5778
G01 X26.8155 Y38.5949
G00 Z2.0000
G00 X26.8155 Y39.2791
G01 F60.00
G01 Z0.1366
G01 F120.00
G01 X26.8218 Y39.2961
G01 X26.8309 Y39.3189
G01 X26.8406 Y39.3414
G01 X26.8508 Y39.3637
G01 X26.8615 Y39.3857
G01 X26.8728 Y39.4074
G01 X26.8846 Y39.4289
G01 X26.8970 Y39.4500
G01 X26.9098 Y39.4709
G01 X26.9232 Y39.4914
G01 X26.9370 Y39.5116
G01 X26.9514 Y39.5315
G01 X26.9662 Y39.5509
G01 X26.9815 Y39.5701
G01 X26.9973 Y39.5888
G01 X27.0135 Y39.6072
G01 X27.0302 Y39.6251
G01 X27.0473 Y39.6426
G01 X27.0648 Y39.6597
G01 X27.0827 Y39.6764
G01 X27.1011 Y39.6926
G01 X27.1198 Y39.7084
G01 X27.1389 Y39.7237
G01 X27.1584 Y39.7385
G01 X27.1783 Y39.7529
G01 X27.1985 Y39.7667
G01 X27.2190 Y39.7801
G01 X27.2399 Y39.7929
G01 X27.2610 Y39.8053
G01 X27.2825 Y39.8171
G01 X27.3042 Y39.8284
G01 X27.3262 Y39.8391
G01 X27.3485 Y39.8493
G01 X27.3710 Y39.8589
G01 X27.3938 Y39.8680
G01 X27.4167 Y39.8766
G01 X27.4399 Y39.8845
G01 X27.4632 Y39.8919
G01 X27.4867 Y39.8988
G01 X27.5104 Y39.9050
G01 X27.5343 Y39.9107
G01 X27.5582 Y39.9157
G01 X27.5823 Y39.9202
G01 X27.6065 Y39.9241
G01 X27.6307 Y39.9274
G01 X27.6551 Y39.9301
G01 X27.6795 Y39.9322
G01 X27.7039 Y39.9337
G01 X27.7284 Y39.9346
G01 X27.7529 Y39.9349
G01 X27.7774 Y39.9346
G01 X27.8019 Y39.9337
G01 X27.8263 Y39.9322
G01 X27.8507 Y39.9301
G01 X27.8751 Y39.9274
G01 X27.8993 Y39.9241
G01 X27.9235 Y39.9202
G01 X27.9476 Y39.9157
G01 X27.9715 Y39.9107
G01 X27.9954 Y39.9050
G01 X28.0191 Y39.8988
G01 X28.0426 Y39.8919
G01 X28.0659 Y39.8845
G01 X28.0891 Y39.8766
G01 X28.1120 Y39.8680
G01 X28.1348 Y39.8589
G01 X28.1573 Y39.8493
G01 X28.1796 Y39.8391
G01 X28.2016 Y39.8284
G01 X28.2233 Y39.8171
G01 X28.2448 Y39.8053
G01 X28.2659 Y39.7929
G01 X28.2868 Y39.7801
G01 X28.3073 Y39.7667
G01 X28.3275 Y39.7529
G01 X28.3474 Y39.7385
G01 X28.3669 Y39.7237
G01 X28.3860 Y39.7084
G01 X28.4047 Y39.6926
G01 X28.4231 Y39.6764
G01 X28.4410 Y39.6597
G01 X28.4585 Y39.6426
G01 X28.4756 Y39.6251
G01 X28.4923 Y39.6072
G01 X28.5085 Y39.5888
G01 X28.5243 Y39.5701
G01 X28.5396 Y39.5509
G01 X28.5544 Y39.5315
G01 X28.5688 Y39.5116
G01 X28.5826 Y39.4914
G01 X28.5960 Y39.4709
G01 X28.6088 Y39.4500
G01 X28.6212 Y39.4289
G01 X28.6330 Y39.4074
G01 X28.6443 Y39.3857
G01 X28.6550 Y39.3637
G01 X28.6652 Y39.3414
G01 X28.6749 Y39.3189
G01 X28.6840 Y39.2961
G01 X28.6903 Y39.2791
G01 X28.5694 Y38.9370
G01 X28.5684 Y38.8969
G01 X28.5654 Y38.8570
G01 X28.5632 Y38.8370
G01 X28.5574 Y38.7974
G01 X28.5495 Y38.7581
G01 X28.5398 Y38.7192
G01 X28.5342 Y38.7000
G01 X28.5217 Y38.6619
G01 X28.5072 Y38.6245
G01 X28.4910 Y38.5879
G01 X28.4822 Y38.5699
G01 X28.4730 Y38.5521
G01 X28.4532 Y38.5172
G01 X28.4318 Y38.4834
G01 X28.4204 Y38.4669
G01 X28.3966 Y38.4347
G01 X28.3840 Y38.4190
G01 X28.3711 Y38.4037
G01 X28.3442 Y38.3740
G01 X28.3159 Y38.3457
G01 X28.3012 Y38.3320
G01 X28.2862 Y38.3187
G01 X28.2552 Y38.2933
G01 X28.2230 Y38.2694
G01 X28.2065 Y38.2581
G01 X28.1897 Y38.2472
G01 X28.1553 Y38.2266
G01 X28.1378 Y38.2169
G01 X28.1020 Y38.1989
G01 X28.0838 Y38.1906
G01 X28.0467 Y38.1752
G01 X28.0280 Y38.1682
G01 X27.9899 Y38.1557
G01 X27.9707 Y38.1501
G01 X27.9318 Y38.1403
G01 X27.9122 Y38.1362
G01 X27.8727 Y38.1293
G01 X27.8528 Y38.1267
G01 X27.8130 Y38.1227
G01 X27.7729 Y38.1208
G01 X27.7329 Y38.1208
G01 X27.6928 Y38.1227
G01 X27.6729 Y38.1244
G01 X27.6331 Y38.1293
G01 X27.6133 Y38.1325
G01 X27.5936 Y38.1362
G01 X27.5545 Y38.1450
G01 X27.5351 Y38.1501
G01 X27.4968 Y38.1617
G01 X27.4591 Y38.1752
G01 X27.4404 Y38.1827
G01 X27.4220 Y38.1906
G01 X27.3858 Y38.2077
G01 X27.3505 Y38.2266
G01 X27.3331 Y38.2367
G01 X27.3161 Y38.2472
G01 X27.2828 Y38.2694
G01 X27.2506 Y38.2933
G01 X27.2349 Y38.3058
G01 X27.2046 Y38.3320
G01 X27.1899 Y38.3457
G01 X27.1616 Y38.3740
G01 X27.1479 Y38.3887
G01 X27.1347 Y38.4037
G01 X27.1092 Y38.4347
G01 X27.0971 Y38.4506
G01 X27.0740 Y38.4834
G01 X27.0631 Y38.5002
G01 X27.0425 Y38.5345
G01 X27.0328 Y38.5521
G01 X27.0148 Y38.5879
G01 X26.9986 Y38.6245
G01 X26.9911 Y38.6431
G01 X26.9841 Y38.6619
G01 X26.9716 Y38.7000
G01 X26.9609 Y38.7386
G01 X26.9521 Y38.7777
G01 X26.9453 Y38.8172
G01 X26.9426 Y38.8370
G01 X26.9386 Y38.8769
G01 X26.9374 Y38.8969
G01 X26.9367 Y38.9170
G01 X26.9367 Y38.9570
G01 X26.9374 Y38.9771
G01 X26.9404 Y39.0170
G01 X26.9453 Y39.0568
G01 X26.9484 Y39.0766
G01 X26.9563 Y39.1159
G01 X26.9609 Y39.1354
G01 X26.9660 Y39.1548
G01 X26.9776 Y39.1931
G01 X26.9911 Y39.2308
G01 X27.0065 Y39.2679
G01 X27.0148 Y39.2861
G01 X27.0236 Y39.3041
G01 X27.0425 Y39.3394
G01 X27.0631 Y39.3738
G01 X27.0854 Y39.4071
G01 X27.1092 Y39.4393
G01 X27.1218 Y39.4550
G01 X27.1347 Y39.4703
G01 X27.1616 Y39.5000
G01 X27.1899 Y39.5283
G01 X27.2046 Y39.5420
G01 X27.2349 Y39.5681
G01 X27.2665 Y39.5928
G01 X27.2993 Y39.6159
G01 X27.3161 Y39.6268
G01 X27.3505 Y39.6474
G01 X27.3680 Y39.6571
G01 X27.4038 Y39.6751
G01 X27.4404 Y39.6913
G01 X27.4778 Y39.7057
G01 X27.5159 Y39.7183
G01 X27.5351 Y39.7239
G01 X27.5740 Y39.7336
G01 X27.5936 Y39.7378
G01 X27.6331 Y39.7446
G01 X27.6729 Y39.7495
G01 X27.6928 Y39.7513
G01 X27.7329 Y39.7532
G01 X27.7729 Y39.7532
G01 X27.7930 Y39.7525
G01 X27.8130 Y39.7513
G01 X27.8528 Y39.7473
G01 X27.8925 Y39.7414
G01 X27.9318 Y39.7336
G01 X27.9513 Y39.7290
G01 X27.9899 Y39.7183
G01 X28.0280 Y39.7057
G01 X28.0467 Y39.6988
G01 X28.0654 Y39.6913
G01 X28.1020 Y39.6751
G01 X28.1378 Y39.6571
G01 X28.1727 Y39.6373
G01 X28.1897 Y39.6268
G01 X28.2230 Y39.6045
G01 X28.2552 Y39.5807
G01 X28.2709 Y39.5681
G01 X28.3012 Y39.5420
G01 X28.3302 Y39.5143
G01 X28.3579 Y39.4853
G01 X28.3840 Y39.4550
G01 X28.3966 Y39.4393
G01 X28.4087 Y39.4234
G01 X28.4318 Y39.3906
G01 X28.4532 Y39.3567
G01 X28.4730 Y39.3219
G01 X28.4910 Y39.2861
G01 X28.4993 Y39.2679
G01 X28.5147 Y39.2308
G01 X28.5282 Y39.1931
G01 X28.5398 Y39.1548
G01 X28.5495 Y39.1159
G01 X28.5574 Y39.0766
G01 X28.5632 Y39.0369
G01 X28.5672 Y38.9971
G01 X28.5684 Y38.9771
G01 X28.5694 Y38.9370
G01 X28.3879 Y38.9370
G01 X28.3872 Y38.9058
G01 X28.3849 Y38.8747
G01 X28.3811 Y38.8438
G01 X28.3786 Y38.8284
G01 X28.3757 Y38.8131
G01 X28.3689 Y38.7827
G01 X28.3649 Y38.7676
G01 X28.3559 Y38.7378
G01 X28.3508 Y38.7231
G01 X28.3396 Y38.6940
G01 X28.3270 Y38.6655
G01 X28.3130 Y38.6376
G01 X28.3054 Y38.6240
G01 X28.2894 Y38.5972
G01 X28.2721 Y38.5713
G01 X28.2630 Y38.5587
G01 X28.2535 Y38.5463
G01 X28.2338 Y38.5222
G01 X28.2234 Y38.5105
G01 X28.2019 Y38.4879
G01 X28.1908 Y38.4771
G01 X28.1677 Y38.4561
G01 X28.1436 Y38.4364
G01 X28.1186 Y38.4178
G01 X28.1057 Y38.4090
G01 X28.0794 Y38.3923
G01 X28.0523 Y38.3769
G01 X28.0244 Y38.3629
G01 X27.9959 Y38.3503
G01 X27.9814 Y38.3445
G01 X27.9521 Y38.3340
G01 X27.9372 Y38.3293
G01 X27.9072 Y38.3210
G01 X27.8920 Y38.3174
G01 X27.8615 Y38.3113
G01 X27.8461 Y38.3088
G01 X27.8306 Y38.3067
G01 X27.7996 Y38.3037
G01 X27.7841 Y38.3027
G01 X27.7529 Y38.3020
G01 X27.7217 Y38.3027
G01 X27.7062 Y38.3037
G01 X27.6752 Y38.3067
G01 X27.6597 Y38.3088
G01 X27.6443 Y38.3113
G01 X27.6138 Y38.3174
G01 X27.5986 Y38.3210
G01 X27.5686 Y38.3293
G01 X27.5390 Y38.3391
G01 X27.5244 Y38.3445
G01 X27.5099 Y38.3503
G01 X27.4814 Y38.3629
G01 X27.4674 Y38.3698
G01 X27.4399 Y38.3844
G01 X27.4264 Y38.3923
G01 X27.4001 Y38.4090
G01 X27.3872 Y38.4178
G01 X27.3622 Y38.4364
G01 X27.3381 Y38.4561
G01 X27.3264 Y38.4665
G01 X27.3150 Y38.4771
G01 X27.2930 Y38.4991
G01 X27.2720 Y38.5222
G01 X27.2620 Y38.5341
G01 X27.2428 Y38.5587
G01 X27.2337 Y38.5713
G01 X27.2164 Y38.5972
G01 X27.2082 Y38.6105
G01 X27.1928 Y38.6376
G01 X27.1788 Y38.6655
G01 X27.1723 Y38.6796
G01 X27.1604 Y38.7084
G01 X27.1550 Y38.7231
G01 X27.1452 Y38.7526
G01 X27.1409 Y38.7676
G01 X27.1333 Y38.7979
G01 X27.1301 Y38.8131
G01 X27.1272 Y38.8284
G01 X27.1226 Y38.8593
G01 X27.1196 Y38.8903
G01 X27.1186 Y38.9058
G01 X27.1179 Y38.9370
G01 X27.1181 Y38.9526
G01 X27.1196 Y38.9837
G01 X27.1209 Y38.9992
G01 X27.1226 Y39.0147
G01 X27.1272 Y39.0456
G01 X27.1301 Y39.0609
G01 X27.1369 Y39.0913
G01 X27.1409 Y39.1064
G01 X27.1499 Y39.1362
G01 X27.1604 Y39.1655
G01 X27.1662 Y39.1800
G01 X27.1788 Y39.2085
G01 X27.1857 Y39.2225
G01 X27.2004 Y39.2500
G01 X27.2164 Y39.2767
G01 X27.2249 Y39.2898
G01 X27.2428 Y39.3153
G01 X27.2523 Y39.3277
G01 X27.2720 Y39.3518
G01 X27.2930 Y39.3749
G01 X27.3150 Y39.3969
G01 X27.3264 Y39.4075
G01 X27.3500 Y39.4279
G01 X27.3746 Y39.4471
G01 X27.4001 Y39.4650
G01 X27.4264 Y39.4817
G01 X27.4399 Y39.4895
G01 X27.4535 Y39.4970
G01 X27.4814 Y39.5111
G01 X27.5099 Y39.5237
G01 X27.5390 Y39.5349
G01 X27.5686 Y39.5447
G01 X27.5835 Y39.5490
G01 X27.6138 Y39.5566
G01 X27.6443 Y39.5627
G01 X27.6752 Y39.5673
G01 X27.7062 Y39.5703
G01 X27.7373 Y39.5718
G01 X27.7685 Y39.5718
G01 X27.7841 Y39.5713
G01 X27.8151 Y39.5690
G01 X27.8461 Y39.5652
G01 X27.8615 Y39.5627
G01 X27.8920 Y39.5566
G01 X27.9072 Y39.5530
G01 X27.9372 Y39.5447
G01 X27.9521 Y39.5400
G01 X27.9814 Y39.5295
G01 X28.0102 Y39.5175
G01 X28.0384 Y39.5042
G01 X28.0659 Y39.4895
G01 X28.0794 Y39.4817
G01 X28.1057 Y39.4650
G01 X28.1312 Y39.4471
G01 X28.1436 Y39.4376
G01 X28.1677 Y39.4178
G01 X28.1908 Y39.3969
G01 X28.2019 Y39.3860
G01 X28.2234 Y39.3635
G01 X28.2438 Y39.3399
G01 X28.2535 Y39.3277
G01 X28.2630 Y39.3153
G01 X28.2809 Y39.2898
G01 X28.2976 Y39.2635
G01 X28.3130 Y39.2363
G01 X28.3270 Y39.2085
G01 X28.3396 Y39.1800
G01 X28.3508 Y39.1509
G01 X28.3606 Y39.1213
G01 X28.3689 Y39.0913
G01 X28.3757 Y39.0609
G01 X28.3811 Y39.0302
G01 X28.3849 Y38.9992
G01 X28.3872 Y38.9681
G01 X28.3879 Y38.9370
G01 X28.2065 Y38.9370
G01 X28.2060 Y38.9147
G01 X28.2053 Y38.9036
G01 X28.2031 Y38.8815
G01 X28.1998 Y38.8594
G01 X28.1978 Y38.8485
G01 X28.1929 Y38.8268
G01 X28.1870 Y38.8053
G01 X28.1836 Y38.7947
G01 X28.1761 Y38.7737
G01 X28.1720 Y38.7634
G01 X28.1629 Y38.7431
G01 X28.1581 Y38.7330
G01 X28.1529 Y38.7232
G01 X28.1420 Y38.7038
G01 X28.1301 Y38.6850
G01 X28.1238 Y38.6758
G01 X28.1172 Y38.6668
G01 X28.1035 Y38.6492
G01 X28.0964 Y38.6407
G01 X28.0814 Y38.6242
G01 X28.0657 Y38.6085
G01 X28.0492 Y38.5935
G01 X28.0407 Y38.5864
G01 X28.0231 Y38.5727
G01 X28.0049 Y38.5598
G01 X27.9956 Y38.5538
G01 X27.9765 Y38.5423
G01 X27.9667 Y38.5370
G01 X27.9468 Y38.5269
G01 X27.9265 Y38.5179
G01 X27.9057 Y38.5099
G01 X27.8952 Y38.5063
G01 X27.8846 Y38.5029
G01 X27.8631 Y38.4970
G01 X27.8414 Y38.4921
G01 X27.8195 Y38.4883
G01 X27.8084 Y38.4868
G01 X27.7863 Y38.4846
G01 X27.7752 Y38.4839
G01 X27.7529 Y38.4834
G01 X27.7306 Y38.4839
G01 X27.7195 Y38.4846
G01 X27.6974 Y38.4868
G01 X27.6863 Y38.4883
G01 X27.6644 Y38.4921
G01 X27.6535 Y38.4944
G01 X27.6319 Y38.4998
G01 X27.6212 Y38.5029
G01 X27.6001 Y38.5099
G01 X27.5897 Y38.5138
G01 X27.5793 Y38.5179
G01 X27.5590 Y38.5269
G01 X27.5490 Y38.5318
G01 X27.5293 Y38.5423
G01 X27.5197 Y38.5479
G01 X27.5009 Y38.5598
G01 X27.4827 Y38.5727
G01 X27.4651 Y38.5864
G01 X27.4483 Y38.6009
G01 X27.4401 Y38.6085
G01 X27.4244 Y38.6242
G01 X27.4168 Y38.6324
G01 X27.4023 Y38.6492
G01 X27.3953 Y38.6579
G01 X27.3820 Y38.6758
G01 X27.3757 Y38.6850
G01 X27.3638 Y38.7038
G01 X27.3582 Y38.7134
G01 X27.3477 Y38.7330
G01 X27.3429 Y38.7431
G01 X27.3338 Y38.7634
G01 X27.3258 Y38.7842
G01 X27.3222 Y38.7947
G01 X27.3157 Y38.8160
G01 X27.3129 Y38.8268
G01 X27.3080 Y38.8485
G01 X27.3042 Y38.8704
G01 X27.3027 Y38.8815
G01 X27.3005 Y38.9036
G01 X27.2998 Y38.9147
G01 X27.2993 Y38.9370
G01 X27.2998 Y38.9592
G01 X27.3005 Y38.9704
G01 X27.3027 Y38.9925
G01 X27.3042 Y39.0035
G01 X27.3080 Y39.0255
G01 X27.3103 Y39.0364
G01 X27.3157 Y39.0580
G01 X27.3222 Y39.0793
G01 X27.3258 Y39.0898
G01 X27.3338 Y39.1106
G01 X27.3382 Y39.1208
G01 X27.3477 Y39.1409
G01 X27.3529 Y39.1508
G01 X27.3582 Y39.1606
G01 X27.3697 Y39.1797
G01 X27.3820 Y39.1982
G01 X27.3953 Y39.2161
G01 X27.4023 Y39.2248
G01 X27.4168 Y39.2416
G01 X27.4322 Y39.2577
G01 X27.4483 Y39.2731
G01 X27.4651 Y39.2876
G01 X27.4827 Y39.3013
G01 X27.5009 Y39.3141
G01 X27.5102 Y39.3202
G01 X27.5293 Y39.3317
G01 X27.5490 Y39.3422
G01 X27.5590 Y39.3470
G01 X27.5793 Y39.3561
G01 X27.6001 Y39.3641
G01 X27.6212 Y39.3711
G01 X27.6427 Y39.3770
G01 X27.6535 Y39.3796
G01 X27.6754 Y39.3839
G01 X27.6974 Y39.3872
G01 X27.7195 Y39.3894
G01 X27.7306 Y39.3900
G01 X27.7529 Y39.3906
G01 X27.7752 Y39.3900
G01 X27.7863 Y39.3894
G01 X27.8084 Y39.3872
G01 X27.8195 Y39.3857
G01 X27.8414 Y39.3819
G01 X27.8631 Y39.3770
G01 X27.8846 Y39.3711
G01 X27.9057 Y39.3641
G01 X27.9265 Y39.3561
G01 X27.9468 Y39.3470
G01 X27.9568 Y39.3422
G01 X27.9765 Y39.3317
G01 X27.9956 Y39.3202
G01 X28.0141 Y39.3078
G01 X28.0231 Y39.3013
G01 X28.0407 Y39.2876
G01 X28.0575 Y39.2731
G01 X28.0736 Y39.2577
G01 X28.0890 Y39.2416
G01 X28.1035 Y39.2248
G01 X28.1172 Y39.2072
G01 X28.1238 Y39.1982
G01 X28.1301 Y39.1890
G01 X28.1420 Y39.1702
G01 X28.1529 Y39.1508
G01 X28.1629 Y39.1309
G01 X28.1720 Y39.1106
G01 X28.1800 Y39.0898
G01 X28.1870 Y39.0687
G01 X28.1929 Y39.0472
G01 X28.1978 Y39.0255
G01 X28.2016 Y39.0035
G01 X28.2043 Y38.9815
G01 X28.2060 Y38.9592
G01 X28.2065 Y38.9370
G01 X28.0251 Y38.9370
G01 X28.0243 Y38.9170
G01 X28.0221 Y38.8971
G01 X28.0184 Y38.8774
G01 X28.0133 Y38.8580
G01 X28.0068 Y38.8390
G01 X27.9989 Y38.8206
G01 X27.9897 Y38.8028
G01 X27.9792 Y38.7858
G01 X27.9675 Y38.7695
G01 X27.9546 Y38.7542
G01 X27.9406 Y38.7399
G01 X27.9256 Y38.7266
G01 X27.9096 Y38.7145
G01 X27.8928 Y38.7036
G01 X27.8753 Y38.6939
G01 X27.8571 Y38.6855
G01 X27.8383 Y38.6786
G01 X27.8190 Y38.6730
G01 X27.7994 Y38.6688
G01 X27.7862 Y38.6669
G01 X27.7729 Y38.6656
G01 X27.7596 Y38.6649
G01 X27.7462 Y38.6649
G01 X27.7262 Y38.6661
G01 X27.7130 Y38.6678
G01 X27.6998 Y38.6701
G01 X27.6803 Y38.6747
G01 X27.6612 Y38.6807
G01 X27.6426 Y38.6882
G01 X27.6246 Y38.6970
G01 X27.6130 Y38.7036
G01 X27.6017 Y38.7107
G01 X27.5855 Y38.7224
G01 X27.5751 Y38.7309
G01 X27.5652 Y38.7399
G01 X27.5512 Y38.7542
G01 X27.5383 Y38.7695
G01 X27.5266 Y38.7858
G01 X27.5195 Y38.7971
G01 X27.5129 Y38.8087
G01 X27.5069 Y38.8206
G01 X27.5015 Y38.8328
G01 X27.4945 Y38.8516
G01 X27.4889 Y38.8709
G01 X27.4847 Y38.8905
G01 X27.4828 Y38.9037
G01 X27.4815 Y38.9170
G01 X27.4807 Y38.9370
G01 X27.4815 Y38.9570
G01 X27.4828 Y38.9703
G01 X27.4847 Y38.9835
G01 X27.4874 Y38.9966
G01 X27.4906 Y39.0096
G01 X27.4966 Y39.0287
G01 X27.5041 Y39.0473
G01 X27.5098 Y39.0594
G01 X27.5161 Y39.0711
G01 X27.5266 Y39.0882
G01 X27.5383 Y39.1044
G01 X27.5512 Y39.1198
G01 X27.5652 Y39.1341
G01 X27.5802 Y39.1474
G01 X27.5962 Y39.1595
G01 X27.6130 Y39.1704
G01 X27.6246 Y39.1770
G01 X27.6365 Y39.1830
G01 X27.6550 Y39.1909
G01 X27.6739 Y39.1974
G01 X27.6933 Y39.2025
G01 X27.7130 Y39.2062
G01 X27.7329 Y39.2084
G01 X27.7462 Y39.2091
G01 X27.7596 Y39.2091
G01 X27.7729 Y39.2084
G01 X27.7862 Y39.2071
G01 X27.8060 Y39.2039
G01 X27.8255 Y39.1993
G01 X27.8446 Y39.1932
G01 X27.8632 Y39.1858
G01 X27.8812 Y39.1770
G01 X27.8985 Y39.1669
G01 X27.9150 Y39.1556
G01 X27.9256 Y39.1474
G01 X27.9357 Y39.1386
G01 X27.9500 Y39.1247
G01 X27.9633 Y39.1096
G01 X27.9754 Y39.0937
G01 X27.9828 Y39.0826
G01 X27.9863 Y39.0769
G01 X27.9897 Y39.0711
G01 X27.9989 Y39.0534
G01 X28.0068 Y39.0349
G01 X28.0133 Y39.0160
G01 X28.0184 Y38.9966
G01 X28.0221 Y38.9769
G01 X28.0243 Y38.9570
G01 X28.0251 Y38.9370
G01 X27.8436 Y38.9370
G01 X27.8432 Y38.9281
G01 X27.8419 Y38.9193
G01 X27.8397 Y38.9107
G01 X27.8367 Y38.9023
G01 X27.8329 Y38.8942
G01 X27.8283 Y38.8866
G01 X27.8230 Y38.8794
G01 X27.8170 Y38.8728
G01 X27.8105 Y38.8669
G01 X27.8033 Y38.8616
G01 X27.7957 Y38.8570
G01 X27.7876 Y38.8532
G01 X27.7792 Y38.8502
G01 X27.7706 Y38.8480
G01 X27.7618 Y38.8467
G01 X27.7529 Y38.8463
G01 X27.7440 Y38.8467
G01 X27.7352 Y38.8480
G01 X27.7266 Y38.8502
G01 X27.7182 Y38.8532
G01 X27.7101 Y38.8570
G01 X27.7025 Y38.8616
G01 X27.6953 Y38.8669
G01 X27.6888 Y38.8728
G01 X27.6828 Y38.8794
G01 X27.6775 Y38.8866
G01 X27.6729 Y38.8942
G01 X27.6691 Y38.9023
G01 X27.6661 Y38.9107
G01 X27.6639 Y38.9193
G01 X27.6626 Y38.9281
G01 X27.6622 Y38.9370
G01 X27.6626 Y38.9459
G01 X27.6639 Y38.9547
G01 X27.6661 Y38.9633
G01 X27.6691 Y38.9717
G01 X27.6729 Y38.9798
G01 X27.6775 Y38.9874
G01 X27.6828 Y38.9945
G01 X27.6888 Y39.0011
G01 X27.6953 Y39.0071
G01 X27.7025 Y39.0124
G01 X27.7101 Y39.0170
G01 X27.7182 Y39.0208
G01 X27.7266 Y39.0238
G01 X27.7352 Y39.0260
G01 X27.7440 Y39.0273
G01 X27.7529 Y39.0277
G01 X27.7618 Y39.0273
G01 X27.7706 Y39.0260
G01 X27.7792 Y39.0238
G01 X27.7876 Y39.0208
G01 X27.7957 Y39.0170
G01 X27.8033 Y39.0124
G01 X27.8105 Y39.0071
G01 X27.8170 Y39.0011
G01 X27.8230 Y38.9945
G01 X27.8283 Y38.9874
G01 X27.8329 Y38.9798
G01 X27.8367 Y38.9717
G01 X27.8397 Y38.9633
G01 X27.8419 Y38.9547
G01 X27.8432 Y38.9459
G01 X27.8436 Y38.9370
G01 X28.6521 Y39.7000
G01 X28.6459 Y39.7073
G01 X28.6267 Y39.7290
G01 X28.6070 Y39.7502
G01 X28.5868 Y39.7709
G01 X28.5661 Y39.7911
G01 X28.5449 Y39.8108
G01 X28.5232 Y39.8300
G01 X28.5011 Y39.8486
G01 X28.4785 Y39.8667
G01 X28.4554 Y39.8843
G01 X28.4320 Y39.9012
G01 X28.4081 Y39.9176
G01 X28.3839 Y39.9334
G01 X28.3592 Y39.9486
G01 X28.3342 Y39.9631
G01 X28.3088 Y39.9771
G01 X28.2832 Y39.9904
G01 X28.2571 Y40.0031
G01 X28.2308 Y40.0152
G01 X28.2042 Y40.0266
G01 X28.1773 Y40.0373
G01 X28.1502 Y40.0474
G01 X28.1228 Y40.0568
G01 X28.0953 Y40.0656
G01 X28.0675 Y40.0736
G01 X28.0395 Y40.0810
G01 X28.0113 Y40.0877
G01 X27.9830 Y40.0937
G01 X27.9545 Y40.0990
G01 X27.9259 Y40.1036
G01 X27.8973 Y40.1075
G01 X27.8685 Y40.1107
G01 X27.8397 Y40.1132
G01 X27.8108 Y40.1149
G01 X27.7818 Y40.1160
G01 X27.7529 Y40.1164
G01 X27.7240 Y40.1160
G01 X27.6950 Y40.1149
G01 X27.6661 Y40.1132
G01 X27.6373 Y40.1107
G01 X27.6085 Y40.1075
G01 X27.5799 Y40.1036
G01 X27.5513 Y40.0990
G01 X27.5228 Y40.0937
G01 X27.4945 Y40.0877
G01 X27.4663 Y40.0810
G01 X27.4383 Y40.0736
G01 X27.4105 Y40.0656
G01 X27.3830 Y40.0568
G01 X27.3556 Y40.0474
G01 X27.3285 Y40.0373
G01 X27.3016 Y40.0266
G01 X27.2750 Y40.0152
G01 X27.2487 Y40.0031
G01 X27.2226 Y39.9904
G01 X27.1970 Y39.9771
G01 X27.1716 Y39.9631
G01 X27.1466 Y39.9486
G01 X27.1219 Y39.9334
G01 X27.0977 Y39.9176
G01 X27.0738 Y39.9012
G01 X27.0504 Y39.8843
G01 X27.0273 Y39.8667
G01 X27.0047 Y39.8486
G01 X26.9826 Y39.8300
G01 X26.9609 Y39.8108
G01 X26.9397 Y39.7911
G01 X26.9190 Y39.7709
G01 X26.8988 Y39.7502
G01 X26.8791 Y39.7290
G01 X26.8537 Y39.7000
G01 X27.1569 Y40.1602
G01 X27.1711 Y40.1671
G01 X27.2014 Y40.1810
G01 X27.2321 Y40.1942
G01 X27.2632 Y40.2066
G01 X27.2945 Y40.2182
G01 X27.3260 Y40.2291
G01 X27.3579 Y40.2392
G01 X27.3900 Y40.2485
G01 X27.4223 Y40.2570
G01 X27.4547 Y40.2647
G01 X27.4874 Y40.2716
G01 X27.5203 Y40.2778
G01 X27.5532 Y40.2831
G01 X27.5863 Y40.2876
G01 X27.6195 Y40.2912
G01 X27.6528 Y40.2941
G01 X27.6861 Y40.2962
G01 X27.7195 Y40.2974
G01 X27.7529 Y40.2978
G01 X27.7863 Y40.2974
G01 X27.8197 Y40.2962
G01 X27.8530 Y40.2941
G01 X27.8863 Y40.2912
G01 X27.9195 Y40.2876
G01 X27.9526 Y40.2831
G01 X27.9855 Y40.2778
G01 X28.0184 Y40.2716
G01 X28.0511 Y40.2647
G01 X28.0835 Y40.2570
G01 X28.1158 Y40.2485
G01 X28.1479 Y40.2392
G01 X28.1798 Y40.2291
G01 X28.2113 Y40.2182
G01 X28.2426 Y40.2066
G01 X28.2737 Y40.1942
G01 X28.3044 Y40.1810
G01 X28.3347 Y40.1671
G01 X28.3489 Y40.1602
G00 Z2.0000
G00 X29.9030 Y38.1997
G01 F60.00
G01 Z0.1366
G01 F120.00
G01 X29.8307 Y38.2033
G01 X29.7592 Y38.2139
G01 X29.6890 Y38.2315
G01 X29.6209 Y38.2558
G01 X29.5555 Y38.2868
G01 X29.4934 Y38.3240
G01 X29.4353 Y38.3671
G01 X29.3817 Y38.4157
G01 X29.3331 Y38.4693
G01 X29.2900 Y38.5274
G01 X29.2528 Y38.5894
G01 X29.2219 Y38.6548
G01 X29.1975 Y38.7230
G01 X29.1799 Y38.7931
G01 X29.1693 Y38.8647
G01 X29.1658 Y38.9370
G01 X29.1693 Y39.0093
G01 X29.1799 Y39.0808
G01 X29.1975 Y39.1510
G01 X29.2219 Y39.2191
G01 X29.2528 Y39.2845
G01 X29.2900 Y39.3466
G01 X29.3331 Y39.4047
G01 X29.3817 Y39.4583
G01 X29.4353 Y39.5069
G01 X29.4934 Y39.5500
G01 X29.5555 Y39.5872
G01 X29.6209 Y39.6181
G01 X29.6890 Y39.6425
G01 X29.7592 Y39.6601
G01 X29.8307 Y39.6707
G01 X29.9030 Y39.6743
G01 X29.9753 Y39.6707
G01 X30.0468 Y39.6601
G01 X30.1170 Y39.6425
G01 X30.1851 Y39.6181
G01 X30.2505 Y39.5872
G01 X30.3126 Y39.5500
G01 X30.3707 Y39.5069
G01 X30.4243 Y39.4583
G01 X30.4729 Y39.4047
G01 X30.5160 Y39.3466
G01 X30.5532 Y39.2845
G01 X30.5841 Y39.2191
G01 X30.6085 Y39.1510
G01 X30.6261 Y39.0808
G01 X30.6367 Y39.0093
G01 X30.6402 Y38.9370
G01 X30.6367 Y38.8647
G01 X30.6261 Y38.7931
G01 X30.6085 Y38.7230
G01 X30.5841 Y38.6548
G01 X30.5532 Y38.5894
G01 X30.5160 Y38.5274
G01 X30.4729 Y38.4693
G01 X30.4243 Y38.4157
G01 X30.3707 Y38.3671
G01 X30.3126 Y38.3240
G01 X30.2505 Y38.2868
G01 X30.1851 Y38.2558
G01 X30.1170 Y38.2315
G01 X30.0468 Y38.2139
G01 X29.9753 Y38.2033
G01 X29.9030 Y38.1997
G01 X29.9937 Y38.9370
G01 X29.9933 Y38.9281
G01 X29.9920 Y38.9193
G01 X29.9915 Y38.9171
G01 X29.9910 Y38.9149
G01 X29.9892 Y38.9085
G01 X29.9859 Y38.9002
G01 X29.9808 Y38.8904
G01 X29.9759 Y38.8829
G01 X29.9687 Y38.8744
G01 X29.9623 Y38.8683
G01 X29.9534 Y38.8616
G01 X29.9458 Y38.8570
G01 X29.9377 Y38.8532
G01 X29.9272 Y38.8496
G01 X29.9163 Y38.8473
G01 X29.9075 Y38.8464
G01 X29.8963 Y38.8465
G01 X29.8875 Y38.8476
G01 X29.8767 Y38.8502
G01 X29.8683 Y38.8532
G01 X29.8602 Y38.8570
G01 X29.8526 Y38.8616
G01 X29.8438 Y38.8683
G01 X29.8373 Y38.8744
G01 X29.8315 Y38.8812
G01 X29.8252 Y38.8904
G01 X29.8201 Y38.9002
G01 X29.8169 Y38.9085
G01 X29.8140 Y38.9193
G01 X29.8127 Y38.9281
G01 X29.8123 Y38.9370
G01 X29.8130 Y38.9481
G01 X29.8145 Y38.9569
G01 X29.8176 Y38.9676
G01 X29.8210 Y38.9758
G01 X29.8241 Y38.9817
G01 X29.8276 Y38.9874
G01 X29.8329 Y38.9945
G01 X29.8373 Y38.9995
G01 X29.8438 Y39.0057
G01 X29.8545 Y39.0136
G01 X29.8602 Y39.0170
G01 X29.8683 Y39.0208
G01 X29.8810 Y39.0250
G01 X29.8897 Y39.0267
G01 X29.8963 Y39.0275
G01 X29.9097 Y39.0275
G01 X29.9163 Y39.0267
G01 X29.9251 Y39.0250
G01 X29.9336 Y39.0224
G01 X29.9418 Y39.0190
G01 X29.9496 Y39.0148
G01 X29.9571 Y39.0099
G01 X29.9639 Y39.0042
G01 X29.9687 Y38.9995
G01 X29.9731 Y38.9945
G01 X29.9784 Y38.9874
G01 X29.9830 Y38.9798
G01 X29.9868 Y38.9717
G01 X29.9898 Y38.9633
G01 X29.9920 Y38.9547
G01 X29.9933 Y38.9459
G01 X29.9937 Y38.9370
G01 X30.1752 Y38.9370
G01 X30.1744 Y38.9170
G01 X30.1731 Y38.9037
G01 X30.1712 Y38.8905
G01 X30.1686 Y38.8774
G01 X30.1653 Y38.8644
G01 X30.1614 Y38.8516
G01 X30.1569 Y38.8390
G01 X30.1490 Y38.8206
G01 X30.1430 Y38.8087
G01 X30.1329 Y38.7914
G01 X30.1255 Y38.7803
G01 X30.1134 Y38.7643
G01 X30.1047 Y38.7542
G01 X30.0955 Y38.7445
G01 X30.0808 Y38.7309
G01 X30.0705 Y38.7224
G01 X30.0542 Y38.7107
G01 X30.0429 Y38.7036
G01 X30.0313 Y38.6970
G01 X30.0133 Y38.6882
G01 X29.9947 Y38.6807
G01 X29.9820 Y38.6765
G01 X29.9691 Y38.6730
G01 X29.9626 Y38.6714
G01 X29.9561 Y38.6701
G01 X29.9429 Y38.6678
G01 X29.9297 Y38.6661
G01 X29.9097 Y38.6649
G01 X29.8963 Y38.6649
G01 X29.8763 Y38.6661
G01 X29.8631 Y38.6678
G01 X29.8499 Y38.6701
G01 X29.8304 Y38.6747
G01 X29.8176 Y38.6786
G01 X29.8051 Y38.6831
G01 X29.7866 Y38.6910
G01 X29.7747 Y38.6970
G01 X29.7574 Y38.7071
G01 X29.7463 Y38.7145
G01 X29.7356 Y38.7224
G01 X29.7202 Y38.7353
G01 X29.7059 Y38.7493
G01 X29.6969 Y38.7592
G01 X29.6885 Y38.7695
G01 X29.6767 Y38.7858
G01 X29.6696 Y38.7971
G01 X29.6599 Y38.8146
G01 X29.6542 Y38.8267
G01 X29.6491 Y38.8390
G01 X29.6446 Y38.8516
G01 X29.6390 Y38.8709
G01 X29.6361 Y38.8839
G01 X29.6338 Y38.8971
G01 X29.6316 Y38.9170
G01 X29.6309 Y38.9303
G01 X29.6309 Y38.9437
G01 X29.6316 Y38.9570
G01 X29.6329 Y38.9703
G01 X29.6349 Y38.9835
G01 X29.6375 Y38.9966
G01 X29.6426 Y39.0160
G01 X29.6468 Y39.0287
G01 X29.6542 Y39.0473
G01 X29.6599 Y39.0594
G01 X29.6696 Y39.0769
G01 X29.6805 Y39.0937
G01 X29.6885 Y39.1044
G01 X29.6969 Y39.1148
G01 X29.7106 Y39.1294
G01 X29.7252 Y39.1431
G01 X29.7409 Y39.1556
G01 X29.7574 Y39.1669
G01 X29.7747 Y39.1770
G01 X29.7927 Y39.1858
G01 X29.8113 Y39.1932
G01 X29.8304 Y39.1993
G01 X29.8499 Y39.2039
G01 X29.8631 Y39.2062
G01 X29.8763 Y39.2078
G01 X29.8963 Y39.2091
G01 X29.9164 Y39.2088
G01 X29.9363 Y39.2071
G01 X29.9561 Y39.2039
G01 X29.9691 Y39.2010
G01 X29.9820 Y39.1974
G01 X30.0010 Y39.1909
G01 X30.0133 Y39.1858
G01 X30.0254 Y39.1801
G01 X30.0429 Y39.1704
G01 X30.0542 Y39.1633
G01 X30.0651 Y39.1556
G01 X30.0808 Y39.1431
G01 X30.0907 Y39.1341
G01 X30.1001 Y39.1247
G01 X30.1134 Y39.1096
G01 X30.1216 Y39.0991
G01 X30.1293 Y39.0882
G01 X30.1398 Y39.0711
G01 X30.1461 Y39.0594
G01 X30.1518 Y39.0473
G01 X30.1593 Y39.0287
G01 X30.1653 Y39.0096
G01 X30.1686 Y38.9966
G01 X30.1712 Y38.9835
G01 X30.1731 Y38.9703
G01 X30.1744 Y38.9570
G01 X30.1752 Y38.9370
G01 X30.3566 Y38.9370
G01 X30.3561 Y38.9147
G01 X30.3554 Y38.9036
G01 X30.3532 Y38.8815
G01 X30.3499 Y38.8594
G01 X30.3479 Y38.8485
G01 X30.3430 Y38.8268
G01 X30.3371 Y38.8053
G01 X30.3337 Y38.7947
G01 X30.3262 Y38.7737
G01 X30.3177 Y38.7532
G01 X30.3131 Y38.7431
G01 X30.3030 Y38.7232
G01 X30.2921 Y38.7038
G01 X30.2802 Y38.6850
G01 X30.2739 Y38.6758
G01 X30.2606 Y38.6579
G01 X30.2465 Y38.6407
G01 X30.2391 Y38.6324
G01 X30.2238 Y38.6162
G01 X30.2076 Y38.6009
G01 X30.1908 Y38.5864
G01 X30.1821 Y38.5794
G01 X30.1642 Y38.5661
G01 X30.1457 Y38.5538
G01 X30.1266 Y38.5423
G01 X30.1168 Y38.5370
G01 X30.0969 Y38.5269
G01 X30.0766 Y38.5179
G01 X30.0558 Y38.5099
G01 X30.0347 Y38.5029
G01 X30.0240 Y38.4998
G01 X30.0024 Y38.4944
G01 X29.9915 Y38.4921
G01 X29.9696 Y38.4883
G01 X29.9585 Y38.4868
G01 X29.9475 Y38.4856
G01 X29.9364 Y38.4846
G01 X29.9141 Y38.4835
G01 X29.9030 Y38.4834
G01 X29.8808 Y38.4839
G01 X29.8585 Y38.4856
G01 X29.8365 Y38.4883
G01 X29.8145 Y38.4921
G01 X29.8036 Y38.4944
G01 X29.7820 Y38.4998
G01 X29.7713 Y38.5029
G01 X29.7502 Y38.5099
G01 X29.7294 Y38.5179
G01 X29.7091 Y38.5269
G01 X29.6991 Y38.5318
G01 X29.6794 Y38.5423
G01 X29.6698 Y38.5479
G01 X29.6510 Y38.5598
G01 X29.6418 Y38.5661
G01 X29.6239 Y38.5794
G01 X29.6067 Y38.5935
G01 X29.5984 Y38.6009
G01 X29.5823 Y38.6162
G01 X29.5669 Y38.6324
G01 X29.5524 Y38.6492
G01 X29.5454 Y38.6579
G01 X29.5322 Y38.6758
G01 X29.5259 Y38.6850
G01 X29.5139 Y38.7038
G01 X29.5030 Y38.7232
G01 X29.4930 Y38.7431
G01 X29.4839 Y38.7634
G01 X29.4798 Y38.7737
G01 X29.4723 Y38.7947
G01 X29.4689 Y38.8053
G01 X29.4630 Y38.8268
G01 X29.4581 Y38.8485
G01 X29.4543 Y38.8704
G01 X29.4528 Y38.8815
G01 X29.4506 Y38.9036
G01 X29.4500 Y38.9147
G01 X29.4494 Y38.9370
G01 X29.4500 Y38.9592
G01 X29.4506 Y38.9704
G01 X29.4528 Y38.9925
G01 X29.4561 Y39.0145
G01 X29.4604 Y39.0364
G01 X29.4658 Y39.0580
G01 X29.4689 Y39.0687
G01 X29.4759 Y39.0898
G01 X29.4839 Y39.1106
G01 X29.4930 Y39.1309
G01 X29.4978 Y39.1409
G01 X29.5083 Y39.1606
G01 X29.5198 Y39.1797
G01 X29.5259 Y39.1890
G01 X29.5387 Y39.2072
G01 X29.5454 Y39.2161
G01 X29.5595 Y39.2333
G01 X29.5669 Y39.2416
G01 X29.5823 Y39.2577
G01 X29.5984 Y39.2731
G01 X29.6067 Y39.2805
G01 X29.6152 Y39.2876
G01 X29.6328 Y39.3013
G01 X29.6510 Y39.3141
G01 X29.6603 Y39.3202
G01 X29.6698 Y39.3261
G01 X29.6892 Y39.3370
G01 X29.7091 Y39.3470
G01 X29.7192 Y39.3517
G01 X29.7398 Y39.3602
G01 X29.7502 Y39.3641
G01 X29.7607 Y39.3677
G01 X29.7820 Y39.3742
G01 X29.8036 Y39.3796
G01 X29.8145 Y39.3819
G01 X29.8365 Y39.3857
G01 X29.8475 Y39.3872
G01 X29.8696 Y39.3894
G01 X29.8808 Y39.3900
G01 X29.9030 Y39.3906
G01 X29.9253 Y39.3900
G01 X29.9364 Y39.3894
G01 X29.9585 Y39.3872
G01 X29.9696 Y39.3857
G01 X29.9915 Y39.3819
G01 X30.0024 Y39.3796
G01 X30.0240 Y39.3742
G01 X30.0347 Y39.3711
G01 X30.0558 Y39.3641
G01 X30.0663 Y39.3602
G01 X30.0868 Y39.3517
G01 X30.0969 Y39.3470
G01 X30.1168 Y39.3370
G01 X30.1362 Y39.3261
G01 X30.1457 Y39.3202
G01 X30.1642 Y39.3078
G01 X30.1821 Y39.2946
G01 X30.1993 Y39.2805
G01 X30.2076 Y39.2731
G01 X30.2238 Y39.2577
G01 X30.2391 Y39.2416
G01 X30.2465 Y39.2333
G01 X30.2536 Y39.2248
G01 X30.2673 Y39.2072
G01 X30.2802 Y39.1890
G01 X30.2862 Y39.1797
G01 X30.2921 Y39.1702
G01 X30.3030 Y39.1508
G01 X30.3131 Y39.1309
G01 X30.3177 Y39.1208
G01 X30.3262 Y39.1002
G01 X30.3337 Y39.0793
G01 X30.3402 Y39.0580
G01 X30.3456 Y39.0364
G01 X30.3499 Y39.0145
G01 X30.3517 Y39.0035
G01 X30.3544 Y38.9815
G01 X30.3554 Y38.9704
G01 X30.3565 Y38.9481
G01 X30.3566 Y38.9370
G01 X30.5381 Y38.9370
G01 X30.5379 Y38.9214
G01 X30.5363 Y38.8903
G01 X30.5333 Y38.8593
G01 X30.5287 Y38.8284
G01 X30.5226 Y38.7979
G01 X30.5190 Y38.7827
G01 X30.5107 Y38.7526
G01 X30.5009 Y38.7231
G01 X30.4897 Y38.6940
G01 X30.4836 Y38.6796
G01 X30.4702 Y38.6515
G01 X30.4556 Y38.6240
G01 X30.4395 Y38.5972
G01 X30.4310 Y38.5842
G01 X30.4222 Y38.5713
G01 X30.4036 Y38.5463
G01 X30.3839 Y38.5222
G01 X30.3735 Y38.5105
G01 X30.3521 Y38.4879
G01 X30.3295 Y38.4665
G01 X30.3178 Y38.4561
G01 X30.2937 Y38.4364
G01 X30.2687 Y38.4178
G01 X30.2558 Y38.4090
G01 X30.2295 Y38.3923
G01 X30.2024 Y38.3769
G01 X30.1745 Y38.3629
G01 X30.1460 Y38.3503
G01 X30.1316 Y38.3445
G01 X30.1022 Y38.3340
G01 X30.0724 Y38.3250
G01 X30.0573 Y38.3210
G01 X30.0269 Y38.3142
G01 X29.9962 Y38.3088
G01 X29.9807 Y38.3067
G01 X29.9497 Y38.3037
G01 X29.9186 Y38.3021
G01 X29.9030 Y38.3020
G01 X29.8719 Y38.3027
G01 X29.8408 Y38.3050
G01 X29.8253 Y38.3067
G01 X29.7944 Y38.3113
G01 X29.7639 Y38.3174
G01 X29.7487 Y38.3210
G01 X29.7187 Y38.3293
G01 X29.6891 Y38.3391
G01 X29.6600 Y38.3503
G01 X29.6457 Y38.3564
G01 X29.6175 Y38.3698
G01 X29.6037 Y38.3769
G01 X29.5765 Y38.3923
G01 X29.5502 Y38.4090
G01 X29.5373 Y38.4178
G01 X29.5123 Y38.4364
G01 X29.4882 Y38.4561
G01 X29.4651 Y38.4771
G01 X29.4431 Y38.4991
G01 X29.4222 Y38.5222
G01 X29.4121 Y38.5341
G01 X29.3929 Y38.5587
G01 X29.3750 Y38.5842
G01 X29.3583 Y38.6105
G01 X29.3505 Y38.6240
G01 X29.3430 Y38.6376
G01 X29.3289 Y38.6655
G01 X29.3163 Y38.6940
G01 X29.3105 Y38.7084
G01 X29.3000 Y38.7378
G01 X29.2910 Y38.7676
G01 X29.2834 Y38.7979
G01 X29.2773 Y38.8284
G01 X29.2748 Y38.8438
G01 X29.2710 Y38.8747
G01 X29.2697 Y38.8903
G01 X29.2682 Y38.9214
G01 X29.2682 Y38.9526
G01 X29.2697 Y38.9837
G01 X29.2710 Y38.9992
G01 X29.2727 Y39.0147
G01 X29.2773 Y39.0456
G01 X29.2834 Y39.0761
G01 X29.2910 Y39.1064
G01 X29.3000 Y39.1362
G01 X29.3051 Y39.1509
G01 X29.3163 Y39.1800
G01 X29.3289 Y39.2085
G01 X29.3358 Y39.2225
G01 X29.3505 Y39.2500
G01 X29.3665 Y39.2767
G01 X29.3750 Y39.2898
G01 X29.3929 Y39.3153
G01 X29.4024 Y39.3277
G01 X29.4222 Y39.3518
G01 X29.4431 Y39.3749
G01 X29.4651 Y39.3969
G01 X29.4765 Y39.4075
G01 X29.5001 Y39.4279
G01 X29.5247 Y39.4471
G01 X29.5373 Y39.4562
G01 X29.5502 Y39.4650
G01 X29.5765 Y39.4817
G01 X29.6037 Y39.4970
G01 X29.6175 Y39.5042
G01 X29.6315 Y39.5111
G01 X29.6600 Y39.5237
G01 X29.6891 Y39.5349
G01 X29.7038 Y39.5400
G01 X29.7187 Y39.5447
G01 X29.7487 Y39.5530
G01 X29.7639 Y39.5566
G01 X29.7944 Y39.5627
G01 X29.8253 Y39.5673
G01 X29.8408 Y39.5690
G01 X29.8563 Y39.5703
G01 X29.8874 Y39.5718
G01 X29.9030 Y39.5720
G01 X29.9342 Y39.5713
G01 X29.9653 Y39.5690
G01 X29.9962 Y39.5652
G01 X30.0116 Y39.5627
G01 X30.0421 Y39.5566
G01 X30.0724 Y39.5490
G01 X30.0874 Y39.5447
G01 X30.1022 Y39.5400
G01 X30.1316 Y39.5295
G01 X30.1460 Y39.5237
G01 X30.1745 Y39.5111
G01 X30.1885 Y39.5042
G01 X30.2160 Y39.4895
G01 X30.2428 Y39.4735
G01 X30.2558 Y39.4650
G01 X30.2813 Y39.4471
G01 X30.2937 Y39.4376
G01 X30.3178 Y39.4178
G01 X30.3295 Y39.4075
G01 X30.3409 Y39.3969
G01 X30.3629 Y39.3749
G01 X30.3839 Y39.3518
G01 X30.4036 Y39.3277
G01 X30.4131 Y39.3153
G01 X30.4310 Y39.2898
G01 X30.4477 Y39.2635
G01 X30.4556 Y39.2500
G01 X30.4702 Y39.2225
G01 X30.4771 Y39.2085
G01 X30.4897 Y39.1800
G01 X30.4955 Y39.1655
G01 X30.5060 Y39.1362
G01 X30.5107 Y39.1213
G01 X30.5150 Y39.1064
G01 X30.5226 Y39.0761
G01 X30.5258 Y39.0609
G01 X30.5312 Y39.0302
G01 X30.5350 Y38.9992
G01 X30.5363 Y38.9837
G01 X30.5373 Y38.9681
G01 X30.5381 Y38.9370
G00 Z2.0000
G00 X31.9030 Y38.1997
G01 F60.00
G01 Z0.1366
G01 F120.00
G01 X31.8307 Y38.2033
G01 X31.7592 Y38.2139
G01 X31.6890 Y38.2315
G01 X31.6209 Y38.2558
G01 X31.5555 Y38.2868
G01 X31.4934 Y38.3240
G01 X31.4353 Y38.3671
G01 X31.3817 Y38.4157
G01 X31.3331 Y38.4693
G01 X31.2900 Y38.5274
G01 X31.2528 Y38.5894
G01 X31.2219 Y38.6548
G01 X31.1975 Y38.7230
G01 X31.1799 Y38.7931
G01 X31.1693 Y38.8647
G01 X31.1658 Y38.9370
G01 X31.1693 Y39.0093
G01 X31.1799 Y39.0808
G01 X31.1975 Y39.1510
G01 X31.2219 Y39.2191
G01 X31.2528 Y39.2845
G01 X31.2900 Y39.3466
G01 X31.3331 Y39.4047
G01 X31.3817 Y39.4583
G01 X31.4353 Y39.5069
G01 X31.4934 Y39.5500
G01 X31.5555 Y39.5872
G01 X31.6209 Y39.6181
G01 X31.6890 Y39.6425
G01 X31.7592 Y39.6601
G01 X31.8307 Y39.6707
G01 X31.9030 Y39.6743
G01 X31.9753 Y39.6707
G01 X32.0468 Y39.6601
G01 X32.1170 Y39.6425
G01 X32.1851 Y39.6181
G01 X32.2505 Y39.5872
G01 X32.3126 Y39.5500
G01 X32.3707 Y39.5069
G01 X32.4243 Y39.4583
G01 X32.4729 Y39.4047
G01 X32.5160 Y39.3466
G01 X32.5532 Y39.2845
G01 X32.5841 Y39.2191
G01 X32.6085 Y39.1510
G01 X32.6261 Y39.0808
G01 X32.6367 Y39.0093
G01 X32.6402 Y38.9370
G01 X32.6367 Y38.8647
G01 X32.6261 Y38.7931
G01 X32.6085 Y38.7230
G01 X32.5841 Y38.6548
G01 X32.5532 Y38.5894
G01 X32.5160 Y38.5274
G01 X32.4729 Y38.4693
G01 X32.4243 Y38.4157
G01 X32.3707 Y38.3671
G01 X32.3126 Y38.3240
G01 X32.2505 Y38.2868
G01 X32.1851 Y38.2558
G01 X32.1170 Y38.2315
G01 X32.0468 Y38.2139
G01 X31.9753 Y38.2033
G01 X31.9030 Y38.1997
G01 X31.9937 Y38.9370
G01 X31.9933 Y38.9281
G01 X31.9920 Y38.9193
G01 X31.9915 Y38.9171
G01 X31.9910 Y38.9149
G01 X31.9891 Y38.9085
G01 X31.9859 Y38.9002
G01 X31.9808 Y38.8904
G01 X31.9759 Y38.8829
G01 X31.9687 Y38.8744
G01 X31.9623 Y38.8683
G01 X31.9534 Y38.8616
G01 X31.9458 Y38.8570
G01 X31.9377 Y38.8532
G01 X31.9272 Y38.8496
G01 X31.9163 Y38.8473
G01 X31.9075 Y38.8464
G01 X31.8963 Y38.8465
G01 X31.8875 Y38.8476
G01 X31.8767 Y38.8502
G01 X31.8683 Y38.8532
G01 X31.8602 Y38.8570
G01 X31.8526 Y38.8616
G01 X31.8437 Y38.8683
G01 X31.8373 Y38.8744
G01 X31.8315 Y38.8812
G01 X31.8252 Y38.8904
G01 X31.8201 Y38.9002
G01 X31.8169 Y38.9085
G01 X31.8140 Y38.9193
G01 X31.8127 Y38.9281
G01 X31.8123 Y38.9370
G01 X31.8130 Y38.9481
G01 X31.8145 Y38.9569
G01 X31.8176 Y38.9676
G01 X31.8210 Y38.9758
G01 X31.8241 Y38.9817
G01 X31.8276 Y38.9874
G01 X31.8329 Y38.9945
G01 X31.8373 Y38.9995
G01 X31.8437 Y39.0057
G01 X31.8545 Y39.0136
G01 X31.8602 Y39.0170
G01 X31.8683 Y39.0208
G01 X31.8810 Y39.0250
G01 X31.8897 Y39.0267
G01 X31.8963 Y39.0275
G01 X31.9097 Y39.0275
G01 X31.9163 Y39.0267
G01 X31.9250 Y39.0250
G01 X31.9336 Y39.0224
G01 X31.9418 Y39.0190
G01 X31.9496 Y39.0148
G01 X31.9570 Y39.0099
G01 X31.9639 Y39.0042
G01 X31.9687 Y38.9995
G01 X31.9731 Y38.9945
G01 X31.9784 Y38.9874
G01 X31.9830 Y38.9798
G01 X31.9868 Y38.9717
G01 X31.9898 Y38.9633
G01 X31.9920 Y38.9547
G01 X31.9933 Y38.9459
G01 X31.9937 Y38.9370
G01 X32.1752 Y38.9370
G01 X32.1744 Y38.9170
G01 X32.1731 Y38.9037
G01 X32.1712 Y38.8905
G01 X32.1685 Y38.8774
G01 X32.1653 Y38.8644
G01 X32.1614 Y38.8516
G01 X32.1569 Y38.8390
G01 X32.1490 Y38.8206
G01 X32.1430 Y38.8087
G01 X32.1329 Y38.7914
G01 X32.1255 Y38.7803
G01 X32.1134 Y38.7643
G01 X32.1001 Y38.7493
G01 X32.0907 Y38.7399
G01 X32.0808 Y38.7309
G01 X32.0704 Y38.7224
G01 X32.0542 Y38.7107
G01 X32.0429 Y38.7036
G01 X32.0313 Y38.6970
G01 X32.0133 Y38.6882
G01 X32.0009 Y38.6831
G01 X31.9820 Y38.6765
G01 X31.9691 Y38.6730
G01 X31.9626 Y38.6714
G01 X31.9561 Y38.6701
G01 X31.9429 Y38.6678
G01 X31.9297 Y38.6661
G01 X31.9097 Y38.6649
G01 X31.8963 Y38.6649
G01 X31.8763 Y38.6661
G01 X31.8631 Y38.6678
G01 X31.8499 Y38.6701
G01 X31.8304 Y38.6747
G01 X31.8176 Y38.6786
G01 X31.8051 Y38.6831
G01 X31.7866 Y38.6910
G01 X31.7747 Y38.6970
G01 X31.7574 Y38.7071
G01 X31.7463 Y38.7145
G01 X31.7356 Y38.7224
G01 X31.7202 Y38.7353
G01 X31.7059 Y38.7493
G01 X31.6969 Y38.7592
G01 X31.6884 Y38.7695
G01 X31.6767 Y38.7858
G01 X31.6696 Y38.7971
G01 X31.6599 Y38.8146
G01 X31.6542 Y38.8267
G01 X31.6491 Y38.8390
G01 X31.6446 Y38.8516
G01 X31.6390 Y38.8709
G01 X31.6361 Y38.8839
G01 X31.6338 Y38.8971
G01 X31.6316 Y38.9170
G01 X31.6309 Y38.9303
G01 X31.6309 Y38.9437
G01 X31.6316 Y38.9570
G01 X31.6329 Y38.9703
G01 X31.6348 Y38.9835
G01 X31.6375 Y38.9966
G01 X31.6426 Y39.0160
G01 X31.6467 Y39.0287
G01 X31.6542 Y39.0473
G01 X31.6599 Y39.0594
G01 X31.6696 Y39.0769
G01 X31.6805 Y39.0937
G01 X31.6884 Y39.1044
G01 X31.6969 Y39.1148
G01 X31.7106 Y39.1294
G01 X31.7252 Y39.1431
G01 X31.7409 Y39.1556
G01 X31.7574 Y39.1669
G01 X31.7747 Y39.1770
G01 X31.7927 Y39.1858
G01 X31.8113 Y39.1932
G01 X31.8304 Y39.1993
G01 X31.8499 Y39.2039
G01 X31.8631 Y39.2062
G01 X31.8763 Y39.2078
G01 X31.8963 Y39.2091
G01 X31.9164 Y39.2088
G01 X31.9363 Y39.2071
G01 X31.9561 Y39.2039
G01 X31.9691 Y39.2010
G01 X31.9820 Y39.1974
G01 X32.0009 Y39.1909
G01 X32.0194 Y39.1830
G01 X32.0313 Y39.1770
G01 X32.0429 Y39.1704
G01 X32.0542 Y39.1633
G01 X32.0651 Y39.1556
G01 X32.0808 Y39.1431
G01 X32.0907 Y39.1341
G01 X32.1001 Y39.1247
G01 X32.1134 Y39.1096
G01 X32.1255 Y39.0937
G01 X32.1329 Y39.0826
G01 X32.1398 Y39.0711
G01 X32.1461 Y39.0594
G01 X32.1518 Y39.0473
G01 X32.1593 Y39.0287
G01 X32.1653 Y39.0096
G01 X32.1685 Y38.9966
G01 X32.1712 Y38.9835
G01 X32.1738 Y38.9637
G01 X32.1748 Y38.9503
G01 X32.1752 Y38.9370
G01 X32.3566 Y38.9370
G01 X32.3561 Y38.9147
G01 X32.3554 Y38.9036
G01 X32.3532 Y38.8815
G01 X32.3517 Y38.8704
G01 X32.3479 Y38.8485
G01 X32.3430 Y38.8268
G01 X32.3371 Y38.8053
G01 X32.3301 Y38.7842
G01 X32.3262 Y38.7737
G01 X32.3221 Y38.7634
G01 X32.3130 Y38.7431
G01 X32.3030 Y38.7232
G01 X32.2921 Y38.7038
G01 X32.2802 Y38.6850
G01 X32.2739 Y38.6758
G01 X32.2606 Y38.6579
G01 X32.2465 Y38.6407
G01 X32.2315 Y38.6242
G01 X32.2158 Y38.6085
G01 X32.2076 Y38.6009
G01 X32.1993 Y38.5935
G01 X32.1821 Y38.5794
G01 X32.1642 Y38.5661
G01 X32.1457 Y38.5538
G01 X32.1266 Y38.5423
G01 X32.1168 Y38.5370
G01 X32.0969 Y38.5269
G01 X32.0766 Y38.5179
G01 X32.0558 Y38.5099
G01 X32.0347 Y38.5029
G01 X32.0240 Y38.4998
G01 X32.0024 Y38.4944
G01 X31.9915 Y38.4921
G01 X31.9696 Y38.4883
G01 X31.9585 Y38.4868
G01 X31.9475 Y38.4856
G01 X31.9364 Y38.4846
G01 X31.9141 Y38.4835
G01 X31.9030 Y38.4834
G01 X31.8807 Y38.4839
G01 X31.8585 Y38.4856
G01 X31.8364 Y38.4883
G01 X31.8145 Y38.4921
G01 X31.8036 Y38.4944
G01 X31.7820 Y38.4998
G01 X31.7713 Y38.5029
G01 X31.7502 Y38.5099
G01 X31.7294 Y38.5179
G01 X31.7091 Y38.5269
G01 X31.6991 Y38.5318
G01 X31.6794 Y38.5423
G01 X31.6698 Y38.5479
G01 X31.6510 Y38.5598
G01 X31.6418 Y38.5661
G01 X31.6239 Y38.5794
G01 X31.6067 Y38.5935
G01 X31.5984 Y38.6009
G01 X31.5823 Y38.6162
G01 X31.5669 Y38.6324
G01 X31.5524 Y38.6492
G01 X31.5454 Y38.6579
G01 X31.5321 Y38.6758
G01 X31.5258 Y38.6850
G01 X31.5139 Y38.7038
G01 X31.5030 Y38.7232
G01 X31.4930 Y38.7431
G01 X31.4839 Y38.7634
G01 X31.4798 Y38.7737
G01 X31.4723 Y38.7947
G01 X31.4689 Y38.8053
G01 X31.4630 Y38.8268
G01 X31.4581 Y38.8485
G01 X31.4543 Y38.8704
G01 X31.4528 Y38.8815
G01 X31.4506 Y38.9036
G01 X31.4499 Y38.9147
G01 X31.4494 Y38.9370
G01 X31.4499 Y38.9592
G01 X31.4506 Y38.9704
G01 X31.4528 Y38.9925
G01 X31.4561 Y39.0145
G01 X31.4604 Y39.0364
G01 X31.4658 Y39.0580
G01 X31.4689 Y39.0687
G01 X31.4759 Y39.0898
G01 X31.4839 Y39.1106
G01 X31.4930 Y39.1309
G01 X31.4978 Y39.1409
G01 X31.5083 Y39.1606
G01 X31.5198 Y39.1797
G01 X31.5258 Y39.1890
G01 X31.5387 Y39.2072
G01 X31.5454 Y39.2161
G01 X31.5595 Y39.2333
G01 X31.5669 Y39.2416
G01 X31.5823 Y39.2577
G01 X31.5984 Y39.2731
G01 X31.6067 Y39.2805
G01 X31.6152 Y39.2876
G01 X31.6328 Y39.3013
G01 X31.6510 Y39.3141
G01 X31.6603 Y39.3202
G01 X31.6698 Y39.3261
G01 X31.6892 Y39.3370
G01 X31.7091 Y39.3470
G01 X31.7192 Y39.3517
G01 X31.7398 Y39.3602
G01 X31.7502 Y39.3641
G01 X31.7607 Y39.3677
G01 X31.7820 Y39.3742
G01 X31.8036 Y39.3796
G01 X31.8145 Y39.3819
G01 X31.8364 Y39.3857
G01 X31.8475 Y39.3872
G01 X31.8696 Y39.3894
G01 X31.8807 Y39.3900
G01 X31.9030 Y39.3906
G01 X31.9253 Y39.3900
G01 X31.9364 Y39.3894
G01 X31.9585 Y39.3872
G01 X31.9696 Y39.3857
G01 X31.9915 Y39.3819
G01 X32.0024 Y39.3796
G01 X32.0240 Y39.3742
G01 X32.0347 Y39.3711
G01 X32.0558 Y39.3641
G01 X32.0662 Y39.3602
G01 X32.0868 Y39.3517
G01 X32.0969 Y39.3470
G01 X32.1168 Y39.3370
G01 X32.1362 Y39.3261
G01 X32.1457 Y39.3202
G01 X32.1642 Y39.3078
G01 X32.1821 Y39.2946
G01 X32.1993 Y39.2805
G01 X32.2158 Y39.2655
G01 X32.2237 Y39.2577
G01 X32.2391 Y39.2416
G01 X32.2465 Y39.2333
G01 X32.2536 Y39.2248
G01 X32.2673 Y39.2072
G01 X32.2802 Y39.1890
G01 X32.2921 Y39.1702
G01 X32.2977 Y39.1606
G01 X32.3082 Y39.1409
G01 X32.3130 Y39.1309
G01 X32.3221 Y39.1106
G01 X32.3301 Y39.0898
G01 X32.3337 Y39.0793
G01 X32.3371 Y39.0687
G01 X32.3430 Y39.0472
G01 X32.3479 Y39.0255
G01 X32.3517 Y39.0035
G01 X32.3532 Y38.9925
G01 X32.3554 Y38.9704
G01 X32.3561 Y38.9592
G01 X32.3566 Y38.9370
G01 X32.5380 Y38.9370
G01 X32.5373 Y38.9058
G01 X32.5363 Y38.8903
G01 X32.5333 Y38.8593
G01 X32.5287 Y38.8284
G01 X32.5226 Y38.7979
G01 X32.5190 Y38.7827
G01 X32.5150 Y38.7676
G01 X32.5060 Y38.7378
G01 X32.4955 Y38.7084
G01 X32.4836 Y38.6796
G01 X32.4771 Y38.6655
G01 X32.4631 Y38.6376
G01 X32.4477 Y38.6105
G01 X32.4310 Y38.5842
G01 X32.4222 Y38.5713
G01 X32.4036 Y38.5463
G01 X32.3839 Y38.5222
G01 X32.3629 Y38.4991
G01 X32.3520 Y38.4879
G01 X32.3295 Y38.4665
G01 X32.3178 Y38.4561
G01 X32.2937 Y38.4364
G01 X32.2687 Y38.4178
G01 X32.2427 Y38.4005
G01 X32.2160 Y38.3844
G01 X32.1885 Y38.3698
G01 X32.1745 Y38.3629
G01 X32.1460 Y38.3503
G01 X32.1169 Y38.3391
G01 X32.1022 Y38.3340
G01 X32.0724 Y38.3250
G01 X32.0573 Y38.3210
G01 X32.0269 Y38.3142
G01 X31.9962 Y38.3088
G01 X31.9807 Y38.3067
G01 X31.9497 Y38.3037
G01 X31.9186 Y38.3021
G01 X31.9030 Y38.3019
G01 X31.8718 Y38.3027
G01 X31.8408 Y38.3050
G01 X31.8253 Y38.3067
G01 X31.7944 Y38.3113
G01 X31.7639 Y38.3174
G01 X31.7487 Y38.3210
G01 X31.7187 Y38.3293
G01 X31.6891 Y38.3391
G01 X31.6600 Y38.3503
G01 X31.6457 Y38.3564
G01 X31.6175 Y38.3698
G01 X31.6036 Y38.3769
G01 X31.5765 Y38.3923
G01 X31.5502 Y38.4090
G01 X31.5373 Y38.4178
G01 X31.5123 Y38.4364
G01 X31.4882 Y38.4561
G01 X31.4651 Y38.4771
G01 X31.4431 Y38.4991
G01 X31.4221 Y38.5222
G01 X31.4121 Y38.5341
G01 X31.3929 Y38.5587
G01 X31.3750 Y38.5842
G01 X31.3583 Y38.6105
G01 X31.3505 Y38.6240
G01 X31.3429 Y38.6376
G01 X31.3289 Y38.6655
G01 X31.3163 Y38.6940
G01 X31.3105 Y38.7084
G01 X31.3000 Y38.7378
G01 X31.2910 Y38.7676
G01 X31.2834 Y38.7979
G01 X31.2773 Y38.8284
G01 X31.2748 Y38.8438
G01 X31.2710 Y38.8747
G01 X31.2697 Y38.8903
G01 X31.2682 Y38.9214
G01 X31.2682 Y38.9526
G01 X31.2697 Y38.9837
G01 X31.2710 Y38.9992
G01 X31.2727 Y39.0147
G01 X31.2773 Y39.0456
G01 X31.2834 Y39.0761
G01 X31.2910 Y39.1064
G01 X31.3000 Y39.1362
G01 X31.3051 Y39.1509
G01 X31.3163 Y39.1800
G01 X31.3289 Y39.2085
G01 X31.3358 Y39.2225
G01 X31.3505 Y39.2500
G01 X31.3665 Y39.2767
G01 X31.3750 Y39.2898
G01 X31.3929 Y39.3153
G01 X31.4024 Y39.3277
G01 X31.4221 Y39.3518
G01 X31.4431 Y39.3749
G01 X31.4651 Y39.3969
G01 X31.4765 Y39.4075
G01 X31.5001 Y39.4279
G01 X31.5247 Y39.4471
G01 X31.5373 Y39.4562
G01 X31.5502 Y39.4650
G01 X31.5765 Y39.4817
G01 X31.6036 Y39.4970
G01 X31.6175 Y39.5042
G01 X31.6315 Y39.5111
G01 X31.6600 Y39.5237
G01 X31.6891 Y39.5349
G01 X31.7038 Y39.5400
G01 X31.7187 Y39.5447
G01 X31.7487 Y39.5530
G01 X31.7639 Y39.5566
G01 X31.7944 Y39.5627
G01 X31.8253 Y39.5673
G01 X31.8408 Y39.5690
G01 X31.8563 Y39.5703
G01 X31.8874 Y39.5718
G01 X31.9030 Y39.5720
G01 X31.9342 Y39.5713
G01 X31.9652 Y39.5690
G01 X31.9962 Y39.5652
G01 X32.0116 Y39.5627
G01 X32.0421 Y39.5566
G01 X32.0724 Y39.5490
G01 X32.0873 Y39.5447
G01 X32.1169 Y39.5349
G01 X32.1315 Y39.5295
G01 X32.1603 Y39.5175
G01 X32.1745 Y39.5111
G01 X32.1885 Y39.5042
G01 X32.2160 Y39.4895
G01 X32.2427 Y39.4735
G01 X32.2558 Y39.4650
G01 X32.2813 Y39.4471
G01 X32.2937 Y39.4376
G01 X32.3178 Y39.4178
G01 X32.3295 Y39.4075
G01 X32.3409 Y39.3969
G01 X32.3629 Y39.3749
G01 X32.3839 Y39.3518
G01 X32.4036 Y39.3277
G01 X32.4131 Y39.3153
G01 X32.4310 Y39.2898
G01 X32.4477 Y39.2635
G01 X32.4555 Y39.2500
G01 X32.4702 Y39.2225
G01 X32.4771 Y39.2085
G01 X32.4897 Y39.1800
G01 X32.4955 Y39.1655
G01 X32.5060 Y39.1362
G01 X32.5107 Y39.1213
G01 X32.5150 Y39.1064
G01 X32.5226 Y39.0761
G01 X32.5287 Y39.0456
G01 X32.5312 Y39.0302
G01 X32.5333 Y39.0147
G01 X32.5363 Y38.9837
G01 X32.5378 Y38.9526
G01 X32.5380 Y38.9370
G00 Z2.0000
G00 X33.9030 Y38.1997
G01 F60.00
G01 Z0.1366
G01 F120.00
G01 X33.8307 Y38.2033
G01 X33.7592 Y38.2139
G01 X33.6890 Y38.2315
G01 X33.6209 Y38.2558
G01 X33.5555 Y38.2868
G01 X33.4934 Y38.3240
G01 X33.4353 Y38.3671
G01 X33.3817 Y38.4157
G01 X33.3331 Y38.4693
G01 X33.2900 Y38.5274
G01 X33.2528 Y38.5894
G01 X33.2219 Y38.6548
G01 X33.1975 Y38.7230
G01 X33.1799 Y38.7931
G01 X33.1693 Y38.8647
G01 X33.1658 Y38.9370
G01 X33.1693 Y39.0093
G01 X33.1799 Y39.0808
G01 X33.1975 Y39.1510
G01 X33.2219 Y39.2191
G01 X33.2528 Y39.2845
G01 X33.2900 Y39.3466
G01 X33.3331 Y39.4047
G01 X33.3817 Y39.4583
G01 X33.4353 Y39.5069
G01 X33.4934 Y39.5500
G01 X33.5555 Y39.5872
G01 X33.6209 Y39.6181
G01 X33.6890 Y39.6425
G01 X33.7592 Y39.6601
G01 X33.8307 Y39.6707
G01 X33.9030 Y39.6743
G01 X33.9753 Y39.6707
G01 X34.0468 Y39.6601
G01 X34.1170 Y39.6425
G01 X34.1851 Y39.6181
G01 X34.2505 Y39.5872
G01 X34.3126 Y39.5500
G01 X34.3707 Y39.5069
G01 X34.4243 Y39.4583
G01 X34.4729 Y39.4047
G01 X34.5160 Y39.3466
G01 X34.5532 Y39.2845
G01 X34.5841 Y39.2191
G01 X34.6085 Y39.1510
G01 X34.6261 Y39.0808
G01 X34.6367 Y39.0093
G01 X34.6402 Y38.9370
G01 X34.6367 Y38.8647
G01 X34.6261 Y38.7931
G01 X34.6085 Y38.7230
G01 X34.5841 Y38.6548
G01 X34.5532 Y38.5894
G01 X34.5160 Y38.5274
G01 X34.4729 Y38.4693
G01 X34.4243 Y38.4157
G01 X34.3707 Y38.3671
G01 X34.3126 Y38.3240
G01 X34.2505 Y38.2868
G01 X34.1851 Y38.2558
G01 X34.1170 Y38.2315
G01 X34.0468 Y38.2139
G01 X33.9753 Y38.2033
G01 X33.9030 Y38.1997
G01 X33.9937 Y38.9370
G01 X33.9933 Y38.9281
G01 X33.9920 Y38.9193
G01 X33.9915 Y38.9171
G01 X33.9910 Y38.9149
G01 X33.9891 Y38.9085
G01 X33.9859 Y38.9002
G01 X33.9808 Y38.8904
G01 X33.9759 Y38.8829
G01 X33.9687 Y38.8744
G01 X33.9623 Y38.8683
G01 X33.9534 Y38.8616
G01 X33.9458 Y38.8570
G01 X33.9377 Y38.8532
G01 X33.9272 Y38.8496
G01 X33.9163 Y38.8473
G01 X33.9075 Y38.8464
G01 X33.8963 Y38.8465
G01 X33.8875 Y38.8476
G01 X33.8767 Y38.8502
G01 X33.8683 Y38.8532
G01 X33.8602 Y38.8570
G01 X33.8526 Y38.8616
G01 X33.8437 Y38.8683
G01 X33.8373 Y38.8744
G01 X33.8315 Y38.8812
G01 X33.8252 Y38.8904
G01 X33.8201 Y38.9002
G01 X33.8169 Y38.9085
G01 X33.8140 Y38.9193
G01 X33.8127 Y38.9281
G01 X33.8123 Y38.9392
G01 X33.8130 Y38.9481
G01 X33.8150 Y38.9590
G01 X33.8176 Y38.9676
G01 X33.8210 Y38.9758
G01 X33.8241 Y38.9817
G01 X33.8276 Y38.9874
G01 X33.8329 Y38.9945
G01 X33.8421 Y39.0042
G01 X33.8472 Y39.0085
G01 X33.8545 Y39.0136
G01 X33.8622 Y39.0180
G01 X33.8683 Y39.0208
G01 X33.8810 Y39.0250
G01 X33.8897 Y39.0267
G01 X33.8963 Y39.0275
G01 X33.9097 Y39.0275
G01 X33.9163 Y39.0267
G01 X33.9250 Y39.0250
G01 X33.9336 Y39.0224
G01 X33.9418 Y39.0190
G01 X33.9496 Y39.0148
G01 X33.9570 Y39.0099
G01 X33.9639 Y39.0042
G01 X33.9687 Y38.9995
G01 X33.9745 Y38.9928
G01 X33.9796 Y38.9855
G01 X33.9840 Y38.9778
G01 X33.9868 Y38.9717
G01 X33.9898 Y38.9633
G01 X33.9920 Y38.9547
G01 X33.9933 Y38.9459
G01 X33.9937 Y38.9370
G01 X34.1752 Y38.9370
G01 X34.1744 Y38.9170
G01 X34.1731 Y38.9037
G01 X34.1712 Y38.8905
G01 X34.1685 Y38.8774
G01 X34.1653 Y38.8644
G01 X34.1614 Y38.8516
G01 X34.1569 Y38.8390
G01 X34.1490 Y38.8206
G01 X34.1430 Y38.8087
G01 X34.1329 Y38.7914
G01 X34.1255 Y38.7803
G01 X34.1134 Y38.7643
G01 X34.1001 Y38.7493
G01 X34.0907 Y38.7399
G01 X34.0808 Y38.7309
G01 X34.0704 Y38.7224
G01 X34.0542 Y38.7107
G01 X34.0429 Y38.7036
G01 X34.0313 Y38.6970
G01 X34.0133 Y38.6882
G01 X34.0009 Y38.6831
G01 X33.9820 Y38.6765
G01 X33.9691 Y38.6730
G01 X33.9626 Y38.6714
G01 X33.9561 Y38.6701
G01 X33.9429 Y38.6678
G01 X33.9297 Y38.6661
G01 X33.9097 Y38.6649
G01 X33.8963 Y38.6649
G01 X33.8763 Y38.6661
G01 X33.8631 Y38.6678
G01 X33.8499 Y38.6701
G01 X33.8304 Y38.6747
G01 X33.8176 Y38.6786
G01 X33.8051 Y38.6831
G01 X33.7927 Y38.6882
G01 X33.7747 Y38.6970
G01 X33.7574 Y38.7071
G01 X33.7463 Y38.7145
G01 X33.7356 Y38.7224
G01 X33.7202 Y38.7353
G01 X33.7059 Y38.7493
G01 X33.6969 Y38.7592
G01 X33.6884 Y38.7695
G01 X33.6805 Y38.7803
G01 X33.6696 Y38.7971
G01 X33.6630 Y38.8087
G01 X33.6570 Y38.8206
G01 X33.6516 Y38.8328
G01 X33.6467 Y38.8453
G01 X33.6426 Y38.8580
G01 X33.6390 Y38.8709
G01 X33.6348 Y38.8905
G01 X33.6322 Y38.9103
G01 X33.6312 Y38.9236
G01 X33.6309 Y38.9437
G01 X33.6316 Y38.9570
G01 X33.6329 Y38.9703
G01 X33.6361 Y38.9901
G01 X33.6390 Y39.0031
G01 X33.6446 Y39.0224
G01 X33.6491 Y39.0349
G01 X33.6570 Y39.0534
G01 X33.6630 Y39.0653
G01 X33.6696 Y39.0769
G01 X33.6767 Y39.0882
G01 X33.6844 Y39.0991
G01 X33.6969 Y39.1148
G01 X33.7106 Y39.1294
G01 X33.7252 Y39.1431
G01 X33.7409 Y39.1556
G01 X33.7574 Y39.1669
G01 X33.7747 Y39.1770
G01 X33.7927 Y39.1858
G01 X33.8113 Y39.1932
G01 X33.8304 Y39.1993
G01 X33.8499 Y39.2039
G01 X33.8631 Y39.2062
G01 X33.8763 Y39.2078
G01 X33.8963 Y39.2091
G01 X33.9164 Y39.2088
G01 X33.9363 Y39.2071
G01 X33.9561 Y39.2039
G01 X33.9691 Y39.2010
G01 X33.9820 Y39.1974
G01 X34.0009 Y39.1909
G01 X34.0194 Y39.1830
G01 X34.0313 Y39.1770
G01 X34.0429 Y39.1704
G01 X34.0542 Y39.1633
G01 X34.0651 Y39.1556
G01 X34.0808 Y39.1431
G01 X34.0907 Y39.1341
G01 X34.1001 Y39.1247
G01 X34.1134 Y39.1096
G01 X34.1255 Y39.0937
G01 X34.1329 Y39.0826
G01 X34.1398 Y39.0711
G01 X34.1461 Y39.0594
G01 X34.1518 Y39.0473
G01 X34.1593 Y39.0287
G01 X34.1653 Y39.0096
G01 X34.1685 Y38.9966
G01 X34.1712 Y38.9835
G01 X34.1738 Y38.9637
G01 X34.1748 Y38.9503
G01 X34.1752 Y38.9370
G01 X34.3566 Y38.9370
G01 X34.3561 Y38.9147
G01 X34.3554 Y38.9036
G01 X34.3532 Y38.8815
G01 X34.3517 Y38.8704
G01 X34.3479 Y38.8485
G01 X34.3430 Y38.8268
G01 X34.3371 Y38.8053
G01 X34.3301 Y38.7842
G01 X34.3262 Y38.7737
G01 X34.3221 Y38.7634
G01 X34.3130 Y38.7431
G01 X34.3030 Y38.7232
G01 X34.2921 Y38.7038
G01 X34.2802 Y38.6850
G01 X34.2739 Y38.6758
G01 X34.2606 Y38.6579
G01 X34.2465 Y38.6407
G01 X34.2315 Y38.6242
G01 X34.2158 Y38.6085
G01 X34.2076 Y38.6009
G01 X34.1993 Y38.5935
G01 X34.1821 Y38.5794
G01 X34.1642 Y38.5661
G01 X34.1457 Y38.5538
G01 X34.1266 Y38.5423
G01 X34.1168 Y38.5370
G01 X34.0969 Y38.5269
G01 X34.0766 Y38.5179
G01 X34.0558 Y38.5099
G01 X34.0347 Y38.5029
G01 X34.0240 Y38.4998
G01 X34.0024 Y38.4944
G01 X33.9915 Y38.4921
G01 X33.9696 Y38.4883
G01 X33.9585 Y38.4868
G01 X33.9475 Y38.4856
G01 X33.9364 Y38.4846
G01 X33.9141 Y38.4835
G01 X33.9030 Y38.4834
G01 X33.8807 Y38.4839
G01 X33.8585 Y38.4856
G01 X33.8364 Y38.4883
G01 X33.8145 Y38.4921
G01 X33.8036 Y38.4944
G01 X33.7820 Y38.4998
G01 X33.7713 Y38.5029
G01 X33.7502 Y38.5099
G01 X33.7294 Y38.5179
G01 X33.7091 Y38.5269
G01 X33.6991 Y38.5318
G01 X33.6794 Y38.5423
G01 X33.6603 Y38.5538
G01 X33.6510 Y38.5598
G01 X33.6328 Y38.5727
G01 X33.6152 Y38.5864
G01 X33.6067 Y38.5935
G01 X33.5902 Y38.6085
G01 X33.5823 Y38.6162
G01 X33.5669 Y38.6324
G01 X33.5595 Y38.6407
G01 X33.5454 Y38.6579
G01 X33.5321 Y38.6758
G01 X33.5198 Y38.6943
G01 X33.5139 Y38.7038
G01 X33.5030 Y38.7232
G01 X33.4930 Y38.7431
G01 X33.4883 Y38.7532
G01 X33.4798 Y38.7737
G01 X33.4723 Y38.7947
G01 X33.4689 Y38.8053
G01 X33.4630 Y38.8268
G01 X33.4604 Y38.8376
G01 X33.4561 Y38.8594
G01 X33.4528 Y38.8815
G01 X33.4506 Y38.9036
G01 X33.4499 Y38.9147
G01 X33.4494 Y38.9370
G01 X33.4499 Y38.9592
G01 X33.4506 Y38.9704
G01 X33.4528 Y38.9925
G01 X33.4543 Y39.0035
G01 X33.4581 Y39.0255
G01 X33.4630 Y39.0472
G01 X33.4689 Y39.0687
G01 X33.4759 Y39.0898
G01 X33.4839 Y39.1106
G01 X33.4883 Y39.1208
G01 X33.4978 Y39.1409
G01 X33.5083 Y39.1606
G01 X33.5198 Y39.1797
G01 X33.5258 Y39.1890
G01 X33.5387 Y39.2072
G01 X33.5524 Y39.2248
G01 X33.5595 Y39.2333
G01 X33.5669 Y39.2416
G01 X33.5823 Y39.2577
G01 X33.5984 Y39.2731
G01 X33.6067 Y39.2805
G01 X33.6152 Y39.2876
G01 X33.6328 Y39.3013
G01 X33.6510 Y39.3141
G01 X33.6603 Y39.3202
G01 X33.6794 Y39.3317
G01 X33.6991 Y39.3422
G01 X33.7091 Y39.3470
G01 X33.7192 Y39.3517
G01 X33.7398 Y39.3602
G01 X33.7607 Y39.3677
G01 X33.7713 Y39.3711
G01 X33.7928 Y39.3770
G01 X33.8036 Y39.3796
G01 X33.8145 Y39.3819
G01 X33.8364 Y39.3857
G01 X33.8475 Y39.3872
G01 X33.8696 Y39.3894
G01 X33.8807 Y39.3900
G01 X33.9030 Y39.3906
G01 X33.9253 Y39.3900
G01 X33.9364 Y39.3894
G01 X33.9585 Y39.3872
G01 X33.9696 Y39.3857
G01 X33.9915 Y39.3819
G01 X34.0024 Y39.3796
G01 X34.0240 Y39.3742
G01 X34.0347 Y39.3711
G01 X34.0558 Y39.3641
G01 X34.0662 Y39.3602
G01 X34.0868 Y39.3517
G01 X34.0969 Y39.3470
G01 X34.1168 Y39.3370
G01 X34.1362 Y39.3261
G01 X34.1457 Y39.3202
G01 X34.1642 Y39.3078
G01 X34.1821 Y39.2946
G01 X34.1993 Y39.2805
G01 X34.2158 Y39.2655
G01 X34.2237 Y39.2577
G01 X34.2391 Y39.2416
G01 X34.2465 Y39.2333
G01 X34.2536 Y39.2248
G01 X34.2673 Y39.2072
G01 X34.2802 Y39.1890
G01 X34.2921 Y39.1702
G01 X34.2977 Y39.1606
G01 X34.3082 Y39.1409
G01 X34.3130 Y39.1309
G01 X34.3221 Y39.1106
G01 X34.3301 Y39.0898
G01 X34.3337 Y39.0793
G01 X34.3371 Y39.0687
G01 X34.3430 Y39.0472
G01 X34.3479 Y39.0255
G01 X34.3517 Y39.0035
G01 X34.3532 Y38.9925
G01 X34.3554 Y38.9704
G01 X34.3561 Y38.9592
G01 X34.3566 Y38.9370
G01 X34.5380 Y38.9370
G01 X34.5373 Y38.9058
G01 X34.5363 Y38.8903
G01 X34.5333 Y38.8593
G01 X34.5287 Y38.8284
G01 X34.5226 Y38.7979
G01 X34.5190 Y38.7827
G01 X34.5150 Y38.7676
G01 X34.5060 Y38.7378
G01 X34.4955 Y38.7084
G01 X34.4836 Y38.6796
G01 X34.4771 Y38.6655
G01 X34.4631 Y38.6376
G01 X34.4477 Y38.6105
G01 X34.4310 Y38.5842
G01 X34.4222 Y38.5713
G01 X34.4036 Y38.5463
G01 X34.3839 Y38.5222
G01 X34.3629 Y38.4991
G01 X34.3520 Y38.4879
G01 X34.3295 Y38.4665
G01 X34.3178 Y38.4561
G01 X34.2937 Y38.4364
G01 X34.2687 Y38.4178
G01 X34.2427 Y38.4005
G01 X34.2160 Y38.3844
G01 X34.1885 Y38.3698
G01 X34.1745 Y38.3629
G01 X34.1460 Y38.3503
G01 X34.1169 Y38.3391
G01 X34.1022 Y38.3340
G01 X34.0724 Y38.3250
G01 X34.0573 Y38.3210
G01 X34.0269 Y38.3142
G01 X33.9962 Y38.3088
G01 X33.9807 Y38.3067
G01 X33.9497 Y38.3037
G01 X33.9186 Y38.3021
G01 X33.9030 Y38.3020
G01 X33.8718 Y38.3027
G01 X33.8408 Y38.3050
G01 X33.8253 Y38.3067
G01 X33.7944 Y38.3113
G01 X33.7639 Y38.3174
G01 X33.7487 Y38.3210
G01 X33.7187 Y38.3293
G01 X33.6891 Y38.3391
G01 X33.6600 Y38.3503
G01 X33.6457 Y38.3564
G01 X33.6175 Y38.3698
G01 X33.6036 Y38.3769
G01 X33.5765 Y38.3923
G01 X33.5502 Y38.4090
G01 X33.5373 Y38.4178
G01 X33.5123 Y38.4364
G01 X33.4882 Y38.4561
G01 X33.4765 Y38.4665
G01 X33.4540 Y38.4879
G01 X33.4325 Y38.5105
G01 X33.4121 Y38.5341
G01 X33.3929 Y38.5587
G01 X33.3838 Y38.5713
G01 X33.3665 Y38.5972
G01 X33.3505 Y38.6240
G01 X33.3429 Y38.6376
G01 X33.3289 Y38.6655
G01 X33.3224 Y38.6796
G01 X33.3105 Y38.7084
G01 X33.3000 Y38.7378
G01 X33.2910 Y38.7676
G01 X33.2870 Y38.7827
G01 X33.2834 Y38.7979
G01 X33.2773 Y38.8284
G01 X33.2727 Y38.8593
G01 X33.2697 Y38.8903
G01 X33.2682 Y38.9214
G01 X33.2680 Y38.9370
G01 X33.2687 Y38.9681
G01 X33.2697 Y38.9837
G01 X33.2727 Y39.0147
G01 X33.2773 Y39.0456
G01 X33.2802 Y39.0609
G01 X33.2870 Y39.0913
G01 X33.2953 Y39.1213
G01 X33.3051 Y39.1509
G01 X33.3163 Y39.1800
G01 X33.3289 Y39.2085
G01 X33.3358 Y39.2225
G01 X33.3429 Y39.2363
G01 X33.3583 Y39.2635
G01 X33.3750 Y39.2898
G01 X33.3929 Y39.3153
G01 X33.4121 Y39.3399
G01 X33.4221 Y39.3518
G01 X33.4431 Y39.3749
G01 X33.4540 Y39.3860
G01 X33.4765 Y39.4075
G01 X33.5001 Y39.4279
G01 X33.5247 Y39.4471
G01 X33.5373 Y39.4562
G01 X33.5502 Y39.4650
G01 X33.5765 Y39.4817
G01 X33.6036 Y39.4970
G01 X33.6175 Y39.5042
G01 X33.6315 Y39.5111
G01 X33.6600 Y39.5237
G01 X33.6891 Y39.5349
G01 X33.7038 Y39.5400
G01 X33.7187 Y39.5447
G01 X33.7487 Y39.5530
G01 X33.7791 Y39.5598
G01 X33.7944 Y39.5627
G01 X33.8253 Y39.5673
G01 X33.8408 Y39.5690
G01 X33.8563 Y39.5703
G01 X33.8874 Y39.5718
G01 X33.9030 Y39.5720
G01 X33.9342 Y39.5713
G01 X33.9652 Y39.5690
G01 X33.9962 Y39.5652
G01 X34.0116 Y39.5627
G01 X34.0421 Y39.5566
G01 X34.0724 Y39.5490
G01 X34.0873 Y39.5447
G01 X34.1169 Y39.5349
G01 X34.1315 Y39.5295
G01 X34.1603 Y39.5175
G01 X34.1745 Y39.5111
G01 X34.1885 Y39.5042
G01 X34.2160 Y39.4895
G01 X34.2427 Y39.4735
G01 X34.2558 Y39.4650
G01 X34.2813 Y39.4471
G01 X34.2937 Y39.4376
G01 X34.3178 Y39.4178
G01 X34.3295 Y39.4075
G01 X34.3409 Y39.3969
G01 X34.3629 Y39.3749
G01 X34.3839 Y39.3518
G01 X34.4036 Y39.3277
G01 X34.4131 Y39.3153
G01 X34.4310 Y39.2898
G01 X34.4477 Y39.2635
G01 X34.4555 Y39.2500
G01 X34.4702 Y39.2225
G01 X34.4771 Y39.2085
G01 X34.4897 Y39.1800
G01 X34.4955 Y39.1655
G01 X34.5060 Y39.1362
G01 X34.5107 Y39.1213
G01 X34.5150 Y39.1064
G01 X34.5226 Y39.0761
G01 X34.5287 Y39.0456
G01 X34.5312 Y39.0302
G01 X34.5333 Y39.0147
G01 X34.5363 Y38.9837
G01 X34.5378 Y38.9526
G01 X34.5380 Y38.9370
G00 Z2.0000
G00 X35.1157 Y39.2791
G01 F60.00
G01 Z0.1366
G01 F120.00
G01 X35.1221 Y39.2961
G01 X35.1312 Y39.3189
G01 X35.1408 Y39.3414
G01 X35.1510 Y39.3637
G01 X35.1617 Y39.3857
G01 X35.1730 Y39.4074
G01 X35.1848 Y39.4289
G01 X35.1972 Y39.4500
G01 X35.2100 Y39.4709
G01 X35.2234 Y39.4914
G01 X35.2372 Y39.5116
G01 X35.2516 Y39.5315
G01 X35.2664 Y39.5509
G01 X35.2817 Y39.5701
G01 X35.2975 Y39.5888
G01 X35.3137 Y39.6072
G01 X35.3304 Y39.6251
G01 X35.3475 Y39.6426
G01 X35.3650 Y39.6597
G01 X35.3829 Y39.6764
G01 X35.4013 Y39.6926
G01 X35.4200 Y39.7084
G01 X35.4392 Y39.7237
G01 X35.4586 Y39.7385
G01 X35.4785 Y39.7529
G01 X35.4987 Y39.7667
G01 X35.5192 Y39.7801
G01 X35.5401 Y39.7929
G01 X35.5612 Y39.8053
G01 X35.5827 Y39.8171
G01 X35.6044 Y39.8284
G01 X35.6264 Y39.8391
G01 X35.6487 Y39.8493
G01 X35.6712 Y39.8589
G01 X35.6940 Y39.8680
G01 X35.7169 Y39.8766
G01 X35.7401 Y39.8845
G01 X35.7634 Y39.8919
G01 X35.7870 Y39.8988
G01 X35.8106 Y39.9050
G01 X35.8345 Y39.9107
G01 X35.8584 Y39.9157
G01 X35.8825 Y39.9202
G01 X35.9067 Y39.9241
G01 X35.9310 Y39.9274
G01 X35.9553 Y39.9301
G01 X35.9797 Y39.9322
G01 X36.0041 Y39.9337
G01 X36.0286 Y39.9346
G01 X36.0531 Y39.9349
G01 X36.0776 Y39.9346
G01 X36.1021 Y39.9337
G01 X36.1265 Y39.9322
G01 X36.1509 Y39.9301
G01 X36.1753 Y39.9274
G01 X36.1995 Y39.9241
G01 X36.2237 Y39.9202
G01 X36.2478 Y39.9157
G01 X36.2718 Y39.9107
G01 X36.2956 Y39.9050
G01 X36.3193 Y39.8988
G01 X36.3428 Y39.8919
G01 X36.3661 Y39.8845
G01 X36.3893 Y39.8766
G01 X36.4123 Y39.8680
G01 X36.4350 Y39.8589
G01 X36.4575 Y39.8493
G01 X36.4798 Y39.8391
G01 X36.5018 Y39.8284
G01 X36.5235 Y39.8171
G01 X36.5450 Y39.8053
G01 X36.5661 Y39.7929
G01 X36.5870 Y39.7801
G01 X36.6075 Y39.7667
G01 X36.6277 Y39.7529
G01 X36.6476 Y39.7385
G01 X36.6671 Y39.7237
G01 X36.6862 Y39.7084
G01 X36.7049 Y39.6926
G01 X36.7233 Y39.6764
G01 X36.7412 Y39.6597
G01 X36.7587 Y39.6426
G01 X36.7759 Y39.6251
G01 X36.7925 Y39.6072
G01 X36.8087 Y39.5888
G01 X36.8245 Y39.5701
G01 X36.8398 Y39.5509
G01 X36.8546 Y39.5315
G01 X36.8690 Y39.5116
G01 X36.8829 Y39.4914
G01 X36.8962 Y39.4709
G01 X36.9091 Y39.4500
G01 X36.9214 Y39.4289
G01 X36.9332 Y39.4074
G01 X36.9445 Y39.3857
G01 X36.9552 Y39.3637
G01 X36.9654 Y39.3414
G01 X36.9751 Y39.3189
G01 X36.9842 Y39.2961
G01 X36.9905 Y39.2791
G01 X36.8696 Y38.9370
G01 X36.8693 Y38.9170
G01 X36.8674 Y38.8769
G01 X36.8634 Y38.8370
G01 X36.8608 Y38.8172
G01 X36.8539 Y38.7777
G01 X36.8451 Y38.7386
G01 X36.8344 Y38.7000
G01 X36.8219 Y38.6619
G01 X36.8149 Y38.6431
G01 X36.7995 Y38.6061
G01 X36.7824 Y38.5699
G01 X36.7732 Y38.5521
G01 X36.7534 Y38.5172
G01 X36.7429 Y38.5002
G01 X36.7207 Y38.4669
G01 X36.6968 Y38.4347
G01 X36.6843 Y38.4190
G01 X36.6714 Y38.4037
G01 X36.6444 Y38.3740
G01 X36.6304 Y38.3597
G01 X36.6014 Y38.3320
G01 X36.5864 Y38.3187
G01 X36.5554 Y38.2933
G01 X36.5232 Y38.2694
G01 X36.5067 Y38.2581
G01 X36.4729 Y38.2367
G01 X36.4556 Y38.2266
G01 X36.4202 Y38.2077
G01 X36.3840 Y38.1906
G01 X36.3470 Y38.1752
G01 X36.3282 Y38.1682
G01 X36.3092 Y38.1617
G01 X36.2709 Y38.1501
G01 X36.2515 Y38.1450
G01 X36.2124 Y38.1362
G01 X36.1729 Y38.1293
G01 X36.1531 Y38.1267
G01 X36.1132 Y38.1227
G01 X36.0932 Y38.1215
G01 X36.0731 Y38.1208
G01 X36.0331 Y38.1208
G01 X35.9930 Y38.1227
G01 X35.9731 Y38.1244
G01 X35.9333 Y38.1293
G01 X35.9135 Y38.1325
G01 X35.8938 Y38.1362
G01 X35.8547 Y38.1450
G01 X35.8353 Y38.1501
G01 X35.7970 Y38.1617
G01 X35.7593 Y38.1752
G01 X35.7407 Y38.1827
G01 X35.7222 Y38.1906
G01 X35.6860 Y38.2077
G01 X35.6507 Y38.2266
G01 X35.6334 Y38.2367
G01 X35.6163 Y38.2472
G01 X35.5830 Y38.2694
G01 X35.5508 Y38.2933
G01 X35.5351 Y38.3058
G01 X35.5048 Y38.3320
G01 X35.4901 Y38.3457
G01 X35.4618 Y38.3740
G01 X35.4349 Y38.4037
G01 X35.4220 Y38.4190
G01 X35.3973 Y38.4506
G01 X35.3742 Y38.4834
G01 X35.3633 Y38.5002
G01 X35.3528 Y38.5172
G01 X35.3330 Y38.5521
G01 X35.3150 Y38.5879
G01 X35.3067 Y38.6061
G01 X35.2988 Y38.6245
G01 X35.2844 Y38.6619
G01 X35.2718 Y38.7000
G01 X35.2662 Y38.7192
G01 X35.2611 Y38.7386
G01 X35.2523 Y38.7777
G01 X35.2455 Y38.8172
G01 X35.2428 Y38.8370
G01 X35.2406 Y38.8570
G01 X35.2376 Y38.8969
G01 X35.2369 Y38.9170
G01 X35.2369 Y38.9570
G01 X35.2388 Y38.9971
G01 X35.2406 Y39.0170
G01 X35.2428 Y39.0369
G01 X35.2487 Y39.0766
G01 X35.2565 Y39.1159
G01 X35.2611 Y39.1354
G01 X35.2718 Y39.1740
G01 X35.2778 Y39.1931
G01 X35.2913 Y39.2308
G01 X35.2988 Y39.2494
G01 X35.3150 Y39.2861
G01 X35.3238 Y39.3041
G01 X35.3427 Y39.3394
G01 X35.3633 Y39.3738
G01 X35.3856 Y39.4071
G01 X35.3973 Y39.4234
G01 X35.4220 Y39.4550
G01 X35.4481 Y39.4853
G01 X35.4758 Y39.5143
G01 X35.4901 Y39.5283
G01 X35.5048 Y39.5420
G01 X35.5351 Y39.5681
G01 X35.5667 Y39.5928
G01 X35.5995 Y39.6159
G01 X35.6163 Y39.6268
G01 X35.6507 Y39.6474
G01 X35.6860 Y39.6663
G01 X35.7040 Y39.6751
G01 X35.7407 Y39.6913
G01 X35.7780 Y39.7057
G01 X35.7970 Y39.7123
G01 X35.8353 Y39.7239
G01 X35.8742 Y39.7336
G01 X35.8938 Y39.7378
G01 X35.9333 Y39.7446
G01 X35.9731 Y39.7495
G01 X35.9930 Y39.7513
G01 X36.0331 Y39.7532
G01 X36.0731 Y39.7532
G01 X36.0932 Y39.7525
G01 X36.1132 Y39.7513
G01 X36.1531 Y39.7473
G01 X36.1927 Y39.7414
G01 X36.2320 Y39.7336
G01 X36.2515 Y39.7290
G01 X36.2901 Y39.7183
G01 X36.3282 Y39.7057
G01 X36.3470 Y39.6988
G01 X36.3656 Y39.6913
G01 X36.4022 Y39.6751
G01 X36.4380 Y39.6571
G01 X36.4729 Y39.6373
G01 X36.4899 Y39.6268
G01 X36.5232 Y39.6045
G01 X36.5554 Y39.5807
G01 X36.5711 Y39.5681
G01 X36.6014 Y39.5420
G01 X36.6304 Y39.5143
G01 X36.6581 Y39.4853
G01 X36.6843 Y39.4550
G01 X36.6968 Y39.4393
G01 X36.7089 Y39.4234
G01 X36.7320 Y39.3906
G01 X36.7534 Y39.3567
G01 X36.7732 Y39.3219
G01 X36.7824 Y39.3041
G01 X36.7995 Y39.2679
G01 X36.8149 Y39.2308
G01 X36.8284 Y39.1931
G01 X36.8400 Y39.1548
G01 X36.8498 Y39.1159
G01 X36.8576 Y39.0766
G01 X36.8634 Y39.0369
G01 X36.8657 Y39.0170
G01 X36.8686 Y38.9771
G01 X36.8696 Y38.9370
G01 X36.6882 Y38.9370
G01 X36.6874 Y38.9058
G01 X36.6864 Y38.8903
G01 X36.6834 Y38.8593
G01 X36.6788 Y38.8284
G01 X36.6759 Y38.8131
G01 X36.6691 Y38.7827
G01 X36.6651 Y38.7676
G01 X36.6561 Y38.7378
G01 X36.6456 Y38.7084
G01 X36.6337 Y38.6796
G01 X36.6272 Y38.6655
G01 X36.6132 Y38.6376
G01 X36.5978 Y38.6105
G01 X36.5896 Y38.5972
G01 X36.5811 Y38.5842
G01 X36.5632 Y38.5587
G01 X36.5537 Y38.5463
G01 X36.5340 Y38.5222
G01 X36.5130 Y38.4991
G01 X36.5022 Y38.4879
G01 X36.4910 Y38.4771
G01 X36.4679 Y38.4561
G01 X36.4438 Y38.4364
G01 X36.4188 Y38.4178
G01 X36.4059 Y38.4090
G01 X36.3796 Y38.3923
G01 X36.3525 Y38.3769
G01 X36.3246 Y38.3629
G01 X36.2961 Y38.3503
G01 X36.2817 Y38.3445
G01 X36.2523 Y38.3340
G01 X36.2375 Y38.3293
G01 X36.2074 Y38.3210
G01 X36.1922 Y38.3174
G01 X36.1617 Y38.3113
G01 X36.1463 Y38.3088
G01 X36.1308 Y38.3067
G01 X36.0998 Y38.3037
G01 X36.0843 Y38.3027
G01 X36.0531 Y38.3020
G01 X36.0220 Y38.3027
G01 X36.0064 Y38.3037
G01 X35.9754 Y38.3067
G01 X35.9599 Y38.3088
G01 X35.9445 Y38.3113
G01 X35.9140 Y38.3174
G01 X35.8988 Y38.3210
G01 X35.8688 Y38.3293
G01 X35.8392 Y38.3391
G01 X35.8246 Y38.3445
G01 X35.7958 Y38.3564
G01 X35.7816 Y38.3629
G01 X35.7676 Y38.3698
G01 X35.7401 Y38.3844
G01 X35.7266 Y38.3923
G01 X35.7003 Y38.4090
G01 X35.6874 Y38.4178
G01 X35.6624 Y38.4364
G01 X35.6383 Y38.4561
G01 X35.6266 Y38.4665
G01 X35.6041 Y38.4879
G01 X35.5826 Y38.5105
G01 X35.5723 Y38.5222
G01 X35.5622 Y38.5341
G01 X35.5430 Y38.5587
G01 X35.5339 Y38.5713
G01 X35.5166 Y38.5972
G01 X35.5006 Y38.6240
G01 X35.4931 Y38.6376
G01 X35.4790 Y38.6655
G01 X35.4726 Y38.6796
G01 X35.4606 Y38.7084
G01 X35.4552 Y38.7231
G01 X35.4501 Y38.7378
G01 X35.4411 Y38.7676
G01 X35.4371 Y38.7827
G01 X35.4303 Y38.8131
G01 X35.4274 Y38.8284
G01 X35.4228 Y38.8593
G01 X35.4198 Y38.8903
G01 X35.4188 Y38.9058
G01 X35.4181 Y38.9370
G01 X35.4183 Y38.9526
G01 X35.4188 Y38.9681
G01 X35.4211 Y38.9992
G01 X35.4228 Y39.0147
G01 X35.4274 Y39.0456
G01 X35.4303 Y39.0609
G01 X35.4371 Y39.0913
G01 X35.4454 Y39.1213
G01 X35.4501 Y39.1362
G01 X35.4552 Y39.1509
G01 X35.4664 Y39.1800
G01 X35.4790 Y39.2085
G01 X35.4859 Y39.2225
G01 X35.4931 Y39.2363
G01 X35.5084 Y39.2635
G01 X35.5251 Y39.2898
G01 X35.5430 Y39.3153
G01 X35.5622 Y39.3399
G01 X35.5723 Y39.3518
G01 X35.5932 Y39.3749
G01 X35.6041 Y39.3860
G01 X35.6266 Y39.4075
G01 X35.6502 Y39.4279
G01 X35.6748 Y39.4471
G01 X35.7003 Y39.4650
G01 X35.7266 Y39.4817
G01 X35.7401 Y39.4895
G01 X35.7538 Y39.4970
G01 X35.7816 Y39.5111
G01 X35.8101 Y39.5237
G01 X35.8392 Y39.5349
G01 X35.8688 Y39.5447
G01 X35.8837 Y39.5490
G01 X35.9140 Y39.5566
G01 X35.9445 Y39.5627
G01 X35.9754 Y39.5673
G01 X36.0064 Y39.5703
G01 X36.0375 Y39.5718
G01 X36.0687 Y39.5718
G01 X36.0843 Y39.5713
G01 X36.1154 Y39.5690
G01 X36.1463 Y39.5652
G01 X36.1617 Y39.5627
G01 X36.1922 Y39.5566
G01 X36.2074 Y39.5530
G01 X36.2375 Y39.5447
G01 X36.2670 Y39.5349
G01 X36.2817 Y39.5295
G01 X36.3105 Y39.5175
G01 X36.3386 Y39.5042
G01 X36.3661 Y39.4895
G01 X36.3796 Y39.4817
G01 X36.4059 Y39.4650
G01 X36.4314 Y39.4471
G01 X36.4438 Y39.4376
G01 X36.4679 Y39.4178
G01 X36.4910 Y39.3969
G01 X36.5022 Y39.3860
G01 X36.5236 Y39.3635
G01 X36.5440 Y39.3399
G01 X36.5537 Y39.3277
G01 X36.5632 Y39.3153
G01 X36.5811 Y39.2898
G01 X36.5978 Y39.2635
G01 X36.6132 Y39.2363
G01 X36.6272 Y39.2085
G01 X36.6398 Y39.1800
G01 X36.6510 Y39.1509
G01 X36.6608 Y39.1213
G01 X36.6691 Y39.0913
G01 X36.6759 Y39.0609
G01 X36.6813 Y39.0302
G01 X36.6851 Y38.9992
G01 X36.6874 Y38.9681
G01 X36.6882 Y38.9370
G01 X36.5067 Y38.9370
G01 X36.5062 Y38.9147
G01 X36.5055 Y38.9036
G01 X36.5033 Y38.8815
G01 X36.5018 Y38.8704
G01 X36.4980 Y38.8485
G01 X36.4957 Y38.8376
G01 X36.4903 Y38.8160
G01 X36.4872 Y38.8053
G01 X36.4802 Y38.7842
G01 X36.4763 Y38.7737
G01 X36.4722 Y38.7634
G01 X36.4632 Y38.7431
G01 X36.4531 Y38.7232
G01 X36.4478 Y38.7134
G01 X36.4363 Y38.6943
G01 X36.4240 Y38.6758
G01 X36.4174 Y38.6668
G01 X36.4037 Y38.6492
G01 X36.3966 Y38.6407
G01 X36.3816 Y38.6242
G01 X36.3659 Y38.6085
G01 X36.3494 Y38.5935
G01 X36.3322 Y38.5794
G01 X36.3233 Y38.5727
G01 X36.3051 Y38.5598
G01 X36.2958 Y38.5538
G01 X36.2767 Y38.5423
G01 X36.2669 Y38.5370
G01 X36.2470 Y38.5269
G01 X36.2267 Y38.5179
G01 X36.2059 Y38.5099
G01 X36.1954 Y38.5063
G01 X36.1848 Y38.5029
G01 X36.1633 Y38.4970
G01 X36.1416 Y38.4921
G01 X36.1197 Y38.4883
G01 X36.1086 Y38.4868
G01 X36.0865 Y38.4846
G01 X36.0754 Y38.4839
G01 X36.0531 Y38.4834
G01 X36.0309 Y38.4839
G01 X36.0197 Y38.4846
G01 X35.9976 Y38.4868
G01 X35.9866 Y38.4883
G01 X35.9646 Y38.4921
G01 X35.9537 Y38.4944
G01 X35.9321 Y38.4998
G01 X35.9214 Y38.5029
G01 X35.9003 Y38.5099
G01 X35.8899 Y38.5138
G01 X35.8795 Y38.5179
G01 X35.8592 Y38.5269
G01 X35.8492 Y38.5318
G01 X35.8295 Y38.5423
G01 X35.8104 Y38.5538
G01 X35.8011 Y38.5598
G01 X35.7829 Y38.5727
G01 X35.7653 Y38.5864
G01 X35.7568 Y38.5935
G01 X35.7403 Y38.6085
G01 X35.7246 Y38.6242
G01 X35.7170 Y38.6324
G01 X35.7096 Y38.6407
G01 X35.6955 Y38.6579
G01 X35.6823 Y38.6758
G01 X35.6760 Y38.6850
G01 X35.6640 Y38.7038
G01 X35.6584 Y38.7134
G01 X35.6531 Y38.7232
G01 X35.6431 Y38.7431
G01 X35.6384 Y38.7532
G01 X35.6299 Y38.7737
G01 X35.6224 Y38.7947
G01 X35.6190 Y38.8053
G01 X35.6131 Y38.8268
G01 X35.6105 Y38.8376
G01 X35.6082 Y38.8485
G01 X35.6044 Y38.8704
G01 X35.6017 Y38.8925
G01 X35.6001 Y38.9147
G01 X35.5995 Y38.9370
G01 X35.6001 Y38.9592
G01 X35.6007 Y38.9704
G01 X35.6029 Y38.9925
G01 X35.6044 Y39.0035
G01 X35.6082 Y39.0255
G01 X35.6131 Y39.0472
G01 X35.6159 Y39.0580
G01 X35.6190 Y39.0687
G01 X35.6260 Y39.0898
G01 X35.6340 Y39.1106
G01 X35.6384 Y39.1208
G01 X35.6479 Y39.1409
G01 X35.6531 Y39.1508
G01 X35.6584 Y39.1606
G01 X35.6699 Y39.1797
G01 X35.6760 Y39.1890
G01 X35.6888 Y39.2072
G01 X35.7025 Y39.2248
G01 X35.7170 Y39.2416
G01 X35.7324 Y39.2577
G01 X35.7485 Y39.2731
G01 X35.7653 Y39.2876
G01 X35.7829 Y39.3013
G01 X35.8011 Y39.3141
G01 X35.8104 Y39.3202
G01 X35.8295 Y39.3317
G01 X35.8492 Y39.3422
G01 X35.8592 Y39.3470
G01 X35.8795 Y39.3561
G01 X35.9003 Y39.3641
G01 X35.9214 Y39.3711
G01 X35.9429 Y39.3770
G01 X35.9537 Y39.3796
G01 X35.9756 Y39.3839
G01 X35.9976 Y39.3872
G01 X36.0197 Y39.3894
G01 X36.0309 Y39.3900
G01 X36.0531 Y39.3906
G01 X36.0754 Y39.3900
G01 X36.0865 Y39.3894
G01 X36.1086 Y39.3872
G01 X36.1197 Y39.3857
G01 X36.1416 Y39.3819
G01 X36.1633 Y39.3770
G01 X36.1848 Y39.3711
G01 X36.2059 Y39.3641
G01 X36.2267 Y39.3561
G01 X36.2470 Y39.3470
G01 X36.2571 Y39.3422
G01 X36.2767 Y39.3317
G01 X36.2958 Y39.3202
G01 X36.3051 Y39.3141
G01 X36.3233 Y39.3013
G01 X36.3409 Y39.2876
G01 X36.3577 Y39.2731
G01 X36.3739 Y39.2577
G01 X36.3892 Y39.2416
G01 X36.4037 Y39.2248
G01 X36.4174 Y39.2072
G01 X36.4240 Y39.1982
G01 X36.4303 Y39.1890
G01 X36.4422 Y39.1702
G01 X36.4531 Y39.1508
G01 X36.4632 Y39.1309
G01 X36.4722 Y39.1106
G01 X36.4802 Y39.0898
G01 X36.4872 Y39.0687
G01 X36.4931 Y39.0472
G01 X36.4980 Y39.0255
G01 X36.5018 Y39.0035
G01 X36.5045 Y38.9815
G01 X36.5062 Y38.9592
G01 X36.5067 Y38.9370
G01 X36.3253 Y38.9370
G01 X36.3245 Y38.9170
G01 X36.3223 Y38.8971
G01 X36.3187 Y38.8774
G01 X36.3136 Y38.8580
G01 X36.3070 Y38.8390
G01 X36.2991 Y38.8206
G01 X36.2899 Y38.8028
G01 X36.2794 Y38.7858
G01 X36.2677 Y38.7695
G01 X36.2548 Y38.7542
G01 X36.2408 Y38.7399
G01 X36.2258 Y38.7266
G01 X36.2098 Y38.7145
G01 X36.1930 Y38.7036
G01 X36.1755 Y38.6939
G01 X36.1573 Y38.6855
G01 X36.1385 Y38.6786
G01 X36.1192 Y38.6730
G01 X36.0996 Y38.6688
G01 X36.0864 Y38.6669
G01 X36.0731 Y38.6656
G01 X36.0598 Y38.6649
G01 X36.0464 Y38.6649
G01 X36.0264 Y38.6661
G01 X36.0132 Y38.6678
G01 X36.0000 Y38.6701
G01 X35.9805 Y38.6747
G01 X35.9614 Y38.6807
G01 X35.9428 Y38.6882
G01 X35.9248 Y38.6970
G01 X35.9132 Y38.7036
G01 X35.9019 Y38.7107
G01 X35.8857 Y38.7224
G01 X35.8753 Y38.7309
G01 X35.8654 Y38.7399
G01 X35.8515 Y38.7542
G01 X35.8386 Y38.7695
G01 X35.8268 Y38.7858
G01 X35.8197 Y38.7971
G01 X35.8131 Y38.8087
G01 X35.8071 Y38.8206
G01 X35.8017 Y38.8328
G01 X35.7947 Y38.8516
G01 X35.7891 Y38.8709
G01 X35.7850 Y38.8905
G01 X35.7823 Y38.9103
G01 X35.7813 Y38.9236
G01 X35.7810 Y38.9370
G01 X35.7813 Y38.9503
G01 X35.7823 Y38.9637
G01 X35.7850 Y38.9835
G01 X35.7891 Y39.0031
G01 X35.7947 Y39.0224
G01 X35.8017 Y39.0411
G01 X35.8071 Y39.0534
G01 X35.8131 Y39.0653
G01 X35.8197 Y39.0769
G01 X35.8268 Y39.0882
G01 X35.8386 Y39.1044
G01 X35.8515 Y39.1198
G01 X35.8654 Y39.1341
G01 X35.8805 Y39.1474
G01 X35.8964 Y39.1595
G01 X35.9132 Y39.1704
G01 X35.9248 Y39.1770
G01 X35.9367 Y39.1830
G01 X35.9552 Y39.1909
G01 X35.9741 Y39.1974
G01 X35.9935 Y39.2025
G01 X36.0132 Y39.2062
G01 X36.0331 Y39.2084
G01 X36.0464 Y39.2091
G01 X36.0598 Y39.2091
G01 X36.0798 Y39.2078
G01 X36.0996 Y39.2051
G01 X36.1192 Y39.2010
G01 X36.1385 Y39.1954
G01 X36.1573 Y39.1884
G01 X36.1755 Y39.1801
G01 X36.1873 Y39.1738
G01 X36.1987 Y39.1669
G01 X36.2152 Y39.1556
G01 X36.2309 Y39.1431
G01 X36.2456 Y39.1294
G01 X36.2592 Y39.1148
G01 X36.2717 Y39.0991
G01 X36.2830 Y39.0826
G01 X36.2865 Y39.0769
G01 X36.2899 Y39.0711
G01 X36.2931 Y39.0653
G01 X36.2991 Y39.0534
G01 X36.3046 Y39.0411
G01 X36.3115 Y39.0224
G01 X36.3171 Y39.0031
G01 X36.3213 Y38.9835
G01 X36.3240 Y38.9637
G01 X36.3249 Y38.9503
G01 X36.3253 Y38.9370
G01 X36.1438 Y38.9370
G01 X36.1434 Y38.9281
G01 X36.1421 Y38.9193
G01 X36.1399 Y38.9107
G01 X36.1369 Y38.9023
G01 X36.1331 Y38.8942
G01 X36.1285 Y38.8866
G01 X36.1232 Y38.8794
G01 X36.1173 Y38.8728
G01 X36.1107 Y38.8669
G01 X36.1035 Y38.8616
G01 X36.0959 Y38.8570
G01 X36.0878 Y38.8532
G01 X36.0794 Y38.8502
G01 X36.0708 Y38.8480
G01 X36.0620 Y38.8467
G01 X36.0531 Y38.8463
G01 X36.0442 Y38.8467
G01 X36.0354 Y38.8480
G01 X36.0268 Y38.8502
G01 X36.0184 Y38.8532
G01 X36.0103 Y38.8570
G01 X36.0027 Y38.8616
G01 X35.9956 Y38.8669
G01 X35.9890 Y38.8728
G01 X35.9830 Y38.8794
G01 X35.9777 Y38.8866
G01 X35.9731 Y38.8942
G01 X35.9693 Y38.9023
G01 X35.9663 Y38.9107
G01 X35.9641 Y38.9193
G01 X35.9628 Y38.9281
G01 X35.9624 Y38.9370
G01 X35.9628 Y38.9459
G01 X35.9641 Y38.9547
G01 X35.9663 Y38.9633
G01 X35.9693 Y38.9717
G01 X35.9731 Y38.9798
G01 X35.9777 Y38.9874
G01 X35.9830 Y38.9945
G01 X35.9890 Y39.0011
G01 X35.9956 Y39.0071
G01 X36.0027 Y39.0124
G01 X36.0103 Y39.0170
G01 X36.0184 Y39.0208
G01 X36.0268 Y39.0238
G01 X36.0354 Y39.0260
G01 X36.0442 Y39.0273
G01 X36.0531 Y39.0277
G01 X36.0620 Y39.0273
G01 X36.0708 Y39.0260
G01 X36.0794 Y39.0238
G01 X36.0878 Y39.0208
G01 X36.0959 Y39.0170
G01 X36.1035 Y39.0124
G01 X36.1107 Y39.0071
G01 X36.1173 Y39.0011
G01 X36.1232 Y38.9945
G01 X36.1285 Y38.9874
G01 X36.1331 Y38.9798
G01 X36.1369 Y38.9717
G01 X36.1399 Y38.9633
G01 X36.1421 Y38.9547
G01 X36.1434 Y38.9459
G01 X36.1438 Y38.9370
G01 X36.9523 Y39.7000
G01 X36.9461 Y39.7073
G01 X36.9270 Y39.7290
G01 X36.9073 Y39.7502
G01 X36.8870 Y39.7709
G01 X36.8663 Y39.7911
G01 X36.8451 Y39.8108
G01 X36.8234 Y39.8300
G01 X36.8013 Y39.8486
G01 X36.7787 Y39.8667
G01 X36.7557 Y39.8843
G01 X36.7322 Y39.9012
G01 X36.7083 Y39.9176
G01 X36.6841 Y39.9334
G01 X36.6594 Y39.9486
G01 X36.6344 Y39.9631
G01 X36.6091 Y39.9771
G01 X36.5834 Y39.9904
G01 X36.5574 Y40.0031
G01 X36.5310 Y40.0152
G01 X36.5044 Y40.0266
G01 X36.4776 Y40.0373
G01 X36.4504 Y40.0474
G01 X36.4231 Y40.0568
G01 X36.3955 Y40.0656
G01 X36.3677 Y40.0736
G01 X36.3397 Y40.0810
G01 X36.3115 Y40.0877
G01 X36.2832 Y40.0937
G01 X36.2547 Y40.0990
G01 X36.2262 Y40.1036
G01 X36.1975 Y40.1075
G01 X36.1687 Y40.1107
G01 X36.1399 Y40.1132
G01 X36.1110 Y40.1149
G01 X36.0821 Y40.1160
G01 X36.0531 Y40.1164
G01 X36.0242 Y40.1160
G01 X35.9952 Y40.1149
G01 X35.9664 Y40.1132
G01 X35.9375 Y40.1107
G01 X35.9087 Y40.1075
G01 X35.8801 Y40.1036
G01 X35.8515 Y40.0990
G01 X35.8230 Y40.0937
G01 X35.7947 Y40.0877
G01 X35.7665 Y40.0810
G01 X35.7386 Y40.0736
G01 X35.7108 Y40.0656
G01 X35.6832 Y40.0568
G01 X35.6558 Y40.0474
G01 X35.6287 Y40.0373
G01 X35.6018 Y40.0266
G01 X35.5752 Y40.0152
G01 X35.5489 Y40.0031
G01 X35.5229 Y39.9904
G01 X35.4972 Y39.9771
G01 X35.4718 Y39.9631
G01 X35.4468 Y39.9486
G01 X35.4222 Y39.9334
G01 X35.3979 Y39.9176
G01 X35.3740 Y39.9012
G01 X35.3506 Y39.8843
G01 X35.3275 Y39.8667
G01 X35.3049 Y39.8486
G01 X35.2828 Y39.8300
G01 X35.2611 Y39.8108
G01 X35.2399 Y39.7911
G01 X35.2192 Y39.7709
G01 X35.1990 Y39.7502
G01 X35.1793 Y39.7290
G01 X35.1539 Y39.7000
G01 X35.4571 Y40.1602
G01 X35.4713 Y40.1671
G01 X35.5017 Y40.1810
G01 X35.5324 Y40.1942
G01 X35.5634 Y40.2066
G01 X35.5947 Y40.2182
G01 X35.6263 Y40.2291
G01 X35.6581 Y40.2392
G01 X35.6902 Y40.2485
G01 X35.7225 Y40.2570
G01 X35.7550 Y40.2647
G01 X35.7876 Y40.2716
G01 X35.8205 Y40.2778
G01 X35.8534 Y40.2831
G01 X35.8865 Y40.2876
G01 X35.9197 Y40.2912
G01 X35.9530 Y40.2941
G01 X35.9863 Y40.2962
G01 X36.0197 Y40.2974
G01 X36.0531 Y40.2978
G01 X36.0865 Y40.2974
G01 X36.1199 Y40.2962
G01 X36.1532 Y40.2941
G01 X36.1865 Y40.2912
G01 X36.2197 Y40.2876
G01 X36.2528 Y40.2831
G01 X36.2858 Y40.2778
G01 X36.3186 Y40.2716
G01 X36.3513 Y40.2647
G01 X36.3838 Y40.2570
G01 X36.4161 Y40.2485
G01 X36.4481 Y40.2392
G01 X36.4800 Y40.2291
G01 X36.5115 Y40.2182
G01 X36.5429 Y40.2066
G01 X36.5739 Y40.1942
G01 X36.6046 Y40.1810
G01 X36.6349 Y40.1671
G01 X36.6491 Y40.1602
G00 Z2.0000
G00 X35.1157 Y38.5949
G01 F60.00
G01 Z0.1366
G01 F120.00
G01 X35.1221 Y38.5778
G01 X35.1312 Y38.5551
G01 X35.1408 Y38.5326
G01 X35.1510 Y38.5103
G01 X35.1617 Y38.4883
G01 X35.1730 Y38.4666
G01 X35.1848 Y38.4451
G01 X35.1972 Y38.4240
G01 X35.2100 Y38.4031
G01 X35.2234 Y38.3826
G01 X35.2372 Y38.3624
G01 X35.2516 Y38.3425
G01 X35.2664 Y38.3230
G01 X35.2817 Y38.3039
G01 X35.2975 Y38.2852
G01 X35.3137 Y38.2668
G01 X35.3304 Y38.2489
G01 X35.3475 Y38.2314
G01 X35.3650 Y38.2142
G01 X35.3829 Y38.1976
G01 X35.4013 Y38.1814
G01 X35.4200 Y38.1656
G01 X35.4392 Y38.1503
G01 X35.4586 Y38.1355
G01 X35.4785 Y38.1211
G01 X35.4987 Y38.1072
G01 X35.5192 Y38.0939
G01 X35.5401 Y38.0810
G01 X35.5612 Y38.0687
G01 X35.5827 Y38.0569
G01 X35.6044 Y38.0456
G01 X35.6264 Y38.0349
G01 X35.6487 Y38.0247
G01 X35.6712 Y38.0150
G01 X35.6940 Y38.0059
G01 X35.7169 Y37.9974
G01 X35.7401 Y37.9894
G01 X35.7634 Y37.9820
G01 X35.7870 Y37.9752
G01 X35.8106 Y37.9690
G01 X35.8345 Y37.9633
G01 X35.8584 Y37.9582
G01 X35.8825 Y37.9538
G01 X35.9067 Y37.9499
G01 X35.9310 Y37.9466
G01 X35.9553 Y37.9439
G01 X35.9797 Y37.9418
G01 X36.0041 Y37.9403
G01 X36.0286 Y37.9394
G01 X36.0531 Y37.9391
G01 X36.0776 Y37.9394
G01 X36.1021 Y37.9403
G01 X36.1265 Y37.9418
G01 X36.1509 Y37.9439
G01 X36.1753 Y37.9466
G01 X36.1995 Y37.9499
G01 X36.2237 Y37.9538
G01 X36.2478 Y37.9582
G01 X36.2718 Y37.9633
G01 X36.2956 Y37.9690
G01 X36.3193 Y37.9752
G01 X36.3428 Y37.9820
G01 X36.3661 Y37.9894
G01 X36.3893 Y37.9974
G01 X36.4123 Y38.0059
G01 X36.4350 Y38.0150
G01 X36.4575 Y38.0247
G01 X36.4798 Y38.0349
G01 X36.5018 Y38.0456
G01 X36.5235 Y38.0569
G01 X36.5450 Y38.0687
G01 X36.5661 Y38.0810
G01 X36.5870 Y38.0939
G01 X36.6075 Y38.1072
G01 X36.6277 Y38.1211
G01 X36.6476 Y38.1355
G01 X36.6671 Y38.1503
G01 X36.6862 Y38.1656
G01 X36.7049 Y38.1814
G01 X36.7233 Y38.1976
G01 X36.7412 Y38.2142
G01 X36.7587 Y38.2314
G01 X36.7759 Y38.2489
G01 X36.7925 Y38.2668
G01 X36.8087 Y38.2852
G01 X36.8245 Y38.3039
G01 X36.8398 Y38.3230
G01 X36.8546 Y38.3425
G01 X36.8690 Y38.3624
G01 X36.8829 Y38.3826
G01 X36.8962 Y38.4031
G01 X36.9091 Y38.4240
G01 X36.9214 Y38.4451
G01 X36.9332 Y38.4666
G01 X36.9445 Y38.4883
G01 X36.9552 Y38.5103
G01 X36.9654 Y38.5326
G01 X36.9751 Y38.5551
G01 X36.9842 Y38.5778
G01 X36.9905 Y38.5949
G01 X36.9523 Y38.1740
G01 X36.9270 Y38.1450
G01 X36.9073 Y38.1238
G01 X36.8870 Y38.1031
G01 X36.8663 Y38.0828
G01 X36.8451 Y38.0631
G01 X36.8234 Y38.0440
G01 X36.8013 Y38.0253
G01 X36.7787 Y38.0072
G01 X36.7557 Y37.9897
G01 X36.7322 Y37.9728
G01 X36.7083 Y37.9564
G01 X36.6841 Y37.9406
G01 X36.6594 Y37.9254
G01 X36.6344 Y37.9108
G01 X36.6091 Y37.8969
G01 X36.5834 Y37.8836
G01 X36.5574 Y37.8709
G01 X36.5310 Y37.8588
G01 X36.5044 Y37.8474
G01 X36.4776 Y37.8367
G01 X36.4504 Y37.8266
G01 X36.4231 Y37.8172
G01 X36.3955 Y37.8084
G01 X36.3677 Y37.8004
G01 X36.3397 Y37.7930
G01 X36.3115 Y37.7863
G01 X36.2832 Y37.7803
G01 X36.2547 Y37.7750
G01 X36.2262 Y37.7704
G01 X36.1975 Y37.7665
G01 X36.1687 Y37.7633
G01 X36.1399 Y37.7608
G01 X36.1110 Y37.7591
G01 X36.0821 Y37.7580
G01 X36.0531 Y37.7576
G01 X36.0242 Y37.7580
G01 X35.9952 Y37.7591
G01 X35.9664 Y37.7608
G01 X35.9375 Y37.7633
G01 X35.9087 Y37.7665
G01 X35.8801 Y37.7704
G01 X35.8515 Y37.7750
G01 X35.8230 Y37.7803
G01 X35.7947 Y37.7863
G01 X35.7665 Y37.7930
G01 X35.7386 Y37.8004
G01 X35.7108 Y37.8084
G01 X35.6832 Y37.8172
G01 X35.6558 Y37.8266
G01 X35.6287 Y37.8367
G01 X35.6018 Y37.8474
G01 X35.5752 Y37.8588
G01 X35.5489 Y37.8709
G01 X35.5229 Y37.8836
G01 X35.4972 Y37.8969
G01 X35.4718 Y37.9108
G01 X35.4468 Y37.9254
G01 X35.4222 Y37.9406
G01 X35.3979 Y37.9564
G01 X35.3740 Y37.9728
G01 X35.3506 Y37.9897
G01 X35.3275 Y38.0072
G01 X35.3049 Y38.0253
G01 X35.2828 Y38.0440
G01 X35.2611 Y38.0631
G01 X35.2399 Y38.0828
G01 X35.2192 Y38.1031
G01 X35.1990 Y38.1238
G01 X35.1793 Y38.1450
G01 X35.1539 Y38.1740
G01 X35.4571 Y37.7138
G01 X35.4713 Y37.7068
G01 X35.5017 Y37.6929
G01 X35.5324 Y37.6798
G01 X35.5634 Y37.6674
G01 X35.5947 Y37.6557
G01 X35.6263 Y37.6449
G01 X35.6581 Y37.6348
G01 X35.6902 Y37.6255
G01 X35.7225 Y37.6170
G01 X35.7550 Y37.6093
G01 X35.7876 Y37.6023
G01 X35.8205 Y37.5962
G01 X35.8534 Y37.5909
