(G-CODE GENERATED BY FLATCAM v8.994 - www.flatcam.org - Version Date: 2020/11/7)

(Name: Gerber_BottomLayer.GBL_iso_combined_cnc)
(Type: G-code from Geometry)
(Units: MM)

(Created on Tuesday, 28 May 2024 at 20:26)

(This preprocessor is the default preprocessor used by FlatCAM.)
(It is made to work with MACH3 compatible motion controllers.)

(TOOL DIAMETER: 0.2155 mm)
(Feedrate_XY: 120.0 mm/min)
(Feedrate_Z: 60.0 mm/min)
(Feedrate rapids 1500.0 mm/min)

(Z_Cut: -0.1 mm)
(Z_Move: 2.0 mm)
(Z Start: None mm)
(Z End: 15.0 mm)
(X,Y End: None mm)
(Steps per circle: 64)
(Preprocessor Geometry: default)

(X range:   23.6723 ...   76.3287  mm)
(Y range:   24.1051 ...   45.8979  mm)

(Spindle Speed: 0.0 RPM)
G21
G90
G94

G01 F120.00

M5
G00 Z15.0000
G00 X0.0000 Y0.0000
T1
M6    
(MSG, Change to Tool Dia = 0.2155)
M0
G00 Z15.0000

M03
G01 F120.00
G00 X25.7161 Y26.6101
G01 F60.00
G01 Z-0.1000
G01 F120.00
G01 X25.7161 Y26.5667
G01 X26.0450 Y26.5667
G01 X26.0529 Y26.5664
G01 X26.0634 Y26.5652
G01 X26.0712 Y26.5635
G01 X26.0788 Y26.5613
G01 X26.0887 Y26.5575
G01 X26.0981 Y26.5527
G01 X26.1070 Y26.5471
G01 X26.1134 Y26.5423
G01 X26.1212 Y26.5352
G01 X26.1266 Y26.5294
G01 X26.1331 Y26.5210
G01 X26.1388 Y26.5121
G01 X26.1435 Y26.5027
G01 X26.1465 Y26.4953
G01 X26.1495 Y26.4852
G01 X26.1512 Y26.4774
G01 X26.1525 Y26.4669
G01 X26.1527 Y26.4590
G01 X26.1527 Y26.1306
G01 X26.1966 Y26.1306
G01 X26.1966 Y26.4467
G01 X26.1911 Y26.4923
G01 X26.1802 Y26.5239
G01 X26.1620 Y26.5525
G01 X26.1384 Y26.5767
G01 X26.1101 Y26.5942
G01 X26.0787 Y26.6054
G01 X26.0336 Y26.6101
G01 X25.7161 Y26.6101
G00 Z2.0000
G00 X26.6824 Y30.1417
G01 F60.00
G01 Z-0.1000
G01 F120.00
G01 X26.7336 Y30.0284
G01 X26.8056 Y29.9090
G01 X26.8915 Y29.7999
G01 X26.9896 Y29.7018
G01 X27.0815 Y29.6298
G01 X27.0815 Y29.6833
G01 X27.0481 Y29.7084
G01 X26.9715 Y29.7779
G01 X26.9660 Y29.7835
G01 X26.9001 Y29.8562
G01 X26.8949 Y29.8623
G01 X26.8318 Y29.9476
G01 X26.7786 Y30.0362
G01 X26.7736 Y30.0455
G01 X26.7316 Y30.1342
G01 X26.7284 Y30.1417
G01 X26.6824 Y30.1417
G00 Z2.0000
G00 X28.4243 Y29.6833
G01 F60.00
G01 Z-0.1000
G01 F120.00
G01 X28.4243 Y29.6298
G01 X28.5162 Y29.7018
G01 X28.6143 Y29.7999
G01 X28.7002 Y29.9090
G01 X28.7721 Y30.0284
G01 X28.8234 Y30.1417
G01 X28.7774 Y30.1417
G01 X28.7742 Y30.1342
G01 X28.7322 Y30.0455
G01 X28.7272 Y30.0362
G01 X28.6740 Y29.9476
G01 X28.6109 Y29.8623
G01 X28.6057 Y29.8562
G01 X28.5398 Y29.7835
G01 X28.5343 Y29.7779
G01 X28.4577 Y29.7084
G01 X28.4243 Y29.6833
G00 Z2.0000
G00 X28.4243 Y32.4962
G01 F60.00
G01 Z-0.1000
G01 F120.00
G01 X28.4243 Y32.4427
G01 X28.4577 Y32.4176
G01 X28.5343 Y32.3481
G01 X28.5398 Y32.3425
G01 X28.6057 Y32.2698
G01 X28.6109 Y32.2637
G01 X28.6740 Y32.1784
G01 X28.7272 Y32.0898
G01 X28.7322 Y32.0805
G01 X28.7742 Y31.9918
G01 X28.7774 Y31.9843
G01 X28.8234 Y31.9843
G01 X28.7721 Y32.0981
G01 X28.7002 Y32.2169
G01 X28.6143 Y32.3261
G01 X28.5162 Y32.4242
G01 X28.4243 Y32.4962
G00 Z2.0000
G00 X26.6824 Y31.9843
G01 F60.00
G01 Z-0.1000
G01 F120.00
G01 X26.7284 Y31.9843
G01 X26.7316 Y31.9918
G01 X26.7736 Y32.0805
G01 X26.7786 Y32.0898
G01 X26.8318 Y32.1784
G01 X26.8949 Y32.2637
G01 X26.9001 Y32.2698
G01 X26.9660 Y32.3425
G01 X26.9715 Y32.3481
G01 X27.0481 Y32.4176
G01 X27.0815 Y32.4427
G01 X27.0815 Y32.4962
G01 X26.9896 Y32.4242
G01 X26.8915 Y32.3261
G01 X26.8056 Y32.2169
G01 X26.7336 Y32.0981
G01 X26.6824 Y31.9843
G00 Z2.0000
G00 X26.9510 Y36.0592
G01 F60.00
G01 Z-0.1000
G01 F120.00
G01 X28.7403 Y36.0592
G01 X29.3951 Y35.4045
G01 X29.3951 Y31.8152
G01 X29.3272 Y31.7647
G01 X29.2650 Y31.7085
G01 X29.2575 Y31.7011
G01 X29.2013 Y31.6389
G01 X29.1513 Y31.5717
G01 X29.1454 Y31.5629
G01 X29.1025 Y31.4909
G01 X29.0665 Y31.4152
G01 X29.0625 Y31.4055
G01 X29.0344 Y31.3265
G01 X29.0139 Y31.2453
G01 X29.0118 Y31.2349
G01 X28.9997 Y31.1520
G01 X28.9954 Y31.0683
G01 X28.9954 Y31.0577
G01 X28.9994 Y30.9766
G01 X29.0003 Y30.9688
G01 X29.0127 Y30.8859
G01 X29.0330 Y30.8046
G01 X29.0360 Y30.7945
G01 X29.0625 Y30.7205
G01 X29.0665 Y30.7108
G01 X29.1025 Y30.6351
G01 X29.1483 Y30.5587
G01 X29.2013 Y30.4871
G01 X29.2612 Y30.4211
G01 X29.3272 Y30.3613
G01 X29.3944 Y30.3113
G01 X29.4032 Y30.3054
G01 X29.4705 Y30.2650
G01 X29.4798 Y30.2601
G01 X29.5556 Y30.2243
G01 X29.6395 Y30.1943
G01 X29.7259 Y30.1727
G01 X29.8114 Y30.1599
G01 X29.8193 Y30.1592
G01 X29.9030 Y30.1553
G01 X29.9920 Y30.1596
G01 X30.0801 Y30.1727
G01 X30.1614 Y30.1929
G01 X30.1715 Y30.1960
G01 X30.2454 Y30.2224
G01 X30.2552 Y30.2265
G01 X30.3309 Y30.2624
G01 X30.4028 Y30.3054
G01 X30.4116 Y30.3113
G01 X30.4789 Y30.3613
G01 X30.5449 Y30.4211
G01 X30.6047 Y30.4871
G01 X30.6578 Y30.5587
G01 X30.7036 Y30.6351
G01 X30.7416 Y30.7156
G01 X30.7716 Y30.7995
G01 X30.7921 Y30.8807
G01 X30.7938 Y30.8885
G01 X30.8064 Y30.9740
G01 X30.8106 Y31.0577
G01 X30.8106 Y31.0683
G01 X30.8064 Y31.1520
G01 X30.7942 Y31.2349
G01 X30.7921 Y31.2453
G01 X30.7716 Y31.3265
G01 X30.7416 Y31.4104
G01 X30.7059 Y31.4862
G01 X30.7009 Y31.4955
G01 X30.6578 Y31.5673
G01 X30.6047 Y31.6389
G01 X30.5485 Y31.7011
G01 X30.5410 Y31.7085
G01 X30.4789 Y31.7647
G01 X30.4110 Y31.8152
G01 X30.4110 Y35.6149
G01 X30.4089 Y35.6594
G01 X30.4079 Y35.6700
G01 X30.4012 Y35.7140
G01 X30.3891 Y35.7624
G01 X30.3723 Y35.8093
G01 X30.3534 Y35.8496
G01 X30.3497 Y35.8567
G01 X30.3254 Y35.8971
G01 X30.2989 Y35.9330
G01 X30.2940 Y35.9392
G01 X30.2640 Y35.9722
G01 X30.1770 Y36.0592
G01 X30.7537 Y36.0593
G01 X30.7642 Y36.0601
G01 X30.7772 Y36.0625
G01 X30.7898 Y36.0665
G01 X30.7995 Y36.0707
G01 X30.8109 Y36.0774
G01 X30.8214 Y36.0854
G01 X30.8309 Y36.0946
G01 X30.8376 Y36.1028
G01 X30.8448 Y36.1139
G01 X30.8506 Y36.1258
G01 X30.8549 Y36.1383
G01 X30.8572 Y36.1486
G01 X30.8585 Y36.1591
G01 X30.8588 Y36.1670
G01 X30.8588 Y36.4084
G01 X54.1152 Y36.4084
G01 X59.7877 Y30.7384
G01 X59.8065 Y30.7214
G01 X59.8268 Y30.7064
G01 X59.8485 Y30.6934
G01 X59.8714 Y30.6825
G01 X59.8952 Y30.6740
G01 X59.9197 Y30.6679
G01 X59.9447 Y30.6642
G01 X59.9700 Y30.6629
G01 X65.7881 Y30.6629
G01 X65.7942 Y30.6467
G01 X65.8204 Y30.5911
G01 X65.8241 Y30.5840
G01 X65.8585 Y30.5268
G01 X65.8999 Y30.4710
G01 X65.9465 Y30.4195
G01 X65.9940 Y30.3763
G01 X66.0022 Y30.3696
G01 X66.0538 Y30.3315
G01 X66.1134 Y30.2958
G01 X66.1713 Y30.2683
G01 X66.1811 Y30.2642
G01 X66.2416 Y30.2427
G01 X66.3089 Y30.2258
G01 X66.3724 Y30.2163
G01 X66.3829 Y30.2153
G01 X66.4417 Y30.2124
G01 X66.4496 Y30.2123
G01 X66.5164 Y30.2156
G01 X66.5851 Y30.2258
G01 X66.6524 Y30.2427
G01 X66.7129 Y30.2642
G01 X66.7227 Y30.2683
G01 X66.7759 Y30.2934
G01 X66.7852 Y30.2984
G01 X66.8402 Y30.3315
G01 X66.8918 Y30.3696
G01 X66.9000 Y30.3763
G01 X66.9475 Y30.4195
G01 X66.9941 Y30.4710
G01 X67.0355 Y30.5268
G01 X67.0712 Y30.5864
G01 X67.1009 Y30.6491
G01 X67.1243 Y30.7145
G01 X67.1412 Y30.7819
G01 X67.1511 Y30.8480
G01 X67.1517 Y30.8559
G01 X67.1547 Y30.9200
G01 X67.1517 Y30.9841
G01 X67.1507 Y30.9946
G01 X67.1421 Y31.0529
G01 X67.1400 Y31.0632
G01 X67.1243 Y31.1254
G01 X67.1009 Y31.1908
G01 X67.0712 Y31.2536
G01 X67.0383 Y31.3087
G01 X67.0324 Y31.3175
G01 X66.9974 Y31.3648
G01 X66.9906 Y31.3730
G01 X66.9475 Y31.4204
G01 X66.8960 Y31.4671
G01 X66.8402 Y31.5085
G01 X66.7852 Y31.5416
G01 X66.7759 Y31.5465
G01 X66.7227 Y31.5717
G01 X66.7154 Y31.5748
G01 X66.7048 Y31.5787
G01 X66.7048 Y40.5720
G01 X66.7038 Y40.5946
G01 X66.7029 Y40.6025
G01 X66.6999 Y40.6223
G01 X66.6945 Y40.6443
G01 X66.6921 Y40.6519
G01 X66.6842 Y40.6731
G01 X66.6744 Y40.6935
G01 X66.6628 Y40.7130
G01 X66.6496 Y40.7314
G01 X66.6428 Y40.7396
G01 X66.6293 Y40.7543
G01 X66.0791 Y41.3045
G01 X66.0859 Y41.3196
G01 X66.1083 Y41.3825
G01 X66.1240 Y41.4448
G01 X66.1261 Y41.4551
G01 X66.1353 Y41.5186
G01 X66.1386 Y41.5827
G01 X66.1386 Y41.5933
G01 X66.1353 Y41.6574
G01 X66.1261 Y41.7209
G01 X66.1240 Y41.7312
G01 X66.1083 Y41.7934
G01 X66.0868 Y41.8539
G01 X66.0827 Y41.8637
G01 X66.0552 Y41.9216
G01 X66.0223 Y41.9767
G01 X66.0180 Y41.9834
G01 X65.9781 Y42.0370
G01 X65.9315 Y42.0884
G01 X65.8800 Y42.1351
G01 X65.8285 Y42.1734
G01 X65.8197 Y42.1793
G01 X65.7646 Y42.2122
G01 X65.7067 Y42.2397
G01 X65.6969 Y42.2438
G01 X65.6415 Y42.2636
G01 X65.6314 Y42.2667
G01 X65.5691 Y42.2821
G01 X65.5030 Y42.2920
G01 X65.4951 Y42.2927
G01 X65.4310 Y42.2957
G01 X65.3616 Y42.2923
G01 X65.2929 Y42.2821
G01 X65.2256 Y42.2653
G01 X65.1602 Y42.2419
G01 X65.0974 Y42.2122
G01 X65.0378 Y42.1765
G01 X64.9862 Y42.1383
G01 X64.9780 Y42.1316
G01 X64.9305 Y42.0884
G01 X64.8874 Y42.0410
G01 X64.8806 Y42.0328
G01 X64.8456 Y41.9855
G01 X64.8397 Y41.9767
G01 X64.8068 Y41.9216
G01 X64.7793 Y41.8637
G01 X64.7752 Y41.8539
G01 X64.7537 Y41.7934
G01 X64.7368 Y41.7261
G01 X64.7267 Y41.6574
G01 X64.7234 Y41.5933
G01 X64.7233 Y41.5853
G01 X64.7267 Y41.5186
G01 X64.7359 Y41.4551
G01 X64.7380 Y41.4448
G01 X64.7523 Y41.3876
G01 X64.7554 Y41.3775
G01 X64.7771 Y41.3171
G01 X64.8044 Y41.2591
G01 X64.8094 Y41.2498
G01 X64.8425 Y41.1948
G01 X64.8839 Y41.1390
G01 X64.9305 Y41.0875
G01 X64.9780 Y41.0443
G01 X64.9841 Y41.0392
G01 X65.0378 Y40.9995
G01 X65.0928 Y40.9664
G01 X65.1021 Y40.9614
G01 X65.1602 Y40.9341
G01 X65.2205 Y40.9124
G01 X65.2306 Y40.9093
G01 X65.2929 Y40.8938
G01 X65.3564 Y40.8843
G01 X65.3669 Y40.8833
G01 X65.4257 Y40.8804
G01 X65.4363 Y40.8804
G01 X65.5004 Y40.8836
G01 X65.5639 Y40.8929
G01 X65.5742 Y40.8950
G01 X65.6364 Y40.9107
G01 X65.6994 Y40.9331
G01 X65.7144 Y40.9399
G01 X66.1892 Y40.4652
G01 X66.1892 Y31.5787
G01 X66.1737 Y31.5728
G01 X66.1157 Y31.5454
G01 X66.1088 Y31.5416
G01 X66.0538 Y31.5085
G01 X65.9980 Y31.4671
G01 X65.9465 Y31.4204
G01 X65.8999 Y31.3690
G01 X65.8585 Y31.3132
G01 X65.8228 Y31.2536
G01 X65.7942 Y31.1933
G01 X65.7886 Y31.1786
G01 X60.0768 Y31.1786
G01 X54.4042 Y36.8486
G01 X54.3855 Y36.8656
G01 X54.3695 Y36.8776
G01 X54.3630 Y36.8821
G01 X54.3481 Y36.8910
G01 X54.3388 Y36.8960
G01 X54.3206 Y36.9044
G01 X54.2968 Y36.9130
G01 X54.2723 Y36.9191
G01 X54.2499 Y36.9225
G01 X54.2220 Y36.9241
G01 X30.8588 Y36.9241
G01 X30.8587 Y37.1696
G01 X30.8576 Y37.1828
G01 X30.8549 Y37.1957
G01 X30.8515 Y37.2058
G01 X30.8484 Y37.2131
G01 X30.8448 Y37.2201
G01 X30.8406 Y37.2269
G01 X30.8360 Y37.2333
G01 X30.8309 Y37.2394
G01 X30.8253 Y37.2450
G01 X30.8194 Y37.2503
G01 X30.8131 Y37.2551
G01 X30.8064 Y37.2594
G01 X30.7995 Y37.2632
G01 X30.7923 Y37.2665
G01 X30.7848 Y37.2693
G01 X30.7772 Y37.2715
G01 X30.7694 Y37.2732
G01 X30.7616 Y37.2742
G01 X30.7510 Y37.2747
G01 X26.9484 Y37.2747
G01 X26.9378 Y37.2739
G01 X26.9274 Y37.2721
G01 X26.9197 Y37.2701
G01 X26.9098 Y37.2665
G01 X26.9026 Y37.2632
G01 X26.8934 Y37.2580
G01 X26.8847 Y37.2519
G01 X26.8767 Y37.2450
G01 X26.8712 Y37.2394
G01 X26.8645 Y37.2312
G01 X26.8600 Y37.2246
G01 X26.8548 Y37.2154
G01 X26.8505 Y37.2058
G01 X26.8472 Y37.1957
G01 X26.8449 Y37.1854
G01 X26.8438 Y37.1776
G01 X26.8433 Y37.1670
G01 X26.8433 Y36.1670
G01 X26.8438 Y36.1564
G01 X26.8453 Y36.1460
G01 X26.8479 Y36.1357
G01 X26.8515 Y36.1258
G01 X26.8560 Y36.1162
G01 X26.8614 Y36.1071
G01 X26.8677 Y36.0986
G01 X26.8748 Y36.0908
G01 X26.8827 Y36.0837
G01 X26.8912 Y36.0774
G01 X26.9002 Y36.0720
G01 X26.9098 Y36.0674
G01 X26.9197 Y36.0639
G01 X26.9300 Y36.0613
G01 X26.9405 Y36.0598
G01 X26.9510 Y36.0592
G00 Z2.0000
G00 X26.7997 Y38.2458
G01 F60.00
G01 Z-0.1000
G01 F120.00
G01 X26.7997 Y38.1783
G01 X26.8047 Y38.1340
G01 X26.8161 Y38.1016
G01 X26.8335 Y38.0735
G01 X26.8572 Y38.0504
G01 X26.8861 Y38.0320
G01 X26.9183 Y38.0207
G01 X26.9631 Y38.0153
G01 X27.7297 Y38.0153
G01 X27.7297 Y38.0592
G01 X26.9510 Y38.0592
G01 X26.9378 Y38.0601
G01 X26.9248 Y38.0625
G01 X26.9147 Y38.0655
G01 X26.9026 Y38.0707
G01 X26.8912 Y38.0774
G01 X26.8827 Y38.0837
G01 X26.8730 Y38.0927
G01 X26.8645 Y38.1028
G01 X26.8573 Y38.1139
G01 X26.8525 Y38.1233
G01 X26.8496 Y38.1307
G01 X26.8465 Y38.1408
G01 X26.8444 Y38.1512
G01 X26.8436 Y38.1591
G01 X26.8433 Y38.1670
G01 X26.8433 Y38.2458
G01 X26.7997 Y38.2458
G00 Z2.0000
G00 X26.9627 Y39.3187
G01 F60.00
G01 Z-0.1000
G01 F120.00
G01 X26.9179 Y39.3136
G01 X26.8865 Y39.3026
G01 X26.8575 Y39.2839
G01 X26.8335 Y39.2605
G01 X26.8160 Y39.2322
G01 X26.8047 Y39.2004
G01 X26.7997 Y39.1557
G01 X26.7997 Y39.0887
G01 X26.8433 Y39.0887
G01 X26.8433 Y39.1670
G01 X26.8436 Y39.1749
G01 X26.8449 Y39.1854
G01 X26.8472 Y39.1957
G01 X26.8505 Y39.2058
G01 X26.8536 Y39.2131
G01 X26.8586 Y39.2224
G01 X26.8661 Y39.2333
G01 X26.8748 Y39.2432
G01 X26.8847 Y39.2519
G01 X26.8956 Y39.2594
G01 X26.9074 Y39.2655
G01 X26.9172 Y39.2693
G01 X26.9300 Y39.2727
G01 X26.9405 Y39.2742
G01 X26.9510 Y39.2747
G01 X27.7297 Y39.2747
G01 X27.7297 Y39.3187
G01 X26.9627 Y39.3187
G00 Z2.0000
G00 X29.9721 Y39.3187
G01 F60.00
G01 Z-0.1000
G01 F120.00
G01 X29.9721 Y39.2747
G01 X30.7510 Y39.2747
G01 X30.7642 Y39.2739
G01 X30.7772 Y39.2715
G01 X30.7898 Y39.2675
G01 X30.7995 Y39.2632
G01 X30.8109 Y39.2566
G01 X30.8194 Y39.2503
G01 X30.8272 Y39.2432
G01 X30.8360 Y39.2333
G01 X30.8434 Y39.2224
G01 X30.8495 Y39.2107
G01 X30.8533 Y39.2008
G01 X30.8555 Y39.1932
G01 X30.8576 Y39.1828
G01 X30.8585 Y39.1749
G01 X30.8588 Y39.1670
G01 X30.8588 Y39.0887
G01 X30.9022 Y39.0887
G01 X30.9022 Y39.1557
G01 X30.8971 Y39.2008
G01 X30.8862 Y39.2322
G01 X30.8686 Y39.2602
G01 X30.8444 Y39.2839
G01 X30.8152 Y39.3027
G01 X30.7844 Y39.3136
G01 X30.7392 Y39.3187
G01 X29.9721 Y39.3187
G00 Z2.0000
G00 X29.9721 Y38.0592
G01 F60.00
G01 Z-0.1000
G01 F120.00
G01 X29.9721 Y38.0153
G01 X30.7388 Y38.0153
G01 X30.7840 Y38.0207
G01 X30.8156 Y38.0319
G01 X30.8447 Y38.0504
G01 X30.8686 Y38.0738
G01 X30.8862 Y38.1016
G01 X30.8971 Y38.1335
G01 X30.9022 Y38.1783
G01 X30.9022 Y38.2458
G01 X30.8588 Y38.2458
G01 X30.8588 Y38.1670
G01 X30.8585 Y38.1591
G01 X30.8572 Y38.1486
G01 X30.8549 Y38.1383
G01 X30.8525 Y38.1307
G01 X30.8484 Y38.1209
G01 X30.8434 Y38.1116
G01 X30.8360 Y38.1007
G01 X30.8272 Y38.0908
G01 X30.8173 Y38.0820
G01 X30.8064 Y38.0746
G01 X30.7971 Y38.0696
G01 X30.7848 Y38.0647
G01 X30.7720 Y38.0613
G01 X30.7616 Y38.0598
G01 X30.7510 Y38.0592
G01 X29.9721 Y38.0592
G00 Z2.0000
G00 X32.8495 Y40.4708
G01 F60.00
G01 Z-0.1000
G01 F120.00
G01 X32.8495 Y40.2784
G01 X32.8545 Y40.2339
G01 X32.8658 Y40.2017
G01 X32.8837 Y40.1734
G01 X32.9071 Y40.1500
G01 X32.9359 Y40.1322
G01 X32.9681 Y40.1208
G01 X33.0133 Y40.1153
G01 X33.6799 Y40.1153
G01 X33.6799 Y40.1593
G01 X33.0010 Y40.1593
G01 X32.9904 Y40.1598
G01 X32.9800 Y40.1613
G01 X32.9697 Y40.1639
G01 X32.9597 Y40.1675
G01 X32.9479 Y40.1733
G01 X32.9368 Y40.1805
G01 X32.9267 Y40.1890
G01 X32.9177 Y40.1987
G01 X32.9114 Y40.2072
G01 X32.9047 Y40.2186
G01 X32.8995 Y40.2307
G01 X32.8958 Y40.2434
G01 X32.8940 Y40.2538
G01 X32.8932 Y40.2670
G01 X32.8932 Y40.4708
G01 X32.8495 Y40.4708
G00 Z2.0000
G00 X33.0125 Y41.9181
G01 F60.00
G01 Z-0.1000
G01 F120.00
G01 X32.9673 Y41.9134
G01 X32.9359 Y41.9023
G01 X32.9077 Y41.8848
G01 X32.8841 Y41.8606
G01 X32.8656 Y41.8315
G01 X32.8545 Y41.8004
G01 X32.8495 Y41.7552
G01 X32.8495 Y41.5637
G01 X32.8932 Y41.5637
G01 X32.8932 Y41.7670
G01 X32.8940 Y41.7802
G01 X32.8958 Y41.7906
G01 X32.8995 Y41.8033
G01 X32.9047 Y41.8155
G01 X32.9114 Y41.8269
G01 X32.9194 Y41.8374
G01 X32.9286 Y41.8469
G01 X32.9389 Y41.8551
G01 X32.9502 Y41.8620
G01 X32.9622 Y41.8675
G01 X32.9722 Y41.8709
G01 X32.9826 Y41.8732
G01 X32.9931 Y41.8745
G01 X33.0010 Y41.8748
G01 X33.6799 Y41.8748
G01 X33.6799 Y41.9181
G01 X33.0125 Y41.9181
G00 Z2.0000
G00 X35.7222 Y41.9181
G01 F60.00
G01 Z-0.1000
G01 F120.00
G01 X35.7222 Y41.8748
G01 X36.4010 Y41.8748
G01 X36.4115 Y41.8743
G01 X36.4220 Y41.8727
G01 X36.4323 Y41.8701
G01 X36.4422 Y41.8666
G01 X36.4541 Y41.8608
G01 X36.4652 Y41.8536
G01 X36.4753 Y41.8451
G01 X36.4843 Y41.8354
G01 X36.4920 Y41.8247
G01 X36.4972 Y41.8155
G01 X36.5024 Y41.8033
G01 X36.5061 Y41.7906
G01 X36.5079 Y41.7802
G01 X36.5087 Y41.7670
G01 X36.5087 Y41.5637
G01 X36.5522 Y41.5637
G01 X36.5522 Y41.7552
G01 X36.5471 Y41.8008
G01 X36.5363 Y41.8319
G01 X36.5183 Y41.8603
G01 X36.4941 Y41.8848
G01 X36.4660 Y41.9024
G01 X36.4348 Y41.9134
G01 X36.3897 Y41.9181
G01 X35.7222 Y41.9181
G00 Z2.0000
G00 X35.7222 Y40.1593
G01 F60.00
G01 Z-0.1000
G01 F120.00
G01 X35.7222 Y40.1153
G01 X36.3888 Y40.1153
G01 X36.4340 Y40.1208
G01 X36.4660 Y40.1321
G01 X36.4946 Y40.1500
G01 X36.5186 Y40.1737
G01 X36.5361 Y40.2013
G01 X36.5471 Y40.2335
G01 X36.5522 Y40.2784
G01 X36.5522 Y40.4708
G01 X36.5087 Y40.4708
G01 X36.5087 Y40.2670
G01 X36.5079 Y40.2538
G01 X36.5061 Y40.2434
G01 X36.5024 Y40.2307
G01 X36.4972 Y40.2186
G01 X36.4906 Y40.2072
G01 X36.4826 Y40.1966
G01 X36.4733 Y40.1872
G01 X36.4630 Y40.1789
G01 X36.4518 Y40.1720
G01 X36.4398 Y40.1665
G01 X36.4297 Y40.1632
G01 X36.4194 Y40.1609
G01 X36.4089 Y40.1596
G01 X36.4010 Y40.1593
G01 X35.7222 Y40.1593
G00 Z2.0000
G00 X35.7222 Y35.2186
G01 F60.00
G01 Z-0.1000
G01 F120.00
G01 X35.7222 Y35.1747
G01 X36.4010 Y35.1747
G01 X36.4115 Y35.1742
G01 X36.4220 Y35.1726
G01 X36.4323 Y35.1701
G01 X36.4422 Y35.1665
G01 X36.4518 Y35.1620
G01 X36.4630 Y35.1551
G01 X36.4733 Y35.1468
G01 X36.4826 Y35.1373
G01 X36.4906 Y35.1268
G01 X36.4972 Y35.1154
G01 X36.5024 Y35.1033
G01 X36.5061 Y35.0906
G01 X36.5082 Y35.0775
G01 X36.5087 Y35.0670
G01 X36.5087 Y34.8636
G01 X36.5522 Y34.8636
G01 X36.5522 Y35.0556
G01 X36.5471 Y35.1005
G01 X36.5361 Y35.1327
G01 X36.5184 Y35.1605
G01 X36.4946 Y35.1843
G01 X36.4664 Y35.2017
G01 X36.4340 Y35.2132
G01 X36.3888 Y35.2186
G01 X35.7222 Y35.2186
G00 Z2.0000
G00 X35.7222 Y33.4592
G01 F60.00
G01 Z-0.1000
G01 F120.00
G01 X35.7222 Y33.4158
G01 X36.3892 Y33.4158
G01 X36.4344 Y33.4209
G01 X36.4664 Y33.4323
G01 X36.4944 Y33.4495
G01 X36.5183 Y33.4737
G01 X36.5362 Y33.5019
G01 X36.5471 Y33.5336
G01 X36.5522 Y33.5788
G01 X36.5522 Y33.7703
G01 X36.5087 Y33.7703
G01 X36.5087 Y33.5670
G01 X36.5079 Y33.5538
G01 X36.5061 Y33.5434
G01 X36.5024 Y33.5307
G01 X36.4972 Y33.5185
G01 X36.4906 Y33.5071
G01 X36.4826 Y33.4966
G01 X36.4733 Y33.4871
G01 X36.4630 Y33.4789
G01 X36.4518 Y33.4719
G01 X36.4398 Y33.4664
G01 X36.4297 Y33.4631
G01 X36.4194 Y33.4608
G01 X36.4115 Y33.4597
G01 X36.4010 Y33.4592
G01 X35.7222 Y33.4592
G00 Z2.0000
G00 X36.7245 Y32.4962
G01 F60.00
G01 Z-0.1000
G01 F120.00
G01 X36.7245 Y32.4427
G01 X36.7579 Y32.4176
G01 X36.8345 Y32.3481
G01 X36.8401 Y32.3425
G01 X36.9060 Y32.2698
G01 X36.9111 Y32.2637
G01 X36.9742 Y32.1784
G01 X37.0274 Y32.0898
G01 X37.0324 Y32.0805
G01 X37.0744 Y31.9918
G01 X37.0776 Y31.9843
G01 X37.1236 Y31.9843
G01 X37.0724 Y32.0981
G01 X37.0004 Y32.2169
G01 X36.9145 Y32.3261
G01 X36.8164 Y32.4242
G01 X36.7245 Y32.4962
G00 Z2.0000
G00 X34.9826 Y31.9843
G01 F60.00
G01 Z-0.1000
G01 F120.00
G01 X35.0286 Y31.9843
G01 X35.0318 Y31.9918
G01 X35.0738 Y32.0805
G01 X35.0788 Y32.0898
G01 X35.1321 Y32.1784
G01 X35.1952 Y32.2637
G01 X35.2003 Y32.2698
G01 X35.2662 Y32.3425
G01 X35.2717 Y32.3481
G01 X35.3483 Y32.4176
G01 X35.3817 Y32.4427
G01 X35.3817 Y32.4962
G01 X35.2898 Y32.4242
G01 X35.1917 Y32.3261
G01 X35.1058 Y32.2169
G01 X35.0339 Y32.0981
G01 X34.9826 Y31.9843
G00 Z2.0000
G00 X34.9826 Y30.1417
G01 F60.00
G01 Z-0.1000
G01 F120.00
G01 X35.0339 Y30.0284
G01 X35.1058 Y29.9090
G01 X35.1917 Y29.7999
G01 X35.2898 Y29.7018
G01 X35.3817 Y29.6298
G01 X35.3817 Y29.6833
G01 X35.3483 Y29.7084
G01 X35.2717 Y29.7779
G01 X35.2662 Y29.7835
G01 X35.2003 Y29.8562
G01 X35.1952 Y29.8623
G01 X35.1321 Y29.9476
G01 X35.0788 Y30.0362
G01 X35.0738 Y30.0455
G01 X35.0318 Y30.1342
G01 X35.0287 Y30.1417
G01 X34.9826 Y30.1417
G00 Z2.0000
G00 X33.9083 Y30.1554
G01 F60.00
G01 Z-0.1000
G01 F120.00
G01 X33.9920 Y30.1596
G01 X34.0801 Y30.1727
G01 X34.1665 Y30.1943
G01 X34.2504 Y30.2243
G01 X34.3309 Y30.2624
G01 X34.4073 Y30.3082
G01 X34.4789 Y30.3613
G01 X34.5449 Y30.4211
G01 X34.6047 Y30.4871
G01 X34.6577 Y30.5587
G01 X34.7035 Y30.6351
G01 X34.7416 Y30.7156
G01 X34.7716 Y30.7995
G01 X34.7933 Y30.8859
G01 X34.8064 Y30.9740
G01 X34.8107 Y31.0630
G01 X34.8064 Y31.1520
G01 X34.7933 Y31.2401
G01 X34.7716 Y31.3265
G01 X34.7416 Y31.4104
G01 X34.7035 Y31.4909
G01 X34.6577 Y31.5673
G01 X34.6047 Y31.6389
G01 X34.5449 Y31.7049
G01 X34.4789 Y31.7647
G01 X34.4073 Y31.8178
G01 X34.3309 Y31.8636
G01 X34.2504 Y31.9017
G01 X34.1665 Y31.9317
G01 X34.0801 Y31.9533
G01 X33.9920 Y31.9664
G01 X33.9030 Y31.9707
G01 X33.8140 Y31.9664
G01 X33.7259 Y31.9533
G01 X33.6395 Y31.9317
G01 X33.5556 Y31.9017
G01 X33.4751 Y31.8636
G01 X33.3987 Y31.8178
G01 X33.3271 Y31.7647
G01 X33.2611 Y31.7049
G01 X33.2013 Y31.6389
G01 X33.1483 Y31.5673
G01 X33.1025 Y31.4909
G01 X33.0644 Y31.4104
G01 X33.0344 Y31.3265
G01 X33.0127 Y31.2401
G01 X32.9996 Y31.1520
G01 X32.9953 Y31.0630
G01 X32.9996 Y30.9740
G01 X33.0127 Y30.8859
G01 X33.0344 Y30.7995
G01 X33.0644 Y30.7156
G01 X33.1025 Y30.6351
G01 X33.1483 Y30.5587
G01 X33.2013 Y30.4871
G01 X33.2611 Y30.4211
G01 X33.3271 Y30.3613
G01 X33.3987 Y30.3082
G01 X33.4751 Y30.2624
G01 X33.5556 Y30.2243
G01 X33.6395 Y30.1943
G01 X33.7259 Y30.1727
G01 X33.8140 Y30.1596
G01 X33.8977 Y30.1554
G01 X33.9083 Y30.1554
G00 Z2.0000
G00 X31.9083 Y30.1554
G01 F60.00
G01 Z-0.1000
G01 F120.00
G01 X31.9920 Y30.1596
G01 X32.0801 Y30.1727
G01 X32.1665 Y30.1943
G01 X32.2504 Y30.2243
G01 X32.3309 Y30.2624
G01 X32.4073 Y30.3082
G01 X32.4789 Y30.3613
G01 X32.5449 Y30.4211
G01 X32.6047 Y30.4871
G01 X32.6577 Y30.5587
G01 X32.7035 Y30.6351
G01 X32.7416 Y30.7156
G01 X32.7716 Y30.7995
G01 X32.7933 Y30.8859
G01 X32.8064 Y30.9740
G01 X32.8107 Y31.0630
G01 X32.8064 Y31.1520
G01 X32.7933 Y31.2401
G01 X32.7716 Y31.3265
G01 X32.7416 Y31.4104
G01 X32.7035 Y31.4909
G01 X32.6577 Y31.5673
G01 X32.6047 Y31.6389
G01 X32.5449 Y31.7049
G01 X32.4789 Y31.7647
G01 X32.4073 Y31.8178
G01 X32.3309 Y31.8636
G01 X32.2504 Y31.9017
G01 X32.1665 Y31.9317
G01 X32.0801 Y31.9533
G01 X31.9920 Y31.9664
G01 X31.9030 Y31.9707
G01 X31.8140 Y31.9664
G01 X31.7259 Y31.9533
G01 X31.6395 Y31.9317
G01 X31.5556 Y31.9017
G01 X31.4751 Y31.8636
G01 X31.3987 Y31.8178
G01 X31.3271 Y31.7647
G01 X31.2611 Y31.7049
G01 X31.2013 Y31.6389
G01 X31.1483 Y31.5673
G01 X31.1025 Y31.4909
G01 X31.0644 Y31.4104
G01 X31.0344 Y31.3265
G01 X31.0127 Y31.2401
G01 X30.9996 Y31.1520
G01 X30.9953 Y31.0630
G01 X30.9996 Y30.9740
G01 X31.0127 Y30.8859
G01 X31.0344 Y30.7995
G01 X31.0644 Y30.7156
G01 X31.1025 Y30.6351
G01 X31.1483 Y30.5587
G01 X31.2013 Y30.4871
G01 X31.2611 Y30.4211
G01 X31.3271 Y30.3613
G01 X31.3987 Y30.3082
G01 X31.4751 Y30.2624
G01 X31.5556 Y30.2243
G01 X31.6395 Y30.1943
G01 X31.7259 Y30.1727
G01 X31.8140 Y30.1596
G01 X31.8977 Y30.1554
G01 X31.9083 Y30.1554
G00 Z2.0000
G00 X32.8495 Y33.7703
G01 F60.00
G01 Z-0.1000
G01 F120.00
G01 X32.8495 Y33.5788
G01 X32.8545 Y33.5340
G01 X32.8657 Y33.5023
G01 X32.8841 Y33.4734
G01 X32.9074 Y33.4495
G01 X32.9355 Y33.4323
G01 X32.9677 Y33.4209
G01 X33.0129 Y33.4158
G01 X33.6799 Y33.4158
G01 X33.6799 Y33.4592
G01 X33.0010 Y33.4592
G01 X32.9904 Y33.4597
G01 X32.9800 Y33.4613
G01 X32.9697 Y33.4638
G01 X32.9597 Y33.4674
G01 X32.9479 Y33.4732
G01 X32.9368 Y33.4804
G01 X32.9286 Y33.4871
G01 X32.9194 Y33.4966
G01 X32.9114 Y33.5071
G01 X32.9047 Y33.5185
G01 X32.8995 Y33.5307
G01 X32.8958 Y33.5434
G01 X32.8940 Y33.5538
G01 X32.8932 Y33.5670
G01 X32.8932 Y33.7703
G01 X32.8495 Y33.7703
G00 Z2.0000
G00 X33.0133 Y35.2186
G01 F60.00
G01 Z-0.1000
G01 F120.00
G01 X32.9681 Y35.2132
G01 X32.9355 Y35.2016
G01 X32.9071 Y35.1843
G01 X32.8839 Y35.1608
G01 X32.8658 Y35.1323
G01 X32.8545 Y35.1001
G01 X32.8495 Y35.0556
G01 X32.8495 Y34.8636
G01 X32.8932 Y34.8636
G01 X32.8932 Y35.0670
G01 X32.8940 Y35.0801
G01 X32.8958 Y35.0906
G01 X32.8995 Y35.1033
G01 X32.9047 Y35.1154
G01 X32.9114 Y35.1268
G01 X32.9194 Y35.1373
G01 X32.9286 Y35.1468
G01 X32.9389 Y35.1551
G01 X32.9502 Y35.1620
G01 X32.9622 Y35.1675
G01 X32.9697 Y35.1701
G01 X32.9800 Y35.1726
G01 X32.9904 Y35.1742
G01 X33.0010 Y35.1747
G01 X33.6799 Y35.1747
G01 X33.6799 Y35.2186
G01 X33.0133 Y35.2186
G00 Z2.0000
G00 X36.7245 Y29.6833
G01 F60.00
G01 Z-0.1000
G01 F120.00
G01 X36.7245 Y29.6298
G01 X36.8164 Y29.7018
G01 X36.9145 Y29.7999
G01 X37.0004 Y29.9090
G01 X37.0724 Y30.0284
G01 X37.1236 Y30.1417
G01 X37.0776 Y30.1417
G01 X37.0744 Y30.1342
G01 X37.0324 Y30.0455
G01 X37.0274 Y30.0362
G01 X36.9742 Y29.9476
G01 X36.9111 Y29.8623
G01 X36.9060 Y29.8562
G01 X36.8401 Y29.7835
G01 X36.8345 Y29.7779
G01 X36.7579 Y29.7084
G01 X36.7245 Y29.6833
G00 Z2.0000
G00 X36.0940 Y27.8610
G01 F60.00
G01 Z-0.1000
G01 F120.00
G01 X35.9871 Y27.8535
G01 X35.8828 Y27.8304
G01 X35.7821 Y27.7930
G01 X35.6881 Y27.7420
G01 X35.6023 Y27.6776
G01 X35.5264 Y27.6021
G01 X35.4625 Y27.5164
G01 X35.4110 Y27.4223
G01 X35.3737 Y27.3215
G01 X35.3510 Y27.2169
G01 X35.3430 Y27.1105
G01 X35.3510 Y27.0035
G01 X35.3737 Y26.8985
G01 X35.4109 Y26.7983
G01 X35.4625 Y26.7045
G01 X35.5265 Y26.6184
G01 X35.6023 Y26.5429
G01 X35.6881 Y26.4785
G01 X35.7823 Y26.4274
G01 X35.8828 Y26.3896
G01 X35.9869 Y26.3670
G01 X36.0940 Y26.3595
G01 X36.2011 Y26.3670
G01 X36.3053 Y26.3896
G01 X36.4058 Y26.4274
G01 X36.5000 Y26.4785
G01 X36.5857 Y26.5429
G01 X36.6615 Y26.6184
G01 X36.7255 Y26.7045
G01 X36.7771 Y26.7983
G01 X36.8143 Y26.8985
G01 X36.8370 Y27.0035
G01 X36.8450 Y27.1105
G01 X36.8370 Y27.2169
G01 X36.8143 Y27.3215
G01 X36.7770 Y27.4223
G01 X36.7255 Y27.5164
G01 X36.6616 Y27.6021
G01 X36.5857 Y27.6776
G01 X36.5000 Y27.7420
G01 X36.4059 Y27.7930
G01 X36.3053 Y27.8304
G01 X36.2009 Y27.8535
G01 X36.0940 Y27.8610
G00 Z2.0000
G00 X36.8016 Y27.1153
G01 F60.00
G01 Z-0.1000
G01 F120.00
G01 X36.7983 Y27.1794
G01 X36.7882 Y27.2481
G01 X36.7713 Y27.3154
G01 X36.7479 Y27.3808
G01 X36.7182 Y27.4436
G01 X36.6825 Y27.5032
G01 X36.6411 Y27.5590
G01 X36.5945 Y27.6104
G01 X36.5430 Y27.6571
G01 X36.4872 Y27.6985
G01 X36.4276 Y27.7342
G01 X36.3648 Y27.7639
G01 X36.2994 Y27.7873
G01 X36.2321 Y27.8041
G01 X36.1634 Y27.8143
G01 X36.0940 Y27.8177
G01 X36.0246 Y27.8143
G01 X35.9559 Y27.8041
G01 X35.8886 Y27.7873
G01 X35.8232 Y27.7639
G01 X35.7604 Y27.7342
G01 X35.7008 Y27.6985
G01 X35.6450 Y27.6571
G01 X35.5935 Y27.6104
G01 X35.5469 Y27.5590
G01 X35.5055 Y27.5032
G01 X35.4698 Y27.4436
G01 X35.4401 Y27.3808
G01 X35.4167 Y27.3154
G01 X35.3998 Y27.2481
G01 X35.3897 Y27.1794
G01 X35.3863 Y27.1100
G01 X35.3897 Y27.0406
G01 X35.3998 Y26.9719
G01 X35.4167 Y26.9045
G01 X35.4401 Y26.8391
G01 X35.4698 Y26.7764
G01 X35.5055 Y26.7168
G01 X35.5469 Y26.6610
G01 X35.5935 Y26.6095
G01 X35.6450 Y26.5629
G01 X35.7008 Y26.5215
G01 X35.7604 Y26.4858
G01 X35.8232 Y26.4561
G01 X35.8886 Y26.4327
G01 X35.9559 Y26.4158
G01 X36.0246 Y26.4056
G01 X36.0940 Y26.4022
G01 X36.1634 Y26.4056
G01 X36.2321 Y26.4158
G01 X36.2994 Y26.4327
G01 X36.3648 Y26.4561
G01 X36.4276 Y26.4858
G01 X36.4872 Y26.5215
G01 X36.5430 Y26.5629
G01 X36.5945 Y26.6095
G01 X36.6411 Y26.6610
G01 X36.6825 Y26.7168
G01 X36.7182 Y26.7764
G01 X36.7479 Y26.8391
G01 X36.7713 Y26.9045
G01 X36.7882 Y26.9719
G01 X36.7983 Y27.0406
G01 X36.8016 Y27.1047
G01 X36.8016 Y27.1153
G00 Z2.0000
G00 X44.6550 Y26.0575
G01 F60.00
G01 Z-0.1000
G01 F120.00
G01 X44.7111 Y26.0575
G01 X44.7375 Y26.0864
G01 X44.7665 Y26.1129
G01 X44.7665 Y26.1687
G01 X44.7463 Y26.1536
G01 X44.6704 Y26.0781
G01 X44.6550 Y26.0575
G00 Z2.0000
G00 X44.6555 Y25.1145
G01 F60.00
G01 Z-0.1000
G01 F120.00
G01 X44.6705 Y25.0944
G01 X44.7463 Y25.0189
G01 X44.7665 Y25.0038
G01 X44.7665 Y25.0591
G01 X44.7375 Y25.0855
G01 X44.7111 Y25.1145
G01 X44.6555 Y25.1145
G00 Z2.0000
G00 X45.7095 Y25.0591
G01 F60.00
G01 Z-0.1000
G01 F120.00
G01 X45.7095 Y25.0038
G01 X45.7297 Y25.0189
G01 X45.8055 Y25.0944
G01 X45.8205 Y25.1145
G01 X45.7649 Y25.1145
G01 X45.7385 Y25.0855
G01 X45.7095 Y25.0591
G00 Z2.0000
G00 X45.7095 Y26.1687
G01 F60.00
G01 Z-0.1000
G01 F120.00
G01 X45.7095 Y26.1129
G01 X45.7385 Y26.0864
G01 X45.7649 Y26.0575
G01 X45.8210 Y26.0575
G01 X45.8056 Y26.0781
G01 X45.7297 Y26.1536
G01 X45.7095 Y26.1687
G00 Z2.0000
G00 X58.2214 Y29.0019
G01 F60.00
G01 Z-0.1000
G01 F120.00
G01 X58.3926 Y28.8308
G01 X58.4094 Y28.8157
G01 X58.4276 Y28.8021
G01 X58.4469 Y28.7902
G01 X58.4562 Y28.7852
G01 X58.4743 Y28.7768
G01 X58.4956 Y28.7691
G01 X58.5033 Y28.7669
G01 X58.5253 Y28.7616
G01 X58.5477 Y28.7584
G01 X58.5677 Y28.7573
G01 X63.5023 Y28.7572
G01 X63.5061 Y28.7466
G01 X63.5093 Y28.7393
G01 X63.5344 Y28.6861
G01 X63.5394 Y28.6768
G01 X63.5725 Y28.6218
G01 X63.6139 Y28.5660
G01 X63.6605 Y28.5145
G01 X63.7080 Y28.4713
G01 X63.7162 Y28.4646
G01 X63.7678 Y28.4265
G01 X63.8274 Y28.3908
G01 X63.8853 Y28.3633
G01 X63.8951 Y28.3592
G01 X63.9556 Y28.3377
G01 X64.0178 Y28.3220
G01 X64.0281 Y28.3199
G01 X64.0916 Y28.3106
G01 X64.1610 Y28.3072
G01 X64.2304 Y28.3106
G01 X64.2991 Y28.3208
G01 X64.3664 Y28.3377
G01 X64.4318 Y28.3611
G01 X64.4946 Y28.3908
G01 X64.5542 Y28.4265
G01 X64.6100 Y28.4679
G01 X64.6615 Y28.5145
G01 X64.7081 Y28.5660
G01 X64.7495 Y28.6218
G01 X64.7852 Y28.6814
G01 X64.8149 Y28.7441
G01 X64.8383 Y28.8095
G01 X64.8552 Y28.8769
G01 X64.8653 Y28.9456
G01 X64.8687 Y29.0150
G01 X64.8653 Y29.0844
G01 X64.8552 Y29.1531
G01 X64.8383 Y29.2204
G01 X64.8149 Y29.2858
G01 X64.7852 Y29.3486
G01 X64.7495 Y29.4082
G01 X64.7081 Y29.4640
G01 X64.6615 Y29.5154
G01 X64.6100 Y29.5621
G01 X64.5542 Y29.6035
G01 X64.4946 Y29.6392
G01 X64.4318 Y29.6689
G01 X64.3664 Y29.6923
G01 X64.2991 Y29.7091
G01 X64.2304 Y29.7193
G01 X64.1663 Y29.7226
G01 X64.1557 Y29.7226
G01 X64.0969 Y29.7197
G01 X64.0864 Y29.7187
G01 X64.0229 Y29.7091
G01 X63.9556 Y29.6923
G01 X63.8951 Y29.6708
G01 X63.8853 Y29.6667
G01 X63.8274 Y29.6392
G01 X63.7678 Y29.6035
G01 X63.7162 Y29.5653
G01 X63.7080 Y29.5586
G01 X63.6605 Y29.5154
G01 X63.6139 Y29.4640
G01 X63.5725 Y29.4082
G01 X63.5394 Y29.3532
G01 X63.5344 Y29.3439
G01 X63.5093 Y29.2907
G01 X63.5061 Y29.2834
G01 X63.5023 Y29.2728
G01 X58.6798 Y29.2728
G01 X58.5861 Y29.3665
G01 X58.5908 Y29.3767
G01 X58.5938 Y29.3841
G01 X58.6136 Y29.4395
G01 X58.6167 Y29.4496
G01 X58.6322 Y29.5119
G01 X58.6417 Y29.5754
G01 X58.6426 Y29.5833
G01 X58.6457 Y29.6500
G01 X58.6423 Y29.7194
G01 X58.6322 Y29.7881
G01 X58.6160 Y29.8529
G01 X58.6136 Y29.8605
G01 X58.5919 Y29.9208
G01 X58.5646 Y29.9789
G01 X58.5596 Y29.9882
G01 X58.5265 Y30.0432
G01 X58.4884 Y30.0948
G01 X58.4816 Y30.1030
G01 X58.4385 Y30.1504
G01 X58.3870 Y30.1971
G01 X58.3355 Y30.2354
G01 X58.3267 Y30.2413
G01 X58.2716 Y30.2742
G01 X58.2088 Y30.3039
G01 X58.1485 Y30.3256
G01 X58.1384 Y30.3287
G01 X58.0761 Y30.3441
G01 X58.0126 Y30.3537
G01 X58.0021 Y30.3547
G01 X57.9380 Y30.3577
G01 X57.8686 Y30.3543
G01 X57.7999 Y30.3441
G01 X57.7376 Y30.3287
G01 X57.7275 Y30.3256
G01 X57.6672 Y30.3039
G01 X57.6044 Y30.2742
G01 X57.5448 Y30.2385
G01 X57.4890 Y30.1971
G01 X57.4375 Y30.1504
G01 X57.3909 Y30.0990
G01 X57.3495 Y30.0432
G01 X57.3138 Y29.9836
G01 X57.2841 Y29.9208
G01 X57.2607 Y29.8554
G01 X57.2438 Y29.7881
G01 X57.2337 Y29.7194
G01 X57.2303 Y29.6500
G01 X57.2337 Y29.5806
G01 X57.2438 Y29.5119
G01 X57.2607 Y29.4445
G01 X57.2841 Y29.3791
G01 X57.3138 Y29.3164
G01 X57.3495 Y29.2568
G01 X57.3909 Y29.2010
G01 X57.4375 Y29.1495
G01 X57.4890 Y29.1029
G01 X57.5448 Y29.0615
G01 X57.6044 Y29.0258
G01 X57.6672 Y28.9961
G01 X57.7326 Y28.9727
G01 X57.7999 Y28.9558
G01 X57.8686 Y28.9456
G01 X57.9380 Y28.9422
G01 X58.0074 Y28.9456
G01 X58.0761 Y28.9558
G01 X58.1384 Y28.9713
G01 X58.1460 Y28.9735
G01 X58.2064 Y28.9951
G01 X58.2214 Y29.0019
G00 Z2.0000
G00 X57.9380 Y30.4010
G01 F60.00
G01 Z-0.1000
G01 F120.00
G01 X57.8311 Y30.3935
G01 X57.7267 Y30.3704
G01 X57.6261 Y30.3330
G01 X57.5320 Y30.2820
G01 X57.4463 Y30.2176
G01 X57.3704 Y30.1421
G01 X57.3065 Y30.0565
G01 X57.2550 Y29.9623
G01 X57.2177 Y29.8615
G01 X57.1950 Y29.7569
G01 X57.1870 Y29.6505
G01 X57.1950 Y29.5435
G01 X57.2177 Y29.4385
G01 X57.2549 Y29.3383
G01 X57.3065 Y29.2445
G01 X57.3705 Y29.1584
G01 X57.4463 Y29.0829
G01 X57.5320 Y29.0185
G01 X57.6262 Y28.9674
G01 X57.7267 Y28.9296
G01 X57.8309 Y28.9070
G01 X57.9380 Y28.8995
G01 X58.0452 Y28.9071
G01 X58.1057 Y28.9202
G01 X58.1193 Y28.9222
G01 X58.1561 Y28.9244
G01 X58.1642 Y28.9246
G01 X58.1778 Y28.9235
G01 X58.1910 Y28.9208
G01 X58.2329 Y28.9079
G01 X58.2446 Y28.9026
G01 X58.2512 Y28.8988
G01 X58.2576 Y28.8946
G01 X58.2851 Y28.8748
G01 X58.2928 Y28.8686
G01 X58.3527 Y28.8091
G01 X58.4063 Y28.7655
G01 X58.4579 Y28.7372
G01 X58.5139 Y28.7209
G01 X58.5836 Y28.7138
G01 X59.2837 Y28.7138
G01 X59.2912 Y28.7133
G01 X59.3011 Y28.7119
G01 X59.3442 Y28.7028
G01 X59.3543 Y28.7002
G01 X59.3665 Y28.6955
G01 X59.3735 Y28.6920
G01 X59.3802 Y28.6879
G01 X59.4207 Y28.6591
G01 X59.4305 Y28.6507
G01 X59.4393 Y28.6412
G01 X59.4454 Y28.6328
G01 X59.4709 Y28.5906
G01 X59.4757 Y28.5811
G01 X59.4795 Y28.5711
G01 X59.4817 Y28.5635
G01 X59.4838 Y28.5530
G01 X59.4899 Y28.5005
G01 X59.4900 Y28.4928
G01 X59.4895 Y28.4851
G01 X59.4885 Y28.4774
G01 X59.4871 Y28.4705
G01 X59.5701 Y28.4705
G01 X59.5965 Y28.4994
G01 X59.6282 Y28.5283
G01 X59.6371 Y28.5708
G01 X59.6404 Y28.5812
G01 X59.6447 Y28.5912
G01 X59.6501 Y28.6007
G01 X59.6748 Y28.6382
G01 X59.6812 Y28.6465
G01 X59.6903 Y28.6559
G01 X59.6963 Y28.6610
G01 X59.7026 Y28.6656
G01 X59.7378 Y28.6884
G01 X59.7469 Y28.6937
G01 X59.7540 Y28.6971
G01 X59.7639 Y28.7007
G01 X59.7741 Y28.7034
G01 X59.8154 Y28.7120
G01 X59.8293 Y28.7137
G01 X60.3619 Y28.7138
G01 X60.3703 Y28.7132
G01 X60.3786 Y28.7120
G01 X60.4276 Y28.7015
G01 X60.4351 Y28.6990
G01 X60.4424 Y28.6960
G01 X60.4494 Y28.6925
G01 X60.4562 Y28.6884
G01 X60.4957 Y28.6626
G01 X60.5056 Y28.6541
G01 X60.5128 Y28.6465
G01 X60.5191 Y28.6382
G01 X60.5425 Y28.6030
G01 X60.5467 Y28.5960
G01 X60.5504 Y28.5887
G01 X60.5545 Y28.5786
G01 X60.5569 Y28.5708
G01 X60.5658 Y28.5283
G01 X60.5975 Y28.4994
G01 X60.6239 Y28.4705
G01 X60.7069 Y28.4705
G01 X60.7051 Y28.4799
G01 X60.7043 Y28.4876
G01 X60.7040 Y28.4953
G01 X60.7043 Y28.5031
G01 X60.7102 Y28.5530
G01 X60.7129 Y28.5660
G01 X60.7173 Y28.5786
G01 X60.7231 Y28.5906
G01 X60.7471 Y28.6307
G01 X60.7547 Y28.6412
G01 X60.7635 Y28.6507
G01 X60.7733 Y28.6591
G01 X60.8116 Y28.6865
G01 X60.8182 Y28.6907
G01 X60.8251 Y28.6944
G01 X60.8372 Y28.6993
G01 X60.8473 Y28.7022
G01 X60.8929 Y28.7119
G01 X60.9028 Y28.7133
G01 X60.9128 Y28.7138
G01 X63.3534 Y28.7137
G01 X63.3638 Y28.7127
G01 X63.4046 Y28.7057
G01 X63.4125 Y28.7038
G01 X63.4227 Y28.7004
G01 X63.4302 Y28.6972
G01 X63.4397 Y28.6921
G01 X63.4729 Y28.6718
G01 X63.4839 Y28.6638
G01 X63.4919 Y28.6564
G01 X63.4991 Y28.6482
G01 X63.5932 Y28.5237
G01 X63.6693 Y28.4479
G01 X63.7550 Y28.3835
G01 X63.8492 Y28.3324
G01 X63.9497 Y28.2946
G01 X64.0539 Y28.2720
G01 X64.1610 Y28.2645
G01 X64.2681 Y28.2720
G01 X64.3722 Y28.2946
G01 X64.4727 Y28.3324
G01 X64.5669 Y28.3835
G01 X64.6527 Y28.4479
G01 X64.7285 Y28.5234
G01 X64.7925 Y28.6095
G01 X64.8441 Y28.7033
G01 X64.8813 Y28.8035
G01 X64.9040 Y28.9085
G01 X64.9120 Y29.0155
G01 X64.9040 Y29.1219
G01 X64.8813 Y29.2265
G01 X64.8440 Y29.3273
G01 X64.7925 Y29.4214
G01 X64.7286 Y29.5071
G01 X64.6527 Y29.5826
G01 X64.5669 Y29.6470
G01 X64.4729 Y29.6980
G01 X64.3722 Y29.7354
G01 X64.2679 Y29.7585
G01 X64.1610 Y29.7660
G01 X64.0541 Y29.7585
G01 X63.9497 Y29.7354
G01 X63.8491 Y29.6980
G01 X63.7550 Y29.6470
G01 X63.6693 Y29.5826
G01 X63.5932 Y29.5068
G01 X63.4991 Y29.3823
G01 X63.4899 Y29.3722
G01 X63.4818 Y29.3650
G01 X63.4729 Y29.3586
G01 X63.4396 Y29.3384
G01 X63.4328 Y29.3346
G01 X63.4234 Y29.3303
G01 X63.4160 Y29.3277
G01 X63.4060 Y29.3251
G01 X63.3679 Y29.3180
G01 X63.3567 Y29.3165
G01 X63.3482 Y29.3162
G01 X58.8900 Y29.3162
G01 X58.8800 Y29.3166
G01 X58.8700 Y29.3180
G01 X58.8243 Y29.3278
G01 X58.8165 Y29.3300
G01 X58.8088 Y29.3327
G01 X58.8014 Y29.3361
G01 X58.7943 Y29.3399
G01 X58.7875 Y29.3444
G01 X58.7513 Y29.3698
G01 X58.7413 Y29.3781
G01 X58.7324 Y29.3877
G01 X58.7247 Y29.3982
G01 X58.7006 Y29.4377
G01 X58.6969 Y29.4447
G01 X58.6938 Y29.4519
G01 X58.6897 Y29.4643
G01 X58.6876 Y29.4746
G01 X58.6816 Y29.5188
G01 X58.6807 Y29.5299
G01 X58.6809 Y29.5411
G01 X58.6890 Y29.6504
G01 X58.6810 Y29.7569
G01 X58.6583 Y29.8615
G01 X58.6210 Y29.9623
G01 X58.5695 Y30.0565
G01 X58.5056 Y30.1421
G01 X58.4297 Y30.2176
G01 X58.3439 Y30.2820
G01 X58.2499 Y30.3330
G01 X58.1492 Y30.3704
G01 X58.0449 Y30.3935
G01 X57.9380 Y30.4010
G00 Z2.0000
G00 X59.5145 Y27.5275
G01 F60.00
G01 Z-0.1000
G01 F120.00
G01 X59.5295 Y27.5074
G01 X59.6053 Y27.4319
G01 X59.6255 Y27.4168
G01 X59.6255 Y27.4721
G01 X59.5965 Y27.4985
G01 X59.5701 Y27.5275
G01 X59.5145 Y27.5275
G00 Z2.0000
G00 X60.5685 Y27.4721
G01 F60.00
G01 Z-0.1000
G01 F120.00
G01 X60.5685 Y27.4168
G01 X60.5887 Y27.4319
G01 X60.6645 Y27.5074
G01 X60.6795 Y27.5275
G01 X60.6239 Y27.5275
G01 X60.5975 Y27.4985
G01 X60.5685 Y27.4721
G00 Z2.0000
G00 X73.9674 Y26.7371
G01 F60.00
G01 Z-0.1000
G01 F120.00
G01 X73.9223 Y26.7324
G01 X73.8909 Y26.7212
G01 X73.8626 Y26.7037
G01 X73.8390 Y26.6795
G01 X73.8208 Y26.6509
G01 X73.8100 Y26.6198
G01 X73.8049 Y26.5741
G01 X73.8049 Y26.2576
G01 X73.8483 Y26.2576
G01 X73.8483 Y26.5860
G01 X73.8488 Y26.5966
G01 X73.8503 Y26.6070
G01 X73.8529 Y26.6173
G01 X73.8565 Y26.6272
G01 X73.8598 Y26.6344
G01 X73.8650 Y26.6436
G01 X73.8711 Y26.6523
G01 X73.8780 Y26.6603
G01 X73.8836 Y26.6658
G01 X73.8897 Y26.6709
G01 X73.8984 Y26.6770
G01 X73.9076 Y26.6822
G01 X73.9148 Y26.6855
G01 X73.9222 Y26.6883
G01 X73.9298 Y26.6905
G01 X73.9402 Y26.6926
G01 X73.9481 Y26.6934
G01 X73.9560 Y26.6937
G01 X74.2849 Y26.6937
G01 X74.2849 Y26.7371
G01 X73.9674 Y26.7371
G00 Z2.0000
G00 X76.0636 Y44.5143
G01 F60.00
G01 Z-0.1000
G01 F120.00
G01 X76.0584 Y44.6176
G01 X76.0425 Y44.7251
G01 X76.0161 Y44.8306
G01 X75.9794 Y44.9329
G01 X75.9329 Y45.0312
G01 X75.8771 Y45.1244
G01 X75.8123 Y45.2117
G01 X75.7393 Y45.2923
G01 X75.6587 Y45.3653
G01 X75.5714 Y45.4301
G01 X75.4782 Y45.4859
G01 X75.3799 Y45.5324
G01 X75.2776 Y45.5690
G01 X75.1721 Y45.5955
G01 X75.0646 Y45.6114
G01 X74.9560 Y45.6167
G01 X74.8474 Y45.6114
G01 X74.7399 Y45.5955
G01 X74.6344 Y45.5690
G01 X74.5321 Y45.5324
G01 X74.4338 Y45.4859
G01 X74.3406 Y45.4301
G01 X74.2533 Y45.3653
G01 X74.1727 Y45.2923
G01 X74.0997 Y45.2117
G01 X74.0349 Y45.1244
G01 X73.9791 Y45.0312
G01 X73.9326 Y44.9329
G01 X73.8959 Y44.8306
G01 X73.8695 Y44.7251
G01 X73.8536 Y44.6176
G01 X73.8483 Y44.5090
G01 X73.8536 Y44.4004
G01 X73.8695 Y44.2929
G01 X73.8959 Y44.1874
G01 X73.9326 Y44.0851
G01 X73.9791 Y43.9868
G01 X74.0349 Y43.8936
G01 X74.0997 Y43.8062
G01 X74.1727 Y43.7257
G01 X74.2533 Y43.6527
G01 X74.3406 Y43.5879
G01 X74.4338 Y43.5320
G01 X74.5321 Y43.4856
G01 X74.6344 Y43.4489
G01 X74.7399 Y43.4225
G01 X74.8474 Y43.4066
G01 X74.9560 Y43.4012
G01 X75.0646 Y43.4066
G01 X75.1721 Y43.4225
G01 X75.2776 Y43.4489
G01 X75.3799 Y43.4856
G01 X75.4782 Y43.5320
G01 X75.5714 Y43.5879
G01 X75.6587 Y43.6527
G01 X75.7393 Y43.7257
G01 X75.8123 Y43.8062
G01 X75.8771 Y43.8936
G01 X75.9329 Y43.9868
G01 X75.9794 Y44.0851
G01 X76.0161 Y44.1874
G01 X76.0425 Y44.2929
G01 X76.0584 Y44.4004
G01 X76.0636 Y44.5037
G01 X76.0636 Y44.5143
G00 Z2.0000
G00 X54.1487 Y45.8955
G01 F60.00
G01 Z-0.1000
G01 F120.00
G01 X54.1055 Y45.8862
G01 X54.0956 Y45.8830
G01 X54.0860 Y45.8789
G01 X54.0768 Y45.8739
G01 X54.0393 Y45.8497
G01 X54.0287 Y45.8414
G01 X54.0209 Y45.8338
G01 X54.0124 Y45.8233
G01 X53.9885 Y45.7881
G01 X53.9831 Y45.7792
G01 X53.9786 Y45.7699
G01 X53.9750 Y45.7602
G01 X53.9723 Y45.7501
G01 X53.9637 Y45.7094
G01 X53.9625 Y45.7016
G01 X53.9619 Y45.6936
G01 X53.8526 Y37.1799
G01 X53.8528 Y37.1722
G01 X53.8539 Y37.1618
G01 X53.8615 Y37.1202
G01 X53.8639 Y37.1097
G01 X53.8673 Y37.0996
G01 X53.8718 Y37.0899
G01 X53.8758 Y37.0829
G01 X53.8990 Y37.0471
G01 X53.9067 Y37.0368
G01 X53.9136 Y37.0292
G01 X53.9193 Y37.0240
G01 X53.9274 Y37.0177
G01 X53.9631 Y36.9939
G01 X53.9742 Y36.9874
G01 X53.9836 Y36.9832
G01 X53.9934 Y36.9799
G01 X54.0009 Y36.9781
G01 X54.0427 Y36.9694
G01 X54.0537 Y36.9680
G01 X54.0620 Y36.9677
G01 X54.2117 Y36.9677
G01 X54.2804 Y36.9611
G01 X54.3370 Y36.9435
G01 X54.3892 Y36.9161
G01 X54.4421 Y36.8726
G01 X60.0335 Y31.2837
G01 X60.0411 Y31.2768
G01 X60.0472 Y31.2721
G01 X60.0846 Y31.2469
G01 X60.0963 Y31.2403
G01 X60.1088 Y31.2353
G01 X60.1192 Y31.2324
G01 X60.1630 Y31.2238
G01 X60.1708 Y31.2227
G01 X60.1813 Y31.2222
G01 X65.6347 Y31.2222
G01 X65.6422 Y31.2225
G01 X65.6522 Y31.2236
G01 X65.6923 Y31.2312
G01 X65.7024 Y31.2339
G01 X65.7098 Y31.2365
G01 X65.7216 Y31.2421
G01 X65.7577 Y31.2630
G01 X65.7665 Y31.2691
G01 X65.7727 Y31.2742
G01 X65.7804 Y31.2817
G01 X65.7873 Y31.2900
G01 X65.8792 Y31.4119
G01 X65.9551 Y31.4873
G01 X66.0515 Y31.5589
G01 X66.0814 Y31.5834
G01 X66.0875 Y31.5887
G01 X66.0967 Y31.5987
G01 X66.1031 Y31.6074
G01 X66.1256 Y31.6453
G01 X66.1314 Y31.6574
G01 X66.1341 Y31.6650
G01 X66.1363 Y31.6728
G01 X66.1445 Y31.7164
G01 X66.1455 Y31.7248
G01 X66.1458 Y31.7333
G01 X66.1458 Y40.3601
G01 X66.1455 Y40.3679
G01 X66.1447 Y40.3756
G01 X66.1357 Y40.4225
G01 X66.1329 Y40.4328
G01 X66.1290 Y40.4427
G01 X66.1243 Y40.4523
G01 X66.1201 Y40.4591
G01 X66.0962 Y40.4948
G01 X66.0897 Y40.5032
G01 X66.0842 Y40.5090
G01 X65.7890 Y40.8036
G01 X65.7803 Y40.8110
G01 X65.7506 Y40.8326
G01 X65.7442 Y40.8368
G01 X65.7376 Y40.8406
G01 X65.7306 Y40.8440
G01 X65.7211 Y40.8476
G01 X65.6840 Y40.8588
G01 X65.6761 Y40.8606
G01 X65.6681 Y40.8619
G01 X65.6545 Y40.8626
G01 X65.6151 Y40.8604
G01 X65.6041 Y40.8592
G01 X65.5382 Y40.8450
G01 X65.4310 Y40.8375
G01 X65.3239 Y40.8450
G01 X65.2197 Y40.8676
G01 X65.1192 Y40.9054
G01 X65.0250 Y40.9565
G01 X64.9393 Y41.0209
G01 X64.8635 Y41.0963
G01 X64.7995 Y41.1825
G01 X64.7479 Y41.2763
G01 X64.7107 Y41.3765
G01 X64.6880 Y41.4815
G01 X64.6800 Y41.5885
G01 X64.6880 Y41.6949
G01 X64.7107 Y41.7995
G01 X64.7480 Y41.9003
G01 X64.7995 Y41.9944
G01 X64.8634 Y42.0800
G01 X64.9393 Y42.1555
G01 X65.0250 Y42.2199
G01 X65.1191 Y42.2709
G01 X65.2197 Y42.3084
G01 X65.3241 Y42.3315
G01 X65.4310 Y42.3390
G01 X65.5379 Y42.3315
G01 X65.6422 Y42.3084
G01 X65.7429 Y42.2709
G01 X65.8369 Y42.2199
G01 X65.9227 Y42.1555
G01 X65.9986 Y42.0800
G01 X66.0625 Y41.9944
G01 X66.1140 Y41.9003
G01 X66.1513 Y41.7995
G01 X66.1740 Y41.6949
G01 X66.1820 Y41.5885
G01 X66.1740 Y41.4815
G01 X66.1595 Y41.4126
G01 X66.1585 Y41.4024
G01 X66.1569 Y41.3663
G01 X66.1570 Y41.3586
G01 X66.1577 Y41.3509
G01 X66.1600 Y41.3382
G01 X66.1718 Y41.2982
G01 X66.1746 Y41.2906
G01 X66.1779 Y41.2833
G01 X66.1818 Y41.2762
G01 X66.1861 Y41.2695
G01 X66.2070 Y41.2399
G01 X66.2155 Y41.2297
G01 X66.6526 Y40.7926
G01 X66.6968 Y40.7389
G01 X66.7244 Y40.6870
G01 X66.7416 Y40.6307
G01 X66.7482 Y40.5622
G01 X66.7483 Y31.7277
G01 X66.7495 Y31.7164
G01 X66.7566 Y31.6781
G01 X66.7591 Y31.6676
G01 X66.7616 Y31.6599
G01 X66.7647 Y31.6525
G01 X66.7697 Y31.6430
G01 X66.7894 Y31.6097
G01 X66.7970 Y31.5991
G01 X66.8039 Y31.5913
G01 X66.8136 Y31.5825
G01 X66.9385 Y31.4877
G01 X67.0146 Y31.4121
G01 X67.0785 Y31.3264
G01 X67.1300 Y31.2323
G01 X67.1673 Y31.1315
G01 X67.1900 Y31.0269
G01 X67.1980 Y30.9205
G01 X67.1900 Y30.8135
G01 X67.1673 Y30.7085
G01 X67.1301 Y30.6083
G01 X67.0785 Y30.5145
G01 X67.0145 Y30.4284
G01 X66.9387 Y30.3529
G01 X66.8529 Y30.2885
G01 X66.7587 Y30.2374
G01 X66.6582 Y30.1996
G01 X66.5541 Y30.1770
G01 X66.4470 Y30.1695
G01 X66.3399 Y30.1770
G01 X66.2357 Y30.1996
G01 X66.1352 Y30.2374
G01 X66.0410 Y30.2885
G01 X65.9553 Y30.3529
G01 X65.8792 Y30.4286
G01 X65.7847 Y30.5541
G01 X65.7777 Y30.5620
G01 X65.7700 Y30.5693
G01 X65.7638 Y30.5742
G01 X65.7550 Y30.5800
G01 X65.7217 Y30.5996
G01 X65.7095 Y30.6054
G01 X65.6994 Y30.6089
G01 X65.6916 Y30.6109
G01 X65.6534 Y30.6180
G01 X65.6422 Y30.6195
G01 X65.6337 Y30.6198
G01 X59.9802 Y30.6198
G01 X59.9113 Y30.6264
G01 X59.8546 Y30.6437
G01 X59.8028 Y30.6709
G01 X59.7499 Y30.7144
G01 X54.1942 Y36.2680
G01 X54.1883 Y36.2732
G01 X54.1799 Y36.2794
G01 X54.1453 Y36.3027
G01 X54.1386 Y36.3066
G01 X54.1316 Y36.3101
G01 X54.1245 Y36.3130
G01 X54.1146 Y36.3161
G01 X54.0683 Y36.3259
G01 X54.0603 Y36.3271
G01 X54.0494 Y36.3277
G01 X54.0413 Y36.3274
G01 X54.0306 Y36.3262
G01 X53.9842 Y36.3169
G01 X53.9717 Y36.3130
G01 X53.9620 Y36.3088
G01 X53.9529 Y36.3036
G01 X53.9177 Y36.2804
G01 X53.9093 Y36.2742
G01 X53.9035 Y36.2691
G01 X53.8980 Y36.2636
G01 X53.8914 Y36.2557
G01 X53.8645 Y36.2168
G01 X53.8604 Y36.2100
G01 X53.8568 Y36.2028
G01 X53.8529 Y36.1930
G01 X53.8506 Y36.1853
G01 X53.8407 Y36.1390
G01 X53.8393 Y36.1286
G01 X53.8389 Y36.1208
G01 X53.6880 Y24.4063
G01 X53.6882 Y24.3986
G01 X53.6893 Y24.3884
G01 X53.6968 Y24.3462
G01 X53.6992 Y24.3361
G01 X53.7034 Y24.3238
G01 X53.7079 Y24.3144
G01 X53.7118 Y24.3077
G01 X53.7356 Y24.2720
G01 X53.7420 Y24.2633
G01 X53.7493 Y24.2553
G01 X53.7553 Y24.2498
G01 X53.7617 Y24.2447
G01 X53.7992 Y24.2188
G01 X53.8085 Y24.2133
G01 X53.8183 Y24.2088
G01 X53.8285 Y24.2053
G01 X53.8390 Y24.2029
G01 X53.8808 Y24.1953
G01 X53.8891 Y24.1943
G01 X53.8974 Y24.1940
G01 X59.7363 Y24.1940
G01 X59.7446 Y24.1943
G01 X59.7556 Y24.1958
G01 X59.7972 Y24.2034
G01 X59.8048 Y24.2052
G01 X59.8122 Y24.2076
G01 X59.8218 Y24.2116
G01 X59.8331 Y24.2179
G01 X59.8721 Y24.2452
G01 X59.8785 Y24.2503
G01 X59.8845 Y24.2559
G01 X59.8901 Y24.2620
G01 X59.8951 Y24.2684
G01 X59.9219 Y24.3075
G01 X59.9270 Y24.3166
G01 X59.9301 Y24.3237
G01 X59.9328 Y24.3311
G01 X59.9355 Y24.3411
G01 X59.9441 Y24.3853
G01 X59.9454 Y24.3956
G01 X59.9457 Y24.4034
G01 X59.9457 Y26.3514
G01 X59.9514 Y26.3970
G01 X59.9630 Y26.4277
G01 X59.9859 Y26.4611
G01 X60.0031 Y26.4786
G01 X60.0230 Y26.4931
G01 X60.0548 Y26.5074
G01 X60.1069 Y26.5156
G01 X63.1318 Y26.5156
G01 X63.1780 Y26.5094
G01 X63.2092 Y26.4980
G01 X63.2416 Y26.4755
G01 X63.2591 Y26.4584
G01 X63.2738 Y26.4379
G01 X63.2882 Y26.4062
G01 X63.2963 Y26.3543
G01 X63.2963 Y24.4389
G01 X63.2971 Y24.4260
G01 X63.3065 Y24.3767
G01 X63.3092 Y24.3667
G01 X63.3128 Y24.3569
G01 X63.3174 Y24.3476
G01 X63.3229 Y24.3387
G01 X63.3468 Y24.3041
G01 X63.3516 Y24.2979
G01 X63.3569 Y24.2920
G01 X63.3646 Y24.2849
G01 X63.3730 Y24.2785
G01 X63.4077 Y24.2547
G01 X63.4144 Y24.2507
G01 X63.4213 Y24.2472
G01 X63.4309 Y24.2433
G01 X63.4409 Y24.2403
G01 X63.4851 Y24.2316
G01 X63.4928 Y24.2304
G01 X63.5057 Y24.2296
G01 X73.6276 Y24.2296
G01 X73.6355 Y24.2299
G01 X73.6460 Y24.2312
G01 X73.6866 Y24.2382
G01 X73.6967 Y24.2407
G01 X73.7041 Y24.2432
G01 X73.7136 Y24.2474
G01 X73.7226 Y24.2525
G01 X73.7617 Y24.2782
G01 X73.7720 Y24.2868
G01 X73.7812 Y24.2965
G01 X73.7861 Y24.3029
G01 X73.8099 Y24.3366
G01 X73.8141 Y24.3433
G01 X73.8189 Y24.3527
G01 X73.8218 Y24.3600
G01 X73.8249 Y24.3701
G01 X73.8353 Y24.4155
G01 X73.8366 Y24.4260
G01 X73.8368 Y24.4394
G01 X73.8358 Y24.4500
G01 X73.8302 Y24.4881
G01 X73.8283 Y24.4980
G01 X73.8254 Y24.5077
G01 X73.8100 Y24.5522
G01 X73.8049 Y24.5979
G01 X73.8049 Y24.9144
G01 X73.8483 Y24.9144
G01 X73.8483 Y24.5860
G01 X73.8485 Y24.5781
G01 X73.8498 Y24.5676
G01 X73.8515 Y24.5598
G01 X73.8537 Y24.5522
G01 X73.8575 Y24.5423
G01 X73.8622 Y24.5329
G01 X73.8679 Y24.5239
G01 X73.8744 Y24.5156
G01 X73.8798 Y24.5098
G01 X73.8876 Y24.5027
G01 X73.8940 Y24.4979
G01 X73.9029 Y24.4922
G01 X73.9123 Y24.4875
G01 X73.9197 Y24.4845
G01 X73.9298 Y24.4815
G01 X73.9376 Y24.4798
G01 X73.9481 Y24.4785
G01 X73.9560 Y24.4782
G01 X74.2849 Y24.4782
G01 X74.2849 Y24.4363
G01 X74.2856 Y24.4260
G01 X74.2945 Y24.3792
G01 X74.2971 Y24.3688
G01 X74.3017 Y24.3562
G01 X74.3079 Y24.3442
G01 X74.3327 Y24.3072
G01 X74.3372 Y24.3009
G01 X74.3422 Y24.2950
G01 X74.3476 Y24.2894
G01 X74.3575 Y24.2811
G01 X74.3947 Y24.2557
G01 X74.4064 Y24.2488
G01 X74.4163 Y24.2444
G01 X74.4292 Y24.2404
G01 X74.4762 Y24.2311
G01 X74.4839 Y24.2301
G01 X74.4942 Y24.2296
G01 X75.4178 Y24.2296
G01 X75.4281 Y24.2301
G01 X75.4358 Y24.2311
G01 X75.4828 Y24.2404
G01 X75.4957 Y24.2444
G01 X75.5056 Y24.2488
G01 X75.5173 Y24.2557
G01 X75.5545 Y24.2811
G01 X75.5644 Y24.2894
G01 X75.5698 Y24.2950
G01 X75.5748 Y24.3009
G01 X75.5793 Y24.3072
G01 X75.6041 Y24.3442
G01 X75.6103 Y24.3562
G01 X75.6149 Y24.3688
G01 X75.6175 Y24.3792
G01 X75.6263 Y24.4260
G01 X75.6271 Y24.4363
G01 X75.6271 Y24.4782
G01 X75.9560 Y24.4782
G01 X75.9639 Y24.4785
G01 X75.9744 Y24.4798
G01 X75.9847 Y24.4821
G01 X75.9923 Y24.4845
G01 X76.0021 Y24.4886
G01 X76.0114 Y24.4936
G01 X76.0180 Y24.4979
G01 X76.0264 Y24.5044
G01 X76.0322 Y24.5098
G01 X76.0376 Y24.5156
G01 X76.0441 Y24.5239
G01 X76.0498 Y24.5329
G01 X76.0534 Y24.5399
G01 X76.0575 Y24.5497
G01 X76.0598 Y24.5573
G01 X76.0622 Y24.5676
G01 X76.0635 Y24.5781
G01 X76.0637 Y24.5860
G01 X76.0637 Y24.9144
G01 X76.1193 Y24.9144
G01 X76.1303 Y24.9149
G01 X76.1412 Y24.9166
G01 X76.1854 Y24.9259
G01 X76.1978 Y24.9299
G01 X76.2050 Y24.9331
G01 X76.2119 Y24.9367
G01 X76.2532 Y24.9641
G01 X76.2593 Y24.9688
G01 X76.2651 Y24.9740
G01 X76.2706 Y24.9795
G01 X76.2756 Y24.9854
G01 X76.3025 Y25.0247
G01 X76.3081 Y25.0340
G01 X76.3138 Y25.0463
G01 X76.3172 Y25.0566
G01 X76.3191 Y25.0645
G01 X76.3267 Y25.1036
G01 X76.3282 Y25.1139
G01 X76.3287 Y25.1242
G01 X76.3287 Y26.0478
G01 X76.3284 Y26.0555
G01 X76.3271 Y26.0658
G01 X76.3179 Y26.1128
G01 X76.3138 Y26.1257
G01 X76.3094 Y26.1356
G01 X76.3025 Y26.1473
G01 X76.2754 Y26.1868
G01 X76.2664 Y26.1968
G01 X76.2605 Y26.2022
G01 X76.2542 Y26.2071
G01 X76.2129 Y26.2352
G01 X76.2013 Y26.2411
G01 X76.1941 Y26.2439
G01 X76.1866 Y26.2462
G01 X76.1399 Y26.2556
G01 X76.1297 Y26.2571
G01 X76.1193 Y26.2576
G01 X76.0637 Y26.2576
G01 X76.0637 Y26.5860
G01 X76.0635 Y26.5939
G01 X76.0622 Y26.6044
G01 X76.0598 Y26.6147
G01 X76.0565 Y26.6248
G01 X76.0534 Y26.6321
G01 X76.0484 Y26.6414
G01 X76.0425 Y26.6502
G01 X76.0376 Y26.6564
G01 X76.0303 Y26.6640
G01 X76.0223 Y26.6709
G01 X76.0159 Y26.6756
G01 X76.0068 Y26.6810
G01 X75.9997 Y26.6845
G01 X75.9923 Y26.6874
G01 X75.9822 Y26.6905
G01 X75.9744 Y26.6922
G01 X75.9639 Y26.6934
G01 X75.9560 Y26.6937
G01 X75.6271 Y26.6937
G01 X75.6271 Y26.7371
G01 X75.9446 Y26.7371
G01 X75.9901 Y26.7323
G01 X76.0758 Y26.7026
G01 X76.0860 Y26.6998
G01 X76.0939 Y26.6985
G01 X76.1071 Y26.6975
G01 X76.1176 Y26.6978
G01 X76.1650 Y26.7030
G01 X76.1751 Y26.7048
G01 X76.1875 Y26.7084
G01 X76.1993 Y26.7135
G01 X76.2449 Y26.7405
G01 X76.2538 Y26.7467
G01 X76.2600 Y26.7520
G01 X76.2657 Y26.7576
G01 X76.2727 Y26.7659
G01 X76.3023 Y26.8065
G01 X76.3078 Y26.8157
G01 X76.3123 Y26.8255
G01 X76.3150 Y26.8331
G01 X76.3177 Y26.8435
G01 X76.3269 Y26.8874
G01 X76.3285 Y26.9012
G01 X76.3287 Y43.8079
G01 X76.3284 Y43.8154
G01 X76.3268 Y43.8278
G01 X76.3166 Y43.8761
G01 X76.3127 Y43.8888
G01 X76.3085 Y43.8985
G01 X76.3034 Y43.9078
G01 X76.2990 Y43.9144
G01 X76.2693 Y43.9532
G01 X76.2604 Y43.9630
G01 X76.2503 Y43.9717
G01 X76.2438 Y43.9762
G01 X76.2369 Y43.9803
G01 X76.1935 Y44.0026
G01 X76.1809 Y44.0077
G01 X76.1704 Y44.0106
G01 X76.1570 Y44.0127
G01 X76.1027 Y44.0163
G01 X76.0949 Y44.0160
G01 X76.0871 Y44.0151
G01 X76.0769 Y44.0130
G01 X76.0693 Y44.0109
G01 X76.0189 Y43.9904
G01 X76.0119 Y43.9869
G01 X76.0030 Y43.9816
G01 X75.9946 Y43.9755
G01 X75.9887 Y43.9703
G01 X75.9550 Y43.9357
G01 X75.9479 Y43.9276
G01 X75.9417 Y43.9189
G01 X75.9030 Y43.8551
G01 X75.8176 Y43.7460
G01 X75.7191 Y43.6479
G01 X75.6097 Y43.5618
G01 X75.4910 Y43.4895
G01 X75.3642 Y43.4329
G01 X75.2314 Y43.3911
G01 X75.0950 Y43.3665
G01 X74.9560 Y43.3581
G01 X74.8169 Y43.3665
G01 X74.6806 Y43.3911
G01 X74.5477 Y43.4329
G01 X74.4210 Y43.4895
G01 X74.3023 Y43.5618
G01 X74.1929 Y43.6479
G01 X74.0944 Y43.7460
G01 X74.0091 Y43.8550
G01 X73.9370 Y43.9745
G01 X73.8799 Y44.1008
G01 X73.8386 Y44.2335
G01 X73.8135 Y44.3706
G01 X73.8051 Y44.5095
G01 X73.8135 Y44.6478
G01 X73.8386 Y44.7844
G01 X73.8799 Y44.9172
G01 X73.9370 Y45.0435
G01 X74.0091 Y45.1631
G01 X74.0945 Y45.2725
G01 X74.1929 Y45.3705
G01 X74.3020 Y45.4564
G01 X74.3895 Y45.5087
G01 X74.4008 Y45.5165
G01 X74.4091 Y45.5238
G01 X74.4444 Y45.5580
G01 X74.4496 Y45.5641
G01 X74.4544 Y45.5705
G01 X74.4613 Y45.5819
G01 X74.4657 Y45.5916
G01 X74.4829 Y45.6347
G01 X74.4861 Y45.6447
G01 X74.4883 Y45.6550
G01 X74.4895 Y45.6654
G01 X74.4896 Y45.6759
G01 X74.4865 Y45.7276
G01 X74.4854 Y45.7357
G01 X74.4829 Y45.7462
G01 X74.4793 Y45.7564
G01 X74.4760 Y45.7638
G01 X74.4545 Y45.8048
G01 X74.4505 Y45.8116
G01 X74.4429 Y45.8224
G01 X74.4340 Y45.8321
G01 X74.4260 Y45.8390
G01 X74.3868 Y45.8686
G01 X74.3780 Y45.8743
G01 X74.3664 Y45.8801
G01 X74.3567 Y45.8837
G01 X74.3491 Y45.8858
G01 X74.3039 Y45.8955
G01 X74.2915 Y45.8974
G01 X74.2814 Y45.8979
G01 X63.5057 Y45.8979
G01 X63.4919 Y45.8970
G01 X63.4838 Y45.8957
G01 X63.4421 Y45.8870
G01 X63.4321 Y45.8841
G01 X63.4224 Y45.8803
G01 X63.4154 Y45.8769
G01 X63.4087 Y45.8729
G01 X63.3740 Y45.8496
G01 X63.3653 Y45.8432
G01 X63.3573 Y45.8358
G01 X63.3501 Y45.8278
G01 X63.3453 Y45.8213
G01 X63.3215 Y45.7866
G01 X63.3174 Y45.7799
G01 X63.3139 Y45.7729
G01 X63.3100 Y45.7633
G01 X63.3070 Y45.7533
G01 X63.2974 Y45.7040
G01 X63.2966 Y45.6963
G01 X63.2963 Y45.6886
G01 X63.2963 Y44.0296
G01 X63.2906 Y43.9844
G01 X63.2790 Y43.9534
G01 X63.2563 Y43.9206
G01 X63.2385 Y43.9026
G01 X63.2186 Y43.8877
G01 X63.1875 Y43.8737
G01 X63.1354 Y43.8659
G01 X59.9828 Y43.8659
G01 X59.9371 Y43.8716
G01 X59.9061 Y43.8833
G01 X59.8730 Y43.9062
G01 X59.8557 Y43.9230
G01 X59.8413 Y43.9429
G01 X59.8268 Y43.9751
G01 X59.8187 Y44.0267
G01 X59.8187 Y45.6886
G01 X59.8184 Y45.6963
G01 X59.8171 Y45.7066
G01 X59.8085 Y45.7508
G01 X59.8058 Y45.7609
G01 X59.8031 Y45.7682
G01 X59.8000 Y45.7753
G01 X59.7949 Y45.7844
G01 X59.7682 Y45.8235
G01 X59.7631 Y45.8298
G01 X59.7577 Y45.8358
G01 X59.7497 Y45.8432
G01 X59.7433 Y45.8481
G01 X59.7041 Y45.8743
G01 X59.6950 Y45.8792
G01 X59.6829 Y45.8841
G01 X59.6729 Y45.8870
G01 X59.6285 Y45.8962
G01 X59.6176 Y45.8976
G01 X59.6093 Y45.8979
G01 X54.1712 Y45.8979
G01 X54.1611 Y45.8974
G01 X54.1487 Y45.8955
G00 Z2.0000
G00 X51.9325 Y44.5837
G01 F60.00
G01 Z-0.1000
G01 F120.00
G01 X51.9325 Y44.5279
G01 X51.9615 Y44.5014
G01 X51.9879 Y44.4725
G01 X52.0440 Y44.4725
G01 X52.0286 Y44.4930
G01 X51.9527 Y44.5685
G01 X51.9325 Y44.5837
G00 Z2.0000
G00 X50.8780 Y44.4725
G01 F60.00
G01 Z-0.1000
G01 F120.00
G01 X50.9341 Y44.4725
G01 X50.9605 Y44.5014
G01 X50.9895 Y44.5279
G01 X50.9895 Y44.5837
G01 X50.9693 Y44.5685
G01 X50.8934 Y44.4930
G01 X50.8780 Y44.4725
G00 Z2.0000
G00 X50.8785 Y43.5295
G01 F60.00
G01 Z-0.1000
G01 F120.00
G01 X50.8935 Y43.5093
G01 X50.9693 Y43.4339
G01 X50.9895 Y43.4188
G01 X50.9895 Y43.4741
G01 X50.9605 Y43.5005
G01 X50.9341 Y43.5295
G01 X50.8785 Y43.5295
G00 Z2.0000
G00 X51.9325 Y43.4741
G01 F60.00
G01 Z-0.1000
G01 F120.00
G01 X51.9325 Y43.4188
G01 X51.9527 Y43.4339
G01 X52.0285 Y43.5093
G01 X52.0435 Y43.5295
G01 X51.9879 Y43.5295
G01 X51.9615 Y43.5005
G01 X51.9325 Y43.4741
G00 Z2.0000
G00 X26.1526 Y44.5303
G01 F60.00
G01 Z-0.1000
G01 F120.00
G01 X26.1474 Y44.6336
G01 X26.1315 Y44.7411
G01 X26.1051 Y44.8466
G01 X26.0684 Y44.9489
G01 X26.0219 Y45.0472
G01 X25.9661 Y45.1404
G01 X25.9013 Y45.2277
G01 X25.8283 Y45.3083
G01 X25.7477 Y45.3813
G01 X25.6604 Y45.4461
G01 X25.5672 Y45.5019
G01 X25.4689 Y45.5484
G01 X25.3666 Y45.5850
G01 X25.2611 Y45.6115
G01 X25.1536 Y45.6274
G01 X25.0450 Y45.6327
G01 X24.9364 Y45.6274
G01 X24.8289 Y45.6115
G01 X24.7234 Y45.5850
G01 X24.6211 Y45.5484
G01 X24.5228 Y45.5019
G01 X24.4296 Y45.4461
G01 X24.3423 Y45.3813
G01 X24.2617 Y45.3083
G01 X24.1887 Y45.2277
G01 X24.1239 Y45.1404
G01 X24.0681 Y45.0472
G01 X24.0216 Y44.9489
G01 X23.9849 Y44.8466
G01 X23.9585 Y44.7411
G01 X23.9426 Y44.6336
G01 X23.9373 Y44.5250
G01 X23.9426 Y44.4164
G01 X23.9585 Y44.3089
G01 X23.9849 Y44.2034
G01 X24.0216 Y44.1011
G01 X24.0681 Y44.0028
G01 X24.1239 Y43.9096
G01 X24.1887 Y43.8222
G01 X24.2617 Y43.7417
G01 X24.3423 Y43.6687
G01 X24.4296 Y43.6039
G01 X24.5228 Y43.5480
G01 X24.6211 Y43.5016
G01 X24.7234 Y43.4649
G01 X24.8289 Y43.4385
G01 X24.9364 Y43.4226
G01 X25.0450 Y43.4172
G01 X25.1536 Y43.4226
G01 X25.2611 Y43.4385
G01 X25.3666 Y43.4649
G01 X25.4689 Y43.5016
G01 X25.5672 Y43.5480
G01 X25.6604 Y43.6039
G01 X25.7477 Y43.6687
G01 X25.8283 Y43.7417
G01 X25.9013 Y43.8222
G01 X25.9661 Y43.9096
G01 X26.0219 Y44.0028
G01 X26.0684 Y44.1011
G01 X26.1051 Y44.2034
G01 X26.1315 Y44.3089
G01 X26.1474 Y44.4164
G01 X26.1526 Y44.5197
G01 X26.1526 Y44.5303
G00 Z2.0000
G00 X25.7235 Y45.8955
G01 F60.00
G01 Z-0.1000
G01 F120.00
G01 X25.6731 Y45.8844
G01 X25.6631 Y45.8810
G01 X25.6512 Y45.8753
G01 X25.6400 Y45.8682
G01 X25.5992 Y45.8368
G01 X25.5895 Y45.8275
G01 X25.5843 Y45.8214
G01 X25.5796 Y45.8149
G01 X25.5740 Y45.8058
G01 X25.5508 Y45.7625
G01 X25.5459 Y45.7504
G01 X25.5425 Y45.7378
G01 X25.5406 Y45.7249
G01 X25.5379 Y45.6786
G01 X25.5377 Y45.6707
G01 X25.5384 Y45.6602
G01 X25.5396 Y45.6524
G01 X25.5413 Y45.6447
G01 X25.5445 Y45.6347
G01 X25.5617 Y45.5916
G01 X25.5661 Y45.5819
G01 X25.5701 Y45.5750
G01 X25.5745 Y45.5683
G01 X25.5795 Y45.5620
G01 X25.5849 Y45.5561
G01 X25.6203 Y45.5219
G01 X25.6287 Y45.5149
G01 X25.6379 Y45.5087
G01 X25.6991 Y45.4721
G01 X25.8081 Y45.3868
G01 X25.9065 Y45.2884
G01 X25.9920 Y45.1787
G01 X26.0640 Y45.0602
G01 X26.1211 Y44.9330
G01 X26.1625 Y44.8006
G01 X26.1875 Y44.6641
G01 X26.1959 Y44.5252
G01 X26.1875 Y44.3863
G01 X26.1624 Y44.2493
G01 X26.1211 Y44.1170
G01 X26.0640 Y43.9902
G01 X25.9920 Y43.8713
G01 X25.9065 Y43.7622
G01 X25.8081 Y43.6637
G01 X25.6989 Y43.5783
G01 X25.5800 Y43.5062
G01 X25.4533 Y43.4491
G01 X25.3204 Y43.4078
G01 X25.1837 Y43.3827
G01 X25.0450 Y43.3739
G01 X24.9063 Y43.3827
G01 X24.7696 Y43.4078
G01 X24.6368 Y43.4491
G01 X24.5100 Y43.5062
G01 X24.3911 Y43.5783
G01 X24.2819 Y43.6637
G01 X24.1835 Y43.7622
G01 X24.0979 Y43.8715
G01 X24.0605 Y43.9327
G01 X24.0543 Y43.9418
G01 X24.0472 Y43.9502
G01 X24.0154 Y43.9841
G01 X24.0097 Y43.9895
G01 X24.0036 Y43.9944
G01 X23.9972 Y43.9989
G01 X23.9881 Y44.0042
G01 X23.9786 Y44.0086
G01 X23.9330 Y44.0267
G01 X23.9255 Y44.0290
G01 X23.9178 Y44.0307
G01 X23.9100 Y44.0319
G01 X23.8996 Y44.0325
G01 X23.8917 Y44.0324
G01 X23.8453 Y44.0296
G01 X23.8321 Y44.0277
G01 X23.8192 Y44.0241
G01 X23.8069 Y44.0190
G01 X23.7612 Y43.9939
G01 X23.7504 Y43.9866
G01 X23.7405 Y43.9781
G01 X23.7317 Y43.9684
G01 X23.7021 Y43.9297
G01 X23.6963 Y43.9209
G01 X23.6925 Y43.9139
G01 X23.6883 Y43.9042
G01 X23.6845 Y43.8915
G01 X23.6742 Y43.8438
G01 X23.6726 Y43.8313
G01 X23.6723 Y43.8237
G01 X23.6725 Y26.7742
G01 X23.6741 Y26.7604
G01 X23.6833 Y26.7165
G01 X23.6860 Y26.7061
G01 X23.6887 Y26.6985
G01 X23.6932 Y26.6887
G01 X23.6987 Y26.6795
G01 X23.7283 Y26.6389
G01 X23.7353 Y26.6306
G01 X23.7410 Y26.6250
G01 X23.7472 Y26.6197
G01 X23.7561 Y26.6135
G01 X23.8017 Y26.5865
G01 X23.8135 Y26.5814
G01 X23.8259 Y26.5778
G01 X23.8360 Y26.5760
G01 X23.8834 Y26.5708
G01 X23.8966 Y26.5705
G01 X23.9071 Y26.5715
G01 X23.9150 Y26.5728
G01 X23.9252 Y26.5756
G01 X24.0109 Y26.6053
G01 X24.0564 Y26.6101
G01 X24.3739 Y26.6101
G01 X24.3739 Y26.5667
G01 X24.0450 Y26.5667
G01 X24.0371 Y26.5664
G01 X24.0266 Y26.5652
G01 X24.0188 Y26.5635
G01 X24.0112 Y26.5613
G01 X24.0013 Y26.5575
G01 X23.9942 Y26.5540
G01 X23.9851 Y26.5486
G01 X23.9787 Y26.5439
G01 X23.9707 Y26.5370
G01 X23.9634 Y26.5294
G01 X23.9585 Y26.5232
G01 X23.9526 Y26.5144
G01 X23.9476 Y26.5051
G01 X23.9435 Y26.4953
G01 X23.9412 Y26.4877
G01 X23.9388 Y26.4774
G01 X23.9375 Y26.4669
G01 X23.9373 Y26.4590
G01 X23.9373 Y26.1306
G01 X23.8817 Y26.1306
G01 X23.8713 Y26.1301
G01 X23.8611 Y26.1286
G01 X23.8144 Y26.1192
G01 X23.8021 Y26.1151
G01 X23.7950 Y26.1119
G01 X23.7881 Y26.1082
G01 X23.7468 Y26.0801
G01 X23.7405 Y26.0752
G01 X23.7346 Y26.0698
G01 X23.7256 Y26.0598
G01 X23.6985 Y26.0203
G01 X23.6916 Y26.0086
G01 X23.6872 Y25.9987
G01 X23.6831 Y25.9858
G01 X23.6739 Y25.9388
G01 X23.6728 Y25.9311
G01 X23.6723 Y25.9208
G01 X23.6723 Y24.9972
G01 X23.6728 Y24.9869
G01 X23.6743 Y24.9766
G01 X23.6819 Y24.9375
G01 X23.6838 Y24.9296
G01 X23.6882 Y24.9168
G01 X23.6929 Y24.9070
G01 X23.6985 Y24.8977
G01 X23.7254 Y24.8584
G01 X23.7304 Y24.8525
G01 X23.7359 Y24.8470
G01 X23.7417 Y24.8418
G01 X23.7478 Y24.8371
G01 X23.7891 Y24.8097
G01 X23.7960 Y24.8061
G01 X23.8032 Y24.8029
G01 X23.8156 Y24.7989
G01 X23.8598 Y24.7896
G01 X23.8707 Y24.7879
G01 X23.8817 Y24.7874
G01 X23.9373 Y24.7874
G01 X23.9373 Y24.4590
G01 X23.9378 Y24.4484
G01 X23.9393 Y24.4380
G01 X23.9419 Y24.4277
G01 X23.9455 Y24.4178
G01 X23.9500 Y24.4082
G01 X23.9554 Y24.3991
G01 X23.9617 Y24.3906
G01 X23.9707 Y24.3810
G01 X23.9787 Y24.3740
G01 X23.9851 Y24.3694
G01 X23.9919 Y24.3652
G01 X23.9989 Y24.3616
G01 X24.0062 Y24.3585
G01 X24.0137 Y24.3559
G01 X24.0214 Y24.3539
G01 X24.0318 Y24.3521
G01 X24.0397 Y24.3514
G01 X24.3739 Y24.3512
G01 X24.3739 Y24.3114
G01 X24.3747 Y24.3010
G01 X24.3835 Y24.2542
G01 X24.3860 Y24.2442
G01 X24.3904 Y24.2320
G01 X24.3963 Y24.2204
G01 X24.4005 Y24.2138
G01 X24.4274 Y24.1751
G01 X24.4361 Y24.1655
G01 X24.4418 Y24.1602
G01 X24.4479 Y24.1554
G01 X24.4852 Y24.1306
G01 X24.4965 Y24.1241
G01 X24.5086 Y24.1189
G01 X24.5186 Y24.1159
G01 X24.5650 Y24.1067
G01 X24.5755 Y24.1054
G01 X24.5835 Y24.1051
G01 X25.5075 Y24.1072
G01 X25.5186 Y24.1077
G01 X25.5268 Y24.1089
G01 X25.5734 Y24.1188
G01 X25.5837 Y24.1221
G01 X25.5936 Y24.1264
G01 X25.6053 Y24.1332
G01 X25.6428 Y24.1581
G01 X25.6532 Y24.1668
G01 X25.6588 Y24.1726
G01 X25.6640 Y24.1788
G01 X25.6688 Y24.1854
G01 X25.6934 Y24.2229
G01 X25.6994 Y24.2345
G01 X25.7039 Y24.2468
G01 X25.7065 Y24.2570
G01 X25.7153 Y24.3034
G01 X25.7161 Y24.3139
G01 X25.7161 Y24.3512
G01 X26.0450 Y24.3512
G01 X26.0529 Y24.3515
G01 X26.0634 Y24.3528
G01 X26.0737 Y24.3551
G01 X26.0813 Y24.3575
G01 X26.0911 Y24.3616
G01 X26.1004 Y24.3666
G01 X26.1070 Y24.3709
G01 X26.1154 Y24.3774
G01 X26.1212 Y24.3828
G01 X26.1283 Y24.3906
G01 X26.1331 Y24.3969
G01 X26.1388 Y24.4059
G01 X26.1424 Y24.4129
G01 X26.1465 Y24.4227
G01 X26.1488 Y24.4303
G01 X26.1512 Y24.4406
G01 X26.1525 Y24.4511
G01 X26.1527 Y24.4590
G01 X26.1527 Y24.7874
G01 X26.1966 Y24.7874
G01 X26.1966 Y24.4713
G01 X26.1912 Y24.4261
G01 X26.1770 Y24.3860
G01 X26.1742 Y24.3757
G01 X26.1672 Y24.3287
G01 X26.1662 Y24.3183
G01 X26.1663 Y24.3079
G01 X26.1677 Y24.2950
G01 X26.1785 Y24.2508
G01 X26.1807 Y24.2431
G01 X26.1846 Y24.2331
G01 X26.1881 Y24.2259
G01 X26.1936 Y24.2167
G01 X26.2222 Y24.1769
G01 X26.2310 Y24.1674
G01 X26.2408 Y24.1591
G01 X26.2820 Y24.1324
G01 X26.2914 Y24.1273
G01 X26.2988 Y24.1241
G01 X26.3089 Y24.1208
G01 X26.3167 Y24.1189
G01 X26.3575 Y24.1108
G01 X26.3708 Y24.1093
G01 X39.0107 Y24.1397
G01 X39.0210 Y24.1402
G01 X39.0287 Y24.1412
G01 X39.0750 Y24.1505
G01 X39.0851 Y24.1535
G01 X39.0948 Y24.1575
G01 X39.1063 Y24.1638
G01 X39.1437 Y24.1885
G01 X39.1521 Y24.1950
G01 X39.1598 Y24.2023
G01 X39.1651 Y24.2083
G01 X39.1700 Y24.2146
G01 X39.1933 Y24.2493
G01 X39.1987 Y24.2582
G01 X39.2032 Y24.2675
G01 X39.2059 Y24.2747
G01 X39.2088 Y24.2847
G01 X39.2180 Y24.3284
G01 X39.2194 Y24.3391
G01 X39.2198 Y24.3471
G01 X39.2446 Y27.3690
G01 X39.2503 Y27.4138
G01 X39.2626 Y27.4449
G01 X39.2852 Y27.4777
G01 X39.3015 Y27.4937
G01 X39.3229 Y27.5095
G01 X39.3545 Y27.5234
G01 X39.4060 Y27.5316
G01 X42.0498 Y27.5316
G01 X42.0960 Y27.5254
G01 X42.1272 Y27.5140
G01 X42.1596 Y27.4915
G01 X42.1771 Y27.4744
G01 X42.1918 Y27.4539
G01 X42.2062 Y27.4223
G01 X42.2143 Y27.3704
G01 X42.2145 Y24.3982
G01 X42.2159 Y24.3853
G01 X42.2239 Y24.3436
G01 X42.2264 Y24.3336
G01 X42.2289 Y24.3262
G01 X42.2330 Y24.3166
G01 X42.2381 Y24.3075
G01 X42.2649 Y24.2684
G01 X42.2736 Y24.2579
G01 X42.2836 Y24.2486
G01 X42.2901 Y24.2436
G01 X42.3226 Y24.2207
G01 X42.3313 Y24.2152
G01 X42.3382 Y24.2116
G01 X42.3454 Y24.2085
G01 X42.3552 Y24.2052
G01 X42.3653 Y24.2029
G01 X42.4071 Y24.1953
G01 X42.4154 Y24.1943
G01 X42.4237 Y24.1940
G01 X53.4351 Y24.1940
G01 X53.4435 Y24.1943
G01 X53.4518 Y24.1953
G01 X53.4958 Y24.2034
G01 X53.5061 Y24.2061
G01 X53.5185 Y24.2109
G01 X53.5257 Y24.2145
G01 X53.5325 Y24.2186
G01 X53.5714 Y24.2455
G01 X53.5774 Y24.2504
G01 X53.5830 Y24.2557
G01 X53.5915 Y24.2654
G01 X53.6199 Y24.3060
G01 X53.6239 Y24.3130
G01 X53.6284 Y24.3228
G01 X53.6312 Y24.3304
G01 X53.6333 Y24.3382
G01 X53.6421 Y24.3789
G01 X53.6438 Y24.3894
G01 X53.6444 Y24.4000
G01 X53.7958 Y36.1525
G01 X53.7954 Y36.1636
G01 X53.7943 Y36.1718
G01 X53.7850 Y36.2189
G01 X53.7828 Y36.2268
G01 X53.7799 Y36.2344
G01 X53.7753 Y36.2442
G01 X53.7711 Y36.2512
G01 X53.7464 Y36.2895
G01 X53.7401 Y36.2976
G01 X53.7330 Y36.3050
G01 X53.7252 Y36.3118
G01 X53.7190 Y36.3163
G01 X53.6837 Y36.3401
G01 X53.6719 Y36.3467
G01 X53.6619 Y36.3509
G01 X53.6488 Y36.3546
G01 X53.6045 Y36.3633
G01 X53.5968 Y36.3643
G01 X53.5865 Y36.3648
G01 X31.1105 Y36.3648
G01 X31.1029 Y36.3645
G01 X31.0953 Y36.3637
G01 X31.0563 Y36.3572
G01 X31.0461 Y36.3550
G01 X31.0338 Y36.3509
G01 X31.0221 Y36.3454
G01 X30.9861 Y36.3235
G01 X30.9754 Y36.3160
G01 X30.9676 Y36.3091
G01 X30.9604 Y36.3015
G01 X30.9348 Y36.2685
G01 X30.9302 Y36.2621
G01 X30.9249 Y36.2531
G01 X30.9194 Y36.2411
G01 X30.9055 Y36.1955
G01 X30.9027 Y36.1821
G01 X30.8971 Y36.1338
G01 X30.8862 Y36.1023
G01 X30.8685 Y36.0740
G01 X30.8441 Y36.0499
G01 X30.8152 Y36.0313
G01 X30.7848 Y36.0205
G01 X30.7397 Y36.0158
G01 X30.6371 Y36.0158
G01 X30.6266 Y36.0153
G01 X30.6162 Y36.0138
G01 X30.5752 Y36.0055
G01 X30.5630 Y36.0018
G01 X30.5514 Y35.9966
G01 X30.5131 Y35.9744
G01 X30.5063 Y35.9699
G01 X30.4999 Y35.9649
G01 X30.4938 Y35.9593
G01 X30.4865 Y35.9513
G01 X30.4609 Y35.9187
G01 X30.4565 Y35.9124
G01 X30.4525 Y35.9058
G01 X30.4491 Y35.8989
G01 X30.4462 Y35.8918
G01 X30.4326 Y35.8494
G01 X30.4301 Y35.8392
G01 X30.4289 Y35.8314
G01 X30.4283 Y35.8236
G01 X30.4283 Y35.8158
G01 X30.4309 Y35.7709
G01 X30.4333 Y35.7570
G01 X30.4470 Y35.7011
G01 X30.4541 Y35.6073
G01 X30.4542 Y31.9339
G01 X30.4549 Y31.9237
G01 X30.4561 Y31.9162
G01 X30.4670 Y31.8664
G01 X30.4693 Y31.8589
G01 X30.4732 Y31.8492
G01 X30.4767 Y31.8422
G01 X30.4822 Y31.8333
G01 X30.5112 Y31.7950
G01 X30.5179 Y31.7871
G01 X30.5254 Y31.7798
G01 X30.5753 Y31.7353
G01 X30.6576 Y31.6421
G01 X30.7317 Y31.5312
G01 X30.7398 Y31.5215
G01 X30.7695 Y31.4912
G01 X30.7754 Y31.4856
G01 X30.7860 Y31.4774
G01 X30.7929 Y31.4732
G01 X30.8000 Y31.4694
G01 X30.8440 Y31.4510
G01 X30.8566 Y31.4470
G01 X30.8697 Y31.4445
G01 X30.8803 Y31.4437
G01 X30.9257 Y31.4437
G01 X30.9363 Y31.4445
G01 X30.9494 Y31.4470
G01 X30.9596 Y31.4501
G01 X31.0036 Y31.4683
G01 X31.0108 Y31.4718
G01 X31.0200 Y31.4774
G01 X31.0265 Y31.4822
G01 X31.0327 Y31.4874
G01 X31.0662 Y31.5215
G01 X31.0743 Y31.5312
G01 X31.1484 Y31.6421
G01 X31.2306 Y31.7352
G01 X31.3242 Y31.8178
G01 X31.4275 Y31.8866
G01 X31.5387 Y31.9413
G01 X31.6573 Y31.9811
G01 X31.7791 Y32.0062
G01 X31.9030 Y32.0140
G01 X32.0269 Y32.0062
G01 X32.1487 Y31.9811
G01 X32.2673 Y31.9413
G01 X32.3785 Y31.8866
G01 X32.4819 Y31.8178
G01 X32.5754 Y31.7352
G01 X32.6576 Y31.6421
G01 X32.7288 Y31.5354
G01 X32.7348 Y31.5272
G01 X32.7415 Y31.5196
G01 X32.7695 Y31.4912
G01 X32.7795 Y31.4822
G01 X32.7905 Y31.4745
G01 X32.8025 Y31.4683
G01 X32.8440 Y31.4510
G01 X32.8566 Y31.4470
G01 X32.8670 Y31.4449
G01 X32.8776 Y31.4438
G01 X32.9284 Y31.4438
G01 X32.9390 Y31.4449
G01 X32.9468 Y31.4463
G01 X32.9570 Y31.4492
G01 X32.9645 Y31.4520
G01 X33.0011 Y31.4672
G01 X33.0084 Y31.4706
G01 X33.0200 Y31.4774
G01 X33.0306 Y31.4856
G01 X33.0365 Y31.4912
G01 X33.0662 Y31.5215
G01 X33.0743 Y31.5312
G01 X33.1484 Y31.6421
G01 X33.2306 Y31.7352
G01 X33.3242 Y31.8178
G01 X33.4275 Y31.8866
G01 X33.5387 Y31.9413
G01 X33.6573 Y31.9811
G01 X33.7791 Y32.0062
G01 X33.9030 Y32.0140
G01 X34.0269 Y32.0062
G01 X34.1487 Y31.9811
G01 X34.2673 Y31.9413
G01 X34.3785 Y31.8866
G01 X34.4818 Y31.8179
G01 X34.5897 Y31.7227
G01 X34.6008 Y31.7149
G01 X34.6228 Y31.7029
G01 X34.6256 Y31.6962
G01 X34.6293 Y31.6890
G01 X34.6519 Y31.6507
G01 X34.7264 Y31.5381
G01 X34.7817 Y31.4272
G01 X34.8213 Y31.3098
G01 X34.8455 Y31.1869
G01 X34.8537 Y31.0632
G01 X34.8455 Y30.9391
G01 X34.8213 Y30.8167
G01 X34.7816 Y30.6992
G01 X34.7265 Y30.5880
G01 X34.6513 Y30.4752
G01 X34.6291 Y30.4371
G01 X34.6254 Y30.4299
G01 X34.6227 Y30.4233
G01 X34.6001 Y30.4106
G01 X34.5897 Y30.4032
G01 X34.4818 Y30.3086
G01 X34.3783 Y30.2393
G01 X34.2673 Y30.1847
G01 X34.1489 Y30.1449
G01 X34.0269 Y30.1202
G01 X33.9030 Y30.1121
G01 X33.7791 Y30.1202
G01 X33.6571 Y30.1449
G01 X33.5387 Y30.1847
G01 X33.4277 Y30.2393
G01 X33.3242 Y30.3086
G01 X33.2306 Y30.3908
G01 X33.1485 Y30.4843
G01 X33.0743 Y30.5953
G01 X33.0662 Y30.6050
G01 X33.0365 Y30.6353
G01 X33.0306 Y30.6409
G01 X33.0200 Y30.6491
G01 X33.0084 Y30.6559
G01 X33.0011 Y30.6593
G01 X32.9621 Y30.6755
G01 X32.9520 Y30.6789
G01 X32.9416 Y30.6812
G01 X32.9337 Y30.6823
G01 X32.9231 Y30.6828
G01 X32.8776 Y30.6827
G01 X32.8670 Y30.6816
G01 X32.8566 Y30.6795
G01 X32.8440 Y30.6755
G01 X32.8025 Y30.6582
G01 X32.7905 Y30.6520
G01 X32.7816 Y30.6460
G01 X32.7754 Y30.6409
G01 X32.7695 Y30.6353
G01 X32.7415 Y30.6069
G01 X32.7348 Y30.5993
G01 X32.7288 Y30.5911
G01 X32.6576 Y30.4843
G01 X32.5754 Y30.3908
G01 X32.4819 Y30.3086
G01 X32.3783 Y30.2393
G01 X32.2673 Y30.1847
G01 X32.1489 Y30.1449
G01 X32.0269 Y30.1202
G01 X31.9030 Y30.1121
G01 X31.7791 Y30.1202
G01 X31.6571 Y30.1449
G01 X31.5387 Y30.1847
G01 X31.4277 Y30.2393
G01 X31.3242 Y30.3086
G01 X31.2306 Y30.3908
G01 X31.1485 Y30.4843
G01 X31.0772 Y30.5911
G01 X31.0712 Y30.5993
G01 X31.0645 Y30.6069
G01 X31.0365 Y30.6353
G01 X31.0286 Y30.6426
G01 X31.0178 Y30.6506
G01 X31.0060 Y30.6571
G01 X30.9645 Y30.6745
G01 X30.9520 Y30.6789
G01 X30.9416 Y30.6812
G01 X30.9284 Y30.6827
G01 X30.8829 Y30.6828
G01 X30.8723 Y30.6823
G01 X30.8644 Y30.6812
G01 X30.8541 Y30.6789
G01 X30.8440 Y30.6755
G01 X30.8049 Y30.6593
G01 X30.7976 Y30.6559
G01 X30.7860 Y30.6491
G01 X30.7754 Y30.6409
G01 X30.7695 Y30.6353
G01 X30.7398 Y30.6050
G01 X30.7317 Y30.5953
G01 X30.6576 Y30.4843
G01 X30.5754 Y30.3908
G01 X30.4819 Y30.3086
G01 X30.3783 Y30.2393
G01 X30.2673 Y30.1847
G01 X30.1489 Y30.1449
G01 X30.0269 Y30.1202
G01 X29.9030 Y30.1121
G01 X29.7791 Y30.1202
G01 X29.6571 Y30.1449
G01 X29.5387 Y30.1847
G01 X29.4277 Y30.2393
G01 X29.3242 Y30.3086
G01 X29.2164 Y30.4032
G01 X29.2059 Y30.4106
G01 X29.1833 Y30.4233
G01 X29.1804 Y30.4302
G01 X29.1767 Y30.4375
G01 X29.1541 Y30.4759
G01 X29.0796 Y30.5879
G01 X29.0244 Y30.6992
G01 X28.9847 Y30.8167
G01 X28.9605 Y30.9391
G01 X28.9523 Y31.0632
G01 X28.9605 Y31.1869
G01 X28.9848 Y31.3098
G01 X29.0243 Y31.4272
G01 X29.0795 Y31.5381
G01 X29.1547 Y31.6514
G01 X29.1769 Y31.6894
G01 X29.1806 Y31.6966
G01 X29.1832 Y31.7029
G01 X29.2052 Y31.7150
G01 X29.2165 Y31.7229
G01 X29.2826 Y31.7816
G01 X29.2881 Y31.7871
G01 X29.2932 Y31.7930
G01 X29.3253 Y31.8355
G01 X29.3293 Y31.8422
G01 X29.3328 Y31.8492
G01 X29.3359 Y31.8565
G01 X29.3384 Y31.8639
G01 X29.3494 Y31.9137
G01 X29.3514 Y31.9263
G01 X29.3519 Y31.9365
G01 X29.3519 Y35.2994
G01 X29.3513 Y35.3105
G01 X29.3496 Y35.3214
G01 X29.3409 Y35.3631
G01 X29.3388 Y35.3708
G01 X29.3351 Y35.3809
G01 X29.3317 Y35.3881
G01 X29.3277 Y35.3951
G01 X29.3044 Y35.4309
G01 X29.2979 Y35.4400
G01 X29.2923 Y35.4463
G01 X28.7839 Y35.9548
G01 X28.7764 Y35.9616
G01 X28.7704 Y35.9662
G01 X28.7309 Y35.9918
G01 X28.7240 Y35.9957
G01 X28.7169 Y35.9990
G01 X28.7095 Y36.0019
G01 X28.7020 Y36.0041
G01 X28.6555 Y36.0140
G01 X28.6444 Y36.0155
G01 X28.6361 Y36.0158
G01 X26.9622 Y36.0158
G01 X26.9174 Y36.0205
G01 X26.8865 Y36.0314
G01 X26.8578 Y36.0499
G01 X26.8337 Y36.0737
G01 X26.8160 Y36.1023
G01 X26.8047 Y36.1341
G01 X26.7997 Y36.1788
G01 X26.7997 Y37.1557
G01 X26.8047 Y37.2000
G01 X26.8161 Y37.2324
G01 X26.8337 Y37.2608
G01 X26.8572 Y37.2840
G01 X26.8857 Y37.3018
G01 X26.9183 Y37.3133
G01 X26.9631 Y37.3187
G01 X30.7388 Y37.3187
G01 X30.7840 Y37.3133
G01 X30.8160 Y37.3019
G01 X30.8447 Y37.2840
G01 X30.8685 Y37.2605
G01 X30.8862 Y37.2324
G01 X30.8971 Y37.2005
G01 X30.9023 Y37.1533
G01 X30.9042 Y37.1422
G01 X30.9064 Y37.1340
G01 X30.9170 Y37.0989
G01 X30.9206 Y37.0888
G01 X30.9265 Y37.0768
G01 X30.9339 Y37.0657
G01 X30.9601 Y37.0325
G01 X30.9694 Y37.0226
G01 X30.9777 Y37.0156
G01 X30.9867 Y37.0095
G01 X31.0204 Y36.9888
G01 X31.0275 Y36.9851
G01 X31.0347 Y36.9819
G01 X31.0447 Y36.9785
G01 X31.0550 Y36.9760
G01 X31.0938 Y36.9690
G01 X31.1077 Y36.9677
G01 X53.5997 Y36.9677
G01 X53.6081 Y36.9680
G01 X53.6164 Y36.9690
G01 X53.6604 Y36.9771
G01 X53.6707 Y36.9798
G01 X53.6831 Y36.9846
G01 X53.6926 Y36.9895
G01 X53.6993 Y36.9937
G01 X53.7340 Y37.0176
G01 X53.7422 Y37.0242
G01 X53.7479 Y37.0296
G01 X53.7532 Y37.0355
G01 X53.7581 Y37.0417
G01 X53.7848 Y37.0808
G01 X53.7899 Y37.0900
G01 X53.7941 Y37.0997
G01 X53.7979 Y37.1123
G01 X53.8067 Y37.1530
G01 X53.8084 Y37.1635
G01 X53.8090 Y37.1741
G01 X53.9182 Y45.6857
G01 X53.9181 Y45.6934
G01 X53.9170 Y45.7036
G01 X53.9089 Y45.7484
G01 X53.9054 Y45.7613
G01 X53.9014 Y45.7713
G01 X53.8951 Y45.7832
G01 X53.8689 Y45.8233
G01 X53.8641 Y45.8294
G01 X53.8589 Y45.8352
G01 X53.8533 Y45.8406
G01 X53.8473 Y45.8455
G01 X53.8058 Y45.8733
G01 X53.7968 Y45.8783
G01 X53.7874 Y45.8825
G01 X53.7801 Y45.8850
G01 X53.7727 Y45.8870
G01 X53.7306 Y45.8957
G01 X53.7198 Y45.8974
G01 X53.7089 Y45.8979
G01 X42.6777 Y45.8979
G01 X42.6694 Y45.8976
G01 X42.6585 Y45.8962
G01 X42.6141 Y45.8870
G01 X42.6041 Y45.8841
G01 X42.5944 Y45.8803
G01 X42.5874 Y45.8769
G01 X42.5785 Y45.8715
G01 X42.5460 Y45.8496
G01 X42.5394 Y45.8449
G01 X42.5293 Y45.8358
G01 X42.5205 Y45.8256
G01 X42.4935 Y45.7866
G01 X42.4882 Y45.7776
G01 X42.4839 Y45.7682
G01 X42.4804 Y45.7584
G01 X42.4779 Y45.7483
G01 X42.4699 Y45.7066
G01 X42.4685 Y45.6937
G01 X42.4683 Y42.7596
G01 X42.4626 Y42.7144
G01 X42.4510 Y42.6834
G01 X42.4283 Y42.6506
G01 X42.4105 Y42.6326
G01 X42.3906 Y42.6177
G01 X42.3595 Y42.6037
G01 X42.3075 Y42.5959
G01 X39.6628 Y42.5959
G01 X39.6171 Y42.6016
G01 X39.5861 Y42.6133
G01 X39.5530 Y42.6362
G01 X39.5357 Y42.6530
G01 X39.5213 Y42.6729
G01 X39.5068 Y42.7051
G01 X39.4987 Y42.7567
G01 X39.4985 Y45.6937
G01 X39.4971 Y45.7066
G01 X39.4891 Y45.7483
G01 X39.4866 Y45.7584
G01 X39.4832 Y45.7682
G01 X39.4788 Y45.7776
G01 X39.4735 Y45.7866
G01 X39.4466 Y45.8256
G01 X39.4377 Y45.8358
G01 X39.4276 Y45.8449
G01 X39.4210 Y45.8496
G01 X39.3885 Y45.8715
G01 X39.3796 Y45.8769
G01 X39.3702 Y45.8813
G01 X39.3604 Y45.8849
G01 X39.3529 Y45.8870
G01 X39.3085 Y45.8962
G01 X39.3003 Y45.8973
G01 X39.2893 Y45.8979
G01 X25.7460 Y45.8979
G01 X25.7359 Y45.8974
G01 X25.7235 Y45.8955
G00 Z2.0000
G00 X23.8598 Y45.8957
G01 F60.00
G01 Z-0.1000
G01 F120.00
G01 X23.8156 Y45.8863
G01 X23.8056 Y45.8833
G01 X23.7984 Y45.8803
G01 X23.7914 Y45.8769
G01 X23.7847 Y45.8729
G01 X23.7500 Y45.8496
G01 X23.7434 Y45.8449
G01 X23.7353 Y45.8377
G01 X23.7261 Y45.8278
G01 X23.7213 Y45.8213
G01 X23.6989 Y45.7887
G01 X23.6947 Y45.7822
G01 X23.6899 Y45.7730
G01 X23.6869 Y45.7658
G01 X23.6837 Y45.7559
G01 X23.6739 Y45.7066
G01 X23.6728 Y45.6989
G01 X23.6724 Y45.6912
G01 X23.6724 Y45.2212
G01 X23.6731 Y45.2137
G01 X23.6742 Y45.2062
G01 X23.6845 Y45.1584
G01 X23.6874 Y45.1483
G01 X23.6914 Y45.1385
G01 X23.6963 Y45.1291
G01 X23.7036 Y45.1182
G01 X23.7317 Y45.0816
G01 X23.7386 Y45.0737
G01 X23.7443 Y45.0683
G01 X23.7525 Y45.0618
G01 X23.7635 Y45.0548
G01 X23.8044 Y45.0322
G01 X23.8139 Y45.0278
G01 X23.8212 Y45.0252
G01 X23.8312 Y45.0225
G01 X23.8441 Y45.0205
G01 X23.8929 Y45.0181
G01 X23.9035 Y45.0181
G01 X23.9166 Y45.0196
G01 X23.9294 Y45.0226
G01 X23.9775 Y45.0410
G01 X23.9849 Y45.0442
G01 X23.9944 Y45.0493
G01 X24.0033 Y45.0553
G01 X24.0095 Y45.0603
G01 X24.0172 Y45.0678
G01 X24.0472 Y45.0998
G01 X24.0543 Y45.1082
G01 X24.0605 Y45.1173
G01 X24.0979 Y45.1786
G01 X24.1835 Y45.2884
G01 X24.2819 Y45.3868
G01 X24.3909 Y45.4721
G01 X24.4521 Y45.5087
G01 X24.4613 Y45.5149
G01 X24.4697 Y45.5219
G01 X24.5051 Y45.5561
G01 X24.5105 Y45.5620
G01 X24.5155 Y45.5683
G01 X24.5199 Y45.5750
G01 X24.5239 Y45.5819
G01 X24.5283 Y45.5916
G01 X24.5455 Y45.6347
G01 X24.5487 Y45.6447
G01 X24.5509 Y45.6550
G01 X24.5522 Y45.6681
G01 X24.5521 Y45.6786
G01 X24.5491 Y45.7275
G01 X24.5475 Y45.7378
G01 X24.5449 Y45.7479
G01 X24.5423 Y45.7553
G01 X24.5381 Y45.7648
G01 X24.5160 Y45.8058
G01 X24.5119 Y45.8127
G01 X24.5057 Y45.8214
G01 X24.5005 Y45.8275
G01 X24.4928 Y45.8351
G01 X24.4866 Y45.8402
G01 X24.4456 Y45.8712
G01 X24.4388 Y45.8753
G01 X24.4318 Y45.8789
G01 X24.4194 Y45.8837
G01 X24.4092 Y45.8864
G01 X24.3640 Y45.8960
G01 X24.3540 Y45.8974
G01 X24.3465 Y45.8979
G01 X23.8817 Y45.8979
G01 X23.8707 Y45.8973
G01 X23.8598 Y45.8957
G00 Z2.0000
M05
G00 Z2.0000
G00 Z15.00


