(G-CODE GENERATED BY FLATCAM v8.994 - www.flatcam.org - Version Date: 2020/11/7)

(Name: Gerber_BottomSilkscreenLayer.GBO_mt_paint_cnc)
(Type: G-code from Geometry)
(Units: MM)

(Created on Tuesday, 28 May 2024 at 20:28)

(This preprocessor is the default preprocessor used by FlatCAM.)
(It is made to work with MACH3 compatible motion controllers.)

(TOOL DIAMETER: 0.1 mm)
(Feedrate_XY: 120.0 mm/min)
(Feedrate_Z: 60.0 mm/min)
(Feedrate rapids 1500.0 mm/min)

(Z_Cut: -0.05 mm)
(Z_Move: 2.0 mm)
(Z Start: None mm)
(Z End: 15.0 mm)
(X,Y End: None mm)
(Steps per circle: 64)
(Preprocessor Geometry: default)

(X range:   23.7433 ...   76.2577  mm)
(Y range:   24.1573 ...   45.8266  mm)

(Spindle Speed: 0.0 RPM)
G21
G90
G94

G01 F120.00

M5
G00 Z15.0000
G00 X0.0000 Y0.0000
T1
M6    
(MSG, Change to Tool Dia = 0.1000)
M0
G00 Z15.0000

M03
G01 F120.00
G00 X23.8233 Y24.2453
G01 F60.00
G01 Z-0.0500
G01 F120.00
G01 X23.8233 Y24.1573
G01 X23.9033 Y24.1573
G01 X23.9033 Y24.2206
G01 X23.9833 Y24.2206
G01 X23.9833 Y24.1573
G01 X24.0633 Y24.1573
G01 X24.0633 Y24.2206
G01 X24.1433 Y24.2206
G01 X24.1433 Y24.1573
G01 X24.2233 Y24.1573
G01 X24.2233 Y24.2206
G01 X24.3033 Y24.2206
G01 X24.3033 Y24.1573
G01 X24.3833 Y24.1573
G01 X24.3833 Y24.2206
G01 X24.4633 Y24.2206
G01 X24.4633 Y24.1573
G01 X24.5433 Y24.1573
G01 X24.5433 Y24.2206
G01 X24.6233 Y24.2206
G01 X24.6233 Y24.1573
G01 X24.7033 Y24.1573
G01 X24.7033 Y24.2206
G01 X24.7833 Y24.2206
G01 X24.7833 Y24.1573
G01 X24.8633 Y24.1573
G01 X24.8633 Y24.2206
G01 X24.9433 Y24.2206
G01 X24.9433 Y24.1573
G01 X25.0233 Y24.1573
G01 X25.0233 Y24.2206
G01 X25.1033 Y24.2206
G01 X25.1033 Y24.1573
G01 X25.1833 Y24.1573
G01 X25.1833 Y24.2206
G01 X25.2633 Y24.2206
G01 X25.2633 Y24.1573
G01 X25.3433 Y24.1573
G01 X25.3433 Y24.2206
G01 X25.4233 Y24.2206
G01 X25.4233 Y24.1573
G01 X25.5033 Y24.1573
G01 X25.5033 Y24.2206
G01 X25.5833 Y24.2206
G01 X25.5833 Y24.1573
G01 X25.6633 Y24.1573
G01 X25.6633 Y24.2206
G01 X25.7433 Y24.2206
G01 X25.7433 Y24.1573
G01 X25.8233 Y24.1573
G01 X25.8233 Y24.2206
G01 X25.9033 Y24.2206
G01 X25.9033 Y24.1573
G01 X25.9833 Y24.1573
G01 X25.9833 Y24.2206
G01 X26.0633 Y24.2206
G01 X26.0633 Y24.1573
G01 X26.1433 Y24.1573
G01 X26.1433 Y24.2206
G00 Z2.0000
G00 X26.2233 Y24.2214
G01 F60.00
G01 Z-0.0500
G01 F120.00
G01 X26.2233 Y24.1573
G01 X26.3033 Y24.1573
G01 X26.3033 Y26.7606
G01 X26.2233 Y26.7606
G01 X26.2233 Y26.6966
G00 Z2.0000
G00 X26.1433 Y26.6973
G01 F60.00
G01 Z-0.0500
G01 F120.00
G01 X26.1433 Y26.7606
G01 X26.0633 Y26.7606
G01 X26.0633 Y26.6973
G01 X25.9833 Y26.6973
G01 X25.9833 Y26.7606
G01 X25.9033 Y26.7606
G01 X25.9033 Y26.6973
G01 X25.8233 Y26.6973
G01 X25.8233 Y26.7606
G01 X25.7433 Y26.7606
G01 X25.7433 Y26.6973
G01 X25.6633 Y26.6973
G01 X25.6633 Y26.7606
G01 X25.5833 Y26.7606
G01 X25.5833 Y26.6973
G01 X25.5033 Y26.6973
G01 X25.5033 Y26.7606
G01 X25.4233 Y26.7606
G01 X25.4233 Y26.6973
G01 X25.3433 Y26.6973
G01 X25.3433 Y26.7606
G01 X25.2633 Y26.7606
G01 X25.2633 Y26.6973
G01 X25.1833 Y26.6973
G01 X25.1833 Y26.7606
G01 X25.1033 Y26.7606
G01 X25.1033 Y26.6973
G01 X25.0233 Y26.6973
G01 X25.0233 Y26.7606
G01 X24.9433 Y26.7606
G01 X24.9433 Y26.6973
G01 X24.8633 Y26.6973
G01 X24.8633 Y26.7606
G01 X24.7833 Y26.7606
G01 X24.7833 Y26.6973
G01 X24.7033 Y26.6973
G01 X24.7033 Y26.7606
G01 X24.6233 Y26.7606
G01 X24.6233 Y26.6973
G01 X24.5433 Y26.6973
G01 X24.5433 Y26.7606
G01 X24.4633 Y26.7606
G01 X24.4633 Y26.6973
G01 X24.3833 Y26.6973
G01 X24.3833 Y26.7606
G01 X24.3033 Y26.7606
G01 X24.3033 Y26.6973
G01 X24.2233 Y26.6973
G01 X24.2233 Y26.7606
G01 X24.1433 Y26.7606
G01 X24.1433 Y26.6973
G01 X24.0633 Y26.6973
G01 X24.0633 Y26.7606
G01 X23.9833 Y26.7606
G01 X23.9833 Y26.6973
G01 X23.9033 Y26.6973
G01 X23.9033 Y26.7606
G01 X23.8233 Y26.7606
G01 X23.8233 Y26.6728
G00 Z2.0000
G00 X23.8066 Y26.0960
G01 F60.00
G01 Z-0.0500
G01 F120.00
G01 X23.8067 Y24.2895
G01 X23.8072 Y24.2816
G01 X23.8087 Y24.2736
G01 X23.8107 Y24.2671
G01 X23.8139 Y24.2596
G01 X23.8178 Y24.2528
G01 X23.8225 Y24.2462
G01 X23.8280 Y24.2403
G01 X23.8340 Y24.2352
G01 X23.8437 Y24.2289
G01 X23.8542 Y24.2243
G01 X23.8652 Y24.2216
G01 X23.8767 Y24.2206
G01 X26.2133 Y24.2206
G01 X26.2214 Y24.2211
G01 X26.2304 Y24.2227
G01 X26.2413 Y24.2265
G01 X26.2512 Y24.2318
G01 X26.2604 Y24.2388
G01 X26.2682 Y24.2472
G01 X26.2745 Y24.2566
G01 X26.2793 Y24.2671
G01 X26.2822 Y24.2782
G01 X26.2833 Y24.2895
G01 X26.2833 Y26.6280
G01 X26.2830 Y26.6342
G01 X26.2820 Y26.6410
G01 X26.2803 Y26.6477
G01 X26.2780 Y26.6541
G01 X26.2751 Y26.6603
G01 X26.2716 Y26.6662
G01 X26.2675 Y26.6717
G01 X26.2628 Y26.6768
G01 X26.2578 Y26.6815
G01 X26.2522 Y26.6855
G01 X26.2463 Y26.6891
G01 X26.2401 Y26.6920
G01 X26.2337 Y26.6943
G01 X26.2270 Y26.6960
G01 X26.2202 Y26.6970
G01 X26.2140 Y26.6973
G01 X23.8766 Y26.6973
G01 X23.8685 Y26.6969
G01 X23.8607 Y26.6955
G01 X23.8498 Y26.6920
G01 X23.8406 Y26.6874
G01 X23.8321 Y26.6815
G01 X23.8239 Y26.6734
G01 X23.8172 Y26.6644
G01 X23.8124 Y26.6553
G01 X23.8086 Y26.6443
G01 X23.8069 Y26.6342
G01 X23.8066 Y26.6273
G01 X23.8066 Y26.0960
G01 X23.7434 Y26.0926
G01 X23.7434 Y26.7288
G01 X23.7440 Y26.7351
G01 X23.7458 Y26.7411
G01 X23.7488 Y26.7465
G01 X23.7527 Y26.7513
G01 X23.7575 Y26.7552
G01 X23.7629 Y26.7582
G01 X23.7688 Y26.7599
G01 X23.7767 Y26.7606
G01 X26.3133 Y26.7606
G01 X26.3181 Y26.7604
G01 X26.3242 Y26.7592
G01 X26.3299 Y26.7568
G01 X26.3350 Y26.7534
G01 X26.3394 Y26.7490
G01 X26.3428 Y26.7439
G01 X26.3442 Y26.7411
G01 X26.3460 Y26.7351
G01 X26.3467 Y26.7273
G01 X26.3467 Y24.1907
G01 X26.3464 Y24.1859
G01 X26.3452 Y24.1798
G01 X26.3428 Y24.1741
G01 X26.3394 Y24.1690
G01 X26.3350 Y24.1646
G01 X26.3325 Y24.1627
G01 X26.3271 Y24.1598
G01 X26.3212 Y24.1580
G01 X26.3133 Y24.1573
G01 X23.7767 Y24.1573
G01 X23.7719 Y24.1576
G01 X23.7658 Y24.1588
G01 X23.7629 Y24.1598
G01 X23.7575 Y24.1627
G01 X23.7550 Y24.1646
G01 X23.7506 Y24.1690
G01 X23.7472 Y24.1741
G01 X23.7458 Y24.1769
G01 X23.7440 Y24.1828
G01 X23.7433 Y24.1907
G01 X23.7434 Y26.0926
G00 Z2.0000
G00 X24.3680 Y27.4030
G01 F60.00
G01 Z-0.0500
G01 F120.00
G01 X24.4700 Y27.4030
G00 Z2.0000
G00 X24.4313 Y27.4830
G01 F60.00
G01 Z-0.0500
G01 F120.00
G01 X24.3680 Y27.4830
G01 X24.3680 Y27.5630
G01 X24.4313 Y27.5630
G01 X24.4313 Y27.6430
G01 X24.3680 Y27.6430
G01 X24.3680 Y27.7230
G01 X24.4313 Y27.7230
G01 X24.4313 Y27.8030
G01 X24.3680 Y27.8030
G01 X24.3680 Y27.8297
G01 X24.3683 Y27.8350
G01 X24.3702 Y27.8434
G01 X24.4210 Y27.9959
G01 X24.4240 Y28.0028
G01 X24.4273 Y28.0076
G01 X24.4303 Y28.0110
G01 X24.4798 Y28.0605
G01 X24.4837 Y28.0640
G01 X24.4911 Y28.0686
G01 X24.5918 Y28.1189
G01 X24.5988 Y28.1217
G01 X24.6045 Y28.1228
G01 X24.6091 Y28.1230
G01 X24.7143 Y28.1228
G01 X24.7200 Y28.1217
G01 X24.7270 Y28.1189
G01 X24.8277 Y28.0686
G01 X24.8323 Y28.0660
G01 X24.8390 Y28.0605
G01 X24.8724 Y28.0272
G01 X24.8793 Y28.0217
G01 X24.8862 Y28.0175
G01 X24.8956 Y28.0133
G01 X24.9043 Y28.0108
G01 X24.9145 Y28.0094
G01 X24.9238 Y28.0094
G01 X24.9328 Y28.0106
G01 X24.9428 Y28.0133
G01 X24.9511 Y28.0170
G01 X24.9591 Y28.0218
G01 X24.9670 Y28.0281
G01 X24.9993 Y28.0605
G01 X25.0060 Y28.0660
G01 X25.0106 Y28.0686
G01 X25.1114 Y28.1189
G01 X25.1183 Y28.1217
G01 X25.1240 Y28.1228
G01 X25.1286 Y28.1230
G01 X25.2858 Y28.1228
G01 X25.2915 Y28.1217
G01 X25.2985 Y28.1189
G01 X25.3992 Y28.0686
G01 X25.4038 Y28.0660
G01 X25.4105 Y28.0605
G01 X25.4630 Y28.0076
G01 X25.4663 Y28.0028
G01 X25.4693 Y27.9959
G01 X25.5201 Y27.8434
G01 X25.5220 Y27.8350
G01 X25.5223 Y27.8297
G01 X25.5221 Y27.3609
G01 X25.5209 Y27.3548
G01 X25.5185 Y27.3491
G01 X25.5151 Y27.3440
G01 X25.5107 Y27.3396
G01 X25.5055 Y27.3362
G01 X25.4998 Y27.3338
G01 X25.4937 Y27.3326
G01 X25.4889 Y27.3323
G01 X24.4013 Y27.3323
G01 X24.3935 Y27.3330
G01 X24.3875 Y27.3348
G01 X24.3847 Y27.3362
G01 X24.3821 Y27.3377
G01 X24.3773 Y27.3417
G01 X24.3734 Y27.3465
G01 X24.3718 Y27.3491
G01 X24.3705 Y27.3519
G01 X24.3687 Y27.3578
G01 X24.3680 Y27.3657
G01 X24.3680 Y27.8297
G01 X24.3834 Y27.8830
G01 X24.4501 Y27.8830
G00 Z2.0000
G00 X24.4774 Y27.9630
G01 F60.00
G01 Z-0.0500
G01 F120.00
G01 X24.4101 Y27.9630
G01 X24.4624 Y28.0430
G01 X24.5815 Y28.0430
G00 Z2.0000
G00 X24.7373 Y28.0430
G01 F60.00
G01 Z-0.0500
G01 F120.00
G01 X24.8564 Y28.0430
G00 Z2.0000
G00 X24.8414 Y27.9630
G01 F60.00
G01 Z-0.0500
G01 F120.00
G01 X24.9969 Y27.9630
G00 Z2.0000
G00 X24.9819 Y28.0430
G01 F60.00
G01 Z-0.0500
G01 F120.00
G01 X25.1010 Y28.0430
G00 Z2.0000
G00 X24.9697 Y27.8830
G01 F60.00
G01 Z-0.0500
G01 F120.00
G01 X24.8687 Y27.8830
G00 Z2.0000
G00 X24.8875 Y27.8030
G01 F60.00
G01 Z-0.0500
G01 F120.00
G01 X24.9508 Y27.8030
G01 X24.9508 Y27.7230
G01 X24.8875 Y27.7230
G01 X24.8875 Y27.6430
G01 X24.9508 Y27.6430
G01 X24.9508 Y27.5630
G01 X24.8875 Y27.5630
G01 X24.8875 Y27.4830
G01 X24.9508 Y27.4830
G00 Z2.0000
G00 X24.9896 Y27.4030
G01 F60.00
G01 Z-0.0500
G01 F120.00
G01 X24.8488 Y27.4030
G00 Z2.0000
G00 X24.8175 Y27.3956
G01 F60.00
G01 Z-0.0500
G01 F120.00
G01 X24.8244 Y27.3960
G01 X24.8300 Y27.3968
G01 X24.8367 Y27.3983
G01 X24.8423 Y27.4002
G01 X24.8474 Y27.4024
G01 X24.8535 Y27.4056
G01 X24.8592 Y27.4094
G01 X24.8636 Y27.4130
G01 X24.8679 Y27.4170
G01 X24.8724 Y27.4222
G01 X24.8757 Y27.4268
G01 X24.8793 Y27.4326
G01 X24.8838 Y27.4432
G01 X24.8854 Y27.4486
G01 X24.8868 Y27.4554
G01 X24.8875 Y27.4656
G01 X24.8875 Y27.8151
G01 X24.8866 Y27.8263
G01 X24.8843 Y27.8361
G01 X24.8448 Y27.9547
G01 X24.8411 Y27.9637
G01 X24.8361 Y27.9721
G01 X24.8297 Y27.9801
G01 X24.8041 Y28.0058
G01 X24.7990 Y28.0104
G01 X24.7929 Y28.0148
G01 X24.7874 Y28.0179
G01 X24.7187 Y28.0523
G01 X24.7116 Y28.0553
G01 X24.7034 Y28.0578
G01 X24.6971 Y28.0590
G01 X24.6896 Y28.0597
G01 X24.6304 Y28.0597
G01 X24.6206 Y28.0588
G01 X24.6102 Y28.0564
G01 X24.6001 Y28.0523
G01 X24.5324 Y28.0185
G01 X24.5259 Y28.0148
G01 X24.5198 Y28.0104
G01 X24.5151 Y28.0062
G01 X24.4902 Y27.9813
G01 X24.4852 Y27.9756
G01 X24.4792 Y27.9665
G01 X24.4747 Y27.9567
G01 X24.4349 Y27.8372
G01 X24.4332 Y27.8313
G01 X24.4317 Y27.8226
G01 X24.4313 Y27.8151
G01 X24.4314 Y27.4619
G01 X24.4320 Y27.4554
G01 X24.4334 Y27.4486
G01 X24.4354 Y27.4421
G01 X24.4385 Y27.4346
G01 X24.4419 Y27.4286
G01 X24.4464 Y27.4222
G01 X24.4509 Y27.4170
G01 X24.4559 Y27.4123
G01 X24.4614 Y27.4081
G01 X24.4663 Y27.4050
G01 X24.4713 Y27.4024
G01 X24.4777 Y27.3997
G01 X24.4843 Y27.3977
G01 X24.4898 Y27.3966
G01 X24.5013 Y27.3956
G01 X24.8175 Y27.3956
G01 X25.3890 Y27.3956
G01 X25.3901 Y27.3957
G01 X25.4014 Y27.3968
G01 X25.4126 Y27.3997
G01 X25.4231 Y27.4045
G01 X25.4279 Y27.4074
G01 X25.4334 Y27.4115
G01 X25.4385 Y27.4161
G01 X25.4431 Y27.4212
G01 X25.4472 Y27.4268
G01 X25.4513 Y27.4337
G01 X25.4545 Y27.4409
G01 X25.4566 Y27.4474
G01 X25.4582 Y27.4554
G01 X25.4589 Y27.4619
G01 X25.4590 Y27.8151
G01 X25.4584 Y27.8239
G01 X25.4566 Y27.8333
G01 X25.4155 Y27.9568
G01 X25.4131 Y27.9626
G01 X25.4100 Y27.9683
G01 X25.4070 Y27.9730
G01 X25.4030 Y27.9781
G01 X25.3742 Y28.0071
G01 X25.3675 Y28.0127
G01 X25.3614 Y28.0165
G01 X25.2862 Y28.0542
G01 X25.2801 Y28.0564
G01 X25.2729 Y28.0583
G01 X25.2665 Y28.0593
G01 X25.2599 Y28.0597
G01 X25.1488 Y28.0597
G01 X25.1381 Y28.0585
G01 X25.1267 Y28.0553
G01 X25.1197 Y28.0523
G01 X25.0520 Y28.0185
G01 X25.0423 Y28.0127
G01 X25.0346 Y28.0062
G01 X25.0086 Y27.9801
G01 X25.0022 Y27.9721
G01 X24.9973 Y27.9637
G01 X24.9936 Y27.9547
G01 X24.9542 Y27.8366
G01 X24.9522 Y27.8287
G01 X24.9511 Y27.8212
G01 X24.9508 Y27.8151
G01 X24.9508 Y27.4656
G01 X24.9512 Y27.4588
G01 X24.9522 Y27.4520
G01 X24.9549 Y27.4421
G01 X24.9597 Y27.4316
G01 X24.9659 Y27.4222
G01 X24.9729 Y27.4146
G01 X24.9819 Y27.4074
G01 X24.9909 Y27.4024
G01 X25.0005 Y27.3987
G01 X25.0118 Y27.3962
G01 X25.0162 Y27.3958
G01 X25.0185 Y27.3957
G01 X25.0197 Y27.3957
G01 X25.0202 Y27.3956
G01 X25.0208 Y27.3956
G01 X25.3890 Y27.3956
G00 Z2.0000
G00 X25.4202 Y27.4030
G01 F60.00
G01 Z-0.0500
G01 F120.00
G01 X25.5223 Y27.4030
G01 X25.5223 Y27.4830
G01 X25.4590 Y27.4830
G01 X25.4590 Y27.5630
G01 X25.5223 Y27.5630
G01 X25.5223 Y27.6430
G01 X25.4590 Y27.6430
G01 X25.4590 Y27.7230
G01 X25.5223 Y27.7230
G01 X25.5223 Y27.8030
G01 X25.4590 Y27.8030
G00 Z2.0000
G00 X25.4402 Y27.8830
G01 F60.00
G01 Z-0.0500
G01 F120.00
G01 X25.5069 Y27.8830
G01 X25.4802 Y27.9630
G01 X25.4129 Y27.9630
G00 Z2.0000
G00 X25.4279 Y28.0430
G01 F60.00
G01 Z-0.0500
G01 F120.00
G01 X25.3088 Y28.0430
G00 Z2.0000
G00 X25.5171 Y28.4171
G01 F60.00
G01 Z-0.0500
G01 F120.00
G01 X25.4467 Y28.4171
G01 X25.4145 Y28.4971
G01 X25.2367 Y28.4971
G01 X25.0267 Y28.5771
G01 X25.2045 Y28.5771
G00 Z2.0000
G00 X25.0554 Y28.6571
G01 F60.00
G01 Z-0.0500
G01 F120.00
G01 X25.1586 Y28.6571
G01 X25.1586 Y28.7371
G01 X25.0953 Y28.7371
G01 X25.0953 Y28.8171
G01 X25.1586 Y28.8171
G01 X25.1586 Y28.8971
G01 X25.0953 Y28.8971
G01 X25.0953 Y28.9771
G01 X25.1586 Y28.9771
G00 Z2.0000
G00 X25.1586 Y29.0571
G01 F60.00
G01 Z-0.0500
G01 F120.00
G01 X24.8547 Y29.0571
G01 X24.8225 Y28.9771
G01 X24.6447 Y28.9771
G01 X24.6602 Y28.9153
G01 X24.6540 Y28.9126
G01 X24.6481 Y28.9093
G01 X24.6426 Y28.9055
G01 X24.6366 Y28.9003
G01 X24.6319 Y28.8953
G01 X24.6272 Y28.8892
G01 X24.6232 Y28.8824
G01 X24.6203 Y28.8763
G01 X24.6181 Y28.8699
G01 X24.6165 Y28.8633
G01 X24.6155 Y28.8566
G01 X24.6152 Y28.8487
G01 X24.6157 Y28.8410
G01 X24.6169 Y28.8343
G01 X24.6187 Y28.8278
G01 X24.6212 Y28.8215
G01 X24.6242 Y28.8155
G01 X24.6278 Y28.8098
G01 X24.6313 Y28.8052
G01 X24.6359 Y28.8002
G01 X24.6409 Y28.7957
G01 X24.6463 Y28.7917
G01 X24.6521 Y28.7882
G01 X24.6577 Y28.7855
G01 X25.0004 Y28.6549
G01 X25.0068 Y28.6528
G01 X25.0134 Y28.6513
G01 X25.0202 Y28.6505
G01 X25.0281 Y28.6504
G01 X25.0349 Y28.6510
G01 X25.0415 Y28.6522
G01 X25.0489 Y28.6544
G01 X25.0552 Y28.6570
G01 X25.0632 Y28.6615
G01 X25.0713 Y28.6676
G01 X25.0777 Y28.6739
G01 X25.0839 Y28.6819
G01 X25.0888 Y28.6908
G01 X25.0924 Y28.7003
G01 X25.0946 Y28.7102
G01 X25.0953 Y28.7192
G01 X25.0953 Y28.9795
G01 X25.0950 Y28.9862
G01 X25.0938 Y28.9941
G01 X25.0917 Y29.0016
G01 X25.0888 Y29.0090
G01 X25.0850 Y29.0160
G01 X25.0806 Y29.0224
G01 X25.0754 Y29.0284
G01 X25.0695 Y29.0338
G01 X25.0632 Y29.0383
G01 X25.0563 Y29.0423
G01 X25.0501 Y29.0449
G01 X25.0425 Y29.0473
G01 X25.0349 Y29.0488
G01 X25.0269 Y29.0495
G01 X25.0202 Y29.0493
G01 X25.0123 Y29.0482
G01 X25.0047 Y29.0464
G01 X24.6602 Y28.9153
G01 X25.0647 Y29.1371
G01 X25.2425 Y29.1371
G01 X25.2747 Y29.2171
G01 X25.4525 Y29.2171
G00 Z2.0000
G00 X24.9946 Y28.6571
G01 F60.00
G01 Z-0.0500
G01 F120.00
G01 X24.8167 Y28.6571
G01 X24.7846 Y28.7371
G01 X24.6067 Y28.7371
G01 X24.3681 Y28.8479
G01 X24.3689 Y28.8427
G01 X24.3701 Y28.8388
G01 X24.3723 Y28.8341
G01 X24.3745 Y28.8307
G01 X24.3781 Y28.8268
G01 X24.3812 Y28.8242
G01 X24.3857 Y28.8216
G01 X24.3900 Y28.8197
G01 X25.4778 Y28.4053
G01 X25.4824 Y28.4038
G01 X25.4885 Y28.4028
G01 X25.4946 Y28.4029
G01 X25.5007 Y28.4043
G01 X25.5063 Y28.4068
G01 X25.5089 Y28.4085
G01 X25.5136 Y28.4126
G01 X25.5174 Y28.4175
G01 X25.5189 Y28.4202
G01 X25.5211 Y28.4260
G01 X25.5218 Y28.4290
G01 X25.5222 Y28.4352
G01 X25.5220 Y28.4382
G01 X25.5206 Y28.4443
G01 X25.5195 Y28.4472
G01 X25.5164 Y28.4525
G01 X25.5145 Y28.4550
G01 X25.5123 Y28.4572
G01 X25.5074 Y28.4610
G01 X25.5003 Y28.4644
G01 X25.2002 Y28.5789
G01 X25.1901 Y28.5844
G01 X25.1810 Y28.5916
G01 X25.1731 Y28.6003
G01 X25.1667 Y28.6102
G01 X25.1634 Y28.6175
G01 X25.1608 Y28.6254
G01 X25.1592 Y28.6336
G01 X25.1586 Y28.6417
G01 X25.1586 Y29.0576
G01 X25.1594 Y29.0674
G01 X25.1614 Y29.0765
G01 X25.1647 Y29.0855
G01 X25.1691 Y29.0937
G01 X25.1745 Y29.1013
G01 X25.1810 Y29.1082
G01 X25.1882 Y29.1141
G01 X25.1961 Y29.1189
G01 X25.2037 Y29.1223
G01 X25.5003 Y29.2353
G01 X25.5074 Y29.2388
G01 X25.5123 Y29.2426
G01 X25.5164 Y29.2472
G01 X25.5181 Y29.2498
G01 X25.5206 Y29.2555
G01 X25.5214 Y29.2585
G01 X25.5222 Y29.2646
G01 X25.5218 Y29.2708
G01 X25.5201 Y29.2768
G01 X25.5174 Y29.2823
G01 X25.5156 Y29.2848
G01 X25.5114 Y29.2893
G01 X25.5089 Y29.2913
G01 X25.5036 Y29.2943
G01 X25.4977 Y29.2963
G01 X25.4946 Y29.2968
G01 X25.4916 Y29.2971
G01 X25.4854 Y29.2966
G01 X25.4778 Y29.2945
G01 X24.3900 Y28.8801
G01 X24.3857 Y28.8782
G01 X24.3812 Y28.8755
G01 X24.3781 Y28.8730
G01 X24.3740 Y28.8683
G01 X24.3709 Y28.8630
G01 X24.3691 Y28.8580
G01 X24.3683 Y28.8540
G01 X24.3681 Y28.8479
G01 X24.4347 Y28.8971
G01 X24.6335 Y28.8971
G00 Z2.0000
G00 X24.6233 Y28.8171
G01 F60.00
G01 Z-0.0500
G01 F120.00
G01 X24.3968 Y28.8171
G00 Z2.0000
G00 X24.3680 Y29.6474
G01 F60.00
G01 Z-0.0500
G01 F120.00
G01 X24.4313 Y29.6474
G01 X24.4313 Y29.7274
G01 X24.3680 Y29.7274
G01 X24.3680 Y29.8074
G01 X24.4313 Y29.8074
G00 Z2.0000
G00 X24.4334 Y29.8874
G01 F60.00
G01 Z-0.0500
G01 F120.00
G01 X24.3680 Y29.8874
G01 X24.3680 Y29.9674
G01 X25.5218 Y29.9674
G00 Z2.0000
G00 X24.4364 Y30.0474
G01 F60.00
G01 Z-0.0500
G01 F120.00
G01 X24.3680 Y30.0474
G01 X24.3680 Y30.1274
G01 X24.4313 Y30.1274
G01 X24.4313 Y30.2074
G01 X24.3680 Y30.2074
G01 X24.3680 Y30.2874
G01 X24.4313 Y30.2874
G01 X24.3680 Y30.3341
G01 X24.3682 Y30.3389
G01 X24.3694 Y30.3450
G01 X24.3718 Y30.3507
G01 X24.3752 Y30.3558
G01 X24.3796 Y30.3602
G01 X24.3847 Y30.3636
G01 X24.3905 Y30.3660
G01 X24.3965 Y30.3672
G01 X24.4027 Y30.3672
G01 X24.4088 Y30.3660
G01 X24.4145 Y30.3636
G01 X24.4196 Y30.3602
G01 X24.4240 Y30.3558
G01 X24.4275 Y30.3507
G01 X24.4298 Y30.3450
G01 X24.4310 Y30.3389
G01 X24.4313 Y30.3341
G01 X24.4313 Y30.0732
G01 X24.4317 Y30.0657
G01 X24.4331 Y30.0580
G01 X24.4358 Y30.0490
G01 X24.4395 Y30.0408
G01 X24.4438 Y30.0339
G01 X24.4494 Y30.0268
G01 X24.4552 Y30.0211
G01 X24.4624 Y30.0156
G01 X24.4694 Y30.0115
G01 X24.4777 Y30.0079
G01 X24.4843 Y30.0059
G01 X24.4898 Y30.0047
G01 X24.5013 Y30.0038
G01 X25.4889 Y30.0038
G01 X25.4968 Y30.0031
G01 X25.5027 Y30.0013
G01 X25.5082 Y29.9984
G01 X25.5130 Y29.9944
G01 X25.5169 Y29.9897
G01 X25.5198 Y29.9842
G01 X25.5216 Y29.9783
G01 X25.5221 Y29.9752
G01 X25.5221 Y29.9690
G01 X25.5209 Y29.9630
G01 X25.5185 Y29.9572
G01 X25.5151 Y29.9521
G01 X25.5107 Y29.9477
G01 X25.5055 Y29.9443
G01 X25.4998 Y29.9419
G01 X25.4937 Y29.9407
G01 X25.4889 Y29.9405
G01 X24.5013 Y29.9405
G01 X24.4944 Y29.9401
G01 X24.4888 Y29.9393
G01 X24.4777 Y29.9364
G01 X24.4683 Y29.9322
G01 X24.4606 Y29.9274
G01 X24.4534 Y29.9215
G01 X24.4472 Y29.9149
G01 X24.4419 Y29.9075
G01 X24.4375 Y29.8993
G01 X24.4343 Y29.8908
G01 X24.4320 Y29.8807
G01 X24.4313 Y29.8705
G01 X24.4313 Y29.6101
G01 X24.4306 Y29.6023
G01 X24.4288 Y29.5963
G01 X24.4259 Y29.5909
G01 X24.4240 Y29.5884
G01 X24.4196 Y29.5840
G01 X24.4145 Y29.5806
G01 X24.4088 Y29.5782
G01 X24.4027 Y29.5770
G01 X24.3965 Y29.5770
G01 X24.3905 Y29.5782
G01 X24.3847 Y29.5806
G01 X24.3796 Y29.5840
G01 X24.3752 Y29.5884
G01 X24.3734 Y29.5909
G01 X24.3705 Y29.5963
G01 X24.3694 Y29.5993
G01 X24.3682 Y29.6053
G01 X24.3680 Y29.6101
G01 X24.3680 Y30.3341
G00 Z2.0000
G00 X24.9914 Y31.6122
G01 F60.00
G01 Z-0.0500
G01 F120.00
G01 X24.9921 Y31.6200
G01 X24.9939 Y31.6259
G01 X24.9968 Y31.6314
G01 X25.0007 Y31.6362
G01 X25.0055 Y31.6401
G01 X25.0110 Y31.6430
G01 X25.0169 Y31.6448
G01 X25.0231 Y31.6454
G01 X25.0292 Y31.6448
G01 X25.0351 Y31.6430
G01 X25.0406 Y31.6401
G01 X25.0454 Y31.6362
G01 X25.0493 Y31.6314
G01 X25.0522 Y31.6259
G01 X25.0540 Y31.6200
G01 X25.0547 Y31.6122
G01 X25.0547 Y30.6804
G01 X25.0540 Y30.6725
G01 X25.0522 Y30.6666
G01 X25.0493 Y30.6612
G01 X25.0454 Y30.6564
G01 X25.0406 Y30.6525
G01 X25.0351 Y30.6495
G01 X25.0292 Y30.6477
G01 X25.0231 Y30.6471
G01 X25.0169 Y30.6477
G01 X25.0110 Y30.6495
G01 X25.0055 Y30.6525
G01 X25.0007 Y30.6564
G01 X24.9968 Y30.6612
G01 X24.9939 Y30.6666
G01 X24.9921 Y30.6725
G01 X24.9914 Y30.6804
G01 X24.9914 Y31.6122
G00 Z2.0000
G00 X28.5165 Y33.6717
G01 F60.00
G01 Z-0.0500
G01 F120.00
G01 X32.8044 Y33.6717
G01 X32.8149 Y33.7517
G01 X28.4952 Y33.7517
G00 Z2.0000
G00 X28.4944 Y33.7233
G01 F60.00
G01 Z-0.0500
G01 F120.00
G01 X28.4952 Y33.7335
G01 X28.4952 Y34.6655
G01 X28.4955 Y34.6728
G01 X28.4964 Y34.6784
G01 X28.4977 Y34.6838
G01 X28.4996 Y34.6891
G01 X28.5020 Y34.6941
G01 X28.5049 Y34.6989
G01 X28.5082 Y34.7034
G01 X28.5119 Y34.7075
G01 X28.5161 Y34.7113
G01 X28.5206 Y34.7146
G01 X28.5254 Y34.7175
G01 X28.5304 Y34.7199
G01 X28.5357 Y34.7218
G01 X28.5411 Y34.7231
G01 X28.5467 Y34.7240
G01 X28.5540 Y34.7243
G01 X30.0023 Y34.7244
G01 X30.0102 Y34.7251
G01 X30.0182 Y34.7267
G01 X30.0256 Y34.7292
G01 X30.0330 Y34.7326
G01 X30.0399 Y34.7368
G01 X30.0461 Y34.7416
G01 X30.0518 Y34.7473
G01 X30.0569 Y34.7536
G01 X30.0623 Y34.7624
G01 X30.0666 Y34.7728
G01 X30.0690 Y34.7828
G01 X30.0700 Y34.7937
G01 X30.0700 Y35.9330
G01 X30.0703 Y35.9403
G01 X30.0712 Y35.9458
G01 X30.0725 Y35.9513
G01 X30.0744 Y35.9565
G01 X30.0768 Y35.9616
G01 X30.0797 Y35.9664
G01 X30.0830 Y35.9709
G01 X30.0867 Y35.9750
G01 X30.0909 Y35.9788
G01 X30.0954 Y35.9821
G01 X30.1002 Y35.9850
G01 X30.1052 Y35.9874
G01 X30.1105 Y35.9892
G01 X30.1159 Y35.9906
G01 X30.1215 Y35.9914
G01 X30.1270 Y35.9917
G01 X30.1326 Y35.9914
G01 X30.1382 Y35.9906
G01 X30.1436 Y35.9892
G01 X30.1488 Y35.9874
G01 X30.1539 Y35.9850
G01 X30.1587 Y35.9821
G01 X30.1632 Y35.9788
G01 X30.1673 Y35.9750
G01 X30.1711 Y35.9709
G01 X30.1744 Y35.9664
G01 X30.1773 Y35.9616
G01 X30.1797 Y35.9565
G01 X30.1816 Y35.9513
G01 X30.1829 Y35.9458
G01 X30.1837 Y35.9403
G01 X30.1841 Y35.9330
G01 X30.1841 Y34.6690
G01 X30.1837 Y34.6617
G01 X30.1829 Y34.6561
G01 X30.1816 Y34.6507
G01 X30.1797 Y34.6454
G01 X30.1773 Y34.6404
G01 X30.1744 Y34.6356
G01 X30.1711 Y34.6311
G01 X30.1673 Y34.6270
G01 X30.1632 Y34.6232
G01 X30.1587 Y34.6199
G01 X30.1539 Y34.6170
G01 X30.1488 Y34.6146
G01 X30.1436 Y34.6127
G01 X30.1382 Y34.6114
G01 X30.1326 Y34.6105
G01 X30.1253 Y34.6102
G01 X28.6793 Y34.6102
G01 X28.6702 Y34.6096
G01 X28.6623 Y34.6081
G01 X28.6537 Y34.6053
G01 X28.6463 Y34.6019
G01 X28.6376 Y34.5964
G01 X28.6307 Y34.5905
G01 X28.6244 Y34.5836
G01 X28.6193 Y34.5762
G01 X28.6151 Y34.5681
G01 X28.6120 Y34.5593
G01 X28.6101 Y34.5505
G01 X28.6093 Y34.5413
G01 X28.6093 Y33.8417
G01 X28.6101 Y33.8338
G01 X28.6114 Y33.8270
G01 X28.6134 Y33.8205
G01 X28.6160 Y33.8141
G01 X28.6193 Y33.8081
G01 X28.6238 Y33.8014
G01 X28.6289 Y33.7954
G01 X28.6340 Y33.7907
G01 X28.6394 Y33.7865
G01 X28.6444 Y33.7834
G01 X28.6494 Y33.7808
G01 X28.6557 Y33.7781
G01 X28.6669 Y33.7752
G01 X28.6724 Y33.7744
G01 X28.6793 Y33.7740
G01 X32.7681 Y33.7740
G01 X32.7754 Y33.7737
G01 X32.7809 Y33.7729
G01 X32.7864 Y33.7715
G01 X32.7916 Y33.7696
G01 X32.7967 Y33.7672
G01 X32.8015 Y33.7644
G01 X32.8060 Y33.7610
G01 X32.8101 Y33.7573
G01 X32.8139 Y33.7531
G01 X32.8172 Y33.7486
G01 X32.8201 Y33.7438
G01 X32.8225 Y33.7388
G01 X32.8244 Y33.7335
G01 X32.8257 Y33.7281
G01 X32.8265 Y33.7226
G01 X32.8268 Y33.7170
G01 X32.8265 Y33.7114
G01 X32.8257 Y33.7059
G01 X32.8244 Y33.7004
G01 X32.8225 Y33.6952
G01 X32.8201 Y33.6901
G01 X32.8172 Y33.6853
G01 X32.8139 Y33.6808
G01 X32.8101 Y33.6767
G01 X32.8060 Y33.6729
G01 X32.8015 Y33.6696
G01 X32.7967 Y33.6667
G01 X32.7916 Y33.6643
G01 X32.7864 Y33.6625
G01 X32.7809 Y33.6611
G01 X32.7754 Y33.6603
G01 X32.7681 Y33.6599
G01 X28.5527 Y33.6599
G01 X28.5454 Y33.6603
G01 X28.5399 Y33.6611
G01 X28.5345 Y33.6625
G01 X28.5292 Y33.6643
G01 X28.5242 Y33.6667
G01 X28.5194 Y33.6696
G01 X28.5149 Y33.6729
G01 X28.5107 Y33.6767
G01 X28.5070 Y33.6808
G01 X28.5036 Y33.6853
G01 X28.5008 Y33.6901
G01 X28.4984 Y33.6952
G01 X28.4965 Y33.7004
G01 X28.4951 Y33.7059
G01 X28.4943 Y33.7114
G01 X28.4940 Y33.7170
G01 X28.4944 Y33.7233
G00 Z2.0000
G00 X28.4952 Y33.8317
G01 F60.00
G01 Z-0.0500
G01 F120.00
G01 X28.6104 Y33.8317
G00 Z2.0000
G00 X28.6093 Y33.9117
G01 F60.00
G01 Z-0.0500
G01 F120.00
G01 X28.4952 Y33.9117
G01 X28.4952 Y33.9917
G01 X28.6093 Y33.9917
G01 X28.6093 Y34.0717
G01 X28.4952 Y34.0717
G01 X28.4952 Y34.1517
G01 X28.6093 Y34.1517
G01 X28.6093 Y34.2317
G01 X28.4952 Y34.2317
G01 X28.4952 Y34.3117
G01 X28.6093 Y34.3117
G01 X28.6093 Y34.3917
G01 X28.4952 Y34.3917
G01 X28.4952 Y34.4717
G01 X28.6093 Y34.4717
G00 Z2.0000
G00 X28.6103 Y34.5517
G01 F60.00
G01 Z-0.0500
G01 F120.00
G01 X28.4952 Y34.5517
G01 X28.4952 Y34.6317
G01 X30.1716 Y34.6317
G01 X30.1841 Y34.7117
G01 X28.5167 Y34.7117
G00 Z2.0000
G00 X30.0699 Y34.7917
G01 F60.00
G01 Z-0.0500
G01 F120.00
G01 X30.1841 Y34.7917
G01 X30.1841 Y34.8717
G01 X30.0700 Y34.8717
G01 X30.0700 Y34.9517
G01 X30.1841 Y34.9517
G01 X30.1841 Y35.0317
G01 X30.0700 Y35.0317
G01 X30.0700 Y35.1117
G01 X30.1841 Y35.1117
G01 X30.1841 Y35.1917
G01 X30.0700 Y35.1917
G01 X30.0700 Y35.2717
G01 X30.1841 Y35.2717
G01 X30.1841 Y35.3517
G01 X30.0700 Y35.3517
G01 X30.0700 Y35.4317
G01 X30.1841 Y35.4317
G01 X30.1841 Y35.5117
G01 X30.0700 Y35.5117
G01 X30.0700 Y35.5917
G01 X30.1841 Y35.5917
G01 X30.1841 Y35.6717
G01 X30.0700 Y35.6717
G01 X30.0700 Y35.7517
G01 X30.1841 Y35.7517
G01 X30.1841 Y35.8317
G01 X30.0700 Y35.8317
G01 X30.0700 Y35.9117
G01 X30.1841 Y35.9117
G00 Z2.0000
G00 X30.1831 Y37.3998
G01 F60.00
G01 Z-0.0500
G01 F120.00
G01 X30.1831 Y37.9341
G01 X30.1827 Y37.9414
G01 X30.1819 Y37.9470
G01 X30.1805 Y37.9524
G01 X30.1786 Y37.9577
G01 X30.1763 Y37.9627
G01 X30.1734 Y37.9675
G01 X30.1700 Y37.9720
G01 X30.1663 Y37.9761
G01 X30.1621 Y37.9799
G01 X30.1577 Y37.9832
G01 X30.1529 Y37.9861
G01 X30.1478 Y37.9885
G01 X30.1425 Y37.9904
G01 X30.1371 Y37.9917
G01 X30.1316 Y37.9926
G01 X30.1260 Y37.9928
G01 X30.1204 Y37.9926
G01 X30.1149 Y37.9917
G01 X30.1095 Y37.9904
G01 X30.1042 Y37.9885
G01 X30.0991 Y37.9861
G01 X30.0943 Y37.9832
G01 X30.0899 Y37.9799
G01 X30.0857 Y37.9761
G01 X30.0820 Y37.9720
G01 X30.0786 Y37.9675
G01 X30.0757 Y37.9627
G01 X30.0734 Y37.9577
G01 X30.0715 Y37.9524
G01 X30.0701 Y37.9470
G01 X30.0693 Y37.9414
G01 X30.0689 Y37.9341
G01 X30.0689 Y37.3998
G01 X30.0693 Y37.3925
G01 X30.0701 Y37.3870
G01 X30.0715 Y37.3816
G01 X30.0734 Y37.3763
G01 X30.0757 Y37.3713
G01 X30.0786 Y37.3665
G01 X30.0820 Y37.3620
G01 X30.0857 Y37.3578
G01 X30.0899 Y37.3541
G01 X30.0943 Y37.3508
G01 X30.0991 Y37.3479
G01 X30.1042 Y37.3455
G01 X30.1095 Y37.3436
G01 X30.1149 Y37.3422
G01 X30.1204 Y37.3414
G01 X30.1260 Y37.3412
G01 X30.1316 Y37.3414
G01 X30.1371 Y37.3422
G01 X30.1425 Y37.3436
G01 X30.1478 Y37.3455
G01 X30.1529 Y37.3479
G01 X30.1577 Y37.3508
G01 X30.1621 Y37.3541
G01 X30.1663 Y37.3578
G01 X30.1700 Y37.3620
G01 X30.1734 Y37.3665
G01 X30.1763 Y37.3713
G01 X30.1786 Y37.3763
G01 X30.1805 Y37.3816
G01 X30.1819 Y37.3870
G01 X30.1827 Y37.3925
G01 X30.1831 Y37.3998
G01 X30.1489 Y37.3460
G01 X30.1489 Y37.9880
G00 Z2.0000
G00 X30.0899 Y39.3541
G01 F60.00
G01 Z-0.0500
G01 F120.00
G01 X30.1621 Y39.3541
G01 X30.1831 Y39.4341
G01 X30.0689 Y39.4341
G01 X30.0689 Y39.5141
G01 X30.1831 Y39.5141
G01 X30.1831 Y39.5941
G01 X30.0689 Y39.5941
G01 X30.0689 Y39.6741
G01 X30.1831 Y39.6741
G01 X30.1831 Y39.7541
G01 X30.0689 Y39.7541
G01 X30.0689 Y39.8341
G01 X30.1831 Y39.8341
G01 X30.1831 Y39.9141
G01 X30.0689 Y39.9141
G01 X30.0689 Y39.9941
G01 X30.1831 Y39.9941
G01 X30.1831 Y40.0741
G01 X30.0689 Y40.0741
G01 X30.0689 Y40.1541
G01 X30.1831 Y40.1541
G01 X30.1831 Y40.2341
G01 X30.0689 Y40.2341
G01 X30.0689 Y40.3141
G01 X30.1831 Y40.3141
G01 X30.1831 Y40.3941
G01 X30.0689 Y40.3941
G01 X30.0689 Y40.4741
G01 X30.1831 Y40.4741
G01 X30.1831 Y40.5541
G01 X30.0675 Y40.5541
G00 Z2.0000
G00 X30.1831 Y40.6341
G01 F60.00
G01 Z-0.0500
G01 F120.00
G01 X28.5046 Y40.6341
G01 X28.4940 Y40.7141
G01 X30.1581 Y40.7141
G00 Z2.0000
G00 X28.6081 Y40.7941
G01 F60.00
G01 Z-0.0500
G01 F120.00
G01 X28.4940 Y40.7941
G01 X28.4940 Y40.8741
G01 X28.6081 Y40.8741
G01 X28.6081 Y40.9541
G01 X28.4940 Y40.9541
G01 X28.4940 Y41.0341
G01 X28.6081 Y41.0341
G01 X28.6081 Y41.1141
G01 X28.4940 Y41.1141
G01 X28.4940 Y41.1941
G01 X28.6081 Y41.1941
G01 X28.6081 Y41.2741
G01 X28.4940 Y41.2741
G01 X28.4940 Y41.3541
G01 X28.6081 Y41.3541
G01 X28.6081 Y41.4341
G01 X28.4940 Y41.4341
G01 X28.4940 Y41.5141
G01 X28.6124 Y41.5141
G00 Z2.0000
G00 X28.4940 Y41.5941
G01 F60.00
G01 Z-0.0500
G01 F120.00
G01 X32.8219 Y41.5941
G00 Z2.0000
G00 X31.9652 Y42.4269
G01 F60.00
G01 Z-0.0500
G01 F120.00
G01 X31.9652 Y42.4902
G01 X31.8852 Y42.4902
G01 X31.8852 Y42.4269
G01 X31.8052 Y42.4269
G01 X31.8052 Y42.4902
G01 X31.7252 Y42.4902
G01 X31.7252 Y42.4269
G01 X31.6452 Y42.4269
G01 X31.6452 Y42.4902
G01 X31.5652 Y42.4902
G01 X31.5652 Y42.4269
G01 X31.4852 Y42.4269
G01 X31.4852 Y42.4902
G00 Z2.0000
G00 X31.4052 Y42.4955
G01 F60.00
G01 Z-0.0500
G01 F120.00
G01 X31.4052 Y42.4269
G01 X31.3252 Y42.4269
G01 X31.3252 Y44.4292
G00 Z2.0000
G00 X31.1652 Y42.5306
G01 F60.00
G01 Z-0.0500
G01 F120.00
G01 X31.1652 Y42.4269
G01 X31.2452 Y42.4269
G01 X31.2452 Y44.4109
G00 Z2.0000
G00 X32.4305 Y44.3853
G01 F60.00
G01 Z-0.0500
G01 F120.00
G01 X32.4284 Y44.3929
G01 X32.4279 Y44.3990
G01 X32.4287 Y44.4052
G01 X32.4296 Y44.4082
G01 X32.4321 Y44.4138
G01 X32.4357 Y44.4189
G01 X32.4402 Y44.4231
G01 X32.4454 Y44.4264
G01 X32.4483 Y44.4276
G01 X32.4542 Y44.4293
G01 X32.4604 Y44.4297
G01 X32.4635 Y44.4295
G01 X32.4695 Y44.4281
G01 X32.4752 Y44.4255
G01 X32.4863 Y44.4178
G01 X32.4954 Y44.4130
G01 X32.5061 Y44.4094
G01 X32.5175 Y44.4076
G01 X32.5244 Y44.4074
G01 X32.5312 Y44.4079
G01 X32.5380 Y44.4090
G01 X32.5446 Y44.4108
G01 X32.5511 Y44.4133
G01 X32.5572 Y44.4163
G01 X32.5724 Y44.4264
G01 X32.5782 Y44.4286
G01 X32.5843 Y44.4296
G01 X32.5874 Y44.4297
G01 X32.5935 Y44.4289
G01 X32.5994 Y44.4269
G01 X32.6048 Y44.4239
G01 X32.6094 Y44.4198
G01 X32.6115 Y44.4175
G01 X32.6147 Y44.4122
G01 X32.6167 Y44.4078
G01 X32.8383 Y43.8261
G01 X32.8437 Y43.8158
G01 X32.8478 Y43.8100
G01 X32.8515 Y43.8056
G01 X32.8603 Y43.7977
G01 X32.8661 Y43.7937
G01 X32.8711 Y43.7909
G01 X32.8787 Y43.7876
G01 X32.8854 Y43.7855
G01 X32.8936 Y43.7839
G01 X32.9022 Y43.7833
G01 X33.6221 Y43.7833
G01 X33.6315 Y43.7841
G01 X33.6418 Y43.7864
G01 X33.6516 Y43.7903
G01 X33.6596 Y43.7949
G01 X33.6672 Y43.8007
G01 X33.6746 Y43.8083
G01 X33.6801 Y43.8158
G01 X33.6849 Y43.8248
G01 X33.9071 Y44.4078
G01 X33.9091 Y44.4122
G01 X33.9124 Y44.4175
G01 X33.9144 Y44.4198
G01 X33.9190 Y44.4239
G01 X33.9244 Y44.4269
G01 X33.9303 Y44.4289
G01 X33.9333 Y44.4295
G01 X33.9395 Y44.4296
G01 X33.9456 Y44.4286
G01 X33.9514 Y44.4264
G01 X33.9666 Y44.4163
G01 X33.9728 Y44.4133
G01 X33.9792 Y44.4108
G01 X33.9858 Y44.4090
G01 X33.9926 Y44.4079
G01 X33.9994 Y44.4074
G01 X34.0063 Y44.4076
G01 X34.0177 Y44.4094
G01 X34.0284 Y44.4130
G01 X34.0375 Y44.4178
G01 X34.0486 Y44.4255
G01 X34.0543 Y44.4281
G01 X34.0603 Y44.4295
G01 X34.0665 Y44.4296
G01 X34.0696 Y44.4293
G01 X34.0756 Y44.4276
G01 X34.0811 Y44.4249
G01 X34.0836 Y44.4231
G01 X34.0860 Y44.4211
G01 X34.0901 Y44.4164
G01 X34.0931 Y44.4111
G01 X34.0951 Y44.4052
G01 X34.0959 Y44.3990
G01 X34.0954 Y44.3929
G01 X34.0933 Y44.3853
G01 X33.3556 Y42.4489
G01 X33.3527 Y42.4427
G01 X33.3491 Y42.4377
G01 X33.3438 Y42.4329
G01 X33.3385 Y42.4298
G01 X33.3335 Y42.4280
G01 X33.3274 Y42.4270
G01 X33.3234 Y42.4270
G01 X33.3182 Y42.4278
G01 X33.3115 Y42.4302
G01 X33.2969 Y42.4399
G01 X33.2862 Y42.4449
G01 X33.2794 Y42.4470
G01 X33.2737 Y42.4482
G01 X33.2667 Y42.4491
G01 X33.2606 Y42.4492
G01 X33.2491 Y42.4480
G01 X33.2388 Y42.4453
G01 X33.2280 Y42.4405
G01 X33.2220 Y42.4367
G01 X33.2150 Y42.4317
G01 X33.2115 Y42.4298
G01 X33.2086 Y42.4286
G01 X33.2035 Y42.4274
G01 X33.1964 Y42.4270
G01 X33.1912 Y42.4278
G01 X33.1873 Y42.4290
G01 X33.1845 Y42.4302
G01 X33.1800 Y42.4329
G01 X33.1768 Y42.4354
G01 X33.1733 Y42.4393
G01 X33.1697 Y42.4455
G01 X32.4305 Y44.3853
G00 Z2.0000
G00 X32.5079 Y44.4090
G01 F60.00
G01 Z-0.0500
G01 F120.00
G01 X32.5079 Y44.1822
G01 X32.7479 Y43.5522
G01 X32.7479 Y44.0634
G01 X32.5879 Y43.9722
G01 X32.5879 Y44.4297
G01 X32.6679 Y44.2734
G01 X32.6679 Y43.7622
G01 X32.8279 Y43.8534
G01 X32.8279 Y43.3422
G01 X32.9879 Y42.9222
G01 X32.9879 Y43.4334
G00 Z2.0000
G00 X33.4679 Y43.7200
G01 F60.00
G01 Z-0.0500
G01 F120.00
G01 X33.4679 Y43.7833
G01 X33.3879 Y43.7833
G01 X33.3879 Y43.7200
G01 X33.3079 Y43.7200
G01 X33.3079 Y43.7833
G01 X33.2279 Y43.7833
G01 X33.2279 Y43.7200
G01 X33.1479 Y43.7200
G01 X33.1479 Y43.7833
G01 X33.0679 Y43.7833
G01 X33.0679 Y43.7200
G01 X32.9879 Y43.7200
G01 X32.9879 Y43.7833
G01 X32.9079 Y43.7833
G01 X32.9079 Y43.1322
G01 X33.0679 Y43.2234
G01 X33.0679 Y42.7122
G01 X33.4679 Y42.7437
G01 X33.4679 Y43.2548
G01 X33.6279 Y43.1637
G01 X33.6279 Y43.7836
G00 Z2.0000
G00 X33.5479 Y43.7198
G01 F60.00
G01 Z-0.0500
G01 F120.00
G01 X33.5479 Y43.7833
G01 X33.7879 Y43.5836
G01 X33.7879 Y44.0948
G01 X33.9479 Y44.0036
G01 X33.9479 Y44.4279
G00 Z2.0000
G00 X34.0279 Y44.4128
G01 F60.00
G01 Z-0.0500
G01 F120.00
G01 X34.0279 Y44.2136
G01 X33.8679 Y44.3048
G01 X33.8679 Y43.7936
G00 Z2.0000
G00 X33.7079 Y43.8848
G01 F60.00
G01 Z-0.0500
G01 F120.00
G01 X33.7079 Y43.3736
G01 X33.5479 Y43.4648
G01 X33.5479 Y42.9537
G01 X33.3879 Y43.0448
G01 X33.3879 Y42.5337
G01 X33.3079 Y42.4323
G01 X33.3079 Y42.8580
G00 Z2.0000
G00 X33.1479 Y43.0134
G01 F60.00
G01 Z-0.0500
G01 F120.00
G01 X33.1479 Y42.5022
G01 X33.2279 Y42.4404
G01 X33.2279 Y42.8496
G00 Z2.0000
G00 X33.1965 Y42.8858
G01 F60.00
G01 Z-0.0500
G01 F120.00
G01 X33.2008 Y42.8766
G01 X33.2063 Y42.8682
G01 X33.2131 Y42.8606
G01 X33.2208 Y42.8541
G01 X33.2294 Y42.8487
G01 X33.2387 Y42.8447
G01 X33.2485 Y42.8420
G01 X33.2597 Y42.8408
G01 X33.2698 Y42.8412
G01 X33.2807 Y42.8433
G01 X33.2903 Y42.8467
G01 X33.2992 Y42.8515
G01 X33.3074 Y42.8575
G01 X33.3146 Y42.8646
G01 X33.3207 Y42.8727
G01 X33.3255 Y42.8816
G01 X33.6107 Y43.6303
G01 X33.6123 Y43.6369
G01 X33.6131 Y43.6426
G01 X33.6135 Y43.6482
G01 X33.6133 Y43.6549
G01 X33.6125 Y43.6617
G01 X33.6114 Y43.6671
G01 X33.6097 Y43.6727
G01 X33.6072 Y43.6790
G01 X33.6047 Y43.6839
G01 X33.6012 Y43.6897
G01 X33.5970 Y43.6951
G01 X33.5933 Y43.6992
G01 X33.5883 Y43.7037
G01 X33.5837 Y43.7073
G01 X33.5790 Y43.7103
G01 X33.5730 Y43.7134
G01 X33.5668 Y43.7160
G01 X33.5591 Y43.7182
G01 X33.5515 Y43.7195
G01 X33.5441 Y43.7200
G01 X32.9775 Y43.7199
G01 X32.9680 Y43.7189
G01 X32.9591 Y43.7167
G01 X32.9508 Y43.7134
G01 X32.9419 Y43.7085
G01 X32.9338 Y43.7023
G01 X32.9268 Y43.6951
G01 X32.9208 Y43.6868
G01 X32.9166 Y43.6790
G01 X32.9141 Y43.6727
G01 X32.9124 Y43.6671
G01 X32.9111 Y43.6605
G01 X32.9104 Y43.6537
G01 X32.9104 Y43.6470
G01 X32.9110 Y43.6402
G01 X32.9122 Y43.6336
G01 X32.9141 Y43.6272
G01 X33.1965 Y42.8858
G00 Z2.0000
G00 X34.5953 Y42.6605
G01 F60.00
G01 Z-0.0500
G01 F120.00
G01 X34.5953 Y43.1802
G01 X34.7205 Y43.3195
G01 X34.7138 Y43.3159
G01 X34.7081 Y43.3110
G01 X34.6182 Y43.2211
G01 X34.6127 Y43.2145
G01 X34.6101 Y43.2099
G01 X34.5193 Y43.0283
G01 X34.5166 Y43.0214
G01 X34.5155 Y43.0156
G01 X34.5153 Y43.0111
G01 X34.5153 Y42.8296
G01 X34.5159 Y42.8221
G01 X34.5175 Y42.8165
G01 X34.5193 Y42.8124
G01 X34.6101 Y42.6308
G01 X34.6127 Y42.6262
G01 X34.6182 Y42.6195
G01 X34.7081 Y42.5296
G01 X34.7138 Y42.5248
G01 X34.7189 Y42.5220
G01 X34.7232 Y42.5203
G01 X34.9970 Y42.4291
G01 X35.0054 Y42.4272
G01 X35.0106 Y42.4269
G01 X35.9653 Y42.4269
G01 X35.9732 Y42.4276
G01 X35.9791 Y42.4294
G01 X35.9845 Y42.4323
G01 X35.9893 Y42.4362
G01 X35.9914 Y42.4385
G01 X35.9948 Y42.4436
G01 X35.9972 Y42.4494
G01 X35.9984 Y42.4554
G01 X35.9987 Y42.4602
G01 X35.9987 Y44.3964
G01 X35.9984 Y44.4012
G01 X35.9972 Y44.4073
G01 X35.9948 Y44.4130
G01 X35.9914 Y44.4182
G01 X35.9870 Y44.4225
G01 X35.9845 Y44.4244
G01 X35.9791 Y44.4273
G01 X35.9732 Y44.4291
G01 X35.9653 Y44.4298
G01 X35.0106 Y44.4298
G01 X35.0054 Y44.4295
G01 X34.9970 Y44.4276
G01 X34.7232 Y44.3363
G01 X34.7163 Y44.3334
G01 X34.7115 Y44.3301
G01 X34.6182 Y44.2371
G01 X34.6127 Y44.2305
G01 X34.6101 Y44.2259
G01 X34.5175 Y44.0401
G01 X34.5159 Y44.0345
G01 X34.5153 Y44.0271
G01 X34.5153 Y43.7532
G01 X34.5159 Y43.7458
G01 X34.5175 Y43.7402
G01 X34.5193 Y43.7360
G01 X34.6101 Y43.5544
G01 X34.6127 Y43.5498
G01 X34.6182 Y43.5432
G01 X34.7081 Y43.4533
G01 X34.7138 Y43.4485
G01 X34.7245 Y43.4427
G01 X34.7292 Y43.4397
G01 X34.7346 Y43.4356
G01 X34.7386 Y43.4318
G01 X34.7432 Y43.4269
G01 X34.7467 Y43.4223
G01 X34.7497 Y43.4176
G01 X34.7528 Y43.4116
G01 X34.7554 Y43.4054
G01 X34.7573 Y43.3989
G01 X34.7586 Y43.3923
G01 X34.7593 Y43.3855
G01 X34.7593 Y43.3788
G01 X34.7586 Y43.3721
G01 X34.7573 Y43.3654
G01 X34.7554 Y43.3590
G01 X34.7528 Y43.3527
G01 X34.7497 Y43.3467
G01 X34.7460 Y43.3411
G01 X34.7418 Y43.3358
G01 X34.7371 Y43.3310
G01 X34.7319 Y43.3266
G01 X34.7264 Y43.3227
G01 X34.7205 Y43.3195
G00 Z2.0000
G00 X34.7553 Y42.7360
G01 F60.00
G01 Z-0.0500
G01 F120.00
G01 X34.7553 Y42.5096
G01 X34.6753 Y42.5625
G01 X34.6753 Y43.2782
G00 Z2.0000
G00 X34.8353 Y42.6190
G01 F60.00
G01 Z-0.0500
G01 F120.00
G01 X34.8353 Y42.4830
G01 X34.9153 Y42.4563
G01 X34.9153 Y42.5654
G01 X34.9953 Y42.5387
G01 X34.9953 Y42.4296
G01 X35.0753 Y42.4269
G01 X35.0753 Y42.5120
G01 X35.1330 Y42.4929
G01 X35.1423 Y42.4909
G01 X35.1516 Y42.4902
G01 X35.7395 Y42.4902
G01 X35.7498 Y42.4911
G01 X35.7608 Y42.4939
G01 X35.7713 Y42.4984
G01 X35.7800 Y42.5039
G01 X35.7870 Y42.5098
G01 X35.7925 Y42.5158
G01 X35.7972 Y42.5223
G01 X35.8011 Y42.5291
G01 X35.8043 Y42.5366
G01 X35.8065 Y42.5444
G01 X35.8079 Y42.5521
G01 X35.8083 Y42.5602
G01 X35.8083 Y43.2828
G01 X35.8076 Y43.2908
G01 X35.8063 Y43.2975
G01 X35.8038 Y43.3052
G01 X35.8006 Y43.3124
G01 X35.7966 Y43.3194
G01 X35.7925 Y43.3249
G01 X35.7870 Y43.3308
G01 X35.7810 Y43.3360
G01 X35.7713 Y43.3422
G01 X35.7619 Y43.3464
G01 X35.7508 Y43.3494
G01 X35.7395 Y43.3505
G01 X35.1522 Y43.3505
G01 X35.1410 Y43.3496
G01 X35.1301 Y43.3469
G01 X34.8914 Y43.2673
G01 X34.8824 Y43.2636
G01 X34.8740 Y43.2587
G01 X34.8656 Y43.2520
G01 X34.8003 Y43.1867
G01 X34.7945 Y43.1801
G01 X34.7909 Y43.1750
G01 X34.7875 Y43.1691
G01 X34.7130 Y43.0200
G01 X34.7096 Y43.0121
G01 X34.7074 Y43.0048
G01 X34.7061 Y42.9973
G01 X34.7056 Y42.9898
G01 X34.7056 Y42.8498
G01 X34.7062 Y42.8422
G01 X34.7074 Y42.8359
G01 X34.7096 Y42.8285
G01 X34.7127 Y42.8212
G01 X34.7872 Y42.6721
G01 X34.7917 Y42.6645
G01 X34.7953 Y42.6595
G01 X34.7998 Y42.6544
G01 X34.8641 Y42.5902
G01 X34.8705 Y42.5845
G01 X34.8796 Y42.5785
G01 X34.8854 Y42.5756
G01 X34.8904 Y42.5736
G01 X34.8914 Y42.5733
G01 X35.1301 Y42.4938
G00 Z2.0000
G00 X35.1553 Y42.4902
G01 F60.00
G01 Z-0.0500
G01 F120.00
G01 X35.1553 Y42.4269
G01 X35.2353 Y42.4269
G01 X35.2353 Y42.4902
G01 X35.3153 Y42.4902
G01 X35.3153 Y42.4269
G01 X35.3953 Y42.4269
G01 X35.3953 Y42.4902
G01 X35.4753 Y42.4902
G01 X35.4753 Y42.4269
G01 X35.5553 Y42.4269
G01 X35.5553 Y42.4902
G01 X35.6353 Y42.4902
G01 X35.6353 Y42.4269
G01 X35.7153 Y42.4269
G01 X35.7153 Y42.4902
G00 Z2.0000
G00 X35.7953 Y42.5194
G01 F60.00
G01 Z-0.0500
G01 F120.00
G01 X35.7953 Y42.4269
G01 X35.8753 Y42.4269
G01 X35.8753 Y44.4298
G01 X35.7953 Y44.4298
G01 X35.7953 Y44.3372
G00 Z2.0000
G00 X35.7153 Y44.3665
G01 F60.00
G01 Z-0.0500
G01 F120.00
G01 X35.7153 Y44.4298
G01 X35.6353 Y44.4298
G01 X35.6353 Y44.3665
G01 X35.5553 Y44.3665
G01 X35.5553 Y44.4298
G01 X35.4753 Y44.4298
G01 X35.4753 Y44.3665
G01 X35.3953 Y44.3665
G01 X35.3953 Y44.4298
G01 X35.3153 Y44.4298
G01 X35.3153 Y44.3665
G01 X35.2353 Y44.3665
G01 X35.2353 Y44.4298
G01 X35.1553 Y44.4298
G01 X35.1553 Y44.3665
G00 Z2.0000
G00 X35.0753 Y44.3446
G01 F60.00
G01 Z-0.0500
G01 F120.00
G01 X35.0753 Y44.4298
G01 X34.9953 Y44.4270
G01 X34.9953 Y44.3180
G01 X34.9153 Y44.2913
G01 X34.9153 Y44.4003
G01 X34.8353 Y44.3737
G01 X34.8353 Y44.2377
G01 X34.7553 Y44.3470
G01 X34.7553 Y44.1206
G01 X34.5953 Y44.1962
G01 X34.5953 Y43.5841
G01 X34.6753 Y43.4861
G01 X34.6753 Y44.2942
G00 Z2.0000
G00 X34.7553 Y43.6597
G01 F60.00
G01 Z-0.0500
G01 F120.00
G01 X34.7553 Y43.4057
G00 Z2.0000
G00 X34.7553 Y43.3586
G01 F60.00
G01 Z-0.0500
G01 F120.00
G01 X34.7553 Y43.1046
G00 Z2.0000
G00 X34.8353 Y43.2217
G01 F60.00
G01 Z-0.0500
G01 F120.00
G01 X34.8353 Y43.5426
G00 Z2.0000
G00 X34.9153 Y43.4890
G01 F60.00
G01 Z-0.0500
G01 F120.00
G01 X34.9153 Y43.2753
G01 X34.9953 Y43.3020
G01 X34.9953 Y43.4623
G01 X35.0753 Y43.4357
G01 X35.0753 Y43.3286
G00 Z2.0000
G00 X35.1553 Y43.3505
G01 F60.00
G01 Z-0.0500
G01 F120.00
G01 X35.1553 Y43.4138
G01 X35.2353 Y43.4138
G01 X35.2353 Y43.3505
G01 X35.3153 Y43.3505
G01 X35.3153 Y43.4138
G01 X35.3953 Y43.4138
G01 X35.3953 Y43.3505
G01 X35.4753 Y43.3505
G01 X35.4753 Y43.4138
G01 X35.5553 Y43.4138
G01 X35.5553 Y43.3505
G01 X35.6353 Y43.3505
G01 X35.6353 Y43.4138
G01 X35.7153 Y43.4138
G01 X35.7153 Y43.3505
G01 X35.7383 Y43.4138
G01 X35.7474 Y43.4144
G01 X35.7554 Y43.4159
G01 X35.7640 Y43.4187
G01 X35.7713 Y43.4221
G01 X35.7783 Y43.4263
G01 X35.7854 Y43.4319
G01 X35.7910 Y43.4377
G01 X35.7959 Y43.4439
G01 X35.8011 Y43.4528
G01 X35.8050 Y43.4623
G01 X35.8074 Y43.4723
G01 X35.8083 Y43.4827
G01 X35.8083 Y44.2971
G01 X35.8080 Y44.3034
G01 X35.8070 Y44.3101
G01 X35.8053 Y44.3168
G01 X35.8035 Y44.3221
G01 X35.8006 Y44.3284
G01 X35.7977 Y44.3335
G01 X35.7946 Y44.3382
G01 X35.7902 Y44.3435
G01 X35.7854 Y44.3484
G01 X35.7800 Y44.3527
G01 X35.7743 Y44.3565
G01 X35.7694 Y44.3592
G01 X35.7640 Y44.3616
G01 X35.7575 Y44.3638
G01 X35.7520 Y44.3651
G01 X35.7452 Y44.3662
G01 X35.7383 Y44.3665
G01 X35.1522 Y44.3665
G01 X35.1447 Y44.3661
G01 X35.1373 Y44.3649
G01 X35.1301 Y44.3629
G01 X34.8909 Y44.2832
G01 X34.8806 Y44.2787
G01 X34.8714 Y44.2728
G01 X34.8645 Y44.2669
G01 X34.8003 Y44.2027
G01 X34.7953 Y44.1971
G01 X34.7917 Y44.1922
G01 X34.7872 Y44.1845
G01 X34.7118 Y44.0336
G01 X34.7092 Y44.0270
G01 X34.7074 Y44.0208
G01 X34.7061 Y44.0133
G01 X34.7056 Y44.0058
G01 X34.7056 Y43.7756
G01 X34.7059 Y43.7691
G01 X34.7068 Y43.7627
G01 X34.7092 Y43.7533
G01 X34.7125 Y43.7452
G01 X34.7872 Y43.5958
G01 X34.7902 Y43.5904
G01 X34.7945 Y43.5842
G01 X34.7995 Y43.5784
G01 X34.8648 Y43.5131
G01 X34.8731 Y43.5063
G01 X34.8824 Y43.5007
G01 X34.8914 Y43.4970
G01 X35.1301 Y43.4174
G01 X35.1397 Y43.4149
G01 X35.1461 Y43.4141
G01 X35.1522 Y43.4138
G01 X35.7383 Y43.4138
G00 Z2.0000
G00 X35.7953 Y43.4431
G01 F60.00
G01 Z-0.0500
G01 F120.00
G01 X35.7953 Y43.3212
G00 Z2.0000
G00 X35.9553 Y42.4269
G01 F60.00
G01 Z-0.0500
G01 F120.00
G01 X35.9553 Y44.4298
G00 Z2.0000
G00 X36.1739 Y40.1191
G01 F60.00
G01 Z-0.0500
G01 F120.00
G01 X36.1739 Y35.2149
G01 X36.2081 Y35.2687
G01 X36.2077 Y35.2614
G01 X36.2069 Y35.2559
G01 X36.2055 Y35.2504
G01 X36.2036 Y35.2452
G01 X36.2013 Y35.2401
G01 X36.1984 Y35.2353
G01 X36.1950 Y35.2308
G01 X36.1913 Y35.2267
G01 X36.1871 Y35.2229
G01 X36.1827 Y35.2196
G01 X36.1779 Y35.2167
G01 X36.1728 Y35.2143
G01 X36.1675 Y35.2125
G01 X36.1621 Y35.2111
G01 X36.1566 Y35.2103
G01 X36.1510 Y35.2100
G01 X36.1454 Y35.2103
G01 X36.1399 Y35.2111
G01 X36.1345 Y35.2125
G01 X36.1292 Y35.2143
G01 X36.1241 Y35.2167
G01 X36.1193 Y35.2196
G01 X36.1149 Y35.2229
G01 X36.1107 Y35.2267
G01 X36.1070 Y35.2308
G01 X36.1036 Y35.2353
G01 X36.1007 Y35.2401
G01 X36.0984 Y35.2452
G01 X36.0965 Y35.2504
G01 X36.0951 Y35.2559
G01 X36.0943 Y35.2614
G01 X36.0939 Y35.2687
G01 X36.0939 Y40.0653
G01 X36.0943 Y40.0726
G01 X36.0951 Y40.0781
G01 X36.0965 Y40.0835
G01 X36.0984 Y40.0888
G01 X36.1007 Y40.0938
G01 X36.1036 Y40.0986
G01 X36.1070 Y40.1031
G01 X36.1107 Y40.1073
G01 X36.1149 Y40.1110
G01 X36.1193 Y40.1144
G01 X36.1241 Y40.1172
G01 X36.1292 Y40.1196
G01 X36.1345 Y40.1215
G01 X36.1399 Y40.1229
G01 X36.1454 Y40.1237
G01 X36.1510 Y40.1240
G01 X36.1566 Y40.1237
G01 X36.1621 Y40.1229
G01 X36.1675 Y40.1215
G01 X36.1728 Y40.1196
G01 X36.1779 Y40.1172
G01 X36.1827 Y40.1144
G01 X36.1871 Y40.1110
G01 X36.1913 Y40.1073
G01 X36.1950 Y40.1031
G01 X36.1984 Y40.0986
G01 X36.2013 Y40.0938
G01 X36.2036 Y40.0888
G01 X36.2055 Y40.0835
G01 X36.2069 Y40.0781
G01 X36.2077 Y40.0726
G01 X36.2081 Y40.0653
G01 X36.2081 Y35.2687
G00 Z2.0000
G00 X35.6158 Y37.0085
G01 F60.00
G01 Z-0.0500
G01 F120.00
G01 X35.7812 Y37.0085
G01 X35.7812 Y36.9285
G01 X35.3917 Y36.9285
G01 X35.1676 Y36.8485
G01 X35.7812 Y36.8485
G01 X35.7812 Y36.2885
G01 X35.7194 Y36.2885
G01 X35.4954 Y36.3685
G01 X35.7812 Y36.3685
G01 X35.7812 Y36.4485
G01 X35.2713 Y36.4485
G01 X35.0472 Y36.5285
G01 X35.7812 Y36.5285
G01 X35.7812 Y36.6085
G01 X34.8232 Y36.6085
G01 X34.9436 Y36.7685
G01 X35.7812 Y36.7685
G01 X35.7812 Y36.6885
G01 X34.7195 Y36.6885
G01 X34.6593 Y36.6670
G01 X35.7812 Y36.2664
G01 X35.7812 Y37.0675
G01 X34.6593 Y36.6670
G00 Z2.0000
G00 X31.0852 Y42.4902
G01 F60.00
G01 Z-0.0500
G01 F120.00
G01 X31.0852 Y42.4269
G01 X31.0052 Y42.4269
G01 X31.0052 Y42.4902
G01 X30.9252 Y42.4902
G01 X30.9252 Y42.4269
G01 X30.8452 Y42.4269
G01 X30.8452 Y42.4902
G01 X30.7652 Y42.4902
G01 X30.7652 Y42.4269
G01 X30.6852 Y42.4269
G01 X30.6852 Y42.4902
G01 X30.6052 Y42.4902
G01 X30.6052 Y42.4269
G01 X30.5585 Y42.4269
G01 X31.9752 Y42.4269
G01 X31.9800 Y42.4271
G01 X31.9861 Y42.4283
G01 X31.9918 Y42.4307
G01 X31.9969 Y42.4341
G01 X32.0013 Y42.4385
G01 X32.0047 Y42.4436
G01 X32.0071 Y42.4494
G01 X32.0083 Y42.4554
G01 X32.0083 Y42.4616
G01 X32.0071 Y42.4677
G01 X32.0047 Y42.4734
G01 X32.0013 Y42.4785
G01 X31.9969 Y42.4829
G01 X31.9918 Y42.4864
G01 X31.9861 Y42.4887
G01 X31.9800 Y42.4899
G01 X31.4320 Y42.4902
G01 X31.4230 Y42.4908
G01 X31.4138 Y42.4926
G01 X31.4041 Y42.4960
G01 X31.3960 Y42.5001
G01 X31.3876 Y42.5061
G01 X31.3801 Y42.5132
G01 X31.3745 Y42.5203
G01 X31.3697 Y42.5283
G01 X31.3657 Y42.5377
G01 X31.3630 Y42.5487
G01 X31.3620 Y42.5602
G01 X31.3620 Y44.3964
G01 X31.3618 Y44.4012
G01 X31.3606 Y44.4073
G01 X31.3582 Y44.4130
G01 X31.3548 Y44.4182
G01 X31.3504 Y44.4225
G01 X31.3452 Y44.4260
G01 X31.3395 Y44.4283
G01 X31.3335 Y44.4296
G01 X31.3273 Y44.4296
G01 X31.3242 Y44.4291
G01 X31.3183 Y44.4273
G01 X31.3128 Y44.4244
G01 X31.3063 Y44.4196
G01 X31.3009 Y44.4163
G01 X31.2957 Y44.4137
G01 X31.2893 Y44.4111
G01 X31.2783 Y44.4084
G01 X31.2669 Y44.4074
G01 X31.2600 Y44.4078
G01 X31.2544 Y44.4086
G01 X31.2487 Y44.4099
G01 X31.2421 Y44.4120
G01 X31.2328 Y44.4163
G01 X31.2182 Y44.4260
G01 X31.2125 Y44.4283
G01 X31.2065 Y44.4296
G01 X31.2003 Y44.4296
G01 X31.1972 Y44.4291
G01 X31.1942 Y44.4283
G01 X31.1885 Y44.4260
G01 X31.1833 Y44.4225
G01 X31.1790 Y44.4182
G01 X31.1771 Y44.4157
G01 X31.1742 Y44.4102
G01 X31.1724 Y44.4043
G01 X31.1719 Y44.4012
G01 X31.1717 Y42.5602
G01 X31.1714 Y42.5533
G01 X31.1704 Y42.5465
G01 X31.1687 Y42.5399
G01 X31.1668 Y42.5345
G01 X31.1624 Y42.5252
G01 X31.1572 Y42.5175
G01 X31.1512 Y42.5107
G01 X31.1434 Y42.5039
G01 X31.1347 Y42.4984
G01 X31.1253 Y42.4943
G01 X31.1154 Y42.4915
G01 X31.1064 Y42.4903
G01 X30.5585 Y42.4902
G01 X30.5506 Y42.4895
G01 X30.5447 Y42.4877
G01 X30.5393 Y42.4848
G01 X30.5345 Y42.4808
G01 X30.5324 Y42.4785
G01 X30.5290 Y42.4734
G01 X30.5266 Y42.4677
G01 X30.5254 Y42.4616
G01 X30.5254 Y42.4554
G01 X30.5266 Y42.4494
G01 X30.5290 Y42.4436
G01 X30.5324 Y42.4385
G01 X30.5368 Y42.4341
G01 X30.5419 Y42.4307
G01 X30.5476 Y42.4283
G01 X30.5537 Y42.4271
G01 X30.5585 Y42.4269
G00 Z2.0000
G00 X28.4940 Y41.6153
G01 F60.00
G01 Z-0.0500
G01 F120.00
G01 X28.4943 Y41.6226
G01 X28.4951 Y41.6281
G01 X28.4965 Y41.6335
G01 X28.4984 Y41.6388
G01 X28.5008 Y41.6438
G01 X28.5036 Y41.6486
G01 X28.5070 Y41.6531
G01 X28.5107 Y41.6573
G01 X28.5149 Y41.6610
G01 X28.5194 Y41.6644
G01 X28.5242 Y41.6672
G01 X28.5292 Y41.6696
G01 X28.5345 Y41.6715
G01 X28.5399 Y41.6729
G01 X28.5454 Y41.6737
G01 X28.5527 Y41.6741
G01 X32.7681 Y41.6741
G01 X32.7754 Y41.6737
G01 X32.7809 Y41.6729
G01 X32.7864 Y41.6715
G01 X32.7916 Y41.6696
G01 X32.7967 Y41.6672
G01 X32.8015 Y41.6644
G01 X32.8060 Y41.6610
G01 X32.8101 Y41.6573
G01 X32.8139 Y41.6531
G01 X32.8172 Y41.6486
G01 X32.8201 Y41.6438
G01 X32.8225 Y41.6388
G01 X32.8244 Y41.6335
G01 X32.8257 Y41.6281
G01 X32.8265 Y41.6226
G01 X32.8268 Y41.6170
G01 X32.8265 Y41.6114
G01 X32.8257 Y41.6059
G01 X32.8244 Y41.6004
G01 X32.8225 Y41.5952
G01 X32.8201 Y41.5901
G01 X32.8172 Y41.5853
G01 X32.8139 Y41.5808
G01 X32.8101 Y41.5767
G01 X32.8060 Y41.5729
G01 X32.8015 Y41.5696
G01 X32.7967 Y41.5667
G01 X32.7916 Y41.5643
G01 X32.7864 Y41.5625
G01 X32.7809 Y41.5611
G01 X32.7754 Y41.5603
G01 X32.7681 Y41.5599
G01 X28.6781 Y41.5599
G01 X28.6712 Y41.5596
G01 X28.6656 Y41.5588
G01 X28.6545 Y41.5558
G01 X28.6482 Y41.5532
G01 X28.6432 Y41.5506
G01 X28.6382 Y41.5474
G01 X28.6327 Y41.5432
G01 X28.6277 Y41.5385
G01 X28.6226 Y41.5326
G01 X28.6180 Y41.5259
G01 X28.6148 Y41.5199
G01 X28.6122 Y41.5135
G01 X28.6102 Y41.5069
G01 X28.6088 Y41.5002
G01 X28.6081 Y41.4923
G01 X28.6081 Y40.7929
G01 X28.6088 Y40.7838
G01 X28.6108 Y40.7749
G01 X28.6139 Y40.7661
G01 X28.6180 Y40.7581
G01 X28.6232 Y40.7506
G01 X28.6295 Y40.7437
G01 X28.6364 Y40.7378
G01 X28.6451 Y40.7323
G01 X28.6524 Y40.7289
G01 X28.6611 Y40.7261
G01 X28.6690 Y40.7246
G01 X28.6781 Y40.7240
G01 X30.1243 Y40.7240
G01 X30.1316 Y40.7237
G01 X30.1371 Y40.7229
G01 X30.1425 Y40.7215
G01 X30.1478 Y40.7196
G01 X30.1529 Y40.7172
G01 X30.1577 Y40.7144
G01 X30.1621 Y40.7110
G01 X30.1663 Y40.7073
G01 X30.1700 Y40.7031
G01 X30.1734 Y40.6986
G01 X30.1763 Y40.6938
G01 X30.1786 Y40.6888
G01 X30.1805 Y40.6835
G01 X30.1819 Y40.6781
G01 X30.1827 Y40.6726
G01 X30.1831 Y40.6653
G01 X30.1831 Y39.3998
G01 X30.1827 Y39.3925
G01 X30.1819 Y39.3870
G01 X30.1805 Y39.3816
G01 X30.1786 Y39.3763
G01 X30.1763 Y39.3713
G01 X30.1734 Y39.3665
G01 X30.1700 Y39.3620
G01 X30.1663 Y39.3578
G01 X30.1621 Y39.3541
G01 X30.1577 Y39.3507
G01 X30.1529 Y39.3479
G01 X30.1478 Y39.3455
G01 X30.1425 Y39.3436
G01 X30.1371 Y39.3422
G01 X30.1316 Y39.3414
G01 X30.1260 Y39.3411
G01 X30.1204 Y39.3414
G01 X30.1149 Y39.3422
G01 X30.1095 Y39.3436
G01 X30.1042 Y39.3455
G01 X30.0991 Y39.3479
G01 X30.0943 Y39.3507
G01 X30.0899 Y39.3541
G01 X30.0857 Y39.3578
G01 X30.0820 Y39.3620
G01 X30.0786 Y39.3665
G01 X30.0757 Y39.3713
G01 X30.0734 Y39.3763
G01 X30.0715 Y39.3816
G01 X30.0701 Y39.3870
G01 X30.0693 Y39.3925
G01 X30.0689 Y39.3998
G01 X30.0689 Y40.5405
G01 X30.0680 Y40.5514
G01 X30.0656 Y40.5614
G01 X30.0612 Y40.5718
G01 X30.0559 Y40.5806
G01 X30.0508 Y40.5869
G01 X30.0450 Y40.5926
G01 X30.0388 Y40.5974
G01 X30.0319 Y40.6017
G01 X30.0246 Y40.6050
G01 X30.0171 Y40.6075
G01 X30.0092 Y40.6092
G01 X30.0013 Y40.6099
G01 X28.5527 Y40.6099
G01 X28.5454 Y40.6103
G01 X28.5399 Y40.6111
G01 X28.5345 Y40.6125
G01 X28.5292 Y40.6143
G01 X28.5242 Y40.6167
G01 X28.5194 Y40.6196
G01 X28.5149 Y40.6229
G01 X28.5107 Y40.6267
G01 X28.5070 Y40.6308
G01 X28.5036 Y40.6353
G01 X28.5008 Y40.6401
G01 X28.4984 Y40.6452
G01 X28.4965 Y40.6504
G01 X28.4951 Y40.6559
G01 X28.4943 Y40.6614
G01 X28.4940 Y40.6687
G01 X28.4940 Y41.6153
G00 Z2.0000
G00 X28.2864 Y43.5352
G01 F60.00
G01 Z-0.0500
G01 F120.00
G01 X28.2785 Y43.5359
G01 X28.2726 Y43.5377
G01 X28.2671 Y43.5406
G01 X28.2623 Y43.5445
G01 X28.2584 Y43.5493
G01 X28.2555 Y43.5548
G01 X28.2537 Y43.5607
G01 X28.2531 Y43.5669
G01 X28.2537 Y43.5730
G01 X28.2555 Y43.5789
G01 X28.2584 Y43.5844
G01 X28.2623 Y43.5892
G01 X28.2671 Y43.5931
G01 X28.2726 Y43.5960
G01 X28.2785 Y43.5978
G01 X28.2864 Y43.5985
G01 X30.0725 Y43.5985
G01 X30.0804 Y43.5978
G01 X30.0863 Y43.5960
G01 X30.0917 Y43.5931
G01 X30.0965 Y43.5892
G01 X30.1005 Y43.5844
G01 X30.1034 Y43.5789
G01 X30.1052 Y43.5730
G01 X30.1058 Y43.5669
G01 X30.1052 Y43.5607
G01 X30.1034 Y43.5548
G01 X30.1005 Y43.5493
G01 X30.0965 Y43.5445
G01 X30.0917 Y43.5406
G01 X30.0863 Y43.5377
G01 X30.0804 Y43.5359
G01 X30.0725 Y43.5352
G01 X28.2864 Y43.5352
G00 Z2.0000
G00 X26.2833 Y43.4266
G01 F60.00
G01 Z-0.0500
G01 F120.00
G01 X26.3467 Y43.4266
G01 X26.3467 Y43.5066
G01 X26.2833 Y43.5066
G01 X26.2833 Y43.5866
G01 X26.3467 Y43.5866
G01 X26.3467 Y43.6666
G01 X26.2833 Y43.6666
G01 X26.2833 Y43.7466
G01 X26.3467 Y43.7466
G01 X26.3467 Y43.8266
G01 X26.2833 Y43.8266
G01 X26.2833 Y43.9066
G01 X26.3467 Y43.9066
G01 X26.3467 Y43.9866
G01 X26.2833 Y43.9866
G01 X26.2833 Y44.0666
G01 X26.3467 Y44.0666
G01 X26.3467 Y44.1466
G01 X26.2833 Y44.1466
G01 X26.2833 Y44.2266
G01 X26.3467 Y44.2266
G01 X26.3467 Y44.3066
G01 X26.2833 Y44.3066
G01 X26.2833 Y44.3866
G01 X26.3467 Y44.3866
G01 X26.3467 Y44.4666
G01 X26.2833 Y44.4666
G01 X26.2833 Y44.5466
G01 X26.3467 Y44.5466
G01 X26.3467 Y44.6266
G01 X26.2833 Y44.6266
G01 X26.2833 Y44.7066
G01 X26.3467 Y44.7066
G01 X26.3467 Y44.7866
G01 X26.2833 Y44.7866
G01 X26.2833 Y44.8666
G01 X26.3467 Y44.8666
G01 X26.3467 Y44.9466
G01 X26.2833 Y44.9466
G01 X26.2833 Y45.0266
G01 X26.3467 Y45.0266
G01 X26.3467 Y45.1066
G01 X26.2833 Y45.1066
G01 X26.2833 Y45.1866
G01 X26.3467 Y45.1866
G01 X26.3467 Y45.2666
G01 X26.2833 Y45.2666
G01 X26.2833 Y45.3466
G01 X26.3467 Y45.3466
G01 X26.3467 Y45.4266
G01 X26.2833 Y45.4266
G01 X26.2833 Y45.5066
G01 X26.3467 Y45.5066
G01 X26.3467 Y45.5866
G01 X26.2833 Y45.5866
G01 X26.2833 Y45.6666
G01 X26.3467 Y45.6666
G01 X26.3467 Y45.7466
G01 X26.2587 Y45.7466
G00 Z2.0000
G00 X26.2826 Y43.3466
G01 F60.00
G01 Z-0.0500
G01 F120.00
G01 X26.3467 Y43.3466
G01 X26.3467 Y43.2666
G01 X23.7433 Y43.2666
G00 Z2.0000
G00 X25.4832 Y42.3334
G01 F60.00
G01 Z-0.0500
G01 F120.00
G01 X25.4832 Y42.2701
G01 X25.4032 Y42.2701
G01 X25.4032 Y42.3334
G01 X25.3232 Y42.3334
G01 X25.3232 Y42.2701
G01 X25.2432 Y42.2701
G01 X25.2432 Y42.3334
G01 X25.1632 Y42.3334
G01 X25.1632 Y42.2701
G00 Z2.0000
G00 X25.0832 Y42.3464
G01 F60.00
G01 Z-0.0500
G01 F120.00
G01 X25.0832 Y42.2571
G00 Z2.0000
G00 X24.9905 Y42.2001
G01 F60.00
G01 Z-0.0500
G01 F120.00
G01 X24.9907 Y41.8313
G01 X24.9919 Y41.8252
G01 X24.9943 Y41.8195
G01 X24.9977 Y41.8143
G01 X25.0021 Y41.8100
G01 X25.0046 Y41.8081
G01 X25.0073 Y41.8065
G01 X25.0130 Y41.8042
G01 X25.0190 Y41.8030
G01 X25.0252 Y41.8030
G01 X25.0313 Y41.8042
G01 X25.0370 Y41.8065
G01 X25.0397 Y41.8081
G01 X25.0445 Y41.8120
G01 X25.0484 Y41.8168
G01 X25.0513 Y41.8223
G01 X25.0531 Y41.8282
G01 X25.0536 Y41.8313
G01 X25.0539 Y42.2038
G01 X25.0545 Y42.2103
G01 X25.0559 Y42.2171
G01 X25.0579 Y42.2237
G01 X25.0600 Y42.2289
G01 X25.0631 Y42.2350
G01 X25.0663 Y42.2400
G01 X25.0697 Y42.2445
G01 X25.0743 Y42.2496
G01 X25.0794 Y42.2542
G01 X25.0849 Y42.2583
G01 X25.0908 Y42.2618
G01 X25.0959 Y42.2643
G01 X25.1023 Y42.2667
G01 X25.1080 Y42.2683
G01 X25.1147 Y42.2695
G01 X25.1210 Y42.2700
G01 X25.4926 Y42.2703
G01 X25.4987 Y42.2715
G01 X25.5044 Y42.2739
G01 X25.5095 Y42.2773
G01 X25.5139 Y42.2817
G01 X25.5173 Y42.2868
G01 X25.5197 Y42.2926
G01 X25.5209 Y42.2986
G01 X25.5211 Y42.3017
G01 X25.5205 Y42.3079
G01 X25.5187 Y42.3138
G01 X25.5157 Y42.3193
G01 X25.5118 Y42.3240
G01 X25.5070 Y42.3280
G01 X25.5016 Y42.3309
G01 X25.4957 Y42.3327
G01 X25.4926 Y42.3331
G01 X25.1210 Y42.3334
G01 X25.1147 Y42.3340
G01 X25.1089 Y42.3350
G01 X25.1035 Y42.3364
G01 X25.0970 Y42.3387
G01 X25.0908 Y42.3416
G01 X25.0859 Y42.3445
G01 X25.0803 Y42.3485
G01 X25.0759 Y42.3523
G01 X25.0719 Y42.3564
G01 X25.0676 Y42.3617
G01 X25.0637 Y42.3674
G01 X25.0605 Y42.3734
G01 X25.0579 Y42.3798
G01 X25.0559 Y42.3864
G01 X25.0545 Y42.3931
G01 X25.0539 Y42.3996
G01 X25.0538 Y42.7674
G01 X25.0531 Y42.7752
G01 X25.0523 Y42.7783
G01 X25.0500 Y42.7840
G01 X25.0465 Y42.7891
G01 X25.0445 Y42.7914
G01 X25.0422 Y42.7935
G01 X25.0370 Y42.7969
G01 X25.0313 Y42.7993
G01 X25.0252 Y42.8005
G01 X25.0221 Y42.8007
G01 X25.0160 Y42.8000
G01 X25.0130 Y42.7993
G01 X25.0073 Y42.7969
G01 X25.0046 Y42.7953
G01 X25.0021 Y42.7935
G01 X24.9998 Y42.7914
G01 X24.9959 Y42.7866
G01 X24.9930 Y42.7812
G01 X24.9912 Y42.7752
G01 X24.9905 Y42.7674
G01 X24.9903 Y42.3987
G01 X24.9897 Y42.3931
G01 X24.9884 Y42.3864
G01 X24.9864 Y42.3798
G01 X24.9843 Y42.3746
G01 X24.9787 Y42.3645
G01 X24.9746 Y42.3590
G01 X24.9708 Y42.3548
G01 X24.9658 Y42.3501
G01 X24.9604 Y42.3459
G01 X24.9546 Y42.3422
G01 X24.9493 Y42.3396
G01 X24.9429 Y42.3371
G01 X24.9363 Y42.3352
G01 X24.9295 Y42.3340
G01 X24.9233 Y42.3334
G01 X24.5517 Y42.3331
G01 X24.5456 Y42.3319
G01 X24.5399 Y42.3296
G01 X24.5348 Y42.3261
G01 X24.5304 Y42.3217
G01 X24.5270 Y42.3166
G01 X24.5246 Y42.3109
G01 X24.5234 Y42.3048
G01 X24.5232 Y42.3017
G01 X24.5238 Y42.2956
G01 X24.5256 Y42.2896
G01 X24.5285 Y42.2842
G01 X24.5325 Y42.2794
G01 X24.5373 Y42.2755
G01 X24.5427 Y42.2726
G01 X24.5486 Y42.2708
G01 X24.5517 Y42.2703
G01 X24.9233 Y42.2700
G01 X24.9295 Y42.2695
G01 X24.9363 Y42.2683
G01 X24.9429 Y42.2664
G01 X24.9493 Y42.2639
G01 X24.9546 Y42.2612
G01 X24.9604 Y42.2576
G01 X24.9658 Y42.2534
G01 X24.9708 Y42.2487
G01 X24.9746 Y42.2445
G01 X24.9787 Y42.2390
G01 X24.9843 Y42.2289
G01 X24.9864 Y42.2237
G01 X24.9884 Y42.2171
G01 X24.9897 Y42.2103
G01 X24.9903 Y42.2047
G01 X24.9904 Y42.2024
G01 X24.9905 Y42.2001
G01 X25.0032 Y41.8092
G01 X25.0032 Y42.7943
G00 Z2.0000
G00 X24.9232 Y42.2700
G01 F60.00
G01 Z-0.0500
G01 F120.00
G01 X24.9232 Y42.3334
G00 Z2.0000
G00 X24.8432 Y42.3334
G01 F60.00
G01 Z-0.0500
G01 F120.00
G01 X24.8432 Y42.2701
G01 X24.7632 Y42.2701
G01 X24.7632 Y42.3334
G01 X24.6832 Y42.3334
G01 X24.6832 Y42.2701
G01 X24.6032 Y42.2701
G01 X24.6032 Y42.3334
G00 Z2.0000
G00 X24.4378 Y41.4431
G01 F60.00
G01 Z-0.0500
G01 F120.00
G01 X24.6151 Y41.4431
G01 X24.6471 Y41.3631
G01 X24.8244 Y41.3631
G01 X24.8564 Y41.2831
G01 X25.0337 Y41.2831
G01 X25.0656 Y41.2031
G01 X25.2429 Y41.2031
G01 X25.2551 Y41.1231
G01 X25.4522 Y41.1231
G01 X25.4948 Y41.0431
G01 X25.2663 Y41.0431
G00 Z2.0000
G00 X24.3738 Y40.6431
G01 F60.00
G01 Z-0.0500
G01 F120.00
G01 X24.4420 Y40.6431
G01 X24.4744 Y40.7231
G01 X24.6526 Y40.7231
G01 X24.6849 Y40.8031
G01 X24.8631 Y40.8031
G01 X24.8955 Y40.8831
G01 X25.0737 Y40.8831
G01 X25.1060 Y40.9631
G01 X25.2842 Y40.9631
G01 X25.2289 Y41.0098
G01 X25.2381 Y41.0140
G01 X25.2456 Y41.0189
G01 X25.2533 Y41.0255
G01 X25.2594 Y41.0323
G01 X25.2644 Y41.0397
G01 X25.2689 Y41.0488
G01 X25.2720 Y41.0584
G01 X25.2737 Y41.0684
G01 X25.2740 Y41.0785
G01 X25.2730 Y41.0874
G01 X25.2705 Y41.0972
G01 X25.2671 Y41.1057
G01 X25.2627 Y41.1135
G01 X25.2566 Y41.1215
G01 X25.2493 Y41.1286
G01 X25.2411 Y41.1346
G01 X25.2353 Y41.1379
G01 X25.2291 Y41.1406
G01 X24.3857 Y41.4632
G01 X24.3805 Y41.4665
G01 X24.3782 Y41.4685
G01 X24.3741 Y41.4732
G01 X24.3724 Y41.4758
G01 X24.3699 Y41.4815
G01 X24.3691 Y41.4845
G01 X24.3683 Y41.4906
G01 X24.3684 Y41.4937
G01 X24.3694 Y41.4998
G01 X24.3704 Y41.5027
G01 X24.3731 Y41.5083
G01 X24.3749 Y41.5108
G01 X24.3792 Y41.5153
G01 X24.3842 Y41.5189
G01 X24.3870 Y41.5203
G01 X24.3928 Y41.5222
G01 X24.3990 Y41.5230
G01 X24.4052 Y41.5226
G01 X24.4128 Y41.5204
G01 X25.4992 Y41.1051
G01 X25.5035 Y41.1032
G01 X25.5079 Y41.1005
G01 X25.5111 Y41.0980
G01 X25.5152 Y41.0933
G01 X25.5183 Y41.0879
G01 X25.5200 Y41.0830
G01 X25.5208 Y41.0790
G01 X25.5211 Y41.0738
G01 X25.5207 Y41.0698
G01 X25.5191 Y41.0638
G01 X25.5168 Y41.0591
G01 X25.5145 Y41.0557
G01 X25.5110 Y41.0518
G01 X25.5079 Y41.0492
G01 X25.5034 Y41.0466
G01 X25.4991 Y41.0447
G01 X24.4127 Y40.6319
G01 X24.4051 Y40.6298
G01 X24.3989 Y40.6293
G01 X24.3958 Y40.6296
G01 X24.3898 Y40.6310
G01 X24.3842 Y40.6335
G01 X24.3815 Y40.6352
G01 X24.3769 Y40.6392
G01 X24.3749 Y40.6416
G01 X24.3731 Y40.6441
G01 X24.3716 Y40.6468
G01 X24.3694 Y40.6526
G01 X24.3687 Y40.6556
G01 X24.3683 Y40.6618
G01 X24.3691 Y40.6680
G01 X24.3699 Y40.6709
G01 X24.3725 Y40.6766
G01 X24.3741 Y40.6792
G01 X24.3782 Y40.6839
G01 X24.3806 Y40.6859
G01 X24.3858 Y40.6891
G01 X24.3902 Y40.6911
G01 X25.2289 Y41.0098
G00 Z2.0000
G00 X25.3087 Y40.2696
G01 F60.00
G01 Z-0.0500
G01 F120.00
G01 X25.4277 Y40.2696
G00 Z2.0000
G00 X25.4126 Y40.1896
G01 F60.00
G01 Z-0.0500
G01 F120.00
G01 X25.4798 Y40.1896
G01 X25.5056 Y40.1096
G01 X25.4391 Y40.1096
G00 Z2.0000
G00 X25.4578 Y40.0296
G01 F60.00
G01 Z-0.0500
G01 F120.00
G01 X25.5212 Y40.0296
G01 X25.5212 Y39.9496
G01 X25.4578 Y39.9496
G01 X25.4578 Y39.8696
G01 X25.5212 Y39.8696
G01 X25.5036 Y39.7896
G01 X25.4370 Y39.7896
G00 Z2.0000
G00 X25.4083 Y39.7096
G01 F60.00
G01 Z-0.0500
G01 F120.00
G01 X25.4774 Y39.7096
G01 X25.4200 Y39.6296
G01 X25.2937 Y39.6296
G00 Z2.0000
G00 X25.1164 Y39.6296
G01 F60.00
G01 Z-0.0500
G01 F120.00
G01 X24.9901 Y39.6296
G01 X24.9996 Y39.7096
G01 X24.9101 Y39.7096
G00 Z2.0000
G00 X24.8015 Y39.8696
G01 F60.00
G01 Z-0.0500
G01 F120.00
G01 X24.9109 Y39.8696
G01 X24.9372 Y39.7896
G01 X24.7769 Y39.7896
G01 X24.8108 Y39.7096
G01 X24.7241 Y39.7096
G01 X24.7051 Y39.6296
G01 X24.5086 Y39.6296
G00 Z2.0000
G00 X24.8198 Y39.9496
G01 F60.00
G01 Z-0.0500
G01 F120.00
G01 X24.8893 Y39.9496
G00 Z2.0000
G00 X24.8911 Y39.9701
G01 F60.00
G01 Z-0.0500
G01 F120.00
G01 X24.8899 Y39.9635
G01 X24.8893 Y39.9580
G01 X24.8892 Y39.9513
G01 X24.8896 Y39.9456
G01 X24.8909 Y39.9380
G01 X24.8976 Y39.9106
G01 X24.9409 Y39.7784
G01 X24.9442 Y39.7703
G01 X24.9492 Y39.7618
G01 X24.9531 Y39.7566
G01 X24.9575 Y39.7517
G01 X25.0332 Y39.6760
G01 X25.0396 Y39.6704
G01 X25.0445 Y39.6669
G01 X25.0498 Y39.6638
G01 X25.1198 Y39.6279
G01 X25.1269 Y39.6249
G01 X25.1344 Y39.6226
G01 X25.1409 Y39.6214
G01 X25.1486 Y39.6207
G01 X25.2603 Y39.6207
G01 X25.2692 Y39.6214
G01 X25.2789 Y39.6235
G01 X25.2851 Y39.6256
G01 X25.2912 Y39.6284
G01 X25.3598 Y39.6635
G01 X25.3675 Y39.6682
G01 X25.3760 Y39.6752
G01 X25.4010 Y39.7003
G01 X25.4075 Y39.7085
G01 X25.4125 Y39.7170
G01 X25.4162 Y39.7261
G01 X25.4544 Y39.8425
G01 X25.4563 Y39.8497
G01 X25.4573 Y39.8556
G01 X25.4578 Y39.8643
G01 X25.4578 Y40.0404
G01 X25.4575 Y40.0476
G01 X25.4563 Y40.0548
G01 X25.4545 Y40.0619
G01 X25.4158 Y40.1818
G01 X25.4114 Y40.1919
G01 X25.4055 Y40.2013
G01 X25.3997 Y40.2080
G01 X25.3764 Y40.2314
G01 X25.3714 Y40.2358
G01 X25.3666 Y40.2394
G01 X25.3593 Y40.2438
G01 X25.2902 Y40.2791
G01 X25.2840 Y40.2818
G01 X25.2768 Y40.2841
G01 X25.2692 Y40.2856
G01 X25.2620 Y40.2863
G01 X25.1502 Y40.2863
G01 X25.1388 Y40.2853
G01 X25.1292 Y40.2829
G01 X25.1198 Y40.2791
G01 X25.0498 Y40.2432
G01 X25.0445 Y40.2401
G01 X25.0396 Y40.2366
G01 X25.0332 Y40.2310
G01 X24.9568 Y40.1545
G01 X24.9511 Y40.1479
G01 X24.9457 Y40.1396
G01 X24.9429 Y40.1337
G01 X24.9407 Y40.1281
G01 X24.8984 Y39.9990
G01 X24.8911 Y39.9701
G00 Z2.0000
G00 X24.9084 Y40.0296
G01 F60.00
G01 Z-0.0500
G01 F120.00
G01 X24.8034 Y40.0296
G00 Z2.0000
G00 X24.7809 Y40.1096
G01 F60.00
G01 Z-0.0500
G01 F120.00
G01 X24.9346 Y40.1096
G01 X24.9010 Y40.1896
G01 X24.9919 Y40.1896
G01 X24.9824 Y40.2696
G01 X25.1013 Y40.2696
G00 Z2.0000
G00 X24.8199 Y40.1896
G01 F60.00
G01 Z-0.0500
G01 F120.00
G01 X24.7346 Y40.1896
G01 X24.7209 Y40.2696
G01 X24.4928 Y40.2696
G01 X24.4096 Y40.1896
G01 X24.4833 Y40.1896
G00 Z2.0000
G00 X24.4503 Y40.1096
G01 F60.00
G01 Z-0.0500
G01 F120.00
G01 X24.3838 Y40.1096
G01 X24.3682 Y40.0296
G01 X24.4315 Y40.0296
G01 X24.4315 Y39.9496
G01 X24.3682 Y39.9496
G01 X24.3682 Y39.8480
G01 X24.3690 Y39.8413
G01 X24.4200 Y39.6849
G01 X24.4218 Y39.6804
G01 X24.4249 Y39.6749
G01 X24.4290 Y39.6701
G01 X24.4314 Y39.6681
G01 X24.4383 Y39.6639
G01 X24.5395 Y39.6146
G01 X24.5463 Y39.6119
G01 X24.5519 Y39.6109
G01 X24.5564 Y39.6107
G01 X24.6573 Y39.6107
G01 X24.6646 Y39.6113
G01 X24.6701 Y39.6128
G01 X24.7755 Y39.6640
G01 X24.7819 Y39.6678
G01 X24.7862 Y39.6716
G01 X24.7897 Y39.6762
G01 X24.8000 Y39.6955
G01 X24.8056 Y39.7038
G01 X24.8136 Y39.7123
G01 X24.8180 Y39.7160
G01 X24.8237 Y39.7199
G01 X24.8329 Y39.7247
G01 X24.8440 Y39.7283
G01 X24.8542 Y39.7300
G01 X24.8656 Y39.7301
G01 X24.8771 Y39.7283
G01 X24.8870 Y39.7251
G01 X24.8963 Y39.7204
G01 X24.9048 Y39.7144
G01 X24.9099 Y39.7098
G01 X24.9985 Y39.6213
G01 X25.0049 Y39.6159
G01 X25.0093 Y39.6133
G01 X25.1146 Y39.5597
G01 X25.1203 Y39.5580
G01 X25.1279 Y39.5574
G01 X25.2821 Y39.5574
G01 X25.2897 Y39.5580
G01 X25.2954 Y39.5597
G01 X25.2997 Y39.5616
G01 X25.4007 Y39.6134
G01 X25.4051 Y39.6159
G01 X25.4116 Y39.6213
G01 X25.4630 Y39.6730
G01 X25.4664 Y39.6779
G01 X25.4693 Y39.6848
G01 X25.5190 Y39.8365
G01 X25.5209 Y39.8448
G01 X25.5212 Y39.8499
G01 X25.5212 Y40.0545
G01 X25.5209 Y40.0596
G01 X25.5191 Y40.0678
G01 X25.4677 Y40.2263
G01 X25.4648 Y40.2316
G01 X25.4599 Y40.2374
G01 X25.4116 Y40.2857
G01 X25.4051 Y40.2911
G01 X25.4007 Y40.2936
G01 X25.2997 Y40.3454
G01 X25.2926 Y40.3483
G01 X25.2868 Y40.3494
G01 X25.2821 Y40.3496
G01 X25.1279 Y40.3496
G01 X25.1203 Y40.3490
G01 X25.1146 Y40.3473
G01 X25.0093 Y40.2936
G01 X25.0049 Y40.2911
G01 X24.9985 Y40.2857
G01 X24.9099 Y40.1972
G01 X24.9048 Y40.1926
G01 X24.8963 Y40.1866
G01 X24.8881 Y40.1824
G01 X24.8783 Y40.1790
G01 X24.8691 Y40.1772
G01 X24.8577 Y40.1768
G01 X24.8462 Y40.1782
G01 X24.8362 Y40.1811
G01 X24.8256 Y40.1860
G01 X24.8208 Y40.1890
G01 X24.8153 Y40.1932
G01 X24.8102 Y40.1979
G01 X24.8064 Y40.2022
G01 X24.7999 Y40.2115
G01 X24.7897 Y40.2308
G01 X24.7862 Y40.2354
G01 X24.7819 Y40.2392
G01 X24.7755 Y40.2430
G01 X24.6742 Y40.2924
G01 X24.6701 Y40.2942
G01 X24.6646 Y40.2957
G01 X24.6573 Y40.2963
G01 X24.5564 Y40.2963
G01 X24.5519 Y40.2961
G01 X24.5463 Y40.2951
G01 X24.5395 Y40.2924
G01 X24.4340 Y40.2407
G01 X24.4290 Y40.2368
G01 X24.4248 Y40.2320
G01 X24.4217 Y40.2265
G01 X24.4200 Y40.2219
G01 X24.3703 Y40.0678
G01 X24.3690 Y40.0629
G01 X24.3682 Y40.0545
G01 X24.3682 Y39.8497
G01 X24.3682 Y39.8480
G01 X24.3682 Y39.8696
G01 X24.4315 Y39.8696
G01 X24.4315 Y39.8643
G01 X24.4315 Y40.0404
G01 X24.4320 Y40.0489
G01 X24.4330 Y40.0548
G01 X24.4349 Y40.0619
G01 X24.4677 Y40.1635
G01 X24.4715 Y40.1727
G01 X24.4762 Y40.1807
G01 X24.4821 Y40.1883
G01 X24.4887 Y40.1948
G01 X24.4962 Y40.2003
G01 X24.5029 Y40.2041
G01 X24.5485 Y40.2263
G01 X24.5553 Y40.2291
G01 X24.5625 Y40.2312
G01 X24.5688 Y40.2323
G01 X24.5761 Y40.2330
G01 X24.6355 Y40.2330
G01 X24.6450 Y40.2323
G01 X24.6532 Y40.2307
G01 X24.6593 Y40.2288
G01 X24.6652 Y40.2263
G01 X24.7207 Y40.1993
G01 X24.7306 Y40.1929
G01 X24.7393 Y40.1850
G01 X24.7454 Y40.1775
G01 X24.7499 Y40.1702
G01 X24.7831 Y40.1053
G01 X24.7866 Y40.0970
G01 X24.7885 Y40.0906
G01 X24.8180 Y39.9695
G01 X24.8194 Y39.9614
G01 X24.8199 Y39.9535
G01 X24.8194 Y39.9456
G01 X24.8181 Y39.9380
G01 X24.7869 Y39.8111
G01 X24.7828 Y39.8011
G01 X24.7478 Y39.7331
G01 X24.7427 Y39.7260
G01 X24.7370 Y39.7197
G01 X24.7306 Y39.7141
G01 X24.7244 Y39.7098
G01 X24.7187 Y39.7067
G01 X24.6652 Y39.6806
G01 X24.6584 Y39.6779
G01 X24.6512 Y39.6758
G01 X24.6438 Y39.6745
G01 X24.6355 Y39.6740
G01 X24.5761 Y39.6740
G01 X24.5688 Y39.6746
G01 X24.5625 Y39.6758
G01 X24.5564 Y39.6775
G01 X24.5495 Y39.6802
G01 X24.5032 Y39.7027
G01 X24.4960 Y39.7068
G01 X24.4885 Y39.7123
G01 X24.4826 Y39.7180
G01 X24.4767 Y39.7252
G01 X24.4719 Y39.7330
G01 X24.4683 Y39.7411
G01 X24.4342 Y39.8449
G01 X24.4322 Y39.8546
G01 X24.4315 Y39.8643
G00 Z2.0000
G00 X24.4523 Y39.7896
G01 F60.00
G01 Z-0.0500
G01 F120.00
G01 X24.3857 Y39.7896
G01 X24.4119 Y39.7096
G01 X24.4919 Y39.7096
G00 Z2.0000
G00 X25.1990 Y39.1972
G01 F60.00
G01 Z-0.0500
G01 F120.00
G01 X25.1990 Y39.1922
G01 X25.2002 Y39.1862
G01 X25.2026 Y39.1804
G01 X25.2060 Y39.1753
G01 X25.2602 Y39.1208
G01 X25.2663 Y39.1157
G01 X25.2690 Y39.1141
G01 X25.2748 Y39.1117
G01 X25.2779 Y39.1109
G01 X25.2810 Y39.1105
G01 X25.2873 Y39.1106
G01 X25.2934 Y39.1119
G01 X25.2992 Y39.1144
G01 X25.3043 Y39.1180
G01 X25.3079 Y39.1214
G01 X25.3563 Y39.1722
G01 X25.3594 Y39.1758
G01 X25.3612 Y39.1783
G01 X25.3639 Y39.1838
G01 X25.3656 Y39.1896
G01 X25.3661 Y39.1957
G01 X25.3655 Y39.2017
G01 X25.3637 Y39.2076
G01 X25.3608 Y39.2129
G01 X25.3589 Y39.2154
G01 X25.3557 Y39.2189
G01 X25.3074 Y39.2673
G01 X25.3014 Y39.2723
G01 X25.2988 Y39.2739
G01 X25.2932 Y39.2762
G01 X25.2872 Y39.2775
G01 X25.2811 Y39.2776
G01 X25.2781 Y39.2772
G01 X25.2751 Y39.2765
G01 X25.2722 Y39.2755
G01 X25.2668 Y39.2727
G01 X25.2643 Y39.2710
G01 X25.2098 Y39.2194
G01 X25.2060 Y39.2153
G01 X25.2036 Y39.2118
G01 X25.2013 Y39.2074
G01 X25.1995 Y39.2015
G01 X25.1990 Y39.1972
G01 X25.3588 Y39.2155
G01 X25.3588 Y39.1751
G01 X25.2788 Y39.1108
G01 X25.2788 Y39.2773
G00 Z2.0000
G00 X24.5959 Y38.7507
G01 F60.00
G01 Z-0.0500
G01 F120.00
G01 X24.4034 Y38.7507
G01 X24.4834 Y38.6707
G01 X24.5765 Y38.6707
G00 Z2.0000
G00 X24.5339 Y38.6155
G01 F60.00
G01 Z-0.0500
G01 F120.00
G01 X24.5792 Y38.5271
G01 X24.5816 Y38.5229
G01 X24.5854 Y38.5181
G01 X24.5901 Y38.5141
G01 X24.5955 Y38.5110
G01 X24.5984 Y38.5099
G01 X24.6014 Y38.5091
G01 X24.6076 Y38.5084
G01 X24.6137 Y38.5089
G01 X24.6197 Y38.5106
G01 X24.6225 Y38.5119
G01 X24.6252 Y38.5134
G01 X24.6301 Y38.5173
G01 X24.6322 Y38.5195
G01 X24.6357 Y38.5246
G01 X24.6382 Y38.5303
G01 X24.6390 Y38.5333
G01 X24.6395 Y38.5363
G01 X24.6396 Y38.5425
G01 X24.6385 Y38.5486
G01 X24.6355 Y38.5559
G01 X24.5838 Y38.6569
G01 X24.5775 Y38.6685
G01 X24.5749 Y38.6750
G01 X24.5730 Y38.6817
G01 X24.5718 Y38.6886
G01 X24.5712 Y38.6968
G01 X24.5721 Y38.7083
G01 X24.5749 Y38.7196
G01 X24.5795 Y38.7304
G01 X24.5824 Y38.7353
G01 X24.5865 Y38.7410
G01 X24.5911 Y38.7463
G01 X24.5953 Y38.7502
G01 X24.6047 Y38.7571
G01 X24.6152 Y38.7624
G01 X24.6206 Y38.7643
G01 X24.6274 Y38.7660
G01 X24.6343 Y38.7671
G01 X24.6412 Y38.7674
G01 X25.4878 Y38.7674
G01 X25.4957 Y38.7681
G01 X25.5016 Y38.7699
G01 X25.5070 Y38.7728
G01 X25.5118 Y38.7767
G01 X25.5139 Y38.7790
G01 X25.5173 Y38.7842
G01 X25.5197 Y38.7899
G01 X25.5205 Y38.7929
G01 X25.5211 Y38.7991
G01 X25.5209 Y38.8022
G01 X25.5197 Y38.8082
G01 X25.5173 Y38.8139
G01 X25.5157 Y38.8166
G01 X25.5118 Y38.8214
G01 X25.5070 Y38.8253
G01 X25.5016 Y38.8282
G01 X25.4987 Y38.8293
G01 X25.4926 Y38.8305
G01 X25.4878 Y38.8307
G01 X24.4016 Y38.8307
G01 X24.3968 Y38.8305
G01 X24.3907 Y38.8293
G01 X24.3878 Y38.8282
G01 X24.3823 Y38.8253
G01 X24.3775 Y38.8214
G01 X24.3736 Y38.8166
G01 X24.3707 Y38.8111
G01 X24.3689 Y38.8052
G01 X24.3683 Y38.7991
G01 X24.3689 Y38.7929
G01 X24.3707 Y38.7870
G01 X24.3736 Y38.7815
G01 X24.3787 Y38.7755
G01 X24.5238 Y38.6302
G01 X24.5282 Y38.6248
G01 X24.5320 Y38.6189
G01 X24.5466 Y38.5907
G01 X24.6177 Y38.5907
G01 X24.6199 Y38.5107
G01 X24.5964 Y38.5107
G00 Z2.0000
G00 X23.8074 Y43.3466
G01 F60.00
G01 Z-0.0500
G01 F120.00
G01 X23.7433 Y43.3466
G00 Z2.0000
G00 X23.8067 Y43.4266
G01 F60.00
G01 Z-0.0500
G01 F120.00
G01 X23.7433 Y43.4266
G01 X23.7433 Y43.5066
G01 X23.8067 Y43.5066
G01 X23.8067 Y43.5866
G01 X23.7433 Y43.5866
G01 X23.7433 Y43.6666
G01 X23.8067 Y43.6666
G01 X23.8067 Y43.7466
G01 X23.7433 Y43.7466
G01 X23.7433 Y43.8266
G01 X23.8067 Y43.8266
G01 X23.8067 Y43.9066
G01 X23.7433 Y43.9066
G01 X23.7433 Y43.9866
G01 X23.8067 Y43.9866
G01 X23.8067 Y44.0666
G01 X23.7433 Y44.0666
G01 X23.7433 Y44.1466
G01 X23.8067 Y44.1466
G01 X23.8067 Y44.2266
G01 X23.7433 Y44.2266
G01 X23.7433 Y44.3066
G01 X23.8067 Y44.3066
G01 X23.8067 Y44.3866
G01 X23.7433 Y44.3866
G01 X23.7433 Y44.4666
G01 X23.8067 Y44.4666
G01 X23.8067 Y44.5466
G01 X23.7433 Y44.5466
G01 X23.7433 Y44.6266
G01 X23.8067 Y44.6266
G01 X23.8067 Y44.7066
G01 X23.7433 Y44.7066
G01 X23.7433 Y44.7866
G01 X23.8067 Y44.7866
G01 X23.8067 Y44.8666
G01 X23.7433 Y44.8666
G01 X23.7433 Y44.9466
G01 X23.8067 Y44.9466
G01 X23.8067 Y45.0266
G01 X23.7433 Y45.0266
G01 X23.7434 Y45.1586
G01 X23.7433 Y45.1583
G01 X23.7433 Y43.2567
G01 X23.7440 Y43.2488
G01 X23.7458 Y43.2429
G01 X23.7472 Y43.2401
G01 X23.7506 Y43.2350
G01 X23.7550 Y43.2306
G01 X23.7601 Y43.2272
G01 X23.7658 Y43.2248
G01 X23.7719 Y43.2236
G01 X23.7767 Y43.2233
G01 X26.3133 Y43.2233
G01 X26.3212 Y43.2240
G01 X26.3271 Y43.2258
G01 X26.3325 Y43.2287
G01 X26.3373 Y43.2327
G01 X26.3412 Y43.2375
G01 X26.3442 Y43.2429
G01 X26.3460 Y43.2488
G01 X26.3467 Y43.2567
G01 X26.3467 Y45.7933
G01 X26.3464 Y45.7981
G01 X26.3452 Y45.8042
G01 X26.3428 Y45.8099
G01 X26.3412 Y45.8125
G01 X26.3373 Y45.8173
G01 X26.3325 Y45.8212
G01 X26.3271 Y45.8242
G01 X26.3242 Y45.8252
G01 X26.3181 Y45.8264
G01 X26.3133 Y45.8266
G01 X23.7767 Y45.8266
G01 X23.7719 Y45.8264
G01 X23.7658 Y45.8252
G01 X23.7601 Y45.8228
G01 X23.7575 Y45.8212
G01 X23.7527 Y45.8173
G01 X23.7488 Y45.8125
G01 X23.7472 Y45.8099
G01 X23.7448 Y45.8042
G01 X23.7436 Y45.7981
G01 X23.7434 Y45.7948
G01 X23.7434 Y45.1620
G01 X23.7434 Y45.1586
G01 X23.7433 Y45.1066
G01 X23.8067 Y45.1066
G00 Z2.0000
G00 X23.8066 Y45.1620
G01 F60.00
G01 Z-0.0500
G01 F120.00
G01 X23.8066 Y45.6933
G01 X23.8069 Y45.7002
G01 X23.8086 Y45.7103
G01 X23.8119 Y45.7201
G01 X23.8165 Y45.7293
G01 X23.8232 Y45.7387
G01 X23.8305 Y45.7460
G01 X23.8395 Y45.7527
G01 X23.8498 Y45.7580
G01 X23.8595 Y45.7612
G01 X23.8675 Y45.7627
G01 X23.8766 Y45.7633
G01 X26.2133 Y45.7633
G01 X26.2236 Y45.7626
G01 X26.2348 Y45.7600
G01 X26.2453 Y45.7556
G01 X26.2550 Y45.7496
G01 X26.2613 Y45.7444
G01 X26.2667 Y45.7387
G01 X26.2716 Y45.7322
G01 X26.2756 Y45.7252
G01 X26.2788 Y45.7181
G01 X26.2813 Y45.7103
G01 X26.2829 Y45.7014
G01 X26.2833 Y45.6933
G01 X26.2833 Y43.3566
G01 X26.2824 Y43.3452
G01 X26.2797 Y43.3342
G01 X26.2751 Y43.3236
G01 X26.2696 Y43.3149
G01 X26.2637 Y43.3080
G01 X26.2578 Y43.3025
G01 X26.2512 Y43.2978
G01 X26.2444 Y43.2939
G01 X26.2369 Y43.2907
G01 X26.2292 Y43.2885
G01 X26.2214 Y43.2871
G01 X26.2133 Y43.2866
G01 X23.8760 Y43.2866
G01 X23.8698 Y43.2870
G01 X23.8630 Y43.2880
G01 X23.8563 Y43.2897
G01 X23.8499 Y43.2920
G01 X23.8437 Y43.2949
G01 X23.8378 Y43.2984
G01 X23.8322 Y43.3025
G01 X23.8272 Y43.3071
G01 X23.8225 Y43.3122
G01 X23.8184 Y43.3178
G01 X23.8149 Y43.3236
G01 X23.8120 Y43.3299
G01 X23.8097 Y43.3363
G01 X23.8080 Y43.3430
G01 X23.8070 Y43.3498
G01 X23.8067 Y43.3560
G01 X23.8067 Y45.1583
G01 X23.8066 Y45.1617
G01 X23.8066 Y45.1620
G01 X23.8066 Y45.1866
G01 X23.7434 Y45.1866
G01 X23.7434 Y45.2666
G01 X23.8066 Y45.2666
G01 X23.8066 Y45.3466
G01 X23.7434 Y45.3466
G01 X23.7434 Y45.4266
G01 X23.8066 Y45.4266
G01 X23.8066 Y45.5066
G01 X23.7434 Y45.5066
G01 X23.7434 Y45.5866
G01 X23.8066 Y45.5866
G01 X23.8066 Y45.6666
G01 X23.7434 Y45.6666
G01 X23.7434 Y45.7466
G01 X23.8312 Y45.7466
G00 Z2.0000
G00 X70.4044 Y44.7194
G01 F60.00
G01 Z-0.0500
G01 F120.00
G01 X70.4044 Y44.8388
G01 X70.4844 Y44.8301
G01 X70.4844 Y44.9208
G01 X70.5644 Y44.9640
G01 X70.5644 Y44.8935
G00 Z2.0000
G00 X70.6444 Y44.9218
G01 F60.00
G01 Z-0.0500
G01 F120.00
G01 X70.6444 Y44.9851
G01 X70.7244 Y44.9851
G01 X70.7244 Y44.9218
G00 Z2.0000
G00 X70.8044 Y44.9217
G01 F60.00
G01 Z-0.0500
G01 F120.00
G01 X70.8044 Y44.9851
G01 X70.8844 Y44.9589
G01 X70.8844 Y44.8885
G01 X70.9644 Y44.9106
G01 X70.9644 Y44.8210
G01 X71.0444 Y44.8306
G01 X71.0444 Y44.7002
G01 X71.1244 Y44.6698
G01 X71.1244 Y44.1481
G01 X71.0444 Y44.1171
G01 X71.0444 Y43.9868
G01 X70.9644 Y43.9963
G01 X70.9644 Y43.9068
G01 X70.8844 Y43.8584
G01 X70.8844 Y43.9288
G00 Z2.0000
G00 X71.5272 Y44.7215
G01 F60.00
G01 Z-0.0500
G01 F120.00
G01 X71.5272 Y44.8409
G01 X71.6072 Y44.8314
G01 X71.6072 Y44.9209
G01 X71.6872 Y44.9640
G01 X71.6872 Y44.8936
G00 Z2.0000
G00 X71.7672 Y44.9218
G01 F60.00
G01 Z-0.0500
G01 F120.00
G01 X71.7672 Y44.9851
G01 X71.8472 Y44.9851
G01 X71.8472 Y44.9218
G00 Z2.0000
G00 X71.9272 Y44.9217
G01 F60.00
G01 Z-0.0500
G01 F120.00
G01 X71.9272 Y44.9851
G01 X72.0072 Y44.9589
G01 X72.0072 Y44.8885
G01 X72.0872 Y44.9105
G01 X72.0872 Y44.8210
G01 X72.1672 Y44.8305
G01 X72.1672 Y44.7001
G01 X72.2472 Y44.6697
G01 X72.2472 Y44.1482
G01 X72.1672 Y44.1172
G01 X72.1672 Y43.9868
G01 X72.0872 Y43.9963
G01 X72.0872 Y43.9068
G01 X72.0072 Y43.8584
G01 X72.0072 Y43.9288
G00 Z2.0000
G00 X71.5272 Y44.0958
G01 F60.00
G01 Z-0.0500
G01 F120.00
G01 X71.5272 Y43.9764
G01 X71.5505 Y44.0479
G01 X71.5565 Y44.0380
G01 X71.5631 Y44.0300
G01 X71.6440 Y43.9490
G01 X71.6518 Y43.9424
G01 X71.6561 Y43.9394
G01 X71.6622 Y43.9359
G01 X71.7325 Y43.9017
G01 X71.7436 Y43.8978
G01 X71.7549 Y43.8958
G01 X71.7613 Y43.8955
G01 X71.9236 Y43.8955
G01 X71.9353 Y43.8966
G01 X71.9414 Y43.8981
G01 X71.9475 Y43.9000
G01 X71.9533 Y43.9026
G01 X72.0217 Y43.9359
G01 X72.0278 Y43.9394
G01 X72.0330 Y43.9430
G01 X72.0399 Y43.9490
G01 X72.1205 Y44.0296
G01 X72.1251 Y44.0349
G01 X72.1296 Y44.0412
G01 X72.1334 Y44.0479
G01 X72.1760 Y44.1358
G01 X72.2232 Y44.2747
G01 X72.2255 Y44.2833
G01 X72.2265 Y44.2895
G01 X72.2269 Y44.2971
G01 X72.2269 Y44.5225
G01 X72.2264 Y44.5302
G01 X72.2252 Y44.5378
G01 X72.2233 Y44.5446
G01 X72.1763 Y44.6809
G01 X72.1319 Y44.7722
G01 X72.1275 Y44.7793
G01 X72.1208 Y44.7873
G01 X72.0390 Y44.8692
G01 X72.0310 Y44.8758
G01 X72.0211 Y44.8817
G01 X71.9514 Y44.9157
G01 X71.9425 Y44.9189
G01 X71.9341 Y44.9209
G01 X71.9226 Y44.9218
G01 X71.7607 Y44.9218
G01 X71.7507 Y44.9210
G01 X71.7414 Y44.9189
G01 X71.7311 Y44.9150
G01 X71.6628 Y44.8817
G01 X71.6573 Y44.8787
G01 X71.6518 Y44.8750
G01 X71.6440 Y44.8683
G01 X71.5635 Y44.7877
G01 X71.5565 Y44.7793
G01 X71.5517 Y44.7717
G01 X71.5056 Y44.6779
G01 X71.5019 Y44.6729
G01 X71.4972 Y44.6688
G01 X71.4946 Y44.6671
G01 X71.4890 Y44.6646
G01 X71.4860 Y44.6637
G01 X71.4799 Y44.6629
G01 X71.4737 Y44.6632
G01 X71.4677 Y44.6648
G01 X71.4649 Y44.6660
G01 X71.4596 Y44.6693
G01 X71.4573 Y44.6713
G01 X71.4551 Y44.6735
G01 X71.4515 Y44.6785
G01 X71.4489 Y44.6841
G01 X71.4475 Y44.6902
G01 X71.4472 Y44.6932
G01 X71.4476 Y44.6994
G01 X71.4482 Y44.7024
G01 X71.4510 Y44.7098
G01 X71.5002 Y44.8107
G01 X71.5049 Y44.8183
G01 X71.5085 Y44.8223
G01 X71.6099 Y44.9237
G01 X71.6140 Y44.9273
G01 X71.6215 Y44.9320
G01 X71.7266 Y44.9830
G01 X71.7321 Y44.9845
G01 X71.7394 Y44.9851
G01 X71.9445 Y44.9851
G01 X71.9518 Y44.9845
G01 X71.9573 Y44.9830
G01 X71.9614 Y44.9812
G01 X72.0624 Y44.9320
G01 X72.0671 Y44.9293
G01 X72.0740 Y44.9237
G01 X72.1754 Y44.8223
G01 X72.1810 Y44.8154
G01 X72.1837 Y44.8107
G01 X72.2327 Y44.7102
G01 X72.2358 Y44.7027
G01 X72.2878 Y44.5516
G01 X72.2899 Y44.5429
G01 X72.2902 Y44.5375
G01 X72.2902 Y44.2823
G01 X72.2893 Y44.2736
G01 X72.2879 Y44.2684
G01 X72.2359 Y44.1149
G01 X72.2327 Y44.1070
G01 X72.1837 Y44.0066
G01 X72.1810 Y44.0019
G01 X72.1754 Y43.9950
G01 X72.0740 Y43.8936
G01 X72.0699 Y43.8900
G01 X72.0624 Y43.8853
G01 X71.9573 Y43.8343
G01 X71.9518 Y43.8328
G01 X71.9445 Y43.8322
G01 X71.7349 Y43.8324
G01 X71.7293 Y43.8334
G01 X71.7225 Y43.8361
G01 X71.6215 Y43.8853
G01 X71.6140 Y43.8900
G01 X71.6099 Y43.8936
G01 X71.5085 Y43.9950
G01 X71.5049 Y43.9991
G01 X71.5002 Y44.0066
G01 X71.4491 Y44.1119
G01 X71.4482 Y44.1149
G01 X71.4472 Y44.1210
G01 X71.4472 Y44.1241
G01 X71.4480 Y44.1302
G01 X71.4489 Y44.1332
G01 X71.4515 Y44.1388
G01 X71.4532 Y44.1414
G01 X71.4573 Y44.1460
G01 X71.4622 Y44.1498
G01 X71.4677 Y44.1525
G01 X71.4737 Y44.1541
G01 X71.4799 Y44.1545
G01 X71.4860 Y44.1536
G01 X71.4919 Y44.1516
G01 X71.4972 Y44.1485
G01 X71.5019 Y44.1444
G01 X71.5056 Y44.1395
G01 X71.5079 Y44.1352
G01 X71.5505 Y44.0479
G00 Z2.0000
G00 X71.6072 Y43.9859
G01 F60.00
G01 Z-0.0500
G01 F120.00
G01 X71.6072 Y43.8964
G01 X71.6872 Y43.9238
G01 X71.6872 Y43.8533
G01 X71.7672 Y43.8322
G01 X71.7672 Y43.8955
G01 X71.8472 Y43.8955
G01 X71.8472 Y43.8322
G01 X71.9272 Y43.8322
G01 X71.9272 Y43.8956
G00 Z2.0000
G00 X72.6498 Y44.0803
G01 F60.00
G01 Z-0.0500
G01 F120.00
G01 X72.6498 Y43.9021
G01 X72.7298 Y44.1127
G01 X72.7298 Y44.2909
G01 X72.8098 Y44.3232
G01 X72.8098 Y44.5015
G01 X72.8898 Y44.5338
G01 X72.8898 Y44.7120
G01 X72.9698 Y44.7209
G01 X72.9698 Y44.9226
G01 X72.9852 Y44.9631
G01 X72.9867 Y44.9665
G01 X72.9898 Y44.9719
G01 X72.9923 Y44.9750
G01 X72.9962 Y44.9785
G01 X72.9996 Y44.9808
G01 X73.0043 Y44.9830
G01 X73.0082 Y44.9842
G01 X73.0112 Y44.9848
G01 X73.0165 Y44.9850
G01 X73.0205 Y44.9847
G01 X73.0256 Y44.9834
G01 X73.0321 Y44.9803
G01 X73.0346 Y44.9786
G01 X73.0385 Y44.9751
G01 X73.0427 Y44.9693
G01 X73.0456 Y44.9632
G01 X73.4610 Y43.8767
G01 X73.4631 Y43.8691
G01 X73.4636 Y43.8630
G01 X73.4628 Y43.8568
G01 X73.4608 Y43.8510
G01 X73.4578 Y43.8456
G01 X73.4558 Y43.8431
G01 X73.4537 Y43.8409
G01 X73.4513 Y43.8389
G01 X73.4488 Y43.8371
G01 X73.4461 Y43.8356
G01 X73.4403 Y43.8334
G01 X73.4373 Y43.8327
G01 X73.4311 Y43.8323
G01 X73.4250 Y43.8331
G01 X73.4220 Y43.8339
G01 X73.4164 Y43.8364
G01 X73.4137 Y43.8381
G01 X73.4113 Y43.8400
G01 X73.4071 Y43.8445
G01 X73.4038 Y43.8497
G01 X73.4018 Y43.8541
G01 X73.0801 Y44.6956
G01 X73.0751 Y44.7051
G01 X73.0691 Y44.7133
G01 X73.0620 Y44.7206
G01 X73.0540 Y44.7267
G01 X73.0451 Y44.7316
G01 X73.0356 Y44.7352
G01 X73.0258 Y44.7373
G01 X73.0157 Y44.7381
G01 X73.0056 Y44.7373
G01 X72.9957 Y44.7351
G01 X72.9862 Y44.7315
G01 X72.9773 Y44.7266
G01 X72.9693 Y44.7205
G01 X72.9622 Y44.7132
G01 X72.9563 Y44.7050
G01 X72.9513 Y44.6955
G01 X72.6316 Y43.8542
G01 X72.6297 Y43.8498
G01 X72.6282 Y43.8471
G01 X72.6244 Y43.8422
G01 X72.6197 Y43.8381
G01 X72.6171 Y43.8364
G01 X72.6115 Y43.8339
G01 X72.6085 Y43.8331
G01 X72.6023 Y43.8323
G01 X72.5992 Y43.8323
G01 X72.5962 Y43.8327
G01 X72.5902 Y43.8343
G01 X72.5847 Y43.8371
G01 X72.5821 Y43.8388
G01 X72.5776 Y43.8431
G01 X72.5757 Y43.8455
G01 X72.5740 Y43.8481
G01 X72.5715 Y43.8538
G01 X72.5701 Y43.8598
G01 X72.5699 Y43.8660
G01 X72.5709 Y43.8721
G01 X72.5724 Y43.8767
G01 X72.9852 Y44.9631
G01 X73.0498 Y44.9522
G01 X73.0498 Y44.7292
G01 X73.1298 Y44.7429
G01 X73.1298 Y44.5656
G01 X73.2098 Y44.5336
G01 X73.2098 Y44.3564
G01 X73.2898 Y44.3244
G01 X73.2898 Y44.1471
G01 X73.3698 Y44.1151
G01 X73.3698 Y43.9378
G01 X73.4498 Y43.9059
G01 X73.4498 Y43.8378
G00 Z2.0000
G00 X73.7177 Y43.4106
G01 F60.00
G01 Z-0.0500
G01 F120.00
G01 X73.6543 Y43.4106
G01 X73.6543 Y43.4906
G01 X73.7177 Y43.4906
G01 X73.7177 Y43.5706
G01 X73.6543 Y43.5706
G01 X73.6543 Y43.6506
G01 X73.7177 Y43.6506
G01 X73.7177 Y43.7306
G01 X73.6543 Y43.7306
G01 X73.6543 Y43.8106
G01 X73.7177 Y43.8106
G01 X73.7177 Y43.8906
G01 X73.6543 Y43.8906
G01 X73.6543 Y43.9706
G01 X73.7177 Y43.9706
G01 X73.7177 Y44.0506
G01 X73.6543 Y44.0506
G01 X73.6543 Y44.1306
G01 X73.7177 Y44.1306
G01 X73.7177 Y44.2106
G01 X73.6543 Y44.2106
G01 X73.6543 Y44.2906
G01 X73.7177 Y44.2906
G01 X73.7177 Y44.3706
G01 X73.6543 Y44.3706
G01 X73.6543 Y44.4506
G01 X73.7177 Y44.4506
G01 X73.7177 Y44.5306
G01 X73.6543 Y44.5306
G01 X73.6543 Y44.6106
G01 X73.7177 Y44.6106
G01 X73.7177 Y44.6906
G01 X73.6543 Y44.6906
G01 X73.6543 Y44.7706
G01 X73.7177 Y44.7706
G01 X73.7177 Y44.8506
G01 X73.6543 Y44.8506
G01 X73.6543 Y44.9306
G01 X73.7177 Y44.9306
G01 X73.7177 Y45.0106
G01 X73.6543 Y45.0106
G01 X73.6544 Y45.1426
G01 X73.6543 Y45.1423
G01 X73.6543 Y43.2407
G01 X73.6550 Y43.2328
G01 X73.6568 Y43.2269
G01 X73.6598 Y43.2215
G01 X73.6637 Y43.2167
G01 X73.6660 Y43.2146
G01 X73.6711 Y43.2112
G01 X73.6768 Y43.2088
G01 X73.6829 Y43.2076
G01 X73.6877 Y43.2073
G01 X76.2243 Y43.2073
G01 X76.2322 Y43.2080
G01 X76.2381 Y43.2098
G01 X76.2435 Y43.2127
G01 X76.2483 Y43.2167
G01 X76.2522 Y43.2215
G01 X76.2552 Y43.2269
G01 X76.2570 Y43.2328
G01 X76.2577 Y43.2407
G01 X76.2577 Y45.7773
G01 X76.2574 Y45.7821
G01 X76.2562 Y45.7882
G01 X76.2538 Y45.7939
G01 X76.2522 Y45.7965
G01 X76.2483 Y45.8013
G01 X76.2435 Y45.8052
G01 X76.2381 Y45.8082
G01 X76.2352 Y45.8092
G01 X76.2291 Y45.8104
G01 X76.2243 Y45.8106
G01 X73.6877 Y45.8106
G01 X73.6829 Y45.8104
G01 X73.6768 Y45.8092
G01 X73.6739 Y45.8082
G01 X73.6685 Y45.8052
G01 X73.6637 Y45.8013
G01 X73.6598 Y45.7965
G01 X73.6582 Y45.7939
G01 X73.6558 Y45.7882
G01 X73.6546 Y45.7821
G01 X73.6544 Y45.7788
G01 X73.6544 Y45.1460
G01 X73.6544 Y45.1426
G01 X73.6543 Y45.0906
G01 X73.7177 Y45.0906
G00 Z2.0000
G00 X73.7184 Y43.3306
G01 F60.00
G01 Z-0.0500
G01 F120.00
G01 X73.6543 Y43.3306
G00 Z2.0000
G00 X73.6543 Y43.2506
G01 F60.00
G01 Z-0.0500
G01 F120.00
G01 X76.2577 Y43.2506
G01 X76.2577 Y43.3306
G01 X76.1936 Y43.3306
G00 Z2.0000
G00 X76.1943 Y43.4106
G01 F60.00
G01 Z-0.0500
G01 F120.00
G01 X76.2577 Y43.4106
G01 X76.2577 Y43.4906
G01 X76.1943 Y43.4906
G01 X76.1943 Y43.5706
G01 X76.2577 Y43.5706
G01 X76.2577 Y43.6506
G01 X76.1943 Y43.6506
G01 X76.1943 Y43.7306
G01 X76.2577 Y43.7306
G01 X76.2577 Y43.8106
G01 X76.1943 Y43.8106
G01 X76.1943 Y43.8906
G01 X76.2577 Y43.8906
G01 X76.2577 Y43.9706
G01 X76.1943 Y43.9706
G01 X76.1943 Y44.0506
G01 X76.2577 Y44.0506
G01 X76.2577 Y44.1306
G01 X76.1943 Y44.1306
G01 X76.1943 Y44.2106
G01 X76.2577 Y44.2106
G01 X76.2577 Y44.2906
G01 X76.1943 Y44.2906
G01 X76.1943 Y44.3706
G01 X76.2577 Y44.3706
G01 X76.2577 Y44.4506
G01 X76.1943 Y44.4506
G01 X76.1943 Y44.5306
G01 X76.2577 Y44.5306
G01 X76.2577 Y44.6106
G01 X76.1943 Y44.6106
G01 X76.1943 Y44.6906
G01 X76.2577 Y44.6906
G01 X76.2577 Y44.7706
G01 X76.1943 Y44.7706
G01 X76.1943 Y44.8506
G01 X76.2577 Y44.8506
G01 X76.2577 Y44.9306
G01 X76.1943 Y44.9306
G01 X76.1943 Y45.0106
G01 X76.2577 Y45.0106
G01 X76.2577 Y45.0906
G01 X76.1943 Y45.0906
G01 X76.1943 Y45.1706
G01 X76.2577 Y45.1706
G01 X76.2577 Y45.2506
G01 X76.1943 Y45.2506
G01 X76.1943 Y45.3306
G01 X76.2577 Y45.3306
G01 X76.2577 Y45.4106
G01 X76.1943 Y45.4106
G01 X76.1943 Y45.4906
G01 X76.2577 Y45.4906
G01 X76.2577 Y45.5706
G01 X76.1943 Y45.5706
G01 X76.1943 Y45.6506
G01 X76.2577 Y45.6506
G01 X76.2577 Y45.7306
G01 X76.1697 Y45.7306
G00 Z2.0000
G00 X73.7422 Y45.7306
G01 F60.00
G01 Z-0.0500
G01 F120.00
G01 X73.6544 Y45.7306
G01 X73.6544 Y45.6506
G01 X73.7176 Y45.6506
G01 X73.7176 Y45.5706
G01 X73.6544 Y45.5706
G01 X73.6544 Y45.4906
G01 X73.7176 Y45.4906
G01 X73.7176 Y45.4106
G01 X73.6544 Y45.4106
G01 X73.6544 Y45.3306
G01 X73.7176 Y45.3306
G01 X73.7176 Y45.2506
G01 X73.6544 Y45.2506
G01 X73.6544 Y45.1706
G01 X73.7176 Y45.1706
G01 X73.7176 Y45.1460
G01 X73.7176 Y45.1457
G01 X73.7177 Y45.1423
G01 X73.7177 Y43.3400
G01 X73.7180 Y43.3338
G01 X73.7190 Y43.3270
G01 X73.7207 Y43.3203
G01 X73.7230 Y43.3139
G01 X73.7259 Y43.3076
G01 X73.7294 Y43.3018
G01 X73.7335 Y43.2962
G01 X73.7382 Y43.2911
G01 X73.7432 Y43.2865
G01 X73.7488 Y43.2824
G01 X73.7547 Y43.2789
G01 X73.7609 Y43.2760
G01 X73.7673 Y43.2737
G01 X73.7740 Y43.2720
G01 X73.7808 Y43.2710
G01 X73.7870 Y43.2706
G01 X76.1243 Y43.2706
G01 X76.1324 Y43.2711
G01 X76.1402 Y43.2725
G01 X76.1479 Y43.2747
G01 X76.1554 Y43.2779
G01 X76.1622 Y43.2818
G01 X76.1688 Y43.2865
G01 X76.1754 Y43.2927
G01 X76.1806 Y43.2989
G01 X76.1866 Y43.3087
G01 X76.1910 Y43.3192
G01 X76.1936 Y43.3304
G01 X76.1943 Y43.3406
G01 X76.1943 Y45.6773
G01 X76.1939 Y45.6854
G01 X76.1923 Y45.6943
G01 X76.1898 Y45.7021
G01 X76.1866 Y45.7092
G01 X76.1826 Y45.7162
G01 X76.1777 Y45.7227
G01 X76.1723 Y45.7284
G01 X76.1660 Y45.7336
G01 X76.1563 Y45.7396
G01 X76.1458 Y45.7440
G01 X76.1346 Y45.7466
G01 X76.1243 Y45.7473
G01 X73.7876 Y45.7473
G01 X73.7785 Y45.7467
G01 X73.7705 Y45.7452
G01 X73.7608 Y45.7420
G01 X73.7505 Y45.7367
G01 X73.7422 Y45.7307
G01 X73.7342 Y45.7227
G01 X73.7275 Y45.7133
G01 X73.7229 Y45.7041
G01 X73.7196 Y45.6943
G01 X73.7179 Y45.6842
G01 X73.7176 Y45.6773
G01 X73.7176 Y45.1460
G00 Z2.0000
G00 X70.8044 Y43.8956
G01 F60.00
G01 Z-0.0500
G01 F120.00
G01 X70.8044 Y43.8322
G01 X70.7244 Y43.8322
G01 X70.7244 Y43.8955
G01 X70.6444 Y43.8955
G01 X70.6444 Y43.8322
G01 X70.5644 Y43.8533
G01 X70.5644 Y43.9238
G01 X70.4844 Y43.8965
G01 X70.4844 Y43.9872
G00 Z2.0000
G00 X70.4306 Y44.0469
G01 F60.00
G01 Z-0.0500
G01 F120.00
G01 X70.3850 Y44.1358
G01 X70.3826 Y44.1400
G01 X70.3788 Y44.1448
G01 X70.3741 Y44.1488
G01 X70.3686 Y44.1519
G01 X70.3628 Y44.1538
G01 X70.3566 Y44.1545
G01 X70.3504 Y44.1540
G01 X70.3445 Y44.1523
G01 X70.3390 Y44.1495
G01 X70.3341 Y44.1456
G01 X70.3320 Y44.1434
G01 X70.3285 Y44.1383
G01 X70.3271 Y44.1355
G01 X70.3252 Y44.1296
G01 X70.3245 Y44.1235
G01 X70.3246 Y44.1204
G01 X70.3257 Y44.1143
G01 X70.3267 Y44.1113
G01 X70.3804 Y44.0059
G01 X70.3829 Y44.0017
G01 X70.3880 Y43.9954
G01 X70.4873 Y43.8936
G01 X70.4925 Y43.8890
G01 X70.4985 Y43.8855
G01 X70.5998 Y43.8361
G01 X70.6066 Y43.8334
G01 X70.6123 Y43.8324
G01 X70.8218 Y43.8322
G01 X70.8291 Y43.8328
G01 X70.8346 Y43.8343
G01 X70.9397 Y43.8853
G01 X70.9473 Y43.8900
G01 X70.9513 Y43.8936
G01 X71.0527 Y43.9950
G01 X71.0584 Y44.0019
G01 X71.0610 Y44.0066
G01 X71.1100 Y44.1070
G01 X71.1132 Y44.1149
G01 X71.1652 Y44.2684
G01 X71.1666 Y44.2736
G01 X71.1675 Y44.2823
G01 X71.1675 Y44.5375
G01 X71.1672 Y44.5429
G01 X71.1651 Y44.5516
G01 X71.1131 Y44.7027
G01 X71.1100 Y44.7102
G01 X71.0610 Y44.8107
G01 X71.0584 Y44.8154
G01 X71.0527 Y44.8223
G01 X70.9513 Y44.9237
G01 X70.9444 Y44.9293
G01 X70.9397 Y44.9320
G01 X70.8387 Y44.9812
G01 X70.8346 Y44.9830
G01 X70.8291 Y44.9845
G01 X70.8218 Y44.9851
G01 X70.6167 Y44.9851
G01 X70.6094 Y44.9845
G01 X70.6039 Y44.9830
G01 X70.4985 Y44.9318
G01 X70.4925 Y44.9283
G01 X70.4873 Y44.9237
G01 X70.3880 Y44.8219
G01 X70.3847 Y44.8182
G01 X70.3804 Y44.8114
G01 X70.3287 Y44.7104
G01 X70.3267 Y44.7060
G01 X70.3250 Y44.7000
G01 X70.3246 Y44.6970
G01 X70.3247 Y44.6908
G01 X70.3252 Y44.6877
G01 X70.3271 Y44.6818
G01 X70.3285 Y44.6790
G01 X70.3320 Y44.6740
G01 X70.3341 Y44.6717
G01 X70.3390 Y44.6679
G01 X70.3445 Y44.6650
G01 X70.3474 Y44.6640
G01 X70.3535 Y44.6629
G01 X70.3597 Y44.6631
G01 X70.3628 Y44.6636
G01 X70.3686 Y44.6655
G01 X70.3714 Y44.6668
G01 X70.3765 Y44.6704
G01 X70.3808 Y44.6748
G01 X70.3850 Y44.6815
G01 X70.4319 Y44.7730
G01 X70.4368 Y44.7804
G01 X70.4428 Y44.7874
G01 X70.5217 Y44.8683
G01 X70.5296 Y44.8752
G01 X70.5355 Y44.8791
G01 X70.5407 Y44.8820
G01 X70.6084 Y44.9150
G01 X70.6187 Y44.9189
G01 X70.6280 Y44.9210
G01 X70.6380 Y44.9218
G01 X70.7999 Y44.9218
G01 X70.8115 Y44.9209
G01 X70.8199 Y44.9189
G01 X70.8287 Y44.9157
G01 X70.8984 Y44.8817
G01 X70.9084 Y44.8758
G01 X70.9163 Y44.8692
G01 X70.9982 Y44.7873
G01 X71.0048 Y44.7793
G01 X71.0093 Y44.7722
G01 X71.0536 Y44.6809
G01 X71.1006 Y44.5446
G01 X71.1025 Y44.5378
G01 X71.1038 Y44.5302
G01 X71.1042 Y44.5225
G01 X71.1042 Y44.2971
G01 X71.1038 Y44.2895
G01 X71.1028 Y44.2833
G01 X71.1005 Y44.2747
G01 X71.0533 Y44.1358
G01 X71.0107 Y44.0479
G01 X71.0069 Y44.0412
G01 X71.0025 Y44.0349
G01 X70.9978 Y44.0296
G01 X70.9172 Y43.9490
G01 X70.9104 Y43.9430
G01 X70.9051 Y43.9394
G01 X70.8990 Y43.9359
G01 X70.8306 Y43.9026
G01 X70.8248 Y43.9000
G01 X70.8188 Y43.8981
G01 X70.8126 Y43.8966
G01 X70.8010 Y43.8955
G01 X70.6386 Y43.8955
G01 X70.6323 Y43.8958
G01 X70.6209 Y43.8978
G01 X70.6099 Y43.9017
G01 X70.5399 Y43.9358
G01 X70.5345 Y43.9388
G01 X70.5296 Y43.9422
G01 X70.5217 Y43.9490
G01 X70.4420 Y44.0307
G01 X70.4360 Y44.0379
G01 X70.4306 Y44.0469
G01 X70.4044 Y43.9785
G01 X70.4044 Y44.0979
G00 Z2.0000
G00 X73.7422 Y26.8076
G01 F60.00
G01 Z-0.0500
G01 F120.00
G01 X73.6544 Y26.8076
G01 X73.6544 Y26.7276
G01 X73.7176 Y26.7276
G01 X73.7176 Y26.6476
G01 X73.6544 Y26.6476
G01 X73.6544 Y26.5676
G01 X73.7176 Y26.5676
G01 X73.7176 Y26.4876
G01 X73.6544 Y26.4876
G01 X73.6544 Y26.4076
G01 X73.7176 Y26.4076
G01 X73.7176 Y26.3276
G01 X73.6544 Y26.3276
G01 X73.6544 Y26.2476
G01 X73.7176 Y26.2476
G01 X73.7176 Y26.2230
G01 X73.7176 Y26.2227
G01 X73.7177 Y26.2193
G01 X73.7177 Y24.4170
G01 X73.7180 Y24.4108
G01 X73.7190 Y24.4040
G01 X73.7207 Y24.3973
G01 X73.7230 Y24.3909
G01 X73.7259 Y24.3846
G01 X73.7294 Y24.3788
G01 X73.7335 Y24.3732
G01 X73.7382 Y24.3681
G01 X73.7432 Y24.3635
G01 X73.7488 Y24.3594
G01 X73.7547 Y24.3559
G01 X73.7609 Y24.3530
G01 X73.7673 Y24.3507
G01 X73.7740 Y24.3490
G01 X73.7808 Y24.3480
G01 X73.7870 Y24.3476
G01 X76.1243 Y24.3476
G01 X76.1324 Y24.3481
G01 X76.1402 Y24.3495
G01 X76.1479 Y24.3517
G01 X76.1554 Y24.3549
G01 X76.1622 Y24.3588
G01 X76.1688 Y24.3635
G01 X76.1754 Y24.3697
G01 X76.1806 Y24.3759
G01 X76.1866 Y24.3857
G01 X76.1910 Y24.3962
G01 X76.1936 Y24.4074
G01 X76.1943 Y24.4176
G01 X76.1943 Y26.7543
G01 X76.1939 Y26.7624
G01 X76.1923 Y26.7713
G01 X76.1898 Y26.7791
G01 X76.1866 Y26.7862
G01 X76.1826 Y26.7932
G01 X76.1777 Y26.7997
G01 X76.1723 Y26.8054
G01 X76.1660 Y26.8106
G01 X76.1573 Y26.8161
G01 X76.1468 Y26.8206
G01 X76.1358 Y26.8234
G01 X76.1243 Y26.8243
G01 X73.7876 Y26.8243
G01 X73.7785 Y26.8237
G01 X73.7705 Y26.8222
G01 X73.7608 Y26.8190
G01 X73.7505 Y26.8137
G01 X73.7422 Y26.8077
G01 X73.7342 Y26.7997
G01 X73.7275 Y26.7903
G01 X73.7229 Y26.7811
G01 X73.7196 Y26.7713
G01 X73.7179 Y26.7612
G01 X73.7176 Y26.7543
G01 X73.7176 Y26.2230
G00 Z2.0000
G00 X73.7177 Y26.1676
G01 F60.00
G01 Z-0.0500
G01 F120.00
G01 X73.6543 Y26.1676
G01 X73.6544 Y26.2196
G01 X73.6544 Y26.2230
G01 X73.6544 Y26.8558
G01 X73.6546 Y26.8591
G01 X73.6558 Y26.8652
G01 X73.6582 Y26.8709
G01 X73.6598 Y26.8735
G01 X73.6616 Y26.8760
G01 X73.6660 Y26.8804
G01 X73.6711 Y26.8838
G01 X73.6768 Y26.8862
G01 X73.6829 Y26.8874
G01 X73.6877 Y26.8876
G01 X76.2243 Y26.8876
G01 X76.2291 Y26.8874
G01 X76.2352 Y26.8862
G01 X76.2381 Y26.8852
G01 X76.2435 Y26.8822
G01 X76.2483 Y26.8783
G01 X76.2522 Y26.8735
G01 X76.2552 Y26.8681
G01 X76.2562 Y26.8652
G01 X76.2574 Y26.8591
G01 X76.2577 Y26.8543
G01 X76.2577 Y24.3177
G01 X76.2570 Y24.3098
G01 X76.2552 Y24.3039
G01 X76.2522 Y24.2985
G01 X76.2483 Y24.2937
G01 X76.2435 Y24.2897
G01 X76.2381 Y24.2868
G01 X76.2322 Y24.2850
G01 X76.2243 Y24.2843
G01 X73.6877 Y24.2843
G01 X73.6829 Y24.2846
G01 X73.6768 Y24.2858
G01 X73.6711 Y24.2882
G01 X73.6660 Y24.2916
G01 X73.6616 Y24.2960
G01 X73.6598 Y24.2985
G01 X73.6568 Y24.3039
G01 X73.6550 Y24.3098
G01 X73.6543 Y24.3177
G01 X73.6543 Y26.2193
G01 X73.6544 Y26.2196
G01 X73.6543 Y26.0876
G01 X73.7177 Y26.0876
G01 X73.7177 Y26.0076
G01 X73.6543 Y26.0076
G01 X73.6543 Y25.9276
G01 X73.7177 Y25.9276
G01 X73.7177 Y25.8476
G01 X73.6543 Y25.8476
G01 X73.6543 Y25.7676
G01 X73.7177 Y25.7676
G01 X73.7177 Y25.6876
G01 X73.6543 Y25.6876
G01 X73.6543 Y25.6076
G01 X73.7177 Y25.6076
G01 X73.7177 Y25.5276
G01 X73.6543 Y25.5276
G01 X73.6543 Y25.4476
G01 X73.7177 Y25.4476
G01 X73.7177 Y25.3676
G01 X73.6543 Y25.3676
G01 X73.6543 Y25.2876
G01 X73.7177 Y25.2876
G01 X73.7177 Y25.2076
G01 X73.6543 Y25.2076
G01 X73.6543 Y25.1276
G01 X73.7177 Y25.1276
G01 X73.7177 Y25.0476
G01 X73.6543 Y25.0476
G01 X73.6543 Y24.9676
G01 X73.7177 Y24.9676
G01 X73.7177 Y24.8876
G01 X73.6543 Y24.8876
G01 X73.6543 Y24.8076
G01 X73.7177 Y24.8076
G01 X73.7177 Y24.7276
G01 X73.6543 Y24.7276
G01 X73.6543 Y24.6476
G01 X73.7177 Y24.6476
G01 X73.7177 Y24.5676
G01 X73.6543 Y24.5676
G01 X73.6543 Y24.4876
G01 X73.7177 Y24.4876
G00 Z2.0000
G00 X73.7184 Y24.4076
G01 F60.00
G01 Z-0.0500
G01 F120.00
G01 X73.6543 Y24.4076
G00 Z2.0000
G00 X73.6543 Y24.3276
G01 F60.00
G01 Z-0.0500
G01 F120.00
G01 X76.2577 Y24.3276
G01 X76.2577 Y24.4076
G01 X76.1936 Y24.4076
G00 Z2.0000
G00 X76.1943 Y24.4876
G01 F60.00
G01 Z-0.0500
G01 F120.00
G01 X76.2577 Y24.4876
G01 X76.2577 Y24.5676
G01 X76.1943 Y24.5676
G01 X76.1943 Y24.6476
G01 X76.2577 Y24.6476
G01 X76.2577 Y24.7276
G01 X76.1943 Y24.7276
G01 X76.1943 Y24.8076
G01 X76.2577 Y24.8076
G01 X76.2577 Y24.8876
G01 X76.1943 Y24.8876
G01 X76.1943 Y24.9676
G01 X76.2577 Y24.9676
G01 X76.2577 Y25.0476
G01 X76.1943 Y25.0476
G01 X76.1943 Y25.1276
G01 X76.2577 Y25.1276
G01 X76.2577 Y25.2076
G01 X76.1943 Y25.2076
G01 X76.1943 Y25.2876
G01 X76.2577 Y25.2876
G01 X76.2577 Y25.3676
G01 X76.1943 Y25.3676
G01 X76.1943 Y25.4476
G01 X76.2577 Y25.4476
G01 X76.2577 Y25.5276
G01 X76.1943 Y25.5276
G01 X76.1943 Y25.6076
G01 X76.2577 Y25.6076
G01 X76.2577 Y25.6876
G01 X76.1943 Y25.6876
G01 X76.1943 Y25.7676
G01 X76.2577 Y25.7676
G01 X76.2577 Y25.8476
G01 X76.1943 Y25.8476
G01 X76.1943 Y25.9276
G01 X76.2577 Y25.9276
G01 X76.2577 Y26.0076
G01 X76.1943 Y26.0076
G01 X76.1943 Y26.0876
G01 X76.2577 Y26.0876
G01 X76.2577 Y26.1676
G01 X76.1943 Y26.1676
G01 X76.1943 Y26.2476
G01 X76.2577 Y26.2476
G01 X76.2577 Y26.3276
G01 X76.1943 Y26.3276
G01 X76.1943 Y26.4076
G01 X76.2577 Y26.4076
G01 X76.2577 Y26.4876
G01 X76.1943 Y26.4876
G01 X76.1943 Y26.5676
G01 X76.2577 Y26.5676
G01 X76.2577 Y26.6476
G01 X76.1943 Y26.6476
G01 X76.1943 Y26.7276
G01 X76.2577 Y26.7276
G01 X76.2577 Y26.8076
G01 X76.1697 Y26.8076
G00 Z2.0000
G00 X72.7196 Y26.2527
G01 F60.00
G01 Z-0.0500
G01 F120.00
G01 X72.7196 Y26.3161
G01 X72.7996 Y26.2900
G01 X72.7996 Y26.2195
G01 X72.8796 Y26.2416
G01 X72.8796 Y26.1521
G01 X72.9596 Y26.1616
G01 X72.9596 Y26.0353
G01 X73.0396 Y26.0069
G01 X73.0396 Y25.4729
G01 X72.9596 Y25.4440
G01 X72.9596 Y25.3177
G01 X72.8796 Y25.3273
G01 X72.8796 Y25.2377
G01 X72.7996 Y25.1894
G01 X72.7996 Y25.2598
G00 Z2.0000
G00 X72.6396 Y26.2528
G01 F60.00
G01 Z-0.0500
G01 F120.00
G01 X72.6396 Y26.3161
G01 X72.5596 Y26.3161
G01 X72.5596 Y26.2528
G00 Z2.0000
G00 X72.4796 Y26.2237
G01 F60.00
G01 Z-0.0500
G01 F120.00
G01 X72.4796 Y26.2945
G01 X72.3996 Y26.2493
G01 X72.3996 Y26.1598
G01 X72.3196 Y26.1693
G01 X72.3196 Y26.0504
G01 X72.2396 Y26.0238
G01 X72.2396 Y25.8722
G01 X72.2396 Y26.0238
G01 X72.2402 Y26.0314
G01 X72.2419 Y26.0371
G01 X72.2438 Y26.0413
G01 X72.2956 Y26.1424
G01 X72.2981 Y26.1468
G01 X72.3035 Y26.1532
G01 X72.4050 Y26.2548
G01 X72.4089 Y26.2583
G01 X72.4162 Y26.2628
G01 X72.5147 Y26.3121
G01 X72.5188 Y26.3139
G01 X72.5245 Y26.3155
G01 X72.5319 Y26.3161
G01 X72.7370 Y26.3161
G01 X72.7443 Y26.3155
G01 X72.7498 Y26.3140
G01 X72.7539 Y26.3122
G01 X72.8549 Y26.2630
G01 X72.8624 Y26.2583
G01 X72.8665 Y26.2547
G01 X72.9680 Y26.1532
G01 X72.9714 Y26.1494
G01 X72.9759 Y26.1424
G01 X73.0294 Y26.0376
G01 X73.0805 Y25.8821
G01 X73.0824 Y25.8738
G01 X73.0827 Y25.8686
G01 X73.0827 Y25.6132
G01 X73.0819 Y25.6049
G01 X73.0806 Y25.5999
G01 X73.0294 Y25.4418
G01 X72.9759 Y25.3370
G01 X72.9714 Y25.3299
G01 X72.9680 Y25.3261
G01 X72.8665 Y25.2246
G01 X72.8624 Y25.2210
G01 X72.8549 Y25.2163
G01 X72.7539 Y25.1671
G01 X72.7498 Y25.1653
G01 X72.7443 Y25.1638
G01 X72.7370 Y25.1632
G01 X72.5319 Y25.1632
G01 X72.5245 Y25.1638
G01 X72.5188 Y25.1654
G01 X72.4162 Y25.2165
G01 X72.4089 Y25.2211
G01 X72.4050 Y25.2246
G01 X72.3035 Y25.3261
G01 X72.2981 Y25.3326
G01 X72.2956 Y25.3370
G01 X72.2438 Y25.4380
G01 X72.2409 Y25.4453
G01 X72.2402 Y25.4483
G01 X72.2397 Y25.4545
G01 X72.2404 Y25.4606
G01 X72.2412 Y25.4636
G01 X72.2436 Y25.4693
G01 X72.2453 Y25.4719
G01 X72.2493 Y25.4766
G01 X72.2516 Y25.4787
G01 X72.2568 Y25.4820
G01 X72.2597 Y25.4833
G01 X72.2656 Y25.4850
G01 X72.2718 Y25.4855
G01 X72.2749 Y25.4853
G01 X72.2809 Y25.4840
G01 X72.2838 Y25.4829
G01 X72.2892 Y25.4799
G01 X72.2939 Y25.4758
G01 X72.2978 Y25.4710
G01 X72.3466 Y25.3763
G01 X72.3519 Y25.3681
G01 X72.3578 Y25.3613
G01 X72.4394 Y25.2797
G01 X72.4469 Y25.2732
G01 X72.4511 Y25.2703
G01 X72.4570 Y25.2669
G01 X72.5230 Y25.2339
G01 X72.5289 Y25.2313
G01 X72.5351 Y25.2292
G01 X72.5446 Y25.2272
G01 X72.5537 Y25.2265
G01 X72.7151 Y25.2265
G01 X72.7266 Y25.2274
G01 X72.7350 Y25.2294
G01 X72.7438 Y25.2327
G01 X72.8136 Y25.2666
G01 X72.8235 Y25.2726
G01 X72.8315 Y25.2792
G01 X72.9140 Y25.3617
G01 X72.9203 Y25.3691
G01 X72.9248 Y25.3763
G01 X72.9683 Y25.4610
G01 X72.9713 Y25.4678
G01 X73.0162 Y25.6065
G01 X73.0178 Y25.6129
G01 X73.0190 Y25.6201
G01 X73.0193 Y25.6274
G01 X73.0193 Y25.8542
G01 X73.0190 Y25.8616
G01 X73.0178 Y25.8689
G01 X73.0159 Y25.8760
G01 X72.9707 Y26.0131
G01 X72.9257 Y26.1015
G01 X72.9223 Y26.1072
G01 X72.9189 Y26.1121
G01 X72.9132 Y26.1185
G01 X72.8324 Y26.1993
G01 X72.8255 Y26.2053
G01 X72.8203 Y26.2089
G01 X72.8142 Y26.2124
G01 X72.7458 Y26.2458
G01 X72.7389 Y26.2487
G01 X72.7277 Y26.2517
G01 X72.7215 Y26.2526
G01 X72.7151 Y26.2528
G01 X72.5532 Y26.2528
G01 X72.5434 Y26.2520
G01 X72.5340 Y26.2498
G01 X72.5239 Y26.2459
G01 X72.4576 Y26.2128
G01 X72.4522 Y26.2098
G01 X72.4469 Y26.2061
G01 X72.4394 Y26.1997
G01 X72.3582 Y26.1185
G01 X72.3534 Y26.1131
G01 X72.3491 Y26.1072
G01 X72.3457 Y26.1015
G01 X72.3103 Y26.0323
G01 X72.3067 Y26.0237
G01 X72.3041 Y26.0141
G01 X72.3030 Y26.0054
G01 X72.3030 Y25.9684
G01 X72.3042 Y25.9585
G01 X72.3066 Y25.9497
G01 X72.3101 Y25.9411
G01 X72.3147 Y25.9332
G01 X72.3210 Y25.9251
G01 X72.3275 Y25.9188
G01 X72.3350 Y25.9132
G01 X72.3441 Y25.9083
G01 X72.3504 Y25.9058
G01 X72.3571 Y25.9039
G01 X72.3638 Y25.9027
G01 X72.3700 Y25.9022
G01 X72.5286 Y25.9021
G01 X72.5334 Y25.9019
G01 X72.5395 Y25.9007
G01 X72.5452 Y25.8983
G01 X72.5503 Y25.8949
G01 X72.5547 Y25.8905
G01 X72.5565 Y25.8880
G01 X72.5595 Y25.8825
G01 X72.5605 Y25.8796
G01 X72.5617 Y25.8736
G01 X72.5617 Y25.8674
G01 X72.5612 Y25.8643
G01 X72.5595 Y25.8584
G01 X72.5565 Y25.8529
G01 X72.5547 Y25.8504
G01 X72.5503 Y25.8461
G01 X72.5452 Y25.8426
G01 X72.5424 Y25.8413
G01 X72.5364 Y25.8395
G01 X72.5286 Y25.8388
G01 X72.2729 Y25.8388
G01 X72.2681 Y25.8391
G01 X72.2621 Y25.8403
G01 X72.2563 Y25.8426
G01 X72.2512 Y25.8461
G01 X72.2468 Y25.8504
G01 X72.2450 Y25.8529
G01 X72.2421 Y25.8584
G01 X72.2403 Y25.8643
G01 X72.2396 Y25.8722
G01 X72.3196 Y25.8388
G01 X72.3196 Y25.9268
G00 Z2.0000
G00 X72.3996 Y25.9021
G01 F60.00
G01 Z-0.0500
G01 F120.00
G01 X72.3996 Y25.8388
G01 X72.4796 Y25.8388
G01 X72.4796 Y25.9021
G01 X72.5596 Y25.8822
G01 X72.5596 Y25.8587
G00 Z2.0000
G00 X72.3196 Y25.4290
G01 F60.00
G01 Z-0.0500
G01 F120.00
G01 X72.3196 Y25.3100
G01 X72.3996 Y25.3195
G01 X72.3996 Y25.2300
G01 X72.4796 Y25.2556
G01 X72.4796 Y25.1848
G01 X72.5596 Y25.1632
G01 X72.5596 Y25.2265
G01 X72.6396 Y25.2265
G01 X72.6396 Y25.1632
G01 X72.7196 Y25.1632
G01 X72.7196 Y25.2266
G00 Z2.0000
G00 X71.8902 Y25.5013
G01 F60.00
G01 Z-0.0500
G01 F120.00
G01 X71.8902 Y25.1949
G01 X71.8102 Y25.3149
G01 X71.8102 Y25.4625
G00 Z2.0000
G00 X71.7302 Y25.4349
G01 F60.00
G01 Z-0.0500
G01 F120.00
G01 X71.7302 Y25.5490
G01 X71.6502 Y25.5549
G01 X71.6502 Y25.6690
G01 X71.5702 Y25.6749
G01 X71.5702 Y25.7890
G01 X71.4902 Y25.7949
G01 X71.4902 Y25.9090
G01 X71.4102 Y25.9149
G01 X71.4102 Y26.0290
G01 X71.3302 Y26.1490
G01 X71.3302 Y26.0135
G00 Z2.0000
G00 X71.2502 Y25.9941
G01 F60.00
G01 Z-0.0500
G01 F120.00
G01 X71.2502 Y26.2690
G00 Z2.0000
G00 X71.1702 Y26.2828
G01 F60.00
G01 Z-0.0500
G01 F120.00
G01 X71.1705 Y26.2876
G01 X71.1717 Y26.2937
G01 X71.1734 Y26.2980
G01 X71.1756 Y26.3020
G01 X71.1785 Y26.3057
G01 X71.1819 Y26.3089
G01 X71.1857 Y26.3116
G01 X71.1898 Y26.3137
G01 X71.1943 Y26.3151
G01 X71.1988 Y26.3159
G01 X71.2050 Y26.3159
G01 X71.2096 Y26.3151
G01 X71.2140 Y26.3137
G01 X71.2194 Y26.3107
G01 X71.2231 Y26.3078
G01 X71.2263 Y26.3045
G01 X71.7697 Y25.4898
G01 X71.7747 Y25.4836
G01 X71.7813 Y25.4773
G01 X71.7877 Y25.4724
G01 X71.7956 Y25.4679
G01 X71.8030 Y25.4647
G01 X71.8118 Y25.4622
G01 X71.8198 Y25.4609
G01 X71.8288 Y25.4606
G01 X71.8357 Y25.4612
G01 X71.8415 Y25.4622
G01 X71.8469 Y25.4636
G01 X71.8534 Y25.4659
G01 X71.8637 Y25.4712
G01 X71.8683 Y25.4743
G01 X71.8737 Y25.4787
G01 X71.8815 Y25.4871
