(G-CODE GENERATED BY FLATCAM v8.994 - www.flatcam.org - Version Date: 2020/11/7)

(Name: Combo_MultiGeo_cnc)
(Type: G-code from Geometry)
(Units: MM)

(Created on Saturday, 27 April 2024 at 16:30)

(This preprocessor is the default preprocessor used by FlatCAM.)
(It is made to work with MACH3 compatible motion controllers.)

(TOOL DIAMETER: 0.1 mm)
(Feedrate_XY: 120.0 mm/min)
(Feedrate_Z: 60.0 mm/min)
(Feedrate rapids 1500.0 mm/min)

(Z_Cut: -0.05 mm)
(Z_Move: 2.0 mm)
(Z Start: None mm)
(Z End: 15.0 mm)
(X,Y End: None mm)
(Steps per circle: 64)
(Preprocessor Geometry: default)

(X range:   16.3598 ...   66.3089  mm)
(Y range:   25.2811 ...   45.6464  mm)

(Spindle Speed: 0.0 RPM)
G21
G90
G94

G01 F120.00

M5
G00 Z15.0000
G00 X0.0000 Y0.0000
T1
M6    
(MSG, Change to Tool Dia = 0.1000)
M0
G00 Z15.0000

M03
G01 F120.00
G00 X16.6107 Y27.6067
G01 F60.00
G01 Z-0.0500
G01 F120.00
G01 X16.6144 Y27.6067
G01 X16.5836 Y27.6667
G01 X16.5799 Y27.6667
G01 X16.5756 Y27.6752
G01 X16.5750 Y27.6763
G01 X16.5725 Y27.6808
G01 X16.5674 Y27.6884
G01 X16.5626 Y27.6945
G01 X16.5573 Y27.7003
G01 X16.4154 Y27.8422
G01 X16.4134 Y27.8445
G01 X16.4134 Y27.8455
G01 X16.4139 Y27.8463
G01 X16.4173 Y27.8467
G01 X17.5020 Y27.8467
G01 X17.5049 Y27.8465
G01 X17.5060 Y27.8455
G01 X17.5059 Y27.8445
G01 X17.5052 Y27.8437
G01 X17.5020 Y27.8434
G01 X16.6562 Y27.8434
G01 X16.6500 Y27.8432
G01 X16.6401 Y27.8421
G01 X16.6315 Y27.8403
G01 X16.6220 Y27.8374
G01 X16.6128 Y27.8335
G01 X16.6062 Y27.8300
G01 X16.5948 Y27.8223
G01 X16.5882 Y27.8167
G01 X16.5812 Y27.8095
G01 X16.5750 Y27.8017
G01 X16.5702 Y27.7944
G01 X16.5641 Y27.7822
G01 X16.5614 Y27.7752
G01 X16.5587 Y27.7656
G01 X16.5570 Y27.7557
G01 X16.5564 Y27.7483
G01 X16.5564 Y27.7371
G01 X16.5578 Y27.7259
G01 X16.5600 Y27.7162
G01 X16.5637 Y27.7056
G01 X16.5673 Y27.6977
G01 X16.5724 Y27.6886
G01 X16.6235 Y27.5889
G01 X16.6247 Y27.5861
G01 X16.6245 Y27.5853
G01 X16.6238 Y27.5846
G01 X16.6230 Y27.5845
G01 X16.6221 Y27.5848
G01 X16.6205 Y27.5874
G01 X16.5756 Y27.6752
G00 Z2.0000
G00 X16.5576 Y27.7267
G01 F60.00
G01 Z-0.0500
G01 F120.00
G01 X16.5309 Y27.7267
G01 X16.5661 Y27.7867
G01 X16.4709 Y27.7867
G00 Z2.0000
G00 X17.2457 Y28.2387
G01 F60.00
G01 Z-0.0500
G01 F120.00
G01 X17.2958 Y28.1886
G01 X17.2979 Y28.1867
G01 X17.2988 Y28.1865
G01 X17.2996 Y28.1867
G01 X17.3017 Y28.1886
G01 X17.3491 Y28.2384
G01 X17.3509 Y28.2405
G01 X17.3511 Y28.2415
G01 X17.3490 Y28.2442
G01 X17.3016 Y28.2916
G01 X17.2996 Y28.2934
G01 X17.2986 Y28.2936
G01 X17.2959 Y28.2916
G01 X17.2457 Y28.2439
G01 X17.2440 Y28.2419
G01 X17.2442 Y28.2404
G01 X17.2457 Y28.2387
G01 X17.3446 Y28.2337
G01 X17.2507 Y28.2337
G00 Z2.0000
G00 X17.3156 Y28.6457
G01 F60.00
G01 Z-0.0500
G01 F120.00
G01 X17.3231 Y28.6457
G00 Z2.0000
G00 X17.4179 Y28.7057
G01 F60.00
G01 Z-0.0500
G01 F120.00
G01 X17.4225 Y28.7057
G00 Z2.0000
G00 X17.4607 Y28.7657
G01 F60.00
G01 Z-0.0500
G01 F120.00
G01 X17.4641 Y28.7657
G01 X17.4803 Y28.8257
G01 X17.4838 Y28.8257
G00 Z2.0000
G00 X17.4997 Y28.8857
G01 F60.00
G01 Z-0.0500
G01 F120.00
G01 X17.5035 Y28.8857
G01 X17.5028 Y28.9457
G01 X17.5062 Y28.9457
G01 X17.5062 Y29.0057
G01 X17.5028 Y29.0057
G01 X17.5028 Y29.0657
G01 X17.5062 Y29.0657
G01 X17.4987 Y29.1257
G01 X17.4953 Y29.1257
G01 X17.4794 Y29.1857
G01 X17.4759 Y29.1857
G01 X17.4600 Y29.2457
G01 X17.4559 Y29.2457
G00 Z2.0000
G00 X17.4102 Y29.3057
G01 F60.00
G01 Z-0.0500
G01 F120.00
G01 X17.4046 Y29.3057
G00 Z2.0000
G00 X17.0355 Y29.3057
G01 F60.00
G01 Z-0.0500
G01 F120.00
G01 X17.0298 Y29.3057
G01 X16.9745 Y29.2457
G01 X16.9698 Y29.2457
G00 Z2.0000
G00 X16.9279 Y29.1857
G01 F60.00
G01 Z-0.0500
G01 F120.00
G01 X16.8142 Y29.1857
G01 X16.7872 Y29.2457
G01 X16.7812 Y29.2457
G00 Z2.0000
G00 X16.9082 Y29.1257
G01 F60.00
G01 Z-0.0500
G01 F120.00
G01 X16.8370 Y29.1257
G01 X16.8517 Y29.0657
G01 X16.8886 Y29.0657
G00 Z2.0000
G00 X16.8770 Y29.0232
G01 F60.00
G01 Z-0.0500
G01 F120.00
G01 X16.8758 Y29.0174
G01 X16.8745 Y29.0079
G01 X16.8741 Y28.9995
G01 X16.8746 Y28.9900
G01 X16.8762 Y28.9793
G01 X16.8831 Y28.9507
G01 X16.9274 Y28.8150
G01 X16.9318 Y28.8041
G01 X16.9375 Y28.7939
G01 X16.9428 Y28.7862
G01 X16.9513 Y28.7765
G01 X17.0270 Y28.7008
G01 X17.0368 Y28.6923
G01 X17.0453 Y28.6864
G01 X17.0510 Y28.6831
G01 X17.1234 Y28.6461
G01 X17.1333 Y28.6421
G01 X17.1424 Y28.6395
G01 X17.1517 Y28.6377
G01 X17.1623 Y28.6368
G01 X17.2778 Y28.6368
G01 X17.2907 Y28.6381
G01 X17.2977 Y28.6395
G01 X17.3057 Y28.6417
G01 X17.3188 Y28.6471
G01 X17.3879 Y28.6825
G01 X17.3936 Y28.6857
G01 X17.4012 Y28.6907
G01 X17.4121 Y28.6999
G01 X17.4386 Y28.7266
G01 X17.4446 Y28.7338
G01 X17.4486 Y28.7396
G01 X17.4549 Y28.7508
G01 X17.4597 Y28.7627
G01 X17.4979 Y28.8792
G01 X17.4997 Y28.8855
G01 X17.5018 Y28.8959
G01 X17.5026 Y28.9038
G01 X17.5028 Y28.9103
G01 X17.5028 Y29.0864
G01 X17.5018 Y29.1006
G01 X17.4998 Y29.1108
G01 X17.4585 Y29.2394
G01 X17.4533 Y29.2513
G01 X17.4498 Y29.2575
G01 X17.4445 Y29.2653
G01 X17.4360 Y29.2752
G01 X17.4130 Y29.2982
G01 X17.4083 Y29.3026
G01 X17.4001 Y29.3091
G01 X17.3879 Y29.3165
G01 X17.3166 Y29.3529
G01 X17.3068 Y29.3569
G01 X17.2977 Y29.3596
G01 X17.2884 Y29.3613
G01 X17.2790 Y29.3622
G01 X17.1658 Y29.3623
G01 X17.1599 Y29.3622
G01 X17.1505 Y29.3612
G01 X17.1424 Y29.3596
G01 X17.1344 Y29.3573
G01 X17.1234 Y29.3529
G01 X17.0510 Y29.3159
G01 X17.0464 Y29.3133
G01 X17.0378 Y29.3075
G01 X17.0270 Y29.2982
G01 X16.9505 Y29.2217
G01 X16.9421 Y29.2119
G01 X16.9357 Y29.2021
G01 X16.9318 Y29.1949
G01 X16.9270 Y29.1830
G01 X16.8847 Y29.0539
G01 X16.8770 Y29.0232
G00 Z2.0000
G00 X16.8744 Y29.0057
G01 F60.00
G01 Z-0.0500
G01 F120.00
G01 X16.8646 Y29.0057
G00 Z2.0000
G00 X16.8547 Y28.9457
G01 F60.00
G01 Z-0.0500
G01 F120.00
G01 X16.8846 Y28.9457
G00 Z2.0000
G00 X16.9042 Y28.8857
G01 F60.00
G01 Z-0.0500
G01 F120.00
G01 X16.8400 Y28.8857
G00 Z2.0000
G00 X16.8205 Y28.8257
G01 F60.00
G01 Z-0.0500
G01 F120.00
G01 X16.9239 Y28.8257
G00 Z2.0000
G00 X16.9575 Y28.7657
G01 F60.00
G01 Z-0.0500
G01 F120.00
G01 X16.9622 Y28.7657
G01 X17.0175 Y28.7057
G01 X17.0222 Y28.7057
G00 Z2.0000
G00 X17.1169 Y28.6457
G01 F60.00
G01 Z-0.0500
G01 F120.00
G01 X17.1244 Y28.6457
G00 Z2.0000
G00 X16.7950 Y28.7657
G01 F60.00
G01 Z-0.0500
G01 F120.00
G01 X16.7896 Y28.7657
G00 Z2.0000
G00 X16.7131 Y28.7057
G01 F60.00
G01 Z-0.0500
G01 F120.00
G01 X16.7056 Y28.7057
G00 Z2.0000
G00 X16.5381 Y28.7057
G01 F60.00
G01 Z-0.0500
G01 F120.00
G01 X16.5306 Y28.7057
G00 Z2.0000
G00 X16.4601 Y28.7657
G01 F60.00
G01 Z-0.0500
G01 F120.00
G01 X16.4552 Y28.7657
G01 X16.4390 Y28.8257
G01 X16.4356 Y28.8257
G00 Z2.0000
G00 X16.4196 Y28.8857
G01 F60.00
G01 Z-0.0500
G01 F120.00
G01 X16.4159 Y28.8857
G00 Z2.0000
G00 X16.4133 Y28.8938
G01 F60.00
G01 Z-0.0500
G01 F120.00
G01 X16.4133 Y29.1025
G01 X16.4633 Y29.2580
G01 X16.4645 Y29.2609
G01 X16.4672 Y29.2624
G01 X16.5695 Y29.3122
G01 X16.6745 Y29.3121
G01 X16.7790 Y29.2611
G01 X16.7894 Y29.2417
G01 X16.7942 Y29.2345
G01 X16.7995 Y29.2276
G01 X16.8091 Y29.2180
G01 X16.8158 Y29.2125
G01 X16.8240 Y29.2070
G01 X16.8316 Y29.2028
G01 X16.8384 Y29.1998
G01 X16.8514 Y29.1957
G01 X16.8599 Y29.1939
G01 X16.8673 Y29.1931
G01 X16.8809 Y29.1929
G01 X16.8895 Y29.1937
G01 X16.8968 Y29.1951
G01 X16.9076 Y29.1980
G01 X16.9179 Y29.2022
G01 X16.9287 Y29.2081
G01 X16.9359 Y29.2131
G01 X16.9453 Y29.2211
G01 X17.0362 Y29.3118
G01 X17.1407 Y29.3654
G01 X17.2991 Y29.3655
G01 X17.4037 Y29.3119
G01 X17.4549 Y29.2608
G01 X17.5060 Y29.1027
G01 X17.5060 Y28.8940
G01 X17.4551 Y28.7385
G01 X17.4037 Y28.6871
G01 X17.2991 Y28.6335
G01 X17.1407 Y28.6336
G01 X17.0362 Y28.6872
G01 X16.9453 Y28.7779
G01 X16.9359 Y28.7860
G01 X16.9287 Y28.7909
G01 X16.9179 Y28.7968
G01 X16.9076 Y28.8010
G01 X16.8968 Y28.8040
G01 X16.8895 Y28.8053
G01 X16.8809 Y28.8061
G01 X16.8673 Y28.8059
G01 X16.8599 Y28.8051
G01 X16.8514 Y28.8034
G01 X16.8385 Y28.7992
G01 X16.8316 Y28.7962
G01 X16.8240 Y28.7921
G01 X16.8129 Y28.7843
G01 X16.8063 Y28.7786
G01 X16.7995 Y28.7714
G01 X16.7942 Y28.7646
G01 X16.7894 Y28.7573
G01 X16.7790 Y28.7379
G01 X16.6745 Y28.6869
G01 X16.5694 Y28.6869
G01 X16.4672 Y28.7366
G01 X16.4644 Y28.7383
G01 X16.4133 Y28.8938
G00 Z2.0000
G00 X16.4165 Y28.9103
G01 F60.00
G01 Z-0.0500
G01 F120.00
G01 X16.4167 Y28.9038
G01 X16.4176 Y28.8959
G01 X16.4203 Y28.8830
G01 X16.4555 Y28.7758
G01 X16.4601 Y28.7656
G01 X16.4659 Y28.7559
G01 X16.4703 Y28.7498
G01 X16.4751 Y28.7441
G01 X16.4832 Y28.7363
G01 X16.4931 Y28.7287
G01 X16.5050 Y28.7218
G01 X16.5525 Y28.6987
G01 X16.5610 Y28.6954
G01 X16.5697 Y28.6928
G01 X16.5808 Y28.6908
G01 X16.5921 Y28.6900
G01 X16.6516 Y28.6900
G01 X16.6652 Y28.6911
G01 X16.6730 Y28.6926
G01 X16.6795 Y28.6944
G01 X16.6902 Y28.6982
G01 X16.7520 Y28.7285
G01 X16.7607 Y28.7340
G01 X16.7662 Y28.7381
G01 X16.7722 Y28.7435
G01 X16.7793 Y28.7510
G01 X16.7856 Y28.7592
G01 X16.7920 Y28.7701
G01 X16.8245 Y28.8334
G01 X16.8273 Y28.8394
G01 X16.8305 Y28.8479
G01 X16.8326 Y28.8553
G01 X16.8620 Y28.9758
G01 X16.8634 Y28.9828
G01 X16.8644 Y28.9900
G01 X16.8649 Y28.9995
G01 X16.8644 Y29.0091
G01 X16.8630 Y29.0185
G01 X16.8309 Y29.1501
G01 X16.8277 Y29.1586
G01 X16.8251 Y29.1643
G01 X16.7915 Y29.2300
G01 X16.7849 Y29.2407
G01 X16.7786 Y29.2489
G01 X16.7731 Y29.2548
G01 X16.7662 Y29.2609
G01 X16.7588 Y29.2664
G01 X16.7520 Y29.2706
G01 X16.6933 Y29.2994
G01 X16.6806 Y29.3043
G01 X16.6730 Y29.3064
G01 X16.6663 Y29.3077
G01 X16.6550 Y29.3089
G01 X16.5921 Y29.3090
G01 X16.5786 Y29.3079
G01 X16.5708 Y29.3064
G01 X16.5642 Y29.3047
G01 X16.5535 Y29.3008
G01 X16.5041 Y29.2768
G01 X16.4922 Y29.2697
G01 X16.4824 Y29.2619
G01 X16.4769 Y29.2567
G01 X16.4704 Y29.2491
G01 X16.4633 Y29.2387
G01 X16.4596 Y29.2321
G01 X16.4561 Y29.2241
G01 X16.4213 Y29.1171
G01 X16.4195 Y29.1108
G01 X16.4175 Y29.1006
G01 X16.4165 Y29.0864
G01 X16.4165 Y28.9103
G01 X16.4165 Y28.9457
G01 X16.4132 Y28.9457
G01 X16.4132 Y29.0057
G01 X16.4165 Y29.0057
G01 X16.4165 Y29.0657
G01 X16.4132 Y29.0657
G01 X16.4206 Y29.1257
G01 X16.4241 Y29.1257
G01 X16.4400 Y29.1857
G01 X16.4434 Y29.1857
G01 X16.4593 Y29.2457
G01 X16.4678 Y29.2457
G00 Z2.0000
G00 X16.5558 Y29.3057
G01 F60.00
G01 Z-0.0500
G01 F120.00
G01 X16.5677 Y29.3057
G00 Z2.0000
G00 X16.6760 Y29.3057
G01 F60.00
G01 Z-0.0500
G01 F120.00
G01 X16.6880 Y29.3057
G00 Z2.0000
G00 X16.5475 Y29.7591
G01 F60.00
G01 Z-0.0500
G01 F120.00
G01 X16.5567 Y29.7591
G01 X16.7054 Y29.8191
G01 X16.7147 Y29.8191
G01 X16.8633 Y29.8791
G01 X16.8726 Y29.8791
G01 X17.0212 Y29.9391
G01 X17.0305 Y29.9391
G01 X17.1791 Y29.9991
G01 X17.1884 Y29.9991
G01 X17.2546 Y30.0277
G01 X17.2591 Y30.0296
G01 X17.2612 Y30.0306
G01 X17.2677 Y30.0338
G01 X17.2759 Y30.0389
G01 X17.2836 Y30.0448
G01 X17.2889 Y30.0497
G01 X17.2978 Y30.0595
G01 X17.3027 Y30.0664
G01 X17.3076 Y30.0747
G01 X17.3117 Y30.0835
G01 X17.3145 Y30.0914
G01 X17.3176 Y30.1043
G01 X17.3186 Y30.1115
G01 X17.3191 Y30.1211
G01 X17.3186 Y30.1308
G01 X17.3174 Y30.1391
G01 X17.3149 Y30.1497
G01 X17.3108 Y30.1610
G01 X17.3077 Y30.1675
G01 X17.3041 Y30.1738
G01 X17.2972 Y30.1837
G01 X17.2891 Y30.1926
G01 X17.2837 Y30.1975
G01 X17.2780 Y30.2020
G01 X17.2689 Y30.2079
G01 X17.2592 Y30.2128
G01 X16.4166 Y30.5351
G01 X16.4135 Y30.5367
G01 X16.4134 Y30.5380
G01 X16.4144 Y30.5389
G01 X16.4177 Y30.5381
G01 X17.5028 Y30.1233
G01 X17.5054 Y30.1222
G01 X17.5061 Y30.1210
G01 X17.5054 Y30.1197
G01 X17.5028 Y30.1185
G01 X16.4177 Y29.7062
G01 X16.4151 Y29.7054
G01 X16.4141 Y29.7056
G01 X16.4134 Y29.7065
G01 X16.4136 Y29.7078
G01 X16.4166 Y29.7093
G01 X17.2546 Y30.0277
G00 Z2.0000
G00 X17.2974 Y30.0591
G01 F60.00
G01 Z-0.0500
G01 F120.00
G01 X17.3463 Y30.0591
G00 Z2.0000
G00 X17.3190 Y30.1191
G01 F60.00
G01 Z-0.0500
G01 F120.00
G01 X17.5040 Y30.1191
G01 X17.3571 Y30.1791
G01 X17.3006 Y30.1791
G00 Z2.0000
G00 X17.2001 Y30.2391
G01 F60.00
G01 Z-0.0500
G01 F120.00
G01 X17.1909 Y30.2391
G01 X17.0432 Y30.2991
G01 X17.0339 Y30.2991
G01 X16.8862 Y30.3591
G01 X16.8770 Y30.3591
G01 X16.7293 Y30.4191
G01 X16.7200 Y30.4191
G01 X16.5723 Y30.4791
G01 X16.5631 Y30.4791
G00 Z2.0000
G00 X16.6282 Y31.3494
G01 F60.00
G01 Z-0.0500
G01 F120.00
G01 X16.6282 Y31.3461
G01 X16.6882 Y31.3461
G01 X16.6882 Y31.3494
G01 X16.7482 Y31.3494
G01 X16.7482 Y31.3461
G01 X16.8082 Y31.3461
G01 X16.8082 Y31.3494
G01 X16.8682 Y31.3494
G01 X16.8682 Y31.3461
G01 X16.9282 Y31.3461
G01 X16.9282 Y31.3494
G00 Z2.0000
G00 X16.9882 Y31.3644
G01 F60.00
G01 Z-0.0500
G01 F120.00
G01 X16.9882 Y31.3311
G00 Z2.0000
G00 X17.0482 Y31.2884
G01 F60.00
G01 Z-0.0500
G01 F120.00
G01 X17.0482 Y31.4071
G00 Z2.0000
G00 X17.1082 Y31.3542
G01 F60.00
G01 Z-0.0500
G01 F120.00
G01 X17.1082 Y31.3412
G00 Z2.0000
G00 X17.1682 Y31.3461
G01 F60.00
G01 Z-0.0500
G01 F120.00
G01 X17.1682 Y31.3494
G01 X17.2282 Y31.3494
G01 X17.2282 Y31.3461
G01 X17.2882 Y31.3461
G01 X17.2882 Y31.3494
G01 X17.3482 Y31.3494
G01 X17.3482 Y31.3461
G01 X17.4082 Y31.3461
G01 X17.4082 Y31.3494
G01 X17.4682 Y31.3494
G01 X17.4682 Y31.3461
G00 Z2.0000
G00 X17.0355 Y31.2461
G01 F60.00
G01 Z-0.0500
G01 F120.00
G01 X17.0353 Y31.2522
G01 X17.0342 Y31.2620
G01 X17.0325 Y31.2704
G01 X17.0300 Y31.2786
G01 X17.0248 Y31.2910
G01 X17.0206 Y31.2985
G01 X17.0151 Y31.3066
G01 X17.0096 Y31.3132
G01 X17.0026 Y31.3202
G01 X16.9951 Y31.3264
G01 X16.9879 Y31.3312
G01 X16.9793 Y31.3359
G01 X16.9715 Y31.3394
G01 X16.9586 Y31.3434
G01 X16.9489 Y31.3452
G01 X16.9355 Y31.3461
G01 X16.5722 Y31.3461
G01 X16.5692 Y31.3463
G01 X16.5685 Y31.3469
G01 X16.5683 Y31.3477
G01 X16.5685 Y31.3486
G01 X16.5692 Y31.3492
G01 X16.5722 Y31.3494
G01 X16.9416 Y31.3496
G01 X16.9502 Y31.3505
G01 X16.9598 Y31.3524
G01 X16.9692 Y31.3552
G01 X16.9782 Y31.3590
G01 X16.9869 Y31.3636
G01 X16.9951 Y31.3691
G01 X17.0026 Y31.3753
G01 X17.0079 Y31.3805
G01 X17.0172 Y31.3918
G01 X17.0219 Y31.3990
G01 X17.0264 Y31.4078
G01 X17.0296 Y31.4157
G01 X17.0325 Y31.4251
G01 X17.0344 Y31.4347
G01 X17.0353 Y31.4433
G01 X17.0355 Y31.8127
G01 X17.0357 Y31.8157
G01 X17.0363 Y31.8164
G01 X17.0371 Y31.8166
G01 X17.0380 Y31.8164
G01 X17.0386 Y31.8157
G01 X17.0388 Y31.8127
G01 X17.0390 Y31.4433
G01 X17.0399 Y31.4347
G01 X17.0418 Y31.4251
G01 X17.0446 Y31.4157
G01 X17.0479 Y31.4078
G01 X17.0524 Y31.3990
G01 X17.0571 Y31.3918
G01 X17.0664 Y31.3805
G01 X17.0716 Y31.3753
G01 X17.0792 Y31.3691
G01 X17.0874 Y31.3636
G01 X17.0960 Y31.3590
G01 X17.1051 Y31.3552
G01 X17.1145 Y31.3524
G01 X17.1241 Y31.3505
G01 X17.1327 Y31.3496
G01 X17.5020 Y31.3494
G01 X17.5051 Y31.3492
G01 X17.5058 Y31.3486
G01 X17.5060 Y31.3477
G01 X17.5058 Y31.3469
G01 X17.5051 Y31.3463
G01 X17.5020 Y31.3461
G01 X17.1327 Y31.3459
G01 X17.1241 Y31.3450
G01 X17.1145 Y31.3431
G01 X17.1051 Y31.3402
G01 X17.0960 Y31.3365
G01 X17.0874 Y31.3319
G01 X17.0792 Y31.3264
G01 X17.0716 Y31.3202
G01 X17.0664 Y31.3150
G01 X17.0571 Y31.3037
G01 X17.0524 Y31.2964
G01 X17.0479 Y31.2877
G01 X17.0446 Y31.2798
G01 X17.0418 Y31.2704
G01 X17.0399 Y31.2608
G01 X17.0390 Y31.2522
G01 X17.0388 Y30.8828
G01 X17.0386 Y30.8798
G01 X17.0380 Y30.8791
G01 X17.0371 Y30.8788
G01 X17.0363 Y30.8791
G01 X17.0357 Y30.8798
G01 X17.0355 Y30.8828
G01 X17.0355 Y31.2461
G00 Z2.0000
G00 X20.8068 Y31.8582
G01 F60.00
G01 Z-0.0500
G01 F120.00
G01 X20.8068 Y31.7847
G01 X20.8868 Y31.7248
G01 X20.8868 Y31.6789
G00 Z2.0000
G00 X20.9668 Y31.6479
G01 F60.00
G01 Z-0.0500
G01 F120.00
G01 X20.9668 Y31.6117
G00 Z2.0000
G00 X21.0468 Y31.6088
G01 F60.00
G01 Z-0.0500
G01 F120.00
G01 X21.0468 Y31.5727
G01 X21.1268 Y31.5703
G01 X21.1268 Y31.6027
G01 X21.2068 Y31.6027
G01 X21.2068 Y31.5703
G01 X21.2868 Y31.5799
G01 X21.2868 Y31.6162
G01 X21.3668 Y31.6199
G01 X21.3668 Y31.6617
G01 X21.4468 Y31.6958
G01 X21.4468 Y31.7417
G01 X21.5268 Y31.8177
G01 X21.5268 Y31.8612
G00 Z2.0000
G00 X21.5268 Y32.4014
G01 F60.00
G01 Z-0.0500
G01 F120.00
G01 X21.5268 Y32.4449
G01 X21.4605 Y32.5031
G01 X21.4556 Y32.5111
G01 X21.4504 Y32.5173
G01 X21.3616 Y32.6061
G01 X21.3552 Y32.6114
G01 X21.3482 Y32.6158
G01 X21.2725 Y32.6536
G01 X21.2637 Y32.6571
G01 X21.2552 Y32.6592
G01 X21.2457 Y32.6599
G01 X21.0719 Y32.6599
G01 X21.0618 Y32.6588
G01 X21.0522 Y32.6562
G01 X21.0467 Y32.6538
G01 X20.9699 Y32.6164
G01 X20.9646 Y32.6134
G01 X20.9600 Y32.6103
G01 X20.9538 Y32.6049
G01 X20.8671 Y32.5182
G01 X20.8618 Y32.5122
G01 X20.8561 Y32.5031
G01 X20.8089 Y32.4104
G01 X20.7621 Y32.2660
G01 X20.7604 Y32.2595
G01 X20.7595 Y32.2533
G01 X20.7592 Y32.2476
G01 X20.7592 Y32.0127
G01 X20.7596 Y32.0059
G01 X20.7607 Y31.9996
G01 X20.7622 Y31.9940
G01 X20.8083 Y31.8536
G01 X20.8110 Y31.8477
G01 X20.8570 Y31.7579
G01 X20.8610 Y31.7516
G01 X20.8662 Y31.7454
G01 X20.9538 Y31.6578
G01 X20.9609 Y31.6517
G01 X20.9699 Y31.6463
G01 X21.0482 Y31.6081
G01 X21.0554 Y31.6054
G01 X21.0638 Y31.6035
G01 X21.0730 Y31.6027
G01 X21.2469 Y31.6028
G01 X21.2552 Y31.6035
G01 X21.2648 Y31.6059
G01 X21.2725 Y31.6091
G01 X21.3482 Y31.6469
G01 X21.3541 Y31.6505
G01 X21.3602 Y31.6553
G01 X21.4495 Y31.7444
G01 X21.4548 Y31.7505
G01 X21.4599 Y31.7584
G01 X21.5077 Y31.8517
G01 X21.5112 Y31.8568
G01 X21.5136 Y31.8589
G01 X21.5178 Y31.8610
G01 X21.5225 Y31.8617
G01 X21.5272 Y31.8611
G01 X21.5315 Y31.8592
G01 X21.5351 Y31.8561
G01 X21.5376 Y31.8520
G01 X21.5388 Y31.8474
G01 X21.5387 Y31.8427
G01 X21.5366 Y31.8369
G01 X21.4846 Y31.7354
G01 X21.4820 Y31.7313
G01 X21.4798 Y31.7289
G01 X21.3754 Y31.6247
G01 X21.3711 Y31.6221
G01 X21.2696 Y31.5714
G01 X21.2667 Y31.5706
G01 X21.2623 Y31.5703
G01 X21.0568 Y31.5703
G01 X21.0525 Y31.5706
G01 X21.0471 Y31.5725
G01 X20.9457 Y31.6220
G01 X20.9412 Y31.6247
G01 X20.8368 Y31.7289
G01 X20.8336 Y31.7326
G01 X20.8320 Y31.7354
G01 X20.7789 Y31.8393
G01 X20.7281 Y31.9940
G01 X20.7269 Y31.9988
G01 X20.7268 Y32.2580
G01 X20.7272 Y32.2629
G01 X20.7788 Y32.4233
G01 X20.8336 Y32.5300
G01 X20.8368 Y32.5338
G01 X20.9412 Y32.6380
G01 X20.9457 Y32.6407
G01 X21.0497 Y32.6913
G01 X21.0525 Y32.6921
G01 X21.0568 Y32.6924
G01 X21.2623 Y32.6924
G01 X21.2682 Y32.6917
G01 X21.2722 Y32.6901
G01 X21.3711 Y32.6406
G01 X21.3754 Y32.6379
G01 X21.4798 Y32.5338
G01 X21.4830 Y32.5300
G01 X21.4846 Y32.5272
G01 X21.5366 Y32.4258
G01 X21.5378 Y32.4230
G01 X21.5389 Y32.4184
G01 X21.5386 Y32.4136
G01 X21.5369 Y32.4092
G01 X21.5351 Y32.4066
G01 X21.5328 Y32.4044
G01 X21.5302 Y32.4027
G01 X21.5272 Y32.4015
G01 X21.5257 Y32.4012
G01 X21.5241 Y32.4010
G01 X21.5209 Y32.4010
G01 X21.5178 Y32.4017
G01 X21.5149 Y32.4030
G01 X21.5123 Y32.4048
G01 X21.5101 Y32.4070
G01 X21.5077 Y32.4110
G01 X21.4605 Y32.5031
G00 Z2.0000
G00 X21.4468 Y32.5209
G01 F60.00
G01 Z-0.0500
G01 F120.00
G01 X21.4468 Y32.5669
G01 X21.3668 Y32.6009
G01 X21.3668 Y32.6428
G01 X21.2868 Y32.6465
G01 X21.2868 Y32.6828
G01 X21.2068 Y32.6924
G01 X21.2068 Y32.6599
G01 X21.1268 Y32.6599
G01 X21.1268 Y32.6924
G01 X21.0468 Y32.6900
G01 X21.0468 Y32.6539
G00 Z2.0000
G00 X20.9668 Y32.6510
G01 F60.00
G01 Z-0.0500
G01 F120.00
G01 X20.9668 Y32.6147
G00 Z2.0000
G00 X20.8868 Y32.5838
G01 F60.00
G01 Z-0.0500
G01 F120.00
G01 X20.8868 Y32.5379
G01 X20.8068 Y32.4780
G01 X20.8068 Y32.4044
G00 Z2.0000
G00 X21.9295 Y32.5188
G01 F60.00
G01 Z-0.0500
G01 F120.00
G01 X21.9295 Y32.4823
G01 X21.9517 Y32.5302
G01 X21.9597 Y32.5351
G01 X21.9659 Y32.5403
G01 X22.1122 Y32.6866
G01 X22.1145 Y32.6887
G01 X22.1171 Y32.6904
G01 X22.1201 Y32.6916
G01 X22.1232 Y32.6922
G01 X22.1264 Y32.6922
G01 X22.1295 Y32.6916
G01 X22.1324 Y32.6904
G01 X22.1350 Y32.6887
G01 X22.1373 Y32.6864
G01 X22.1390 Y32.6838
G01 X22.1402 Y32.6809
G01 X22.1410 Y32.6747
G01 X22.1410 Y31.5880
G01 X22.1402 Y31.5818
G01 X22.1390 Y31.5789
G01 X22.1373 Y31.5762
G01 X22.1350 Y31.5740
G01 X22.1324 Y31.5722
G01 X22.1279 Y31.5706
G01 X22.1232 Y31.5704
G01 X22.1201 Y31.5710
G01 X22.1171 Y31.5722
G01 X22.1145 Y31.5740
G01 X22.1113 Y31.5775
G01 X22.1098 Y31.5803
G01 X22.1089 Y31.5833
G01 X22.1085 Y31.5880
G01 X22.1085 Y32.4921
G01 X22.1079 Y32.5009
G01 X22.1058 Y32.5100
G01 X22.1017 Y32.5200
G01 X22.0960 Y32.5288
G01 X22.0888 Y32.5366
G01 X22.0843 Y32.5403
G01 X22.0794 Y32.5436
G01 X22.0699 Y32.5482
G01 X22.0598 Y32.5510
G01 X22.0490 Y32.5521
G01 X22.0385 Y32.5513
G01 X22.0316 Y32.5497
G01 X22.0251 Y32.5473
G01 X22.0187 Y32.5442
G01 X22.0128 Y32.5403
G01 X22.0070 Y32.5354
G01 X21.9824 Y32.5108
G01 X21.9786 Y32.5077
G01 X21.9758 Y32.5061
G01 X21.8744 Y32.4541
G01 X21.8716 Y32.4528
G01 X21.8686 Y32.4520
G01 X21.8654 Y32.4517
G01 X21.8623 Y32.4521
G01 X21.8578 Y32.4538
G01 X21.8552 Y32.4556
G01 X21.8521 Y32.4591
G01 X21.8506 Y32.4620
G01 X21.8496 Y32.4666
G01 X21.8499 Y32.4713
G01 X21.8516 Y32.4757
G01 X21.8545 Y32.4795
G01 X21.8569 Y32.4815
G01 X21.8596 Y32.4830
G01 X21.9517 Y32.5302
G01 X22.0095 Y32.5376
G01 X22.0095 Y32.5838
G00 Z2.0000
G00 X22.0716 Y32.5894
G01 F60.00
G01 Z-0.0500
G01 F120.00
G01 X22.1010 Y32.6188
G01 X22.1010 Y32.5772
G01 X22.0924 Y32.5820
G01 X22.0845 Y32.5854
G01 X22.0716 Y32.5894
G00 Z2.0000
G00 X22.0895 Y32.5360
G01 F60.00
G01 Z-0.0500
G01 F120.00
G01 X22.0895 Y32.6638
G00 Z2.0000
G00 X22.5048 Y32.4665
G01 F60.00
G01 Z-0.0500
G01 F120.00
G01 X22.5048 Y32.4186
G01 X22.5055 Y32.4124
G01 X22.5067 Y32.4095
G01 X22.5085 Y32.4068
G01 X22.5107 Y32.4046
G01 X22.5134 Y32.4028
G01 X22.5163 Y32.4016
G01 X22.5194 Y32.4010
G01 X22.5226 Y32.4010
G01 X22.5257 Y32.4016
G01 X22.5300 Y32.4036
G01 X22.5313 Y32.4046
G01 X22.5324 Y32.4056
G01 X22.5335 Y32.4068
G01 X22.5353 Y32.4095
G01 X22.5369 Y32.4139
G01 X22.5372 Y32.4186
G01 X22.5374 Y32.4541
G01 X22.5385 Y32.4627
G01 X22.5410 Y32.4712
G01 X22.5433 Y32.4766
G01 X22.5812 Y32.5543
G01 X22.5839 Y32.5592
G01 X22.5874 Y32.5643
G01 X22.5917 Y32.5694
G01 X22.6257 Y32.6050
G01 X22.6299 Y32.6089
G01 X22.6342 Y32.6122
G01 X22.6420 Y32.6168
G01 X22.7195 Y32.6545
G01 X22.7256 Y32.6569
G01 X22.7308 Y32.6584
G01 X22.7362 Y32.6594
G01 X22.7428 Y32.6599
G01 X22.9174 Y32.6599
G01 X22.9256 Y32.6594
G01 X22.9340 Y32.6576
G01 X22.9423 Y32.6545
G01 X23.0206 Y32.6164
G01 X23.0268 Y32.6128
G01 X23.0322 Y32.6089
G01 X23.0367 Y32.6049
G01 X23.0720 Y32.5696
G01 X23.0781 Y32.5624
G01 X23.0835 Y32.5534
G01 X23.1210 Y32.4766
G01 X23.1237 Y32.4701
G01 X23.1253 Y32.4649
G01 X23.1265 Y32.4584
G01 X23.1270 Y32.4514
G01 X23.1270 Y32.3786
G01 X23.1255 Y32.3678
G01 X23.1221 Y32.3575
G01 X23.0786 Y32.2683
G01 X22.9791 Y32.1199
G01 X22.9752 Y32.1149
G01 X22.9716 Y32.1109
G01 X22.4573 Y31.5991
G01 X22.4534 Y31.5942
G01 X22.4522 Y31.5912
G01 X22.4516 Y31.5881
G01 X22.4516 Y31.5849
G01 X22.4522 Y31.5818
G01 X22.4534 Y31.5789
G01 X22.4552 Y31.5763
G01 X22.4587 Y31.5731
G01 X22.4615 Y31.5716
G01 X22.4645 Y31.5706
G01 X22.4691 Y31.5703
G01 X23.1926 Y31.5703
G01 X23.1973 Y31.5706
G01 X23.2003 Y31.5716
G01 X23.2044 Y31.5740
G01 X23.2066 Y31.5762
G01 X23.2084 Y31.5789
G01 X23.2096 Y31.5818
G01 X23.2102 Y31.5849
G01 X23.2100 Y31.5897
G01 X23.2090 Y31.5927
G01 X23.2076 Y31.5955
G01 X23.2044 Y31.5990
G01 X23.2003 Y31.6014
G01 X23.1957 Y31.6026
G01 X22.6524 Y31.6027
G01 X22.6448 Y31.6032
G01 X22.6354 Y31.6052
G01 X22.6267 Y31.6085
G01 X22.6186 Y31.6132
G01 X22.6120 Y31.6183
G01 X22.6056 Y31.6251
G01 X22.6009 Y31.6319
G01 X22.5967 Y31.6403
G01 X22.5941 Y31.6482
G01 X22.5928 Y31.6552
G01 X22.5924 Y31.6633
G01 X22.5929 Y31.6704
G01 X22.5942 Y31.6774
G01 X22.5963 Y31.6842
G01 X22.5993 Y31.6907
G01 X22.6035 Y31.6976
G01 X22.6080 Y31.7031
G01 X22.9988 Y32.0921
G01 X23.0027 Y32.0968
G01 X23.1048 Y32.2488
G01 X23.1080 Y32.2543
G01 X23.1584 Y32.3580
G01 X23.1592 Y32.3608
G01 X23.1595 Y32.3651
G01 X23.1594 Y32.4693
G01 X23.1589 Y32.4722
G01 X23.1573 Y32.4762
G01 X23.1061 Y32.5807
G01 X23.1028 Y32.5847
G01 X23.0518 Y32.6357
G01 X23.0492 Y32.6380
G01 X23.0448 Y32.6407
G01 X22.9434 Y32.6902
G01 X22.9394 Y32.6917
G01 X22.9337 Y32.6924
G01 X22.7281 Y32.6924
G01 X22.7238 Y32.6921
G01 X22.7184 Y32.6902
G01 X22.6167 Y32.6405
G01 X22.6131 Y32.6384
G01 X22.6119 Y32.6375
G01 X22.6099 Y32.6356
G01 X22.5611 Y32.5843
G01 X22.5581 Y32.5806
G01 X22.5565 Y32.5778
G01 X22.5070 Y32.4762
G01 X22.5059 Y32.4736
G01 X22.5051 Y32.4708
G01 X22.5048 Y32.4665
G01 X22.5314 Y32.4047
G01 X22.5314 Y32.5263
G01 X22.6114 Y32.5901
G01 X22.6114 Y32.6370
G01 X22.6914 Y32.6409
G01 X22.6914 Y32.6770
G01 X22.7714 Y32.6924
G01 X22.7714 Y32.6599
G01 X22.8514 Y32.6599
G01 X22.8514 Y32.6924
G01 X22.9314 Y32.6924
G01 X22.9314 Y32.6583
G00 Z2.0000
G00 X23.0114 Y32.6570
G01 F60.00
G01 Z-0.0500
G01 F120.00
G01 X23.0114 Y32.6208
G01 X23.0914 Y32.5961
G01 X23.0914 Y32.5372
G00 Z2.0000
G00 X23.0914 Y32.2945
G01 F60.00
G01 Z-0.0500
G01 F120.00
G01 X23.0914 Y32.2289
G01 X23.0114 Y32.1681
G01 X23.0114 Y32.1099
G01 X22.9314 Y32.0709
G01 X22.9314 Y32.0251
G01 X22.8514 Y31.9913
G01 X22.8514 Y31.9455
G00 Z2.0000
G00 X22.7714 Y31.9117
G01 F60.00
G01 Z-0.0500
G01 F120.00
G01 X22.7714 Y31.8659
G01 X22.6914 Y31.8321
G01 X22.6914 Y31.7863
G01 X22.6114 Y31.7525
G01 X22.6114 Y31.7067
G00 Z2.0000
G00 X22.5314 Y31.6729
G01 F60.00
G01 Z-0.0500
G01 F120.00
G01 X22.5314 Y31.5703
G01 X22.6114 Y31.5703
G01 X22.6114 Y31.6189
G00 Z2.0000
G00 X22.5515 Y31.6364
G01 F60.00
G01 Z-0.0500
G01 F120.00
G01 X22.5515 Y31.6103
G01 X22.5252 Y31.6103
G01 X22.5672 Y31.6103
G01 X22.5624 Y31.6190
G01 X22.5590 Y31.6269
G01 X22.5550 Y31.6399
G01 X22.5252 Y31.6103
G00 Z2.0000
G00 X22.6914 Y31.6027
G01 F60.00
G01 Z-0.0500
G01 F120.00
G01 X22.6914 Y31.5703
G01 X22.7714 Y31.5703
G01 X22.7714 Y31.6027
G01 X22.8514 Y31.6027
G01 X22.8514 Y31.5703
G01 X22.9314 Y31.5703
G01 X22.9314 Y31.6027
G01 X23.0114 Y31.6027
G01 X23.0114 Y31.5703
G01 X23.0914 Y31.5703
G01 X23.0914 Y31.6027
G01 X23.1714 Y31.6027
G01 X23.1714 Y31.5703
G00 Z2.0000
G00 X29.2681 Y30.2529
G01 F60.00
G01 Z-0.0500
G01 F120.00
G01 X29.2678 Y30.2497
G01 X29.2669 Y30.2467
G01 X29.2654 Y30.2439
G01 X29.2634 Y30.2415
G01 X29.2610 Y30.2395
G01 X29.2582 Y30.2380
G01 X29.2551 Y30.2371
G01 X29.2520 Y30.2368
G01 X29.2489 Y30.2371
G01 X29.2458 Y30.2380
G01 X29.2430 Y30.2395
G01 X29.2406 Y30.2415
G01 X29.2386 Y30.2439
G01 X29.2371 Y30.2467
G01 X29.2362 Y30.2497
G01 X29.2359 Y30.2529
G01 X29.2362 Y30.2560
G01 X29.2371 Y30.2591
G01 X29.2386 Y30.2618
G01 X29.2406 Y30.2643
G01 X29.2430 Y30.2663
G01 X29.2458 Y30.2678
G01 X29.2489 Y30.2687
G01 X29.2520 Y30.2690
G01 X29.2551 Y30.2687
G01 X29.2582 Y30.2678
G01 X29.2610 Y30.2663
G01 X29.2634 Y30.2643
G01 X29.2654 Y30.2618
G01 X29.2669 Y30.2591
G01 X29.2678 Y30.2560
G01 X29.2681 Y30.2529
G00 Z2.0000
G00 X29.4898 Y30.2617
G01 F60.00
G01 Z-0.0500
G01 F120.00
G01 X29.4898 Y29.1750
G01 X29.4898 Y30.2617
G01 X29.4901 Y30.2663
G01 X29.4911 Y30.2693
G01 X29.4926 Y30.2721
G01 X29.4946 Y30.2746
G01 X29.4970 Y30.2766
G01 X29.4998 Y30.2781
G01 X29.5028 Y30.2790
G01 X29.5060 Y30.2793
G01 X29.5092 Y30.2790
G01 X29.5122 Y30.2781
G01 X29.5150 Y30.2766
G01 X29.5174 Y30.2746
G01 X29.5194 Y30.2721
G01 X29.5209 Y30.2693
G01 X29.5219 Y30.2663
G01 X29.5222 Y30.2617
G01 X29.5222 Y29.2497
G01 X29.5227 Y29.2422
G01 X29.5243 Y29.2340
G01 X29.5266 Y29.2272
G01 X29.5302 Y29.2200
G01 X29.5340 Y29.2140
G01 X29.5386 Y29.2085
G01 X29.5438 Y29.2037
G01 X29.5503 Y29.1989
G01 X29.5566 Y29.1955
G01 X29.5632 Y29.1928
G01 X29.5701 Y29.1910
G01 X29.5781 Y29.1899
G01 X30.1268 Y29.1897
G01 X30.1299 Y29.1896
G01 X30.1315 Y29.1894
G01 X30.1345 Y29.1884
G01 X30.1373 Y29.1869
G01 X30.1397 Y29.1849
G01 X30.1417 Y29.1825
G01 X30.1432 Y29.1797
G01 X30.1442 Y29.1767
G01 X30.1445 Y29.1735
G01 X30.1442 Y29.1703
G01 X30.1432 Y29.1673
G01 X30.1417 Y29.1645
G01 X30.1397 Y29.1621
G01 X30.1373 Y29.1601
G01 X30.1345 Y29.1586
G01 X30.1315 Y29.1576
G01 X30.1299 Y29.1574
G01 X30.1268 Y29.1573
G01 X29.5075 Y29.1573
G01 X29.5028 Y29.1576
G01 X29.4984 Y29.1592
G01 X29.4946 Y29.1621
G01 X29.4917 Y29.1659
G01 X29.4901 Y29.1703
G01 X29.4898 Y29.1750
G01 X29.5698 Y29.1911
G01 X29.5698 Y29.1573
G01 X29.6498 Y29.1573
G01 X29.6498 Y29.1897
G01 X29.7298 Y29.1897
G01 X29.7298 Y29.1573
G01 X29.8098 Y29.1573
G01 X29.8098 Y29.1897
G01 X29.8898 Y29.1897
G01 X29.8898 Y29.1573
G01 X29.9698 Y29.1573
G01 X29.9698 Y29.1897
G01 X30.0498 Y29.1897
G01 X30.0498 Y29.1573
G01 X30.1298 Y29.1574
G01 X30.1298 Y29.1896
G00 Z2.0000
G00 X30.5350 Y30.1058
G01 F60.00
G01 Z-0.0500
G01 F120.00
G01 X30.5350 Y30.0693
G01 X30.5576 Y30.1173
G01 X30.5653 Y30.1221
G01 X30.5714 Y30.1271
G01 X30.7227 Y30.2757
G01 X30.7253 Y30.2775
G01 X30.7282 Y30.2787
G01 X30.7313 Y30.2793
G01 X30.7345 Y30.2792
G01 X30.7376 Y30.2786
G01 X30.7405 Y30.2774
G01 X30.7431 Y30.2756
G01 X30.7453 Y30.2734
G01 X30.7471 Y30.2708
G01 X30.7483 Y30.2678
G01 X30.7491 Y30.2617
G01 X30.7491 Y29.1750
G01 X30.7483 Y29.1688
G01 X30.7471 Y29.1659
G01 X30.7453 Y29.1632
G01 X30.7418 Y29.1601
G01 X30.7390 Y29.1586
G01 X30.7360 Y29.1576
G01 X30.7328 Y29.1573
G01 X30.7297 Y29.1576
G01 X30.7266 Y29.1586
G01 X30.7226 Y29.1610
G01 X30.7194 Y29.1645
G01 X30.7179 Y29.1673
G01 X30.7170 Y29.1703
G01 X30.7166 Y29.1750
G01 X30.7166 Y30.0812
G01 X30.7163 Y30.0866
G01 X30.7155 Y30.0924
G01 X30.7141 Y30.0981
G01 X30.7122 Y30.1036
G01 X30.7098 Y30.1089
G01 X30.7068 Y30.1140
G01 X30.7034 Y30.1188
G01 X30.6995 Y30.1231
G01 X30.6952 Y30.1271
G01 X30.6905 Y30.1307
G01 X30.6855 Y30.1338
G01 X30.6802 Y30.1363
G01 X30.6747 Y30.1384
G01 X30.6690 Y30.1399
G01 X30.6633 Y30.1408
G01 X30.6574 Y30.1412
G01 X30.6515 Y30.1410
G01 X30.6457 Y30.1402
G01 X30.6391 Y30.1386
G01 X30.6324 Y30.1361
G01 X30.6261 Y30.1329
G01 X30.6212 Y30.1297
G01 X30.6154 Y30.1248
G01 X30.5878 Y30.0977
G01 X30.5841 Y30.0947
G01 X30.5814 Y30.0931
G01 X30.4799 Y30.0411
G01 X30.4741 Y30.0390
G01 X30.4709 Y30.0387
G01 X30.4678 Y30.0391
G01 X30.4648 Y30.0401
G01 X30.4620 Y30.0416
G01 X30.4585 Y30.0448
G01 X30.4568 Y30.0475
G01 X30.4557 Y30.0505
G01 X30.4551 Y30.0536
G01 X30.4552 Y30.0567
G01 X30.4558 Y30.0598
G01 X30.4571 Y30.0627
G01 X30.4589 Y30.0654
G01 X30.4612 Y30.0676
G01 X30.4651 Y30.0700
G01 X30.5576 Y30.1173
G00 Z2.0000
G00 X30.6150 Y30.1244
G01 F60.00
G01 Z-0.0500
G01 F120.00
G01 X30.6150 Y30.1700
G00 Z2.0000
G00 X30.6804 Y30.1783
G01 F60.00
G01 Z-0.0500
G01 F120.00
G01 X30.7091 Y30.2064
G01 X30.7091 Y30.1663
G01 X30.7008 Y30.1709
G01 X30.6929 Y30.1743
G01 X30.6804 Y30.1783
G00 Z2.0000
G00 X30.6950 Y30.1273
G01 F60.00
G01 Z-0.0500
G01 F120.00
G01 X30.6950 Y30.2487
G00 Z2.0000
G00 X28.6709 Y26.3055
G01 F60.00
G01 Z-0.0500
G01 F120.00
G01 X28.6712 Y26.3106
G01 X28.6722 Y26.3158
G01 X28.6742 Y26.3207
G01 X28.6772 Y26.3251
G01 X28.6809 Y26.3288
G01 X28.6853 Y26.3318
G01 X28.6902 Y26.3338
G01 X28.6954 Y26.3348
G01 X28.7007 Y26.3348
G01 X28.7058 Y26.3338
G01 X28.7107 Y26.3318
G01 X28.7151 Y26.3288
G01 X28.7188 Y26.3251
G01 X28.7204 Y26.3230
G01 X28.7229 Y26.3183
G01 X28.7244 Y26.3133
G01 X28.7251 Y26.3055
G01 X28.7253 Y25.9340
G01 X28.7262 Y25.9255
G01 X28.7281 Y25.9158
G01 X28.7309 Y25.9064
G01 X28.7347 Y25.8974
G01 X28.7393 Y25.8887
G01 X28.7448 Y25.8806
G01 X28.7510 Y25.8730
G01 X28.7579 Y25.8660
G01 X28.7655 Y25.8598
G01 X28.7737 Y25.8544
G01 X28.7823 Y25.8497
G01 X28.7891 Y25.8469
G01 X28.8020 Y25.8428
G01 X28.8104 Y25.8412
G01 X28.8202 Y25.8402
G01 X29.2006 Y25.8399
G01 X29.2033 Y25.8395
G01 X29.2083 Y25.8380
G01 X29.2130 Y25.8355
G01 X29.2171 Y25.8321
G01 X29.2204 Y25.8280
G01 X29.2229 Y25.8234
G01 X29.2244 Y25.8183
G01 X29.2249 Y25.8131
G01 X29.2248 Y25.8104
G01 X29.2238 Y25.8052
G01 X29.2218 Y25.8004
G01 X29.2188 Y25.7960
G01 X29.2151 Y25.7922
G01 X29.2107 Y25.7893
G01 X29.2058 Y25.7873
G01 X29.2006 Y25.7862
G01 X28.8189 Y25.7858
G01 X28.8104 Y25.7849
G01 X28.8008 Y25.7830
G01 X28.7914 Y25.7802
G01 X28.7823 Y25.7764
G01 X28.7737 Y25.7718
G01 X28.7655 Y25.7663
G01 X28.7579 Y25.7601
G01 X28.7527 Y25.7549
G01 X28.7433 Y25.7436
G01 X28.7387 Y25.7363
G01 X28.7342 Y25.7276
G01 X28.7309 Y25.7197
G01 X28.7281 Y25.7103
G01 X28.7262 Y25.7007
G01 X28.7253 Y25.6921
G01 X28.7248 Y25.3054
G01 X28.7244 Y25.3028
G01 X28.7229 Y25.2977
G01 X28.7204 Y25.2930
G01 X28.7171 Y25.2890
G01 X28.7130 Y25.2856
G01 X28.7083 Y25.2831
G01 X28.7033 Y25.2816
G01 X28.6980 Y25.2811
G01 X28.6928 Y25.2816
G01 X28.6877 Y25.2831
G01 X28.6830 Y25.2856
G01 X28.6790 Y25.2890
G01 X28.6756 Y25.2930
G01 X28.6731 Y25.2977
G01 X28.6716 Y25.3028
G01 X28.6709 Y25.3105
G01 X28.6709 Y26.3055
G00 Z2.0000
G00 X28.7309 Y25.9064
G01 F60.00
G01 Z-0.0500
G01 F120.00
G01 X28.7309 Y25.7198
G00 Z2.0000
G00 X28.7909 Y25.7800
G01 F60.00
G01 Z-0.0500
G01 F120.00
G01 X28.7909 Y25.8461
G00 Z2.0000
G00 X28.8509 Y25.8401
G01 F60.00
G01 Z-0.0500
G01 F120.00
G01 X28.8509 Y25.7860
G01 X28.9109 Y25.7860
G01 X28.9109 Y25.8401
G01 X28.9709 Y25.8401
G01 X28.9709 Y25.7860
G01 X29.0309 Y25.7860
G01 X29.0309 Y25.8401
G01 X29.0909 Y25.8401
G01 X29.0909 Y25.7860
G01 X29.1509 Y25.7860
G01 X29.1509 Y25.8401
G01 X29.2109 Y25.8367
G01 X29.2109 Y25.7894
G00 Z2.0000
G00 X36.5548 Y29.7274
G01 F60.00
G01 Z-0.0500
G01 F120.00
G01 X36.5548 Y29.7626
G00 Z2.0000
G00 X36.6348 Y29.7288
G01 F60.00
G01 Z-0.0500
G01 F120.00
G01 X36.6348 Y29.7612
G01 X36.7148 Y29.7612
G01 X36.7148 Y29.7288
G01 X36.7948 Y29.7288
G01 X36.7948 Y29.7612
G01 X36.8748 Y29.7612
G01 X36.8748 Y29.6824
G01 X36.9548 Y29.7240
G01 X36.9548 Y29.7619
G00 Z2.0000
G00 X36.8975 Y29.7212
G01 F60.00
G01 Z-0.0500
G01 F120.00
G01 X36.9006 Y29.7212
G01 X36.8992 Y29.7185
G01 X36.8975 Y29.7212
G00 Z2.0000
G00 X36.9548 Y29.6171
G01 F60.00
G01 Z-0.0500
G01 F120.00
G01 X36.9548 Y29.5565
G01 X37.0348 Y29.4912
G01 X37.0348 Y29.4307
G01 X37.1148 Y29.3653
G01 X37.1148 Y29.3048
G01 X37.1948 Y29.2395
G01 X37.1948 Y29.1789
G00 Z2.0000
G00 X37.0348 Y29.7530
G01 F60.00
G01 Z-0.0500
G01 F120.00
G01 X37.0348 Y29.7871
G01 X37.1148 Y29.7792
G01 X37.1148 Y29.8196
G01 X37.1948 Y29.8672
G01 X37.1948 Y29.9413
G00 Z2.0000
G00 X37.1948 Y30.0643
G01 F60.00
G01 Z-0.0500
G01 F120.00
G01 X37.1948 Y30.1384
G01 X37.1148 Y30.1879
G01 X37.1148 Y30.2290
G01 X37.0348 Y30.2210
G01 X37.0348 Y30.2552
G00 Z2.0000
G00 X36.9548 Y30.2463
G01 F60.00
G01 Z-0.0500
G01 F120.00
G01 X36.9548 Y30.2794
G01 X36.8748 Y30.2794
G01 X36.8748 Y30.2469
G01 X36.7948 Y30.2469
G01 X36.7948 Y30.2794
G01 X36.7148 Y30.2794
G01 X36.7148 Y30.2469
G01 X36.6348 Y30.2469
G01 X36.6348 Y30.2794
G01 X36.5672 Y30.2469
G01 X36.5597 Y30.2464
G01 X36.5539 Y30.2454
G01 X36.5470 Y30.2434
G01 X36.5416 Y30.2412
G01 X36.5353 Y30.2377
G01 X36.5296 Y30.2336
G01 X36.5245 Y30.2290
G01 X36.5198 Y30.2236
G01 X36.5146 Y30.2156
G01 X36.5107 Y30.2071
G01 X36.5083 Y30.1981
G01 X36.5073 Y30.1886
G01 X36.5072 Y29.8212
G01 X36.5076 Y29.8149
G01 X36.5097 Y29.8043
G01 X36.5135 Y29.7945
G01 X36.5190 Y29.7855
G01 X36.5228 Y29.7809
G01 X36.5269 Y29.7768
G01 X36.5315 Y29.7730
G01 X36.5364 Y29.7698
G01 X36.5459 Y29.7652
G01 X36.5515 Y29.7633
G01 X36.5572 Y29.7621
G01 X36.5672 Y29.7612
G01 X36.9462 Y29.7612
G01 X36.9557 Y29.7620
G01 X36.9649 Y29.7642
G01 X37.0933 Y29.8064
G01 X37.0993 Y29.8089
G01 X37.1040 Y29.8114
G01 X37.1126 Y29.8176
G01 X37.1474 Y29.8508
G01 X37.1523 Y29.8566
G01 X37.1563 Y29.8627
G01 X37.1963 Y29.9445
G01 X37.1982 Y29.9496
G01 X37.1999 Y29.9560
G01 X37.2008 Y29.9613
G01 X37.2012 Y29.9683
G01 X37.2011 Y30.0411
G01 X37.1994 Y30.0519
G01 X37.1958 Y30.0621
G01 X37.1576 Y30.1404
G01 X37.1522 Y30.1494
G01 X37.1461 Y30.1566
G01 X37.1126 Y30.1900
G01 X37.1047 Y30.1961
G01 X37.0966 Y30.2004
G01 X37.0910 Y30.2026
G01 X36.9649 Y30.2439
G01 X36.9570 Y30.2459
G01 X36.9507 Y30.2468
G01 X36.5672 Y30.2469
G00 Z2.0000
G00 X36.5548 Y30.2456
G01 F60.00
G01 Z-0.0500
G01 F120.00
G01 X36.5548 Y30.2794
G01 X36.4748 Y30.2617
G01 X36.4755 Y30.2679
G01 X36.4776 Y30.2721
G01 X36.4796 Y30.2746
G01 X36.4820 Y30.2766
G01 X36.4863 Y30.2786
G01 X36.4925 Y30.2794
G01 X36.9568 Y30.2794
G01 X36.9601 Y30.2792
G01 X36.9649 Y30.2781
G01 X37.1170 Y30.2282
G01 X37.1211 Y30.2265
G01 X37.1258 Y30.2228
G01 X37.1769 Y30.1717
G01 X37.1803 Y30.1677
G01 X37.2314 Y30.0632
G01 X37.2334 Y30.0578
G01 X37.2337 Y30.0535
G01 X37.2337 Y29.9521
G01 X37.2330 Y29.9464
G01 X37.2314 Y29.9424
G01 X37.1818 Y29.8407
G01 X37.1797 Y29.8371
G01 X37.1769 Y29.8339
G01 X37.1255 Y29.7850
G01 X37.1210 Y29.7816
G01 X37.1171 Y29.7800
G01 X36.9693 Y29.7315
G01 X36.9625 Y29.7286
G01 X36.9564 Y29.7252
G01 X36.9501 Y29.7204
G01 X36.9443 Y29.7147
G01 X36.9400 Y29.7093
G01 X36.9359 Y29.7025
G01 X36.9327 Y29.6951
G01 X36.9307 Y29.6884
G01 X36.9294 Y29.6806
G01 X36.9292 Y29.6725
G01 X36.9301 Y29.6644
G01 X36.9319 Y29.6567
G01 X36.9344 Y29.6503
G01 X36.9379 Y29.6437
G01 X37.2304 Y29.1835
G01 X37.2325 Y29.1793
G01 X37.2334 Y29.1763
G01 X37.2336 Y29.1731
G01 X37.2332 Y29.1700
G01 X37.2322 Y29.1670
G01 X37.2307 Y29.1642
G01 X37.2286 Y29.1618
G01 X37.2261 Y29.1599
G01 X37.2233 Y29.1584
G01 X37.2202 Y29.1576
G01 X37.2171 Y29.1573
G01 X37.2139 Y29.1577
G01 X37.2109 Y29.1587
G01 X37.2082 Y29.1603
G01 X37.2058 Y29.1623
G01 X37.2029 Y29.1660
G01 X36.8613 Y29.7034
G01 X36.8567 Y29.7091
G01 X36.8515 Y29.7142
G01 X36.8459 Y29.7185
G01 X36.8397 Y29.7222
G01 X36.8330 Y29.7251
G01 X36.8260 Y29.7272
G01 X36.8201 Y29.7283
G01 X36.8124 Y29.7288
G01 X36.5618 Y29.7285
G01 X36.5551 Y29.7275
G01 X36.5482 Y29.7257
G01 X36.5416 Y29.7230
G01 X36.5353 Y29.7196
G01 X36.5296 Y29.7154
G01 X36.5245 Y29.7108
G01 X36.5198 Y29.7055
G01 X36.5158 Y29.6996
G01 X36.5120 Y29.6922
G01 X36.5093 Y29.6845
G01 X36.5079 Y29.6776
G01 X36.5073 Y29.6700
G01 X36.5071 Y29.1719
G01 X36.5059 Y29.1673
G01 X36.5035 Y29.1632
G01 X36.5000 Y29.1601
G01 X36.4957 Y29.1580
G01 X36.4910 Y29.1573
G01 X36.4863 Y29.1580
G01 X36.4834 Y29.1592
G01 X36.4807 Y29.1610
G01 X36.4776 Y29.1645
G01 X36.4755 Y29.1688
G01 X36.4748 Y29.1750
G01 X36.4748 Y30.2617
G00 Z2.0000
G00 X37.6241 Y30.1058
G01 F60.00
G01 Z-0.0500
G01 F120.00
G01 X37.6241 Y30.0693
G01 X37.6467 Y30.1174
G01 X37.6545 Y30.1221
G01 X37.6605 Y30.1271
G01 X37.8118 Y30.2757
G01 X37.8144 Y30.2775
G01 X37.8174 Y30.2787
G01 X37.8205 Y30.2793
G01 X37.8236 Y30.2792
G01 X37.8267 Y30.2786
G01 X37.8296 Y30.2774
G01 X37.8323 Y30.2756
G01 X37.8345 Y30.2734
G01 X37.8362 Y30.2708
G01 X37.8374 Y30.2678
G01 X37.8382 Y30.2617
G01 X37.8382 Y29.1750
G01 X37.8374 Y29.1688
G01 X37.8362 Y29.1659
G01 X37.8345 Y29.1632
G01 X37.8322 Y29.1610
G01 X37.8296 Y29.1592
G01 X37.8251 Y29.1576
G01 X37.8220 Y29.1573
G01 X37.8188 Y29.1576
G01 X37.8158 Y29.1586
G01 X37.8117 Y29.1610
G01 X37.8085 Y29.1645
G01 X37.8070 Y29.1673
G01 X37.8061 Y29.1703
G01 X37.8057 Y29.1750
G01 X37.8057 Y30.0812
G01 X37.8055 Y30.0866
G01 X37.8047 Y30.0924
G01 X37.8033 Y30.0981
G01 X37.8014 Y30.1036
G01 X37.7989 Y30.1090
G01 X37.7959 Y30.1140
G01 X37.7925 Y30.1188
G01 X37.7886 Y30.1232
G01 X37.7843 Y30.1271
G01 X37.7796 Y30.1307
G01 X37.7746 Y30.1338
G01 X37.7694 Y30.1363
G01 X37.7639 Y30.1384
G01 X37.7582 Y30.1399
G01 X37.7524 Y30.1408
G01 X37.7465 Y30.1412
G01 X37.7407 Y30.1410
G01 X37.7349 Y30.1402
G01 X37.7282 Y30.1386
G01 X37.7216 Y30.1361
G01 X37.7153 Y30.1329
G01 X37.7103 Y30.1297
G01 X37.7045 Y30.1248
G01 X37.6770 Y30.0977
G01 X37.6733 Y30.0947
G01 X37.6705 Y30.0931
G01 X37.5691 Y30.0411
G01 X37.5632 Y30.0390
G01 X37.5601 Y30.0387
G01 X37.5569 Y30.0391
G01 X37.5525 Y30.0408
G01 X37.5499 Y30.0426
G01 X37.5477 Y30.0448
G01 X37.5460 Y30.0475
G01 X37.5448 Y30.0505
G01 X37.5442 Y30.0536
G01 X37.5443 Y30.0567
G01 X37.5450 Y30.0598
G01 X37.5462 Y30.0627
G01 X37.5480 Y30.0654
G01 X37.5503 Y30.0676
G01 X37.5543 Y30.0700
G01 X37.6467 Y30.1174
G00 Z2.0000
G00 X37.7041 Y30.1244
G01 F60.00
G01 Z-0.0500
G01 F120.00
G01 X37.7041 Y30.1700
G00 Z2.0000
G00 X37.7696 Y30.1783
G01 F60.00
G01 Z-0.0500
G01 F120.00
G01 X37.7982 Y30.2064
G01 X37.7982 Y30.1663
G01 X37.7899 Y30.1709
G01 X37.7821 Y30.1743
G01 X37.7696 Y30.1783
G00 Z2.0000
G00 X37.7841 Y30.1273
G01 F60.00
G01 Z-0.0500
G01 F120.00
G01 X37.7841 Y30.2487
G00 Z2.0000
G00 X38.2286 Y30.1692
G01 F60.00
G01 Z-0.0500
G01 F120.00
G01 X38.2286 Y29.9431
G00 Z2.0000
G00 X38.3086 Y30.2083
G01 F60.00
G01 Z-0.0500
G01 F120.00
G01 X38.3086 Y30.2424
G01 X38.3886 Y30.2345
G01 X38.3886 Y30.2687
G01 X38.4686 Y30.2794
G01 X38.4686 Y30.2469
G01 X38.5486 Y30.2469
G01 X38.5486 Y30.2794
G01 X38.6286 Y30.2794
G01 X38.6286 Y30.2463
G00 Z2.0000
G00 X38.7086 Y30.2552
G01 F60.00
G01 Z-0.0500
G01 F120.00
G01 X38.7086 Y30.2210
G01 X38.7886 Y30.2290
G01 X38.7886 Y30.1739
G00 Z2.0000
G00 X38.7886 Y29.9384
G01 F60.00
G01 Z-0.0500
G01 F120.00
G01 X38.7886 Y29.8824
G01 X38.7086 Y29.8780
G01 X38.7086 Y29.7369
G01 X38.7886 Y29.7157
G01 X38.7886 Y29.6698
G01 X38.8686 Y29.6202
G01 X38.8686 Y29.5462
G00 Z2.0000
G00 X38.6686 Y29.8186
G01 F60.00
G01 Z-0.0500
G01 F120.00
G01 X38.6686 Y29.7918
G01 X38.6795 Y29.7883
G01 X38.6213 Y29.8071
G01 X38.6780 Y29.8209
G01 X38.6773 Y29.8070
G01 X38.6779 Y29.7986
G01 X38.6795 Y29.7883
G00 Z2.0000
G00 X38.6286 Y29.7627
G01 F60.00
G01 Z-0.0500
G01 F120.00
G01 X38.6286 Y29.8501
G00 Z2.0000
G00 X38.5486 Y29.7865
G01 F60.00
G01 Z-0.0500
G01 F120.00
G01 X38.5486 Y29.8305
G00 Z2.0000
G00 X38.5126 Y29.8287
G01 F60.00
G01 Z-0.0500
G01 F120.00
G01 X38.5199 Y29.8274
G01 X38.5256 Y29.8270
G01 X38.5326 Y29.8273
G01 X38.5382 Y29.8281
G01 X38.6756 Y29.8618
G01 X38.6836 Y29.8651
G01 X38.7606 Y29.9047
G01 X38.7658 Y29.9081
G01 X38.7707 Y29.9120
G01 X38.7751 Y29.9164
G01 X38.7798 Y29.9223
G01 X38.7839 Y29.9292
G01 X38.8177 Y29.9951
G01 X38.8206 Y30.0018
G01 X38.8223 Y30.0073
G01 X38.8237 Y30.0140
G01 X38.8242 Y30.0213
G01 X38.8242 Y30.0927
G01 X38.8237 Y30.0983
G01 X38.8226 Y30.1039
G01 X38.8210 Y30.1094
G01 X38.8189 Y30.1146
G01 X38.7864 Y30.1781
G01 X38.7824 Y30.1845
G01 X38.7780 Y30.1900
G01 X38.7729 Y30.1950
G01 X38.7675 Y30.1992
G01 X38.7604 Y30.2034
G01 X38.7523 Y30.2067
G01 X38.6387 Y30.2439
G01 X38.6282 Y30.2464
G01 X38.6201 Y30.2469
G01 X38.4343 Y30.2469
G01 X38.4267 Y30.2462
G01 X38.4187 Y30.2443
G01 X38.3011 Y30.2057
G01 X38.2936 Y30.2022
G01 X38.2858 Y30.1971
G01 X38.2790 Y30.1909
G01 X38.2737 Y30.1845
G01 X38.2692 Y30.1770
G01 X38.2380 Y30.1161
G01 X38.2348 Y30.1082
G01 X38.2329 Y30.1007
G01 X38.2319 Y30.0898
G01 X38.2320 Y30.0196
G01 X38.2325 Y30.0140
G01 X38.2336 Y30.0084
G01 X38.2352 Y30.0029
G01 X38.2378 Y29.9966
G01 X38.2746 Y29.9251
G01 X38.2788 Y29.9190
G01 X38.2836 Y29.9136
G01 X38.2891 Y29.9087
G01 X38.2942 Y29.9052
G01 X38.3699 Y29.8653
G01 X38.3782 Y29.8617
G01 X38.3835 Y29.8602
G01 X38.5126 Y29.8287
G01 X38.4686 Y29.8394
G01 X38.4686 Y29.7767
G00 Z2.0000
G00 X38.4286 Y29.8080
G01 F60.00
G01 Z-0.0500
G01 F120.00
G01 X38.4286 Y29.8057
G01 X38.3762 Y29.7885
G01 X38.4327 Y29.8070
G01 X38.3777 Y29.8204
G01 X38.3783 Y29.8123
G01 X38.3782 Y29.8035
G01 X38.3772 Y29.7936
G01 X38.3762 Y29.7885
G00 Z2.0000
G00 X38.3886 Y29.7505
G01 F60.00
G01 Z-0.0500
G01 F120.00
G01 X38.3886 Y29.8589
G01 X38.3086 Y29.8607
G01 X38.3086 Y29.8975
G00 Z2.0000
G00 X38.3108 Y29.7585
G01 F60.00
G01 Z-0.0500
G01 F120.00
G01 X38.3190 Y29.7648
G01 X38.3262 Y29.7727
G01 X38.3319 Y29.7819
G01 X38.3359 Y29.7919
G01 X38.3380 Y29.8024
G01 X38.3383 Y29.8074
G01 X38.3382 Y29.8135
G01 X38.3364 Y29.8241
G01 X38.3328 Y29.8342
G01 X38.3293 Y29.8406
G01 X38.3245 Y29.8473
G01 X38.3195 Y29.8526
G01 X38.3139 Y29.8573
G01 X38.3063 Y29.8620
G01 X38.2628 Y29.8848
G01 X38.2587 Y29.8875
G01 X38.2564 Y29.8898
G01 X38.2538 Y29.8939
G01 X38.2019 Y29.9954
G01 X38.2001 Y29.9995
G01 X38.1996 Y30.0026
G01 X38.1994 Y30.1068
G01 X38.2001 Y30.1128
G01 X38.2019 Y30.1169
G01 X38.2539 Y30.2185
G01 X38.2573 Y30.2236
G01 X38.2611 Y30.2265
G01 X38.2653 Y30.2282
G01 X38.4175 Y30.2781
G01 X38.4220 Y30.2792
G01 X38.4253 Y30.2794
G01 X38.6339 Y30.2792
G01 X38.6388 Y30.2781
G01 X38.7908 Y30.2282
G01 X38.7951 Y30.2265
G01 X38.7977 Y30.2247
G01 X38.7998 Y30.2224
G01 X38.8023 Y30.2185
G01 X38.8543 Y30.1169
G01 X38.8560 Y30.1128
G01 X38.8567 Y30.1068
G01 X38.8567 Y30.0055
G01 X38.8564 Y30.0010
G01 X38.8543 Y29.9954
G01 X38.8007 Y29.8911
G01 X38.7973 Y29.8874
G01 X38.7932 Y29.8848
G01 X38.7464 Y29.8606
G01 X38.7399 Y29.8561
G01 X38.7338 Y29.8506
G01 X38.7300 Y29.8462
G01 X38.7267 Y29.8415
G01 X38.7238 Y29.8365
G01 X38.7210 Y29.8301
G01 X38.7193 Y29.8246
G01 X38.7179 Y29.8177
G01 X38.7173 Y29.8110
G01 X38.7174 Y29.8052
G01 X38.7188 Y29.7960
G01 X38.7219 Y29.7861
G01 X38.7267 Y29.7769
G01 X38.7324 Y29.7695
G01 X38.7390 Y29.7631
G01 X38.7489 Y29.7555
G01 X38.8531 Y29.6509
G01 X38.8558 Y29.6465
G01 X38.9053 Y29.5451
G01 X38.9069 Y29.5411
G01 X38.9075 Y29.5354
G01 X38.9075 Y29.3806
G01 X38.9072 Y29.3763
G01 X38.9053 Y29.3709
G01 X38.8544 Y29.2668
G01 X38.8507 Y29.2624
G01 X38.7993 Y29.2135
G01 X38.7948 Y29.2101
G01 X38.7910 Y29.2085
G01 X38.6388 Y29.1586
G01 X38.6339 Y29.1574
G01 X38.4222 Y29.1574
G01 X38.4174 Y29.1586
G01 X38.2652 Y29.2085
G01 X38.2613 Y29.2101
G01 X38.2568 Y29.2135
G01 X38.2054 Y29.2624
G01 X38.2026 Y29.2656
G01 X38.2005 Y29.2692
G01 X38.1497 Y29.3735
G01 X38.1490 Y29.3763
G01 X38.1486 Y29.3806
G01 X38.1488 Y29.5382
G01 X38.1493 Y29.5411
G01 X38.1509 Y29.5451
G01 X38.2003 Y29.6465
G01 X38.2031 Y29.6509
G01 X38.2054 Y29.6535
G01 X38.3073 Y29.7555
G01 X38.3095 Y29.7575
G01 X38.3108 Y29.7585
G01 X38.3086 Y29.7567
G01 X38.3086 Y29.7109
G01 X38.2286 Y29.6768
G01 X38.2286 Y29.6292
G00 Z2.0000
G00 X38.2286 Y29.2870
G01 F60.00
G01 Z-0.0500
G01 F120.00
G01 X38.2286 Y29.2403
G01 X38.3086 Y29.2284
G01 X38.3086 Y29.1942
G01 X38.3886 Y29.2022
G01 X38.3886 Y29.1680
G01 X38.4686 Y29.1573
G01 X38.4686 Y29.1897
G01 X38.5486 Y29.1897
G01 X38.5486 Y29.1573
G01 X38.6286 Y29.1573
G01 X38.6286 Y29.1904
G00 Z2.0000
G00 X38.7086 Y29.1815
G01 F60.00
G01 Z-0.0500
G01 F120.00
G01 X38.7086 Y29.2156
G01 X38.7886 Y29.2077
G01 X38.7886 Y29.2481
G01 X38.8686 Y29.2957
G01 X38.8686 Y29.3698
G00 Z2.0000
G00 X38.5410 Y29.7883
G01 F60.00
G01 Z-0.0500
G01 F120.00
G01 X38.5302 Y29.7899
G01 X38.5244 Y29.7900
G01 X38.5187 Y29.7895
G01 X38.5126 Y29.7883
G01 X38.4792 Y29.7801
G01 X38.3410 Y29.7349
G01 X38.3333 Y29.7315
G01 X38.3257 Y29.7269
G01 X38.3184 Y29.7207
G01 X38.2362 Y29.6384
G01 X38.2301 Y29.6313
G01 X38.2247 Y29.6223
G01 X38.1872 Y29.5454
G01 X38.1841 Y29.5379
G01 X38.1822 Y29.5304
G01 X38.1814 Y29.5250
G01 X38.1811 Y29.5191
G01 X38.1811 Y29.3968
G01 X38.1814 Y29.3910
G01 X38.1822 Y29.3856
G01 X38.1841 Y29.3781
G01 X38.1872 Y29.3705
G01 X38.2242 Y29.2946
G01 X38.2295 Y29.2858
G01 X38.2360 Y29.2782
G01 X38.2689 Y29.2469
G01 X38.2757 Y29.2416
G01 X38.2830 Y29.2374
G01 X38.2904 Y29.2344
G01 X38.4174 Y29.1927
G01 X38.4254 Y29.1907
G01 X38.4361 Y29.1897
G01 X38.6201 Y29.1897
G01 X38.6282 Y29.1903
G01 X38.6387 Y29.1927
G01 X38.7657 Y29.2344
G01 X38.7711 Y29.2364
G01 X38.7797 Y29.2411
G01 X38.7873 Y29.2469
G01 X38.8202 Y29.2782
G01 X38.8241 Y29.2824
G01 X38.8273 Y29.2867
G01 X38.8319 Y29.2945
G01 X38.8695 Y29.3716
G01 X38.8721 Y29.3781
G01 X38.8740 Y29.3856
G01 X38.8748 Y29.3910
G01 X38.8751 Y29.3968
G01 X38.8751 Y29.5191
G01 X38.8746 Y29.5261
G01 X38.8738 Y29.5315
G01 X38.8721 Y29.5379
G01 X38.8695 Y29.5444
G01 X38.8315 Y29.6223
G01 X38.8274 Y29.6295
G01 X38.8232 Y29.6349
G01 X38.7370 Y29.7213
G01 X38.7305 Y29.7268
G01 X38.7239 Y29.7309
G01 X38.7139 Y29.7352
G01 X38.5765 Y29.7795
G01 X38.5410 Y29.7883
G00 Z2.0000
G00 X39.9838 Y29.6104
G01 F60.00
G01 Z-0.0500
G01 F120.00
G01 X39.9838 Y29.6840
G01 X40.0638 Y29.7439
G01 X40.0638 Y29.7898
G00 Z2.0000
G00 X40.1438 Y29.8207
G01 F60.00
G01 Z-0.0500
G01 F120.00
G01 X40.1438 Y29.8570
G00 Z2.0000
G00 X40.2238 Y29.8599
G01 F60.00
G01 Z-0.0500
G01 F120.00
G01 X40.2238 Y29.8960
G01 X40.3038 Y29.8984
G01 X40.3038 Y29.8659
G01 X40.3838 Y29.8659
G01 X40.3838 Y29.8984
G01 X40.4638 Y29.8888
G01 X40.4638 Y29.8525
G01 X40.5438 Y29.8488
G01 X40.5438 Y29.8069
G01 X40.6238 Y29.7729
G01 X40.6238 Y29.7269
G00 Z2.0000
G00 X40.6375 Y29.7091
G01 F60.00
G01 Z-0.0500
G01 F120.00
G01 X40.6847 Y29.6170
G01 X40.6871 Y29.6130
G01 X40.6893 Y29.6108
G01 X40.6919 Y29.6090
G01 X40.6948 Y29.6077
G01 X40.6979 Y29.6070
G01 X40.7011 Y29.6070
G01 X40.7027 Y29.6072
G01 X40.7042 Y29.6075
G01 X40.7071 Y29.6087
G01 X40.7098 Y29.6104
G01 X40.7121 Y29.6126
G01 X40.7139 Y29.6152
G01 X40.7156 Y29.6196
G01 X40.7159 Y29.6244
G01 X40.7148 Y29.6290
G01 X40.7136 Y29.6318
G01 X40.6616 Y29.7332
G01 X40.6600 Y29.7360
G01 X40.6568 Y29.7398
G01 X40.5524 Y29.8439
G01 X40.5481 Y29.8466
G01 X40.4492 Y29.8961
G01 X40.4452 Y29.8977
G01 X40.4393 Y29.8984
G01 X40.2338 Y29.8984
G01 X40.2295 Y29.8981
G01 X40.2267 Y29.8973
G01 X40.1227 Y29.8467
G01 X40.1182 Y29.8440
G01 X40.0138 Y29.7398
G01 X40.0106 Y29.7360
G01 X39.9558 Y29.6293
G01 X39.9042 Y29.4689
G01 X39.9038 Y29.4640
G01 X39.9039 Y29.2048
G01 X39.9051 Y29.2000
G01 X39.9559 Y29.0453
G01 X40.0090 Y28.9414
G01 X40.0106 Y28.9386
G01 X40.0138 Y28.9349
G01 X40.1182 Y28.8307
G01 X40.1227 Y28.8280
G01 X40.2241 Y28.7785
G01 X40.2295 Y28.7766
G01 X40.2338 Y28.7763
G01 X40.4393 Y28.7763
G01 X40.4437 Y28.7766
G01 X40.4466 Y28.7774
G01 X40.5481 Y28.8281
G01 X40.5524 Y28.8307
G01 X40.6568 Y28.9349
G01 X40.6590 Y28.9373
G01 X40.6616 Y28.9414
G01 X40.7136 Y29.0429
G01 X40.7157 Y29.0487
G01 X40.7158 Y29.0534
G01 X40.7146 Y29.0580
G01 X40.7121 Y29.0621
G01 X40.7085 Y29.0652
G01 X40.7042 Y29.0671
G01 X40.6995 Y29.0677
G01 X40.6948 Y29.0670
G01 X40.6919 Y29.0657
G01 X40.6882 Y29.0628
G01 X40.6847 Y29.0577
G01 X40.6368 Y28.9644
G01 X40.6318 Y28.9565
G01 X40.6265 Y28.9504
G01 X40.5372 Y28.8613
G01 X40.5311 Y28.8565
G01 X40.5252 Y28.8529
G01 X40.4495 Y28.8151
G01 X40.4418 Y28.8119
G01 X40.4322 Y28.8095
G01 X40.4239 Y28.8088
G01 X40.2500 Y28.8087
G01 X40.2408 Y28.8095
G01 X40.2324 Y28.8114
G01 X40.2252 Y28.8141
G01 X40.1469 Y28.8523
G01 X40.1379 Y28.8577
G01 X40.1307 Y28.8638
G01 X40.0432 Y28.9514
G01 X40.0380 Y28.9576
G01 X40.0340 Y28.9639
G01 X39.9880 Y29.0537
G01 X39.9853 Y29.0596
G01 X39.9392 Y29.2000
G01 X39.9377 Y29.2056
G01 X39.9366 Y29.2119
G01 X39.9362 Y29.2187
G01 X39.9362 Y29.4536
G01 X39.9365 Y29.4593
G01 X39.9374 Y29.4655
G01 X39.9391 Y29.4720
G01 X39.9859 Y29.6164
G01 X40.0331 Y29.7091
G01 X40.0388 Y29.7182
G01 X40.0441 Y29.7242
G01 X40.1307 Y29.8109
G01 X40.1370 Y29.8163
G01 X40.1416 Y29.8194
G01 X40.1469 Y29.8224
G01 X40.2237 Y29.8598
G01 X40.2291 Y29.8622
G01 X40.2387 Y29.8648
G01 X40.2489 Y29.8659
G01 X40.4227 Y29.8659
G01 X40.4322 Y29.8652
G01 X40.4407 Y29.8631
G01 X40.4495 Y29.8596
G01 X40.5252 Y29.8218
G01 X40.5322 Y29.8174
G01 X40.5386 Y29.8121
G01 X40.6274 Y29.7233
G01 X40.6326 Y29.7171
G01 X40.6375 Y29.7091
G01 X40.7038 Y29.6509
G01 X40.7038 Y29.6074
G00 Z2.0000
G00 X41.1065 Y29.7248
G01 F60.00
G01 Z-0.0500
G01 F120.00
G01 X41.1065 Y29.6883
G01 X41.1287 Y29.7362
G01 X41.1367 Y29.7411
G01 X41.1429 Y29.7463
G01 X41.2892 Y29.8926
G01 X41.2915 Y29.8947
G01 X41.2941 Y29.8964
G01 X41.2971 Y29.8976
G01 X41.3002 Y29.8982
G01 X41.3033 Y29.8982
G01 X41.3065 Y29.8976
G01 X41.3094 Y29.8964
G01 X41.3120 Y29.8947
G01 X41.3143 Y29.8924
G01 X41.3160 Y29.8898
G01 X41.3172 Y29.8869
G01 X41.3180 Y29.8807
G01 X41.3180 Y28.7940
G01 X41.3172 Y28.7878
G01 X41.3160 Y28.7849
G01 X41.3143 Y28.7822
G01 X41.3107 Y28.7791
G01 X41.3079 Y28.7776
G01 X41.3049 Y28.7766
G01 X41.3002 Y28.7764
G01 X41.2971 Y28.7770
G01 X41.2941 Y28.7782
G01 X41.2915 Y28.7800
G01 X41.2883 Y28.7835
G01 X41.2868 Y28.7863
G01 X41.2859 Y28.7893
G01 X41.2855 Y28.7940
G01 X41.2855 Y29.6981
G01 X41.2849 Y29.7069
G01 X41.2828 Y29.7160
G01 X41.2787 Y29.7260
G01 X41.2730 Y29.7348
G01 X41.2658 Y29.7426
G01 X41.2613 Y29.7463
G01 X41.2564 Y29.7496
G01 X41.2469 Y29.7542
G01 X41.2367 Y29.7570
G01 X41.2260 Y29.7581
G01 X41.2155 Y29.7573
G01 X41.2086 Y29.7557
G01 X41.2021 Y29.7533
G01 X41.1957 Y29.7502
G01 X41.1898 Y29.7463
G01 X41.1840 Y29.7414
G01 X41.1594 Y29.7168
G01 X41.1556 Y29.7137
G01 X41.1528 Y29.7121
G01 X41.0514 Y29.6601
G01 X41.0486 Y29.6588
G01 X41.0456 Y29.6580
G01 X41.0424 Y29.6577
G01 X41.0393 Y29.6581
G01 X41.0348 Y29.6598
G01 X41.0322 Y29.6616
G01 X41.0291 Y29.6651
G01 X41.0276 Y29.6680
G01 X41.0266 Y29.6726
G01 X41.0266 Y29.6757
G01 X41.0279 Y29.6803
G01 X41.0304 Y29.6844
G01 X41.0339 Y29.6875
G01 X41.0366 Y29.6890
G01 X41.1287 Y29.7362
G01 X41.1865 Y29.7436
G01 X41.1865 Y29.7898
G00 Z2.0000
G00 X41.2486 Y29.7954
G01 F60.00
G01 Z-0.0500
G01 F120.00
G01 X41.2780 Y29.8248
G01 X41.2780 Y29.7832
G01 X41.2660 Y29.7895
G01 X41.2581 Y29.7927
G01 X41.2486 Y29.7954
G00 Z2.0000
G00 X41.2665 Y29.7420
G01 F60.00
G01 Z-0.0500
G01 F120.00
G01 X41.2665 Y29.8698
G00 Z2.0000
G00 X41.7085 Y29.2726
G01 F60.00
G01 Z-0.0500
G01 F120.00
G01 X41.7085 Y29.1395
G01 X41.7885 Y29.1395
G01 X41.7885 Y29.1721
G00 Z2.0000
G00 X41.8685 Y29.1720
G01 F60.00
G01 Z-0.0500
G01 F120.00
G01 X41.8685 Y29.1395
G01 X41.9485 Y29.1395
G01 X41.9485 Y29.1720
G01 X42.0285 Y29.1720
G01 X42.0285 Y29.1395
G00 Z2.0000
G00 X42.1085 Y29.1363
G01 F60.00
G01 Z-0.0500
G01 F120.00
G01 X42.1085 Y29.1752
G00 Z2.0000
G00 X42.1538 Y29.1557
G01 F60.00
G01 Z-0.0500
G01 F120.00
G01 X42.1581 Y29.1596
G01 X42.1654 Y29.1673
G01 X42.1727 Y29.1596
G01 X42.1770 Y29.1557
G01 X42.1727 Y29.1519
G01 X42.1654 Y29.1441
G01 X42.1581 Y29.1519
G01 X42.1538 Y29.1557
G00 Z2.0000
G00 X42.1885 Y29.2041
G01 F60.00
G01 Z-0.0500
G01 F120.00
G01 X42.1885 Y29.1073
G00 Z2.0000
G00 X42.1491 Y29.0795
G01 F60.00
G01 Z-0.0500
G01 F120.00
G01 X42.1483 Y29.0895
G01 X42.1470 Y29.0952
G01 X42.1452 Y29.1008
G01 X42.1406 Y29.1103
G01 X42.1344 Y29.1189
G01 X42.1268 Y29.1262
G01 X42.1178 Y29.1322
G01 X42.1082 Y29.1364
G01 X42.0979 Y29.1388
G01 X42.0891 Y29.1395
G01 X41.6462 Y29.1395
G01 X41.6415 Y29.1399
G01 X41.6384 Y29.1408
G01 X41.6356 Y29.1424
G01 X41.6331 Y29.1444
G01 X41.6311 Y29.1469
G01 X41.6296 Y29.1498
G01 X41.6287 Y29.1529
G01 X41.6285 Y29.1561
G01 X41.6293 Y29.1608
G01 X41.6323 Y29.1664
G01 X42.1513 Y29.8904
G01 X42.1541 Y29.8938
G01 X42.1580 Y29.8966
G01 X42.1625 Y29.8981
G01 X42.1656 Y29.8983
G01 X42.1688 Y29.8980
G01 X42.1718 Y29.8970
G01 X42.1746 Y29.8955
G01 X42.1770 Y29.8934
G01 X42.1790 Y29.8909
G01 X42.1804 Y29.8881
G01 X42.1813 Y29.8851
G01 X42.1816 Y29.8807
G01 X42.1816 Y29.2320
G01 X42.1825 Y29.2219
G01 X42.1851 Y29.2117
G01 X42.1879 Y29.2052
G01 X42.1915 Y29.1990
G01 X42.1963 Y29.1926
G01 X42.2013 Y29.1875
G01 X42.2069 Y29.1830
G01 X42.2138 Y29.1788
G01 X42.2214 Y29.1755
G01 X42.2282 Y29.1735
G01 X42.2340 Y29.1724
G01 X42.2416 Y29.1720
G01 X42.4260 Y29.1718
G01 X42.4306 Y29.1707
G01 X42.4334 Y29.1692
G01 X42.4359 Y29.1672
G01 X42.4379 Y29.1647
G01 X42.4394 Y29.1619
G01 X42.4403 Y29.1589
G01 X42.4406 Y29.1557
G01 X42.4403 Y29.1526
G01 X42.4394 Y29.1495
G01 X42.4379 Y29.1467
G01 X42.4359 Y29.1443
G01 X42.4321 Y29.1415
G01 X42.4291 Y29.1403
G01 X42.4260 Y29.1396
G01 X42.2416 Y29.1395
G01 X42.2316 Y29.1386
G01 X42.2258 Y29.1374
G01 X42.2202 Y29.1355
G01 X42.2149 Y29.1332
G01 X42.2097 Y29.1303
G01 X42.2049 Y29.1269
G01 X42.2004 Y29.1231
G01 X42.1963 Y29.1189
G01 X42.1927 Y29.1142
G01 X42.1879 Y29.1062
G01 X42.1847 Y29.0985
G01 X42.1825 Y29.0895
G01 X42.1816 Y29.0812
G01 X42.1815 Y28.7909
G01 X42.1803 Y28.7863
G01 X42.1788 Y28.7835
G01 X42.1768 Y28.7811
G01 X42.1744 Y28.7791
G01 X42.1716 Y28.7776
G01 X42.1670 Y28.7764
G01 X42.1638 Y28.7764
G01 X42.1607 Y28.7770
G01 X42.1577 Y28.7782
G01 X42.1551 Y28.7800
G01 X42.1529 Y28.7822
G01 X42.1511 Y28.7849
G01 X42.1499 Y28.7878
G01 X42.1493 Y28.7909
G01 X42.1491 Y29.0795
G00 Z2.0000
G00 X42.2685 Y29.1395
G01 F60.00
G01 Z-0.0500
G01 F120.00
G01 X42.2685 Y29.1720
G01 X42.3485 Y29.1720
G01 X42.3485 Y29.1395
G01 X42.4285 Y29.1401
G01 X42.4285 Y29.1714
G00 Z2.0000
G00 X41.9485 Y29.5517
G01 F60.00
G01 Z-0.0500
G01 F120.00
G01 X41.9485 Y29.6074
G01 X42.0285 Y29.6633
G01 X42.0285 Y29.7190
G00 Z2.0000
G00 X42.1085 Y29.7017
G01 F60.00
G01 Z-0.0500
G01 F120.00
G01 X42.1085 Y29.8306
G01 X41.8685 Y29.4958
G01 X41.8685 Y29.4401
G01 X41.7885 Y29.3842
G01 X41.7885 Y29.3285
G01 X41.7443 Y29.2669
G01 X41.7403 Y29.2604
G01 X41.7368 Y29.2526
G01 X41.7345 Y29.2448
G01 X41.7333 Y29.2364
G01 X41.7332 Y29.2292
G01 X41.7346 Y29.2186
G01 X41.7379 Y29.2084
G01 X41.7430 Y29.1990
G01 X41.7498 Y29.1904
G01 X41.7579 Y29.1834
G01 X41.7671 Y29.1779
G01 X41.7771 Y29.1741
G01 X41.7876 Y29.1722
G01 X41.7931 Y29.1720
G01 X42.0921 Y29.1720
G01 X42.0979 Y29.1726
G01 X42.1037 Y29.1738
G01 X42.1093 Y29.1755
G01 X42.1159 Y29.1783
G01 X42.1210 Y29.1811
G01 X42.1259 Y29.1845
G01 X42.1303 Y29.1883
G01 X42.1352 Y29.1935
G01 X42.1406 Y29.2011
G01 X42.1452 Y29.2106
G01 X42.1479 Y29.2198
G01 X42.1491 Y29.2302
G01 X42.1490 Y29.6491
G01 X42.1474 Y29.6593
G01 X42.1445 Y29.6681
G01 X42.1402 Y29.6765
G01 X42.1340 Y29.6848
G01 X42.1264 Y29.6920
G01 X42.1186 Y29.6972
G01 X42.1102 Y29.7011
G01 X42.1002 Y29.7039
G01 X42.0920 Y29.7049
G01 X42.0841 Y29.7047
G01 X42.0759 Y29.7035
G01 X42.0692 Y29.7015
G01 X42.0618 Y29.6984
G01 X42.0548 Y29.6941
G01 X42.0484 Y29.6890
G01 X42.0429 Y29.6832
G01 X41.7443 Y29.2669
G00 Z2.0000
G00 X41.6909 Y29.1795
G01 F60.00
G01 Z-0.0500
G01 F120.00
G01 X41.7009 Y29.1934
G01 X41.7053 Y29.1841
G01 X41.7080 Y29.1795
G01 X41.6909 Y29.1795
G00 Z2.0000
G00 X42.1416 Y29.7301
G01 F60.00
G01 Z-0.0500
G01 F120.00
G01 X42.1310 Y29.7357
G01 X42.1243 Y29.7386
G01 X42.1174 Y29.7408
G01 X42.1068 Y29.7434
G01 X42.0961 Y29.7447
G01 X42.1416 Y29.8082
G01 X42.1416 Y29.7301
G00 Z2.0000
G00 X43.0788 Y29.8807
G01 F60.00
G01 Z-0.0500
G01 F120.00
G01 X43.0788 Y28.7940
G01 X43.0795 Y28.7878
G01 X43.0816 Y28.7835
G01 X43.0847 Y28.7800
G01 X43.0874 Y28.7782
G01 X43.0903 Y28.7770
G01 X43.0950 Y28.7763
G01 X43.0997 Y28.7770
G01 X43.1040 Y28.7791
G01 X43.1075 Y28.7822
G01 X43.1099 Y28.7863
G01 X43.1111 Y28.7909
G01 X43.1113 Y29.2890
G01 X43.1119 Y29.2966
G01 X43.1133 Y29.3035
G01 X43.1160 Y29.3112
G01 X43.1198 Y29.3186
G01 X43.1238 Y29.3245
G01 X43.1285 Y29.3298
G01 X43.1336 Y29.3344
G01 X43.1393 Y29.3386
G01 X43.1456 Y29.3420
G01 X43.1522 Y29.3447
G01 X43.1591 Y29.3465
G01 X43.1658 Y29.3475
G01 X43.4164 Y29.3478
G01 X43.4241 Y29.3473
G01 X43.4300 Y29.3462
G01 X43.4370 Y29.3441
G01 X43.4437 Y29.3412
G01 X43.4499 Y29.3375
G01 X43.4555 Y29.3332
G01 X43.4607 Y29.3281
G01 X43.4653 Y29.3224
G01 X43.8069 Y28.7850
G01 X43.8098 Y28.7813
G01 X43.8122 Y28.7793
G01 X43.8149 Y28.7777
G01 X43.8179 Y28.7767
G01 X43.8211 Y28.7763
G01 X43.8242 Y28.7766
G01 X43.8273 Y28.7774
G01 X43.8301 Y28.7789
G01 X43.8326 Y28.7808
G01 X43.8347 Y28.7832
G01 X43.8362 Y28.7860
G01 X43.8372 Y28.7890
G01 X43.8376 Y28.7921
G01 X43.8374 Y28.7953
G01 X43.8365 Y28.7983
G01 X43.8344 Y28.8025
G01 X43.5419 Y29.2627
G01 X43.5384 Y29.2693
G01 X43.5359 Y29.2757
G01 X43.5341 Y29.2834
G01 X43.5332 Y29.2915
G01 X43.5334 Y29.2996
G01 X43.5347 Y29.3074
G01 X43.5367 Y29.3141
G01 X43.5399 Y29.3215
G01 X43.5440 Y29.3283
G01 X43.5483 Y29.3337
G01 X43.5541 Y29.3394
G01 X43.5604 Y29.3442
G01 X43.5665 Y29.3476
G01 X43.5733 Y29.3505
G01 X43.7211 Y29.3990
G01 X43.7250 Y29.4006
G01 X43.7295 Y29.4040
G01 X43.7809 Y29.4529
G01 X43.7837 Y29.4561
G01 X43.7858 Y29.4597
G01 X43.8354 Y29.5614
G01 X43.8370 Y29.5654
G01 X43.8377 Y29.5711
G01 X43.8377 Y29.6725
G01 X43.8374 Y29.6768
G01 X43.8354 Y29.6822
G01 X43.7843 Y29.7867
G01 X43.7809 Y29.7907
G01 X43.7298 Y29.8418
G01 X43.7251 Y29.8455
G01 X43.7210 Y29.8472
G01 X43.5689 Y29.8971
G01 X43.5641 Y29.8982
G01 X43.5608 Y29.8984
G01 X43.0965 Y29.8984
G01 X43.0903 Y29.8976
G01 X43.0860 Y29.8956
G01 X43.0836 Y29.8936
G01 X43.0816 Y29.8911
G01 X43.0795 Y29.8869
G01 X43.0788 Y29.8807
G01 X43.1588 Y29.8984
G01 X43.1588 Y29.8646
G00 Z2.0000
G00 X43.1712 Y29.8659
G01 F60.00
G01 Z-0.0500
G01 F120.00
G01 X43.5547 Y29.8658
G01 X43.5610 Y29.8649
G01 X43.5689 Y29.8629
G01 X43.6950 Y29.8216
G01 X43.7017 Y29.8189
G01 X43.7067 Y29.8163
G01 X43.7114 Y29.8132
G01 X43.7158 Y29.8097
G01 X43.7511 Y29.7746
G01 X43.7575 Y29.7666
G01 X43.7616 Y29.7594
G01 X43.8003 Y29.6801
G01 X43.8022 Y29.6750
G01 X43.8039 Y29.6687
G01 X43.8048 Y29.6633
G01 X43.8052 Y29.6563
G01 X43.8051 Y29.5835
G01 X43.8034 Y29.5727
G01 X43.7998 Y29.5625
G01 X43.7621 Y29.4850
G01 X43.7568 Y29.4763
G01 X43.7503 Y29.4687
G01 X43.7166 Y29.4366
G01 X43.7089 Y29.4310
G01 X43.7013 Y29.4269
G01 X43.6959 Y29.4249
G01 X43.5689 Y29.3832
G01 X43.5610 Y29.3812
G01 X43.5547 Y29.3804
G01 X43.1712 Y29.3802
G01 X43.1612 Y29.3811
G01 X43.1555 Y29.3823
G01 X43.1499 Y29.3842
G01 X43.1404 Y29.3888
G01 X43.1355 Y29.3920
G01 X43.1309 Y29.3958
G01 X43.1268 Y29.3999
G01 X43.1230 Y29.4045
G01 X43.1175 Y29.4135
G01 X43.1137 Y29.4233
G01 X43.1116 Y29.4339
G01 X43.1112 Y29.4402
G01 X43.1113 Y29.8076
G01 X43.1123 Y29.8171
G01 X43.1147 Y29.8261
G01 X43.1186 Y29.8346
G01 X43.1238 Y29.8426
G01 X43.1285 Y29.8480
G01 X43.1336 Y29.8526
G01 X43.1393 Y29.8567
G01 X43.1456 Y29.8602
G01 X43.1510 Y29.8624
G01 X43.1579 Y29.8644
G01 X43.1637 Y29.8654
G01 X43.1712 Y29.8659
G01 X43.2388 Y29.8984
G01 X43.2388 Y29.8659
G01 X43.3188 Y29.8659
G01 X43.3188 Y29.8984
G01 X43.3988 Y29.8984
G01 X43.3988 Y29.8659
G01 X43.4788 Y29.8659
G01 X43.4788 Y29.8984
G01 X43.5588 Y29.8984
G01 X43.5588 Y29.8653
G00 Z2.0000
G00 X43.6388 Y29.8742
G01 F60.00
G01 Z-0.0500
G01 F120.00
G01 X43.6388 Y29.8400
G01 X43.7188 Y29.8480
G01 X43.7188 Y29.8069
G01 X43.7988 Y29.7574
G01 X43.7988 Y29.6833
G00 Z2.0000
G00 X43.7988 Y29.5603
G01 F60.00
G01 Z-0.0500
G01 F120.00
G01 X43.7988 Y29.4862
G01 X43.7188 Y29.4386
G01 X43.7188 Y29.3982
G01 X43.6388 Y29.4061
G01 X43.6388 Y29.3720
G00 Z2.0000
G00 X43.5588 Y29.3809
G01 F60.00
G01 Z-0.0500
G01 F120.00
G01 X43.5588 Y29.3430
G01 X43.4788 Y29.3014
G01 X43.4788 Y29.3802
G01 X43.3988 Y29.3802
G01 X43.3988 Y29.3478
G01 X43.3188 Y29.3478
G01 X43.3188 Y29.3802
G01 X43.2388 Y29.3802
G01 X43.2388 Y29.3478
G00 Z2.0000
G00 X43.5015 Y29.3402
G01 F60.00
G01 Z-0.0500
G01 F120.00
G01 X43.5046 Y29.3402
G01 X43.5032 Y29.3375
G01 X43.5015 Y29.3402
G00 Z2.0000
G00 X43.5588 Y29.2361
G01 F60.00
G01 Z-0.0500
G01 F120.00
G01 X43.5588 Y29.1755
G01 X43.6388 Y29.1102
G01 X43.6388 Y29.0497
G01 X43.7188 Y28.9843
G01 X43.7188 Y28.9238
G01 X43.7988 Y28.8585
G01 X43.7988 Y28.7979
G00 Z2.0000
G00 X44.2281 Y28.9722
G01 F60.00
G01 Z-0.0500
G01 F120.00
G01 X44.2281 Y28.9141
G01 X44.3081 Y28.8800
G01 X44.3081 Y28.8340
G01 X44.3881 Y28.8387
G01 X44.3881 Y28.8045
G01 X44.4681 Y28.8124
G01 X44.4681 Y28.7782
G01 X44.5481 Y28.7813
G01 X44.5481 Y28.8155
G01 X44.6281 Y28.8075
G01 X44.6281 Y28.8417
G01 X44.7081 Y28.8434
G01 X44.7081 Y28.8893
G01 X44.7881 Y28.9234
G01 X44.7881 Y28.9963
G00 Z2.0000
G00 X44.7881 Y29.2618
G01 F60.00
G01 Z-0.0500
G01 F120.00
G01 X44.7881 Y29.3347
G01 X44.7081 Y29.3688
G01 X44.7081 Y29.4147
G01 X44.6281 Y29.4164
G01 X44.6281 Y29.4506
G01 X44.5481 Y29.4426
G01 X44.5481 Y29.4768
G01 X44.4681 Y29.4799
G01 X44.4681 Y29.4457
G01 X44.3881 Y29.4536
G01 X44.3881 Y29.4195
G01 X44.3081 Y29.4241
G01 X44.3081 Y29.3781
G00 Z2.0000
G00 X44.2281 Y29.3942
G01 F60.00
G01 Z-0.0500
G01 F120.00
G01 X44.2281 Y29.2909
G00 Z2.0000
G00 X44.2264 Y29.3530
G01 F60.00
G01 Z-0.0500
G01 F120.00
G01 X44.2102 Y29.3366
G01 X44.2031 Y29.3278
G01 X44.1992 Y29.3222
G01 X44.1948 Y29.3143
G01 X44.1911 Y29.3060
G01 X44.1881 Y29.2977
G01 X44.1881 Y29.3714
G01 X44.1978 Y29.3647
G01 X44.2064 Y29.3600
G01 X44.2155 Y29.3562
G01 X44.2264 Y29.3530
G00 Z2.0000
G00 X44.1871 Y29.1720
G01 F60.00
G01 Z-0.0500
G01 F120.00
G01 X44.1851 Y29.1648
G01 X44.1840 Y29.1566
G01 X44.1840 Y29.1486
G01 X44.1851 Y29.1405
G01 X44.2282 Y28.9717
G01 X44.2300 Y28.9661
G01 X44.2325 Y28.9602
G01 X44.2369 Y28.9526
G01 X44.2430 Y28.9451
G01 X44.3213 Y28.8668
G01 X44.3259 Y28.8628
G01 X44.3305 Y28.8596
G01 X44.3364 Y28.8562
G01 X44.3415 Y28.8540
G01 X44.4746 Y28.8105
G01 X44.4808 Y28.8093
G01 X44.4889 Y28.8087
G01 X44.5198 Y28.8088
G01 X44.5261 Y28.8093
G01 X44.5310 Y28.8102
G01 X44.5366 Y28.8117
G01 X44.6627 Y28.8531
G01 X44.6694 Y28.8557
G01 X44.6744 Y28.8584
G01 X44.6801 Y28.8621
G01 X44.6856 Y28.8668
G01 X44.7683 Y28.9499
G01 X44.7741 Y28.9581
G01 X44.7768 Y28.9630
G01 X44.7789 Y28.9682
G01 X44.8217 Y29.0989
G01 X44.8232 Y29.1064
G01 X44.8237 Y29.1146
G01 X44.8237 Y29.1467
G01 X44.8230 Y29.1530
G01 X44.8220 Y29.1579
G01 X44.7794 Y29.2883
G01 X44.7768 Y29.2951
G01 X44.7729 Y29.3020
G01 X44.7697 Y29.3066
G01 X44.7648 Y29.3120
G01 X44.6853 Y29.3916
G01 X44.6801 Y29.3960
G01 X44.6744 Y29.3997
G01 X44.6694 Y29.4024
G01 X44.6627 Y29.4050
G01 X44.5323 Y29.4476
G01 X44.5274 Y29.4486
G01 X44.5211 Y29.4493
G01 X44.4889 Y29.4494
G01 X44.4795 Y29.4486
G01 X44.4715 Y29.4468
G01 X44.3442 Y29.4050
G01 X44.3364 Y29.4019
G01 X44.3277 Y29.3967
G01 X44.3213 Y29.3913
G01 X44.2416 Y29.3116
G01 X44.2369 Y29.3064
G01 X44.2338 Y29.3019
G01 X44.2305 Y29.2963
G01 X44.2277 Y29.2898
G01 X44.1871 Y29.1720
G01 X44.1484 Y29.1530
G01 X44.1481 Y29.1570
G01 X44.1483 Y29.4164
G01 X44.2015 Y29.6758
G01 X44.2028 Y29.6801
G01 X44.2049 Y29.6840
G01 X44.3092 Y29.8415
G01 X44.3126 Y29.8447
G01 X44.3181 Y29.8472
G01 X44.4702 Y29.8971
G01 X44.4751 Y29.8982
G01 X44.4783 Y29.8984
G01 X44.5793 Y29.8984
G01 X44.5843 Y29.8980
G01 X44.7395 Y29.8472
G01 X44.7438 Y29.8455
G01 X44.7464 Y29.8437
G01 X44.7485 Y29.8414
G01 X44.7510 Y29.8375
G01 X44.8042 Y29.7331
G01 X44.8051 Y29.7301
G01 X44.8054 Y29.7269
G01 X44.8050 Y29.7238
G01 X44.8040 Y29.7208
G01 X44.8025 Y29.7180
G01 X44.8004 Y29.7156
G01 X44.7979 Y29.7136
G01 X44.7951 Y29.7122
G01 X44.7905 Y29.7111
G01 X44.7858 Y29.7114
G01 X44.7813 Y29.7131
G01 X44.7787 Y29.7149
G01 X44.7765 Y29.7172
G01 X44.7741 Y29.7211
G01 X44.7337 Y29.7997
G01 X44.7304 Y29.8045
G01 X44.7267 Y29.8090
G01 X44.7226 Y29.8132
G01 X44.7170 Y29.8176
G01 X44.7102 Y29.8218
G01 X44.7021 Y29.8253
G01 X44.5874 Y29.8629
G01 X44.5818 Y29.8645
G01 X44.5756 Y29.8655
G01 X44.5687 Y29.8659
G01 X44.4889 Y29.8659
G01 X44.4782 Y29.8649
G01 X44.4702 Y29.8629
G01 X44.3510 Y29.8238
G01 X44.3431 Y29.8204
G01 X44.3353 Y29.8156
G01 X44.3276 Y29.8088
G01 X44.3214 Y29.8013
G01 X44.2393 Y29.6772
G01 X44.2357 Y29.6708
G01 X44.2334 Y29.6656
G01 X44.2306 Y29.6562
G01 X44.1907 Y29.4624
G01 X44.1897 Y29.4548
G01 X44.1896 Y29.4465
G01 X44.1912 Y29.4360
G01 X44.1929 Y29.4304
G01 X44.1951 Y29.4249
G01 X44.1979 Y29.4197
G01 X44.2011 Y29.4148
G01 X44.2081 Y29.4068
G01 X44.2164 Y29.4003
G01 X44.2259 Y29.3951
G01 X44.2360 Y29.3918
G01 X44.2418 Y29.3908
G01 X44.2476 Y29.3903
G01 X44.2558 Y29.3906
G01 X44.2640 Y29.3921
G01 X44.2719 Y29.3947
G01 X44.2792 Y29.3982
G01 X44.2842 Y29.4014
G01 X44.2889 Y29.4050
G01 X44.3093 Y29.4253
G01 X44.3127 Y29.4282
G01 X44.3154 Y29.4296
G01 X44.4702 Y29.4805
G01 X44.4751 Y29.4817
G01 X44.5285 Y29.4818
G01 X44.5335 Y29.4814
G01 X44.6888 Y29.4307
G01 X44.6929 Y29.4290
G01 X44.6954 Y29.4273
G01 X44.7997 Y29.3231
G01 X44.8033 Y29.3185
G01 X44.8051 Y29.3144
G01 X44.8558 Y29.1591
G01 X44.8562 Y29.1541
G01 X44.8562 Y29.1040
G01 X44.8558 Y29.0990
G01 X44.8051 Y28.9437
G01 X44.8033 Y28.9396
G01 X44.8016 Y28.9371
G01 X44.6975 Y28.8328
G01 X44.6929 Y28.8291
G01 X44.6888 Y28.8274
G01 X44.5335 Y28.7767
G01 X44.5285 Y28.7763
G01 X44.4783 Y28.7763
G01 X44.4734 Y28.7767
G01 X44.3181 Y28.8274
G01 X44.3127 Y28.8299
G01 X44.3093 Y28.8328
G01 X44.2073 Y28.9348
G01 X44.2051 Y28.9373
G01 X44.2032 Y28.9402
G01 X44.2016 Y28.9450
G01 X44.1484 Y29.1530
G00 Z2.0000
G00 X44.2281 Y29.6440
G01 F60.00
G01 Z-0.0500
G01 F120.00
G01 X44.2281 Y29.7191
G01 X44.3081 Y29.7812
G01 X44.3081 Y29.8400
G01 X44.3881 Y29.8360
G01 X44.3881 Y29.8702
G01 X44.4681 Y29.8622
G01 X44.4681 Y29.8964
G01 X44.5481 Y29.8984
G01 X44.5481 Y29.8659
G00 Z2.0000
G00 X44.6281 Y29.8496
G01 F60.00
G01 Z-0.0500
G01 F120.00
G01 X44.6281 Y29.8838
G01 X44.7081 Y29.8575
G01 X44.7081 Y29.8228
G00 Z2.0000
G00 X44.7881 Y29.7649
G01 F60.00
G01 Z-0.0500
G01 F120.00
G01 X44.7881 Y29.7111
G00 Z2.0000
G00 X43.1588 Y29.3816
G01 F60.00
G01 Z-0.0500
G01 F120.00
G01 X43.1588 Y29.3464
G00 Z2.0000
G00 X45.1438 Y28.0118
G01 F60.00
G01 Z-0.0500
G01 F120.00
G01 X45.1438 Y27.9659
G01 X45.0638 Y27.9060
G01 X45.0638 Y27.8324
G00 Z2.0000
G00 X45.2238 Y28.0427
G01 F60.00
G01 Z-0.0500
G01 F120.00
G01 X45.2238 Y28.0790
G00 Z2.0000
G00 X45.3038 Y28.0819
G01 F60.00
G01 Z-0.0500
G01 F120.00
G01 X45.3038 Y28.1180
G01 X45.3838 Y28.1204
G01 X45.3838 Y28.0879
G01 X45.4638 Y28.0879
G01 X45.4638 Y28.1204
G01 X45.5438 Y28.1108
G01 X45.5438 Y28.0745
G01 X45.6238 Y28.0708
G01 X45.6238 Y28.0289
G01 X45.7038 Y27.9949
G01 X45.7038 Y27.9489
G00 Z2.0000
G00 X45.7174 Y27.9311
G01 F60.00
G01 Z-0.0500
G01 F120.00
G01 X45.7646 Y27.8390
G01 X45.7671 Y27.8350
G01 X45.7693 Y27.8328
G01 X45.7719 Y27.8310
G01 X45.7748 Y27.8297
G01 X45.7779 Y27.8290
G01 X45.7811 Y27.8290
G01 X45.7826 Y27.8292
G01 X45.7842 Y27.8295
G01 X45.7871 Y27.8307
G01 X45.7898 Y27.8324
G01 X45.7921 Y27.8346
G01 X45.7939 Y27.8372
G01 X45.7956 Y27.8416
G01 X45.7959 Y27.8464
G01 X45.7948 Y27.8510
G01 X45.7936 Y27.8538
G01 X45.7416 Y27.9552
G01 X45.7400 Y27.9580
G01 X45.7368 Y27.9618
G01 X45.6324 Y28.0659
G01 X45.6281 Y28.0686
G01 X45.5292 Y28.1181
G01 X45.5251 Y28.1197
G01 X45.5193 Y28.1204
G01 X45.3138 Y28.1204
G01 X45.3095 Y28.1201
G01 X45.3067 Y28.1193
G01 X45.2026 Y28.0687
G01 X45.1982 Y28.0660
G01 X45.0938 Y27.9618
G01 X45.0906 Y27.9580
G01 X45.0358 Y27.8513
G01 X44.9842 Y27.6909
G01 X44.9838 Y27.6860
G01 X44.9839 Y27.4268
G01 X44.9851 Y27.4220
G01 X45.0358 Y27.2673
G01 X45.0890 Y27.1634
G01 X45.0906 Y27.1606
G01 X45.0938 Y27.1569
G01 X45.1982 Y27.0527
G01 X45.2026 Y27.0500
G01 X45.3041 Y27.0005
G01 X45.3095 Y26.9986
G01 X45.3138 Y26.9983
G01 X45.5193 Y26.9983
G01 X45.5237 Y26.9986
G01 X45.5266 Y26.9994
G01 X45.6281 Y27.0501
G01 X45.6324 Y27.0527
G01 X45.7368 Y27.1569
G01 X45.7390 Y27.1593
G01 X45.7416 Y27.1634
G01 X45.7936 Y27.2649
G01 X45.7957 Y27.2707
G01 X45.7958 Y27.2754
G01 X45.7946 Y27.2800
G01 X45.7921 Y27.2841
G01 X45.7885 Y27.2872
G01 X45.7857 Y27.2886
G01 X45.7811 Y27.2897
G01 X45.7763 Y27.2894
G01 X45.7719 Y27.2877
G01 X45.7681 Y27.2848
G01 X45.7646 Y27.2797
G01 X45.7168 Y27.1864
G01 X45.7118 Y27.1785
G01 X45.7065 Y27.1724
G01 X45.6172 Y27.0833
G01 X45.6111 Y27.0785
G01 X45.6052 Y27.0749
G01 X45.5295 Y27.0371
G01 X45.5218 Y27.0339
G01 X45.5122 Y27.0315
G01 X45.5039 Y27.0308
G01 X45.3300 Y27.0307
G01 X45.3207 Y27.0315
G01 X45.3124 Y27.0334
G01 X45.3051 Y27.0361
G01 X45.2269 Y27.0743
G01 X45.2179 Y27.0797
G01 X45.2107 Y27.0858
G01 X45.1232 Y27.1734
G01 X45.1180 Y27.1796
G01 X45.1140 Y27.1859
G01 X45.0680 Y27.2757
G01 X45.0653 Y27.2816
G01 X45.0192 Y27.4220
G01 X45.0177 Y27.4276
G01 X45.0166 Y27.4339
G01 X45.0162 Y27.4407
G01 X45.0162 Y27.6756
G01 X45.0165 Y27.6813
G01 X45.0174 Y27.6875
G01 X45.0191 Y27.6940
G01 X45.0659 Y27.8384
G01 X45.1131 Y27.9311
G01 X45.1188 Y27.9402
G01 X45.1241 Y27.9462
G01 X45.2107 Y28.0329
G01 X45.2170 Y28.0383
G01 X45.2215 Y28.0414
G01 X45.2269 Y28.0444
G01 X45.3037 Y28.0818
G01 X45.3091 Y28.0842
G01 X45.3187 Y28.0868
G01 X45.3289 Y28.0879
G01 X45.5027 Y28.0879
G01 X45.5122 Y28.0872
G01 X45.5207 Y28.0851
G01 X45.5295 Y28.0816
G01 X45.6052 Y28.0438
G01 X45.6122 Y28.0394
G01 X45.6186 Y28.0341
G01 X45.7074 Y27.9453
G01 X45.7125 Y27.9391
G01 X45.7174 Y27.9311
G01 X45.7838 Y27.8729
G01 X45.7838 Y27.8294
G00 Z2.0000
G00 X46.1864 Y28.0102
G01 F60.00
G01 Z-0.0500
G01 F120.00
G01 X46.1864 Y27.7841
G00 Z2.0000
G00 X46.2664 Y28.0493
G01 F60.00
G01 Z-0.0500
G01 F120.00
G01 X46.2664 Y28.0834
G01 X46.3464 Y28.0755
G01 X46.3464 Y28.1097
G01 X46.4264 Y28.1204
G01 X46.4264 Y28.0879
G01 X46.5064 Y28.0879
G01 X46.5064 Y28.1204
G01 X46.5864 Y28.1204
G01 X46.5864 Y28.0873
G00 Z2.0000
G00 X46.6664 Y28.0962
G01 F60.00
G01 Z-0.0500
G01 F120.00
G01 X46.6664 Y28.0620
G01 X46.7464 Y28.0700
G01 X46.7464 Y28.0149
G00 Z2.0000
G00 X46.7464 Y27.7794
G01 F60.00
G01 Z-0.0500
G01 F120.00
G01 X46.7464 Y27.7234
G01 X46.6664 Y27.7190
G01 X46.6664 Y27.5779
G01 X46.7464 Y27.5567
G01 X46.7464 Y27.5108
G01 X46.8264 Y27.4612
G01 X46.8264 Y27.3872
G00 Z2.0000
G00 X46.6264 Y27.6596
G01 F60.00
G01 Z-0.0500
G01 F120.00
G01 X46.6264 Y27.6328
G01 X46.6373 Y27.6293
G01 X46.5795 Y27.6480
G01 X46.6358 Y27.6619
G01 X46.6351 Y27.6480
G01 X46.6357 Y27.6396
G01 X46.6373 Y27.6293
G00 Z2.0000
G00 X46.5864 Y27.6037
G01 F60.00
G01 Z-0.0500
G01 F120.00
G01 X46.5864 Y27.6909
G00 Z2.0000
G00 X46.5064 Y27.6275
G01 F60.00
G01 Z-0.0500
G01 F120.00
G01 X46.5064 Y27.6711
G00 Z2.0000
G00 X46.4715 Y27.6696
G01 F60.00
G01 Z-0.0500
G01 F120.00
G01 X46.4789 Y27.6683
G01 X46.4847 Y27.6679
G01 X46.4917 Y27.6682
G01 X46.4974 Y27.6690
G01 X46.6334 Y27.7027
G01 X46.6413 Y27.7061
G01 X46.7184 Y27.7457
G01 X46.7236 Y27.7491
G01 X46.7285 Y27.7530
G01 X46.7329 Y27.7574
G01 X46.7376 Y27.7633
G01 X46.7417 Y27.7702
G01 X46.7755 Y27.8361
G01 X46.7784 Y27.8428
G01 X46.7801 Y27.8483
G01 X46.7815 Y27.8550
G01 X46.7821 Y27.8623
G01 X46.7820 Y27.9337
G01 X46.7815 Y27.9393
G01 X46.7804 Y27.9449
G01 X46.7788 Y27.9504
G01 X46.7767 Y27.9556
G01 X46.7442 Y28.0191
G01 X46.7403 Y28.0255
G01 X46.7358 Y28.0310
G01 X46.7308 Y28.0360
G01 X46.7254 Y28.0402
G01 X46.7182 Y28.0444
G01 X46.7101 Y28.0477
G01 X46.5966 Y28.0849
G01 X46.5860 Y28.0874
G01 X46.5779 Y28.0879
G01 X46.3921 Y28.0879
G01 X46.3845 Y28.0872
G01 X46.3765 Y28.0853
G01 X46.2589 Y28.0467
G01 X46.2514 Y28.0432
G01 X46.2437 Y28.0381
G01 X46.2368 Y28.0319
G01 X46.2315 Y28.0255
G01 X46.2270 Y28.0180
G01 X46.1958 Y27.9571
G01 X46.1926 Y27.9492
G01 X46.1907 Y27.9417
G01 X46.1897 Y27.9308
G01 X46.1898 Y27.8606
G01 X46.1903 Y27.8550
G01 X46.1914 Y27.8494
G01 X46.1930 Y27.8439
G01 X46.1956 Y27.8376
G01 X46.2322 Y27.7664
G01 X46.2365 Y27.7602
G01 X46.2414 Y27.7548
G01 X46.2471 Y27.7499
G01 X46.2522 Y27.7463
G01 X46.3305 Y27.7061
G01 X46.3384 Y27.7027
G01 X46.4715 Y27.6696
G01 X46.4264 Y27.6808
G01 X46.4264 Y27.6169
G00 Z2.0000
G00 X46.3864 Y27.6494
G01 F60.00
G01 Z-0.0500
G01 F120.00
G01 X46.3864 Y27.6461
G01 X46.3345 Y27.6293
G01 X46.3923 Y27.6480
G01 X46.3360 Y27.6619
G01 X46.3366 Y27.6480
G01 X46.3361 Y27.6396
G01 X46.3345 Y27.6293
G00 Z2.0000
G00 X46.3464 Y27.5911
G01 F60.00
G01 Z-0.0500
G01 F120.00
G01 X46.3464 Y27.7005
G01 X46.2664 Y27.7023
G01 X46.2664 Y27.7389
G00 Z2.0000
G00 X46.2686 Y27.5994
G01 F60.00
G01 Z-0.0500
G01 F120.00
G01 X46.2768 Y27.6057
G01 X46.2839 Y27.6132
G01 X46.2896 Y27.6219
G01 X46.2920 Y27.6271
G01 X46.2940 Y27.6325
G01 X46.2954 Y27.6381
G01 X46.2963 Y27.6438
G01 X46.2965 Y27.6542
G01 X46.2959 Y27.6599
G01 X46.2947 Y27.6656
G01 X46.2912 Y27.6753
G01 X46.2873 Y27.6825
G01 X46.2832 Y27.6881
G01 X46.2778 Y27.6940
G01 X46.2714 Y27.6991
G01 X46.2640 Y27.7036
G01 X46.2208 Y27.7258
G01 X46.2166 Y27.7284
G01 X46.2143 Y27.7308
G01 X46.2116 Y27.7349
G01 X46.1597 Y27.8364
G01 X46.1579 Y27.8405
G01 X46.1574 Y27.8436
G01 X46.1572 Y27.9478
G01 X46.1579 Y27.9538
G01 X46.1597 Y27.9579
G01 X46.2117 Y28.0595
G01 X46.2152 Y28.0646
G01 X46.2189 Y28.0675
G01 X46.2231 Y28.0692
G01 X46.3753 Y28.1191
G01 X46.3798 Y28.1202
G01 X46.3831 Y28.1204
G01 X46.5917 Y28.1202
G01 X46.5966 Y28.1191
G01 X46.7486 Y28.0692
G01 X46.7529 Y28.0675
G01 X46.7555 Y28.0657
G01 X46.7577 Y28.0634
G01 X46.7601 Y28.0595
G01 X46.8121 Y27.9579
G01 X46.8138 Y27.9538
G01 X46.8145 Y27.9478
G01 X46.8145 Y27.8465
G01 X46.8142 Y27.8420
G01 X46.8121 Y27.8364
G01 X46.7585 Y27.7321
G01 X46.7551 Y27.7284
G01 X46.7510 Y27.7258
G01 X46.7042 Y27.7016
G01 X46.6977 Y27.6971
G01 X46.6925 Y27.6924
G01 X46.6879 Y27.6872
G01 X46.6845 Y27.6825
G01 X46.6816 Y27.6775
G01 X46.6793 Y27.6722
G01 X46.6774 Y27.6667
G01 X46.6759 Y27.6599
G01 X46.6752 Y27.6542
G01 X46.6752 Y27.6472
G01 X46.6763 Y27.6381
G01 X46.6793 Y27.6282
G01 X46.6834 Y27.6198
G01 X46.6894 Y27.6114
G01 X46.6958 Y27.6049
G01 X46.7067 Y27.5965
G01 X46.8109 Y27.4919
G01 X46.8136 Y27.4875
G01 X46.8631 Y27.3861
G01 X46.8647 Y27.3821
G01 X46.8653 Y27.3764
G01 X46.8653 Y27.2216
G01 X46.8650 Y27.2173
G01 X46.8631 Y27.2119
G01 X46.8135 Y27.1102
G01 X46.8105 Y27.1054
G01 X46.7571 Y27.0545
G01 X46.7526 Y27.0511
G01 X46.7488 Y27.0495
G01 X46.5966 Y26.9996
G01 X46.5917 Y26.9984
G01 X46.3800 Y26.9984
G01 X46.3752 Y26.9996
G01 X46.2230 Y27.0495
G01 X46.2179 Y27.0518
G01 X46.2146 Y27.0545
G01 X46.1632 Y27.1034
G01 X46.1604 Y27.1066
G01 X46.1583 Y27.1102
G01 X46.1076 Y27.2145
G01 X46.1068 Y27.2173
G01 X46.1064 Y27.2216
G01 X46.1066 Y27.3792
G01 X46.1071 Y27.3821
G01 X46.1087 Y27.3861
G01 X46.1581 Y27.4875
G01 X46.1609 Y27.4919
G01 X46.2651 Y27.5965
G01 X46.2686 Y27.5994
G00 Z2.0000
G00 X46.2664 Y27.5977
G01 F60.00
G01 Z-0.0500
G01 F120.00
G01 X46.2664 Y27.5519
G01 X46.1864 Y27.5178
G01 X46.1864 Y27.4702
G00 Z2.0000
G00 X46.1864 Y27.1280
G01 F60.00
G01 Z-0.0500
G01 F120.00
G01 X46.1864 Y27.0813
G01 X46.2664 Y27.0694
G01 X46.2664 Y27.0352
G01 X46.3464 Y27.0432
G01 X46.3464 Y27.0090
G01 X46.4264 Y26.9983
G01 X46.4264 Y27.0307
G01 X46.5064 Y27.0307
G01 X46.5064 Y26.9983
G01 X46.5864 Y26.9983
G01 X46.5864 Y27.0314
G00 Z2.0000
G00 X46.6664 Y27.0225
G01 F60.00
G01 Z-0.0500
G01 F120.00
G01 X46.6664 Y27.0566
G01 X46.7464 Y27.0487
G01 X46.7464 Y27.0891
G01 X46.8264 Y27.1367
G01 X46.8264 Y27.2108
G00 Z2.0000
G00 X46.5003 Y27.6291
G01 F60.00
G01 Z-0.0500
G01 F120.00
G01 X46.4905 Y27.6306
G01 X46.4847 Y27.6308
G01 X46.4789 Y27.6304
G01 X46.4715 Y27.6291
G01 X46.4404 Y27.6214
G01 X46.2990 Y27.5758
G01 X46.2911 Y27.5725
G01 X46.2844 Y27.5685
G01 X46.2761 Y27.5615
G01 X46.1940 Y27.4794
G01 X46.1885 Y27.4731
G01 X46.1854 Y27.4686
G01 X46.1825 Y27.4633
G01 X46.1445 Y27.3854
G01 X46.1423 Y27.3799
G01 X46.1405 Y27.3736
G01 X46.1393 Y27.3671
G01 X46.1389 Y27.3613
G01 X46.1389 Y27.2367
G01 X46.1396 Y27.2286
G01 X46.1416 Y27.2202
G01 X46.1450 Y27.2115
G01 X46.1821 Y27.1356
G01 X46.1867 Y27.1277
G01 X46.1899 Y27.1234
G01 X46.1938 Y27.1192
G01 X46.2267 Y27.0879
G01 X46.2335 Y27.0826
G01 X46.2408 Y27.0784
G01 X46.2482 Y27.0754
G01 X46.3752 Y27.0337
G01 X46.3858 Y27.0313
G01 X46.3939 Y27.0307
G01 X46.5779 Y27.0307
G01 X46.5860 Y27.0313
G01 X46.5922 Y27.0325
G01 X46.7246 Y27.0757
G01 X46.7329 Y27.0794
G01 X46.7410 Y27.0845
G01 X46.7462 Y27.0889
G01 X46.7780 Y27.1192
G01 X46.7819 Y27.1234
G01 X46.7857 Y27.1286
G01 X46.7897 Y27.1355
G01 X46.8273 Y27.2126
G01 X46.8295 Y27.2180
G01 X46.8313 Y27.2243
G01 X46.8323 Y27.2297
G01 X46.8328 Y27.2363
G01 X46.8329 Y27.3601
G01 X46.8321 Y27.3694
G01 X46.8302 Y27.3778
G01 X46.8268 Y27.3864
G01 X46.7893 Y27.4633
G01 X46.7864 Y27.4686
G01 X46.7826 Y27.4740
G01 X46.7778 Y27.4794
G01 X46.6949 Y27.5623
G01 X46.6893 Y27.5671
G01 X46.6825 Y27.5715
G01 X46.6774 Y27.5740
G01 X46.6717 Y27.5762
G01 X46.5343 Y27.6205
G01 X46.5003 Y27.6291
G00 Z2.0000
G00 X45.7838 Y27.2892
G01 F60.00
G01 Z-0.0500
G01 F120.00
G01 X45.7838 Y27.2458
G01 X45.7038 Y27.1697
G01 X45.7038 Y27.1238
G01 X45.6238 Y27.0897
G01 X45.6238 Y27.0479
G01 X45.5438 Y27.0442
G01 X45.5438 Y27.0079
G01 X45.4638 Y26.9983
G01 X45.4638 Y27.0307
G01 X45.3838 Y27.0307
G01 X45.3838 Y26.9983
G01 X45.3038 Y27.0007
G01 X45.3038 Y27.0368
G00 Z2.0000
G00 X45.2238 Y27.0759
G01 F60.00
G01 Z-0.0500
G01 F120.00
G01 X45.2238 Y27.0397
G00 Z2.0000
G00 X45.1438 Y27.1068
G01 F60.00
G01 Z-0.0500
G01 F120.00
G01 X45.1438 Y27.1528
G01 X45.0638 Y27.2126
G01 X45.0638 Y27.2861
G00 Z2.0000
G00 X40.7038 Y29.0672
G01 F60.00
G01 Z-0.0500
G01 F120.00
G01 X40.7038 Y29.0237
G01 X40.6238 Y28.9477
G01 X40.6238 Y28.9018
G01 X40.5438 Y28.8677
G01 X40.5438 Y28.8259
G01 X40.4638 Y28.8222
G01 X40.4638 Y28.7859
G01 X40.3838 Y28.7763
G01 X40.3838 Y28.8087
G01 X40.3038 Y28.8087
G01 X40.3038 Y28.7763
G01 X40.2238 Y28.7787
G01 X40.2238 Y28.8148
G00 Z2.0000
G00 X40.1438 Y28.8539
G01 F60.00
G01 Z-0.0500
G01 F120.00
G01 X40.1438 Y28.8177
G00 Z2.0000
G00 X40.0638 Y28.8849
G01 F60.00
G01 Z-0.0500
G01 F120.00
G01 X40.0638 Y28.9308
G01 X39.9838 Y28.9907
G01 X39.9838 Y29.0642
G00 Z2.0000
G00 X35.0091 Y37.3783
G01 F60.00
G01 Z-0.0500
G01 F120.00
G01 X35.0091 Y37.3054
G01 X34.9291 Y37.2713
G01 X34.9291 Y37.2254
G01 X34.8491 Y37.2237
G01 X34.8491 Y37.1895
G01 X34.7691 Y37.1975
G01 X34.7691 Y37.1633
G01 X34.6891 Y37.1602
G01 X34.6891 Y37.1944
G01 X34.6091 Y37.1865
G01 X34.6091 Y37.2207
G01 X34.5291 Y37.2160
G01 X34.5291 Y37.2620
G00 Z2.0000
G00 X35.0091 Y37.6438
G01 F60.00
G01 Z-0.0500
G01 F120.00
G01 X35.0091 Y37.7167
G01 X34.9291 Y37.7508
G01 X34.9291 Y37.7967
G01 X34.8491 Y37.7984
G01 X34.8491 Y37.8326
G01 X34.7691 Y37.8246
G01 X34.7691 Y37.8588
G01 X34.6891 Y37.8619
G01 X34.6891 Y37.8277
G01 X34.6091 Y37.8356
G01 X34.6091 Y37.8015
G01 X34.5291 Y37.8061
G01 X34.5291 Y37.7601
G00 Z2.0000
G00 X34.4491 Y37.7762
G01 F60.00
G01 Z-0.0500
G01 F120.00
G01 X34.4491 Y37.6729
G00 Z2.0000
G00 X34.4474 Y37.7350
G01 F60.00
G01 Z-0.0500
G01 F120.00
G01 X34.4312 Y37.7186
G01 X34.4241 Y37.7098
G01 X34.4202 Y37.7042
G01 X34.4158 Y37.6963
G01 X34.4121 Y37.6880
G01 X34.4091 Y37.6797
G01 X34.4091 Y37.7534
G01 X34.4188 Y37.7467
G01 X34.4274 Y37.7420
G01 X34.4365 Y37.7382
G01 X34.4474 Y37.7350
G00 Z2.0000
G00 X34.4081 Y37.5540
G01 F60.00
G01 Z-0.0500
G01 F120.00
G01 X34.4061 Y37.5468
G01 X34.4050 Y37.5386
G01 X34.4050 Y37.5306
G01 X34.4061 Y37.5225
G01 X34.4492 Y37.3537
G01 X34.4510 Y37.3481
G01 X34.4535 Y37.3422
G01 X34.4579 Y37.3346
G01 X34.4640 Y37.3271
G01 X34.5423 Y37.2488
G01 X34.5469 Y37.2448
G01 X34.5515 Y37.2416
G01 X34.5574 Y37.2382
G01 X34.5625 Y37.2360
G01 X34.6956 Y37.1925
G01 X34.7018 Y37.1913
G01 X34.7099 Y37.1907
G01 X34.7408 Y37.1908
G01 X34.7471 Y37.1913
G01 X34.7520 Y37.1922
G01 X34.7576 Y37.1937
G01 X34.8837 Y37.2351
G01 X34.8904 Y37.2377
G01 X34.8954 Y37.2404
G01 X34.9011 Y37.2441
G01 X34.9066 Y37.2488
G01 X34.9893 Y37.3319
G01 X34.9951 Y37.3401
G01 X34.9978 Y37.3450
G01 X34.9999 Y37.3502
G01 X35.0427 Y37.4809
G01 X35.0442 Y37.4884
G01 X35.0447 Y37.4966
G01 X35.0447 Y37.5287
G01 X35.0440 Y37.5350
G01 X35.0430 Y37.5399
G01 X35.0004 Y37.6703
G01 X34.9978 Y37.6771
G01 X34.9939 Y37.6840
G01 X34.9907 Y37.6886
G01 X34.9858 Y37.6940
G01 X34.9063 Y37.7736
G01 X34.9011 Y37.7780
G01 X34.8954 Y37.7817
G01 X34.8904 Y37.7844
G01 X34.8837 Y37.7870
G01 X34.7533 Y37.8296
G01 X34.7484 Y37.8306
G01 X34.7421 Y37.8313
G01 X34.7099 Y37.8314
G01 X34.7005 Y37.8306
G01 X34.6925 Y37.8288
G01 X34.5652 Y37.7870
G01 X34.5574 Y37.7839
G01 X34.5487 Y37.7787
G01 X34.5423 Y37.7733
G01 X34.4626 Y37.6936
G01 X34.4579 Y37.6884
G01 X34.4548 Y37.6839
G01 X34.4515 Y37.6783
G01 X34.4487 Y37.6718
G01 X34.4081 Y37.5540
G01 X34.3694 Y37.5350
G01 X34.3691 Y37.5390
G01 X34.3693 Y37.7984
G01 X34.4225 Y38.0577
G01 X34.4238 Y38.0621
G01 X34.4259 Y38.0660
G01 X34.5302 Y38.2235
G01 X34.5336 Y38.2267
G01 X34.5391 Y38.2292
G01 X34.6912 Y38.2791
G01 X34.6961 Y38.2802
G01 X34.6993 Y38.2804
G01 X34.8003 Y38.2804
G01 X34.8053 Y38.2799
G01 X34.9605 Y38.2292
G01 X34.9648 Y38.2274
G01 X34.9674 Y38.2256
G01 X34.9695 Y38.2234
G01 X34.9720 Y38.2194
G01 X35.0252 Y38.1151
G01 X35.0261 Y38.1121
G01 X35.0264 Y38.1089
G01 X35.0260 Y38.1058
G01 X35.0250 Y38.1028
G01 X35.0235 Y38.1000
G01 X35.0214 Y38.0976
G01 X35.0189 Y38.0956
G01 X35.0161 Y38.0942
G01 X35.0115 Y38.0931
G01 X35.0068 Y38.0934
G01 X35.0037 Y38.0944
G01 X35.0010 Y38.0959
G01 X34.9975 Y38.0992
G01 X34.9951 Y38.1031
G01 X34.9547 Y38.1817
G01 X34.9514 Y38.1865
G01 X34.9477 Y38.1910
G01 X34.9436 Y38.1952
G01 X34.9380 Y38.1996
G01 X34.9312 Y38.2038
G01 X34.9231 Y38.2073
G01 X34.8084 Y38.2449
G01 X34.8028 Y38.2465
G01 X34.7966 Y38.2475
G01 X34.7897 Y38.2479
G01 X34.7099 Y38.2479
G01 X34.6992 Y38.2469
G01 X34.6912 Y38.2449
G01 X34.5720 Y38.2058
G01 X34.5641 Y38.2024
G01 X34.5563 Y38.1976
G01 X34.5486 Y38.1908
G01 X34.5424 Y38.1833
G01 X34.4603 Y38.0592
G01 X34.4567 Y38.0528
G01 X34.4544 Y38.0476
G01 X34.4516 Y38.0382
G01 X34.4117 Y37.8444
G01 X34.4107 Y37.8368
G01 X34.4106 Y37.8285
G01 X34.4122 Y37.8180
G01 X34.4139 Y37.8124
G01 X34.4161 Y37.8069
G01 X34.4189 Y37.8017
G01 X34.4221 Y37.7968
G01 X34.4291 Y37.7888
G01 X34.4374 Y37.7823
G01 X34.4469 Y37.7771
G01 X34.4570 Y37.7738
G01 X34.4628 Y37.7728
G01 X34.4687 Y37.7723
G01 X34.4768 Y37.7726
G01 X34.4850 Y37.7741
G01 X34.4929 Y37.7767
G01 X34.5002 Y37.7802
G01 X34.5052 Y37.7834
G01 X34.5099 Y37.7870
G01 X34.5303 Y37.8073
G01 X34.5337 Y37.8102
G01 X34.5364 Y37.8116
G01 X34.6912 Y37.8625
G01 X34.6961 Y37.8637
G01 X34.7495 Y37.8638
G01 X34.7545 Y37.8634
G01 X34.9098 Y37.8127
G01 X34.9139 Y37.8110
G01 X34.9164 Y37.8093
G01 X35.0207 Y37.7051
G01 X35.0243 Y37.7005
G01 X35.0261 Y37.6964
G01 X35.0768 Y37.5411
G01 X35.0772 Y37.5361
G01 X35.0772 Y37.4860
G01 X35.0768 Y37.4810
G01 X35.0261 Y37.3257
G01 X35.0243 Y37.3216
G01 X35.0207 Y37.3170
G01 X34.9185 Y37.2148
G01 X34.9152 Y37.2119
G01 X34.9125 Y37.2105
G01 X34.7545 Y37.1587
G01 X34.7495 Y37.1583
G01 X34.6993 Y37.1583
G01 X34.6944 Y37.1587
G01 X34.6912 Y37.1596
G01 X34.5391 Y37.2094
G01 X34.5350 Y37.2111
G01 X34.5303 Y37.2148
G01 X34.4283 Y37.3168
G01 X34.4261 Y37.3193
G01 X34.4242 Y37.3222
G01 X34.4226 Y37.3270
G01 X34.3694 Y37.5350
G01 X34.4491 Y37.3542
G01 X34.4491 Y37.2961
G00 Z2.0000
G00 X34.0198 Y37.4673
G01 F60.00
G01 Z-0.0500
G01 F120.00
G01 X34.0198 Y37.3631
G01 X33.9398 Y37.3005
G01 X33.9398 Y37.2546
G01 X33.8598 Y37.2333
G01 X33.8598 Y37.1991
G01 X33.7798 Y37.1729
G01 X33.7798 Y37.2071
G00 Z2.0000
G00 X33.6998 Y37.1907
G01 F60.00
G01 Z-0.0500
G01 F120.00
G01 X33.6998 Y37.1583
G01 X33.6198 Y37.1602
G01 X33.6198 Y37.1944
G01 X33.5398 Y37.1860
G01 X33.5398 Y37.2202
G01 X33.4598 Y37.2136
G01 X33.4598 Y37.2595
G00 Z2.0000
G00 X33.3798 Y37.2935
G01 F60.00
G01 Z-0.0500
G01 F120.00
G01 X33.3798 Y37.3439
G00 Z2.0000
G00 X33.3322 Y37.4966
G01 F60.00
G01 Z-0.0500
G01 F120.00
G01 X33.3330 Y37.4871
G01 X33.3348 Y37.4791
G01 X33.3769 Y37.3507
G01 X33.3792 Y37.3450
G01 X33.3825 Y37.3391
G01 X33.3863 Y37.3335
G01 X33.3903 Y37.3289
G01 X33.4703 Y37.2490
G01 X33.4759 Y37.2442
G01 X33.4816 Y37.2404
G01 X33.4866 Y37.2378
G01 X33.4934 Y37.2351
G01 X33.6250 Y37.1928
G01 X33.6324 Y37.1913
G01 X33.6404 Y37.1907
G01 X33.7204 Y37.1907
G01 X33.7311 Y37.1917
G01 X33.7391 Y37.1937
G01 X33.8689 Y37.2364
G01 X33.8740 Y37.2388
G01 X33.8789 Y37.2416
G01 X33.8834 Y37.2448
G01 X33.8877 Y37.2485
G01 X33.9692 Y37.3301
G01 X33.9728 Y37.3344
G01 X33.9766 Y37.3401
G01 X33.9792 Y37.3450
G01 X33.9815 Y37.3507
G01 X34.0232 Y37.4779
G01 X34.0252 Y37.4858
G01 X34.0260 Y37.4921
G01 X34.0262 Y38.2627
G01 X34.0270 Y38.2688
G01 X34.0290 Y38.2731
G01 X34.0322 Y38.2766
G01 X34.0363 Y38.2791
G01 X34.0409 Y38.2802
G01 X34.0456 Y38.2800
G01 X34.0501 Y38.2784
G01 X34.0539 Y38.2756
G01 X34.0559 Y38.2731
G01 X34.0574 Y38.2703
G01 X34.0583 Y38.2673
G01 X34.0587 Y38.2627
G01 X34.0585 Y37.4827
G01 X34.0574 Y37.4778
G01 X34.0075 Y37.3257
G01 X34.0050 Y37.3203
G01 X34.0021 Y37.3170
G01 X33.9000 Y37.2148
G01 X33.8966 Y37.2119
G01 X33.8940 Y37.2105
G01 X33.7359 Y37.1587
G01 X33.7310 Y37.1583
G01 X33.6300 Y37.1583
G01 X33.6251 Y37.1587
G01 X33.6220 Y37.1595
G01 X33.4673 Y37.2094
G01 X33.4632 Y37.2111
G01 X33.4585 Y37.2148
G01 X33.3563 Y37.3170
G01 X33.3534 Y37.3203
G01 X33.3509 Y37.3257
G01 X33.3011 Y37.4778
G01 X33.2999 Y37.4827
G01 X33.2998 Y37.4860
G01 X33.2998 Y38.2627
G01 X33.3001 Y38.2673
G01 X33.3011 Y38.2703
G01 X33.3026 Y38.2731
G01 X33.3046 Y38.2756
G01 X33.3070 Y38.2776
G01 X33.3098 Y38.2791
G01 X33.3128 Y38.2800
G01 X33.3160 Y38.2803
G01 X33.3192 Y38.2800
G01 X33.3222 Y38.2791
G01 X33.3250 Y38.2776
G01 X33.3274 Y38.2756
G01 X33.3294 Y38.2731
G01 X33.3309 Y38.2703
G01 X33.3319 Y38.2673
G01 X33.3322 Y38.2627
G01 X33.3322 Y37.4966
G00 Z2.0000
G00 X32.7607 Y37.0143
G01 F60.00
G01 Z-0.0500
G01 F120.00
G01 X33.0464 Y37.0143
G01 X33.0869 Y36.9543
G01 X32.7202 Y36.9543
G01 X32.7045 Y36.8943
G01 X33.1025 Y36.8943
G01 X33.1035 Y36.8694
G01 X33.1030 Y36.8890
G01 X33.1021 Y36.8988
G01 X33.0987 Y36.9181
G01 X33.0935 Y36.9370
G01 X33.0902 Y36.9463
G01 X33.0864 Y36.9553
G01 X33.0776 Y36.9729
G01 X33.0725 Y36.9813
G01 X33.0612 Y36.9974
G01 X33.0550 Y37.0049
G01 X33.0484 Y37.0122
G01 X33.0415 Y37.0192
G01 X33.0266 Y37.0320
G01 X33.0187 Y37.0378
G01 X33.0021 Y37.0483
G01 X32.9846 Y37.0572
G01 X32.9755 Y37.0609
G01 X32.9663 Y37.0642
G01 X32.9473 Y37.0695
G01 X32.9280 Y37.0728
G01 X32.9182 Y37.0738
G01 X32.8986 Y37.0743
G01 X32.8790 Y37.0728
G01 X32.8597 Y37.0695
G01 X32.8501 Y37.0671
G01 X32.8315 Y37.0609
G01 X32.8224 Y37.0572
G01 X32.8049 Y37.0483
G01 X32.7883 Y37.0378
G01 X32.7804 Y37.0320
G01 X32.7656 Y37.0192
G01 X32.7586 Y37.0122
G01 X32.7520 Y37.0049
G01 X32.7399 Y36.9895
G01 X32.7345 Y36.9813
G01 X32.7248 Y36.9642
G01 X32.7206 Y36.9553
G01 X32.7169 Y36.9463
G01 X32.7107 Y36.9276
G01 X32.7083 Y36.9181
G01 X32.7049 Y36.8988
G01 X32.7040 Y36.8890
G01 X32.7035 Y36.8792
G01 X32.7035 Y36.8694
G01 X32.7049 Y36.8498
G01 X32.7064 Y36.8401
G01 X32.7083 Y36.8304
G01 X32.7107 Y36.8209
G01 X32.7169 Y36.8023
G01 X32.7248 Y36.7843
G01 X32.7294 Y36.7757
G01 X32.7345 Y36.7672
G01 X32.7399 Y36.7591
G01 X32.7458 Y36.7512
G01 X32.7586 Y36.7363
G01 X32.7728 Y36.7228
G01 X32.7804 Y36.7166
G01 X32.7883 Y36.7107
G01 X32.7965 Y36.7052
G01 X32.8049 Y36.7002
G01 X32.8224 Y36.6914
G01 X32.8408 Y36.6843
G01 X32.8597 Y36.6791
G01 X32.8790 Y36.6757
G01 X32.8888 Y36.6747
G01 X32.9084 Y36.6743
G01 X32.9182 Y36.6747
G01 X32.9280 Y36.6757
G01 X32.9473 Y36.6791
G01 X32.9663 Y36.6843
G01 X32.9755 Y36.6876
G01 X32.9935 Y36.6956
G01 X33.0105 Y36.7052
G01 X33.0187 Y36.7107
G01 X33.0266 Y36.7166
G01 X33.0342 Y36.7228
G01 X33.0415 Y36.7294
G01 X33.0550 Y36.7436
G01 X33.0612 Y36.7512
G01 X33.0725 Y36.7672
G01 X33.0776 Y36.7757
G01 X33.0864 Y36.7932
G01 X33.0935 Y36.8115
G01 X33.0987 Y36.8304
G01 X33.1006 Y36.8401
G01 X33.1030 Y36.8596
G01 X33.1035 Y36.8694
G01 X33.0995 Y36.8343
G01 X32.7075 Y36.8343
G01 X32.7303 Y36.7743
G01 X33.0768 Y36.7743
G01 X33.0235 Y36.7143
G01 X32.7835 Y36.7143
G00 Z2.0000
G00 X34.4491 Y38.0260
G01 F60.00
G01 Z-0.0500
G01 F120.00
G01 X34.4491 Y38.1011
G01 X34.5291 Y38.1632
G01 X34.5291 Y38.2220
G01 X34.6091 Y38.2180
G01 X34.6091 Y38.2522
G01 X34.6891 Y38.2442
G01 X34.6891 Y38.2784
G01 X34.7691 Y38.2804
G01 X34.7691 Y38.2479
G00 Z2.0000
G00 X34.8491 Y38.2316
G01 F60.00
G01 Z-0.0500
G01 F120.00
G01 X34.8491 Y38.2658
G01 X34.9291 Y38.2395
G01 X34.9291 Y38.2048
G00 Z2.0000
G00 X35.0091 Y38.1469
G01 F60.00
G01 Z-0.0500
G01 F120.00
G01 X35.0091 Y38.0931
G00 Z2.0000
G00 X35.4168 Y42.8285
G01 F60.00
G01 Z-0.0500
G01 F120.00
G01 X35.4168 Y42.7679
G01 X35.3368 Y42.8938
G01 X35.3368 Y42.9543
G01 X35.2568 Y43.0197
G01 X35.2568 Y43.0802
G01 X35.1768 Y43.1455
G01 X35.1768 Y43.2061
G01 X35.0968 Y43.2714
G01 X35.0968 Y43.3502
G01 X35.0168 Y43.3502
G01 X35.0168 Y43.3178
G01 X34.9368 Y43.3178
G01 X34.9368 Y43.3502
G01 X34.8568 Y43.3502
G01 X34.8568 Y43.3178
G00 Z2.0000
G00 X34.7768 Y43.3164
G01 F60.00
G01 Z-0.0500
G01 F120.00
G01 X34.7768 Y43.3516
G00 Z2.0000
G00 X35.1195 Y43.3102
G01 F60.00
G01 Z-0.0500
G01 F120.00
G01 X35.1226 Y43.3102
G01 X35.1212 Y43.3075
G01 X35.1195 Y43.3102
G00 Z2.0000
G00 X35.1768 Y43.3130
G01 F60.00
G01 Z-0.0500
G01 F120.00
G01 X35.1768 Y43.3509
G00 Z2.0000
G00 X35.2568 Y43.3420
G01 F60.00
G01 Z-0.0500
G01 F120.00
G01 X35.2568 Y43.3761
G01 X35.3368 Y43.3682
G01 X35.3368 Y43.4086
G01 X35.4168 Y43.4562
G01 X35.4168 Y43.5303
G00 Z2.0000
G00 X35.4168 Y43.6533
G01 F60.00
G01 Z-0.0500
G01 F120.00
G01 X35.4168 Y43.7274
G01 X35.3368 Y43.7769
G01 X35.3368 Y43.8180
G01 X35.2568 Y43.8100
G01 X35.2568 Y43.8442
G00 Z2.0000
G00 X35.1768 Y43.8353
G01 F60.00
G01 Z-0.0500
G01 F120.00
G01 X35.1768 Y43.8684
G01 X35.0968 Y43.8684
G01 X35.0968 Y43.8359
G01 X35.0168 Y43.8359
G01 X35.0168 Y43.8684
G01 X34.9368 Y43.8684
G01 X34.9368 Y43.8359
G01 X34.8568 Y43.8359
G01 X34.8568 Y43.8684
G01 X34.7892 Y43.8359
G01 X34.7817 Y43.8354
G01 X34.7759 Y43.8344
G01 X34.7690 Y43.8324
G01 X34.7636 Y43.8302
G01 X34.7573 Y43.8267
G01 X34.7516 Y43.8226
G01 X34.7465 Y43.8180
G01 X34.7418 Y43.8126
G01 X34.7366 Y43.8046
G01 X34.7327 Y43.7961
G01 X34.7303 Y43.7871
G01 X34.7293 Y43.7776
G01 X34.7292 Y43.4102
G01 X34.7296 Y43.4039
G01 X34.7317 Y43.3933
G01 X34.7355 Y43.3835
G01 X34.7410 Y43.3745
G01 X34.7448 Y43.3699
G01 X34.7489 Y43.3658
G01 X34.7535 Y43.3620
G01 X34.7584 Y43.3588
G01 X34.7679 Y43.3542
G01 X34.7735 Y43.3523
G01 X34.7792 Y43.3511
G01 X34.7892 Y43.3502
G01 X35.1682 Y43.3502
G01 X35.1777 Y43.3510
G01 X35.1869 Y43.3532
G01 X35.3153 Y43.3954
G01 X35.3213 Y43.3978
G01 X35.3260 Y43.4004
G01 X35.3346 Y43.4066
G01 X35.3694 Y43.4398
G01 X35.3743 Y43.4456
G01 X35.3783 Y43.4517
G01 X35.4183 Y43.5335
G01 X35.4202 Y43.5386
G01 X35.4219 Y43.5449
G01 X35.4228 Y43.5503
G01 X35.4232 Y43.5573
G01 X35.4231 Y43.6301
G01 X35.4214 Y43.6409
G01 X35.4178 Y43.6511
G01 X35.3796 Y43.7294
G01 X35.3742 Y43.7384
G01 X35.3681 Y43.7456
G01 X35.3346 Y43.7789
G01 X35.3267 Y43.7851
G01 X35.3186 Y43.7894
G01 X35.3130 Y43.7916
G01 X35.1869 Y43.8329
G01 X35.1790 Y43.8349
G01 X35.1727 Y43.8357
G01 X34.7892 Y43.8359
G00 Z2.0000
G00 X34.7768 Y43.8346
G01 F60.00
G01 Z-0.0500
G01 F120.00
G01 X34.7768 Y43.8684
G01 X34.6968 Y43.8507
G01 X34.6975 Y43.8568
G01 X34.6987 Y43.8598
G01 X34.7005 Y43.8624
G01 X34.7040 Y43.8656
G01 X34.7083 Y43.8676
G01 X34.7145 Y43.8684
G01 X35.1788 Y43.8684
G01 X35.1821 Y43.8682
G01 X35.1869 Y43.8671
G01 X35.3390 Y43.8172
G01 X35.3431 Y43.8155
G01 X35.3478 Y43.8118
G01 X35.3989 Y43.7607
G01 X35.4023 Y43.7567
G01 X35.4534 Y43.6522
G01 X35.4554 Y43.6468
G01 X35.4557 Y43.6425
G01 X35.4557 Y43.5411
G01 X35.4550 Y43.5354
G01 X35.4534 Y43.5314
G01 X35.4038 Y43.4297
G01 X35.4017 Y43.4260
G01 X35.3989 Y43.4229
G01 X35.3475 Y43.3740
G01 X35.3430 Y43.3705
G01 X35.3391 Y43.3689
G01 X35.1913 Y43.3205
G01 X35.1845 Y43.3176
G01 X35.1784 Y43.3142
G01 X35.1721 Y43.3094
G01 X35.1663 Y43.3037
G01 X35.1620 Y43.2983
G01 X35.1579 Y43.2915
G01 X35.1547 Y43.2841
G01 X35.1527 Y43.2774
G01 X35.1514 Y43.2696
G01 X35.1512 Y43.2615
G01 X35.1521 Y43.2534
G01 X35.1539 Y43.2457
G01 X35.1564 Y43.2393
G01 X35.1599 Y43.2327
G01 X35.4524 Y42.7725
G01 X35.4545 Y42.7683
G01 X35.4554 Y42.7653
G01 X35.4556 Y42.7621
G01 X35.4552 Y42.7590
G01 X35.4542 Y42.7560
G01 X35.4527 Y42.7532
G01 X35.4506 Y42.7508
G01 X35.4481 Y42.7489
G01 X35.4453 Y42.7474
G01 X35.4422 Y42.7466
G01 X35.4391 Y42.7463
G01 X35.4359 Y42.7467
G01 X35.4329 Y42.7477
G01 X35.4302 Y42.7493
G01 X35.4278 Y42.7513
G01 X35.4249 Y42.7550
G01 X35.0833 Y43.2924
G01 X35.0787 Y43.2981
G01 X35.0735 Y43.3032
G01 X35.0679 Y43.3075
G01 X35.0617 Y43.3112
G01 X35.0550 Y43.3141
G01 X35.0480 Y43.3162
G01 X35.0421 Y43.3173
G01 X35.0344 Y43.3178
G01 X34.7838 Y43.3175
G01 X34.7771 Y43.3165
G01 X34.7702 Y43.3147
G01 X34.7636 Y43.3120
G01 X34.7573 Y43.3086
G01 X34.7516 Y43.3044
G01 X34.7465 Y43.2998
G01 X34.7418 Y43.2945
G01 X34.7378 Y43.2886
G01 X34.7340 Y43.2812
G01 X34.7313 Y43.2735
G01 X34.7299 Y43.2666
G01 X34.7293 Y43.2590
G01 X34.7291 Y42.7609
G01 X34.7279 Y42.7563
G01 X34.7255 Y42.7522
G01 X34.7220 Y42.7491
G01 X34.7177 Y42.7470
G01 X34.7130 Y42.7463
G01 X34.7083 Y42.7470
G01 X34.7040 Y42.7491
G01 X34.7016 Y42.7511
G01 X34.6996 Y42.7535
G01 X34.6975 Y42.7578
G01 X34.6968 Y42.7640
G01 X34.6968 Y43.8507
G00 Z2.0000
G00 X35.8461 Y43.6948
G01 F60.00
G01 Z-0.0500
G01 F120.00
G01 X35.8461 Y43.6583
G01 X35.8687 Y43.7063
G01 X35.8765 Y43.7111
G01 X35.8825 Y43.7161
G01 X36.0338 Y43.8647
G01 X36.0364 Y43.8665
G01 X36.0394 Y43.8677
G01 X36.0425 Y43.8682
G01 X36.0456 Y43.8682
G01 X36.0487 Y43.8676
G01 X36.0516 Y43.8664
G01 X36.0543 Y43.8646
G01 X36.0565 Y43.8624
G01 X36.0582 Y43.8597
G01 X36.0594 Y43.8568
G01 X36.0602 Y43.8507
G01 X36.0602 Y42.7640
G01 X36.0594 Y42.7578
G01 X36.0582 Y42.7549
G01 X36.0565 Y42.7522
G01 X36.0542 Y42.7500
G01 X36.0516 Y42.7482
G01 X36.0471 Y42.7466
G01 X36.0424 Y42.7464
G01 X36.0393 Y42.7470
G01 X36.0363 Y42.7482
G01 X36.0337 Y42.7500
G01 X36.0315 Y42.7522
G01 X36.0290 Y42.7563
G01 X36.0281 Y42.7593
G01 X36.0277 Y42.7640
G01 X36.0277 Y43.6702
G01 X36.0275 Y43.6756
G01 X36.0267 Y43.6814
G01 X36.0253 Y43.6871
G01 X36.0234 Y43.6926
G01 X36.0209 Y43.6979
G01 X36.0179 Y43.7030
G01 X36.0145 Y43.7078
G01 X36.0106 Y43.7121
G01 X36.0063 Y43.7161
G01 X36.0016 Y43.7197
G01 X35.9966 Y43.7228
G01 X35.9914 Y43.7253
G01 X35.9859 Y43.7274
G01 X35.9802 Y43.7289
G01 X35.9744 Y43.7298
G01 X35.9685 Y43.7302
G01 X35.9627 Y43.7300
G01 X35.9569 Y43.7292
G01 X35.9502 Y43.7276
G01 X35.9436 Y43.7251
G01 X35.9373 Y43.7219
G01 X35.9323 Y43.7187
G01 X35.9265 Y43.7138
G01 X35.8990 Y43.6867
G01 X35.8953 Y43.6836
G01 X35.8925 Y43.6821
G01 X35.7911 Y43.6301
G01 X35.7852 Y43.6280
G01 X35.7821 Y43.6277
G01 X35.7789 Y43.6281
G01 X35.7759 Y43.6290
G01 X35.7731 Y43.6306
G01 X35.7697 Y43.6338
G01 X35.7680 Y43.6365
G01 X35.7668 Y43.6394
G01 X35.7662 Y43.6426
G01 X35.7663 Y43.6457
G01 X35.7670 Y43.6488
G01 X35.7682 Y43.6517
G01 X35.7700 Y43.6543
G01 X35.7723 Y43.6565
G01 X35.7763 Y43.6590
G01 X35.8687 Y43.7063
G00 Z2.0000
G00 X35.9261 Y43.7134
G01 F60.00
G01 Z-0.0500
G01 F120.00
G01 X35.9261 Y43.7590
G00 Z2.0000
G00 X35.9916 Y43.7673
G01 F60.00
G01 Z-0.0500
G01 F120.00
G01 X36.0202 Y43.7954
G01 X36.0202 Y43.7553
G01 X36.0119 Y43.7599
G01 X36.0041 Y43.7633
G01 X35.9916 Y43.7673
G00 Z2.0000
G00 X36.0061 Y43.7163
G01 F60.00
G01 Z-0.0500
G01 F120.00
G01 X36.0061 Y43.8377
G00 Z2.0000
G00 X36.4506 Y43.8684
G01 F60.00
G01 Z-0.0500
G01 F120.00
G01 X36.4506 Y43.8359
G01 X36.5306 Y43.8359
G01 X36.5306 Y43.8684
G01 X36.6106 Y43.8684
G01 X36.6106 Y43.8359
G01 X36.6906 Y43.8359
G01 X36.6906 Y43.8684
G01 X36.7706 Y43.8684
G01 X36.7706 Y43.8359
G01 X36.8506 Y43.8359
G01 X36.8506 Y43.8684
G01 X36.9306 Y43.8684
G01 X36.9306 Y43.8359
G00 Z2.0000
G00 X37.0106 Y43.8331
G01 F60.00
G01 Z-0.0500
G01 F120.00
G01 X37.0106 Y43.8684
G01 X37.0906 Y43.8684
G01 X37.0906 Y43.7671
G01 X37.0106 Y43.6750
G01 X37.0106 Y43.5997
G01 X36.9306 Y43.5076
G01 X36.9306 Y43.4323
G01 X36.8506 Y43.3402
G01 X36.8506 Y43.2648
G01 X36.7706 Y43.1727
G01 X36.7706 Y43.0974
G01 X36.6906 Y43.0053
G01 X36.6906 Y42.9300
G01 X36.6106 Y42.8379
G01 X36.6106 Y42.7626
G01 X36.6079 Y42.7568
G01 X37.1273 Y43.8438
G01 X37.1293 Y43.8496
G01 X37.1295 Y43.8527
G01 X37.1291 Y43.8554
G01 X37.1282 Y43.8585
G01 X37.1267 Y43.8613
G01 X37.1231 Y43.8650
G01 X37.1204 Y43.8667
G01 X37.1179 Y43.8677
G01 X37.1118 Y43.8684
G01 X36.3883 Y43.8684
G01 X36.3822 Y43.8676
G01 X36.3779 Y43.8656
G01 X36.3744 Y43.8624
G01 X36.3719 Y43.8583
G01 X36.3708 Y43.8537
G01 X36.3708 Y43.8506
G01 X36.3719 Y43.8460
G01 X36.3734 Y43.8432
G01 X36.3754 Y43.8407
G01 X36.3792 Y43.8379
G01 X36.3837 Y43.8363
G01 X36.3883 Y43.8359
G01 X36.9924 Y43.8359
G01 X36.9986 Y43.8356
G01 X37.0078 Y43.8339
G01 X37.0175 Y43.8304
G01 X37.0255 Y43.8260
G01 X37.0328 Y43.8202
G01 X37.0391 Y43.8136
G01 X37.0444 Y43.8058
G01 X37.0483 Y43.7976
G01 X37.0512 Y43.7877
G01 X37.0523 Y43.7775
G01 X37.0519 Y43.7682
G01 X37.0500 Y43.7592
G01 X37.0465 Y43.7500
G01 X36.5786 Y42.7708
G01 X36.5774 Y42.7680
G01 X36.5766 Y42.7649
G01 X36.5765 Y42.7618
G01 X36.5769 Y42.7586
G01 X36.5780 Y42.7556
G01 X36.5796 Y42.7529
G01 X36.5817 Y42.7506
G01 X36.5842 Y42.7487
G01 X36.5871 Y42.7473
G01 X36.5902 Y42.7465
G01 X36.5933 Y42.7464
G01 X36.5965 Y42.7468
G01 X36.5995 Y42.7479
G01 X36.6022 Y42.7495
G01 X36.6045 Y42.7516
G01 X36.6079 Y42.7568
G00 Z2.0000
G00 X37.9518 Y43.8344
G01 F60.00
G01 Z-0.0500
G01 F120.00
G01 X37.9518 Y43.9080
G01 X38.0318 Y43.9679
G01 X38.0318 Y44.0138
G00 Z2.0000
G00 X38.1118 Y44.0447
G01 F60.00
G01 Z-0.0500
G01 F120.00
G01 X38.1118 Y44.0810
G00 Z2.0000
G00 X38.1918 Y44.0839
G01 F60.00
G01 Z-0.0500
G01 F120.00
G01 X38.1918 Y44.1200
G01 X38.2718 Y44.1224
G01 X38.2718 Y44.0899
G01 X38.3518 Y44.0899
G01 X38.3518 Y44.1224
G01 X38.4318 Y44.1128
G01 X38.4318 Y44.0765
G01 X38.5118 Y44.0728
G01 X38.5118 Y44.0309
G01 X38.5918 Y43.9969
G01 X38.5918 Y43.9509
G00 Z2.0000
G00 X38.6055 Y43.9331
G01 F60.00
G01 Z-0.0500
G01 F120.00
G01 X38.6527 Y43.8410
G01 X38.6551 Y43.8370
G01 X38.6573 Y43.8348
G01 X38.6599 Y43.8329
G01 X38.6628 Y43.8317
G01 X38.6659 Y43.8310
G01 X38.6691 Y43.8310
G01 X38.6707 Y43.8312
G01 X38.6722 Y43.8315
G01 X38.6751 Y43.8327
G01 X38.6778 Y43.8344
G01 X38.6811 Y43.8379
G01 X38.6826 Y43.8406
G01 X38.6836 Y43.8436
G01 X38.6839 Y43.8484
G01 X38.6828 Y43.8530
G01 X38.6816 Y43.8558
G01 X38.6296 Y43.9572
G01 X38.6280 Y43.9600
G01 X38.6248 Y43.9638
G01 X38.5204 Y44.0679
G01 X38.5161 Y44.0706
G01 X38.4172 Y44.1201
G01 X38.4132 Y44.1217
G01 X38.4073 Y44.1224
G01 X38.2018 Y44.1224
G01 X38.1975 Y44.1221
G01 X38.1947 Y44.1213
G01 X38.0907 Y44.0707
G01 X38.0862 Y44.0680
G01 X37.9818 Y43.9638
G01 X37.9786 Y43.9600
G01 X37.9238 Y43.8533
G01 X37.8722 Y43.6929
G01 X37.8718 Y43.6880
G01 X37.8719 Y43.4288
G01 X37.8731 Y43.4240
G01 X37.9239 Y43.2693
G01 X37.9770 Y43.1654
G01 X37.9786 Y43.1626
G01 X37.9818 Y43.1588
G01 X38.0862 Y43.0547
G01 X38.0907 Y43.0520
G01 X38.1921 Y43.0025
G01 X38.1975 Y43.0006
G01 X38.2018 Y43.0003
G01 X38.4073 Y43.0003
G01 X38.4117 Y43.0006
G01 X38.4146 Y43.0014
G01 X38.5161 Y43.0520
G01 X38.5204 Y43.0547
G01 X38.6248 Y43.1588
G01 X38.6270 Y43.1613
G01 X38.6296 Y43.1654
G01 X38.6816 Y43.2669
G01 X38.6837 Y43.2727
G01 X38.6838 Y43.2774
G01 X38.6826 Y43.2820
G01 X38.6801 Y43.2860
G01 X38.6765 Y43.2892
G01 X38.6722 Y43.2911
G01 X38.6675 Y43.2917
G01 X38.6628 Y43.2910
G01 X38.6586 Y43.2889
G01 X38.6562 Y43.2868
G01 X38.6527 Y43.2817
G01 X38.6048 Y43.1884
G01 X38.5998 Y43.1805
G01 X38.5945 Y43.1744
G01 X38.5052 Y43.0853
G01 X38.4991 Y43.0805
G01 X38.4932 Y43.0769
G01 X38.4175 Y43.0391
G01 X38.4098 Y43.0359
G01 X38.4002 Y43.0335
G01 X38.3919 Y43.0328
G01 X38.2180 Y43.0327
G01 X38.2088 Y43.0335
G01 X38.2004 Y43.0354
G01 X38.1932 Y43.0381
G01 X38.1149 Y43.0763
G01 X38.1059 Y43.0817
G01 X38.0987 Y43.0878
G01 X38.0112 Y43.1754
G01 X38.0060 Y43.1815
G01 X38.0020 Y43.1879
G01 X37.9560 Y43.2777
G01 X37.9533 Y43.2836
G01 X37.9072 Y43.4240
G01 X37.9057 Y43.4296
G01 X37.9046 Y43.4359
G01 X37.9042 Y43.4427
G01 X37.9042 Y43.6776
G01 X37.9045 Y43.6833
G01 X37.9054 Y43.6895
G01 X37.9071 Y43.6960
G01 X37.9539 Y43.8404
G01 X38.0011 Y43.9331
G01 X38.0068 Y43.9421
G01 X38.0121 Y43.9482
G01 X38.0987 Y44.0348
G01 X38.1050 Y44.0403
G01 X38.1096 Y44.0434
G01 X38.1149 Y44.0463
G01 X38.1917 Y44.0838
G01 X38.1971 Y44.0862
G01 X38.2067 Y44.0888
G01 X38.2169 Y44.0899
G01 X38.3907 Y44.0899
G01 X38.4002 Y44.0892
G01 X38.4087 Y44.0871
