(G-CODE GENERATED BY FLATCAM v8.994 - www.flatcam.org - Version Date: 2020/11/7)

(Name: Gerber_BottomSolderMaskLayer.GBS_mt_paint_cnc)
(Type: G-code from Geometry)
(Units: MM)

(Created on Saturday, 27 April 2024 at 16:37)

(This preprocessor is the default preprocessor used by FlatCAM.)
(It is made to work with MACH3 compatible motion controllers.)

(TOOL DIAMETER: 0.2268 mm)
(Feedrate_XY: 120.0 mm/min)
(Feedrate_Z: 60.0 mm/min)
(Feedrate rapids 1500.0 mm/min)

(Z_Cut: 0.0 mm)
(Z_Move: 2.0 mm)
(Z Start: None mm)
(Z End: 15.0 mm)
(X,Y End: None mm)
(Steps per circle: 64)
(Preprocessor Geometry: default)

(X range:   16.1226 ...   67.9084  mm)
(Y range:   24.8386 ...   45.8904  mm)

(Spindle Speed: 0.0 RPM)
G21
G90
G94

G01 F120.00

M5
G00 Z15.0000
G00 X0.0000 Y0.0000
T1
M6    
(MSG, Change to Tool Dia = 0.2268)
M0
G00 Z15.0000

M03
G01 F120.00
G00 X16.3445 Y24.8386
G01 F60.00
G01 Z0.0000
G01 F120.00
G01 X16.3118 Y24.8643
G01 X16.2897 Y24.8830
G01 X16.2680 Y24.9021
G01 X16.2468 Y24.9218
G01 X16.2261 Y24.9421
G01 X16.2059 Y24.9628
G01 X16.1862 Y24.9840
G01 X16.1670 Y25.0057
G01 X16.1483 Y25.0278
G01 X16.1226 Y25.0605
G01 X16.1226 Y25.4339
G01 X16.1289 Y25.4168
G01 X16.1380 Y25.3941
G01 X16.1477 Y25.3716
G01 X16.1579 Y25.3493
G01 X16.1686 Y25.3273
G01 X16.1799 Y25.3056
G01 X16.1917 Y25.2841
G01 X16.2041 Y25.2630
G01 X16.2169 Y25.2421
G01 X16.2303 Y25.2216
G01 X16.2441 Y25.2014
G01 X16.2585 Y25.1815
G01 X16.2733 Y25.1620
G01 X16.2886 Y25.1429
G01 X16.3044 Y25.1242
G01 X16.3206 Y25.1058
G01 X16.3373 Y25.0879
G01 X16.3544 Y25.0704
G01 X16.3719 Y25.0532
G01 X16.3898 Y25.0366
G01 X16.4082 Y25.0204
G01 X16.4269 Y25.0046
G01 X16.4460 Y24.9893
G01 X16.4655 Y24.9745
G01 X16.4854 Y24.9601
G01 X16.5056 Y24.9462
G01 X16.5261 Y24.9329
G01 X16.5470 Y24.9200
G01 X16.5681 Y24.9077
G01 X16.5896 Y24.8959
G01 X16.6113 Y24.8846
G01 X16.6333 Y24.8739
G01 X16.6556 Y24.8637
G01 X16.6781 Y24.8540
G01 X16.7009 Y24.8449
G01 X16.7179 Y24.8386
G00 Z2.0000
G00 X17.4021 Y24.8386
G01 F60.00
G01 Z0.0000
G01 F120.00
G01 X17.4191 Y24.8449
G01 X17.4419 Y24.8540
G01 X17.4644 Y24.8637
G01 X17.4867 Y24.8739
G01 X17.5087 Y24.8846
G01 X17.5304 Y24.8959
G01 X17.5519 Y24.9077
G01 X17.5730 Y24.9200
G01 X17.5939 Y24.9329
G01 X17.6144 Y24.9462
G01 X17.6346 Y24.9601
G01 X17.6545 Y24.9745
G01 X17.6740 Y24.9893
G01 X17.6931 Y25.0046
G01 X17.7118 Y25.0204
G01 X17.7302 Y25.0366
G01 X17.7481 Y25.0532
G01 X17.7656 Y25.0704
G01 X17.7827 Y25.0879
G01 X17.7994 Y25.1058
G01 X17.8156 Y25.1242
G01 X17.8314 Y25.1429
G01 X17.8467 Y25.1620
G01 X17.8615 Y25.1815
G01 X17.8759 Y25.2014
G01 X17.8897 Y25.2216
G01 X17.9031 Y25.2421
G01 X17.9159 Y25.2630
G01 X17.9283 Y25.2841
G01 X17.9401 Y25.3056
G01 X17.9514 Y25.3273
G01 X17.9621 Y25.3493
G01 X17.9723 Y25.3716
G01 X17.9820 Y25.3941
G01 X17.9911 Y25.4168
G01 X17.9974 Y25.4339
G01 X17.8765 Y25.7760
G01 X17.8755 Y25.7359
G01 X17.8725 Y25.6960
G01 X17.8703 Y25.6760
G01 X17.8645 Y25.6364
G01 X17.8566 Y25.5971
G01 X17.8469 Y25.5582
G01 X17.8353 Y25.5199
G01 X17.8218 Y25.4821
G01 X17.8143 Y25.4635
G01 X17.7981 Y25.4269
G01 X17.7801 Y25.3911
G01 X17.7603 Y25.3562
G01 X17.7389 Y25.3224
G01 X17.7158 Y25.2896
G01 X17.6911 Y25.2580
G01 X17.6650 Y25.2277
G01 X17.6373 Y25.1987
G01 X17.6230 Y25.1847
G01 X17.5933 Y25.1577
G01 X17.5623 Y25.1323
G01 X17.5301 Y25.1084
G01 X17.4968 Y25.0862
G01 X17.4798 Y25.0757
G01 X17.4449 Y25.0559
G01 X17.4091 Y25.0379
G01 X17.3725 Y25.0217
G01 X17.3538 Y25.0142
G01 X17.3161 Y25.0007
G01 X17.2778 Y24.9891
G01 X17.2389 Y24.9793
G01 X17.1996 Y24.9715
G01 X17.1599 Y24.9656
G01 X17.1400 Y24.9634
G01 X17.1001 Y24.9605
G01 X17.0600 Y24.9595
G01 X17.0199 Y24.9605
G01 X16.9800 Y24.9634
G01 X16.9601 Y24.9656
G01 X16.9204 Y24.9715
G01 X16.8811 Y24.9793
G01 X16.8616 Y24.9840
G01 X16.8230 Y24.9947
G01 X16.7849 Y25.0072
G01 X16.7475 Y25.0217
G01 X16.7109 Y25.0379
G01 X16.6751 Y25.0559
G01 X16.6576 Y25.0656
G01 X16.6232 Y25.0862
G01 X16.5899 Y25.1084
G01 X16.5577 Y25.1323
G01 X16.5420 Y25.1448
G01 X16.5117 Y25.1710
G01 X16.4827 Y25.1987
G01 X16.4550 Y25.2277
G01 X16.4289 Y25.2580
G01 X16.4163 Y25.2737
G01 X16.3925 Y25.3059
G01 X16.3702 Y25.3392
G01 X16.3496 Y25.3735
G01 X16.3307 Y25.4089
G01 X16.3136 Y25.4451
G01 X16.3057 Y25.4635
G01 X16.2912 Y25.5009
G01 X16.2787 Y25.5390
G01 X16.2731 Y25.5582
G01 X16.2634 Y25.5971
G01 X16.2555 Y25.6364
G01 X16.2497 Y25.6760
G01 X16.2457 Y25.7159
G01 X16.2438 Y25.7560
G01 X16.2435 Y25.7760
G01 X16.2445 Y25.8161
G01 X16.2475 Y25.8560
G01 X16.2524 Y25.8958
G01 X16.2592 Y25.9353
G01 X16.2680 Y25.9744
G01 X16.2787 Y26.0130
G01 X16.2912 Y26.0511
G01 X16.2982 Y26.0698
G01 X16.3136 Y26.1069
G01 X16.3307 Y26.1431
G01 X16.3496 Y26.1784
G01 X16.3597 Y26.1957
G01 X16.3811 Y26.2296
G01 X16.3925 Y26.2461
G01 X16.4163 Y26.2783
G01 X16.4418 Y26.3093
G01 X16.4687 Y26.3390
G01 X16.4970 Y26.3673
G01 X16.5117 Y26.3810
G01 X16.5267 Y26.3942
G01 X16.5577 Y26.4197
G01 X16.5899 Y26.4435
G01 X16.6232 Y26.4658
G01 X16.6576 Y26.4864
G01 X16.6751 Y26.4961
G01 X16.7109 Y26.5141
G01 X16.7475 Y26.5303
G01 X16.7662 Y26.5378
G01 X16.8039 Y26.5513
G01 X16.8230 Y26.5573
G01 X16.8616 Y26.5680
G01 X16.8811 Y26.5726
G01 X16.9204 Y26.5804
G01 X16.9601 Y26.5863
G01 X16.9999 Y26.5903
G01 X17.0400 Y26.5922
G01 X17.0600 Y26.5925
G01 X17.1001 Y26.5915
G01 X17.1201 Y26.5903
G01 X17.1400 Y26.5885
G01 X17.1798 Y26.5836
G01 X17.2193 Y26.5768
G01 X17.2389 Y26.5726
G01 X17.2778 Y26.5629
G01 X17.3161 Y26.5513
G01 X17.3538 Y26.5378
G01 X17.3725 Y26.5303
G01 X17.4091 Y26.5141
G01 X17.4449 Y26.4961
G01 X17.4624 Y26.4864
G01 X17.4968 Y26.4658
G01 X17.5136 Y26.4549
G01 X17.5464 Y26.4318
G01 X17.5780 Y26.4071
G01 X17.6083 Y26.3810
G01 X17.6230 Y26.3673
G01 X17.6513 Y26.3390
G01 X17.6782 Y26.3093
G01 X17.7037 Y26.2783
G01 X17.7275 Y26.2461
G01 X17.7498 Y26.2128
G01 X17.7704 Y26.1784
G01 X17.7893 Y26.1431
G01 X17.8064 Y26.1069
G01 X17.8218 Y26.0698
G01 X17.8288 Y26.0511
G01 X17.8353 Y26.0321
G01 X17.8469 Y25.9938
G01 X17.8520 Y25.9744
G01 X17.8608 Y25.9353
G01 X17.8676 Y25.8958
G01 X17.8725 Y25.8560
G01 X17.8755 Y25.8161
G01 X17.8765 Y25.7760
G01 X17.6950 Y25.7760
G01 X17.6948 Y25.7604
G01 X17.6933 Y25.7293
G01 X17.6903 Y25.6983
G01 X17.6857 Y25.6674
G01 X17.6796 Y25.6369
G01 X17.6720 Y25.6066
G01 X17.6677 Y25.5916
G01 X17.6579 Y25.5621
G01 X17.6467 Y25.5330
G01 X17.6406 Y25.5186
G01 X17.6272 Y25.4905
G01 X17.6125 Y25.4630
G01 X17.5965 Y25.4362
G01 X17.5880 Y25.4232
G01 X17.5701 Y25.3977
G01 X17.5606 Y25.3853
G01 X17.5409 Y25.3612
G01 X17.5305 Y25.3495
G01 X17.5090 Y25.3269
G01 X17.4865 Y25.3055
G01 X17.4629 Y25.2851
G01 X17.4383 Y25.2659
G01 X17.4257 Y25.2568
G01 X17.3997 Y25.2395
G01 X17.3730 Y25.2234
G01 X17.3455 Y25.2088
G01 X17.3173 Y25.1954
G01 X17.3030 Y25.1893
G01 X17.2739 Y25.1781
G01 X17.2592 Y25.1730
G01 X17.2443 Y25.1683
G01 X17.2143 Y25.1600
G01 X17.1991 Y25.1564
G01 X17.1686 Y25.1503
G01 X17.1532 Y25.1478
G01 X17.1222 Y25.1440
G01 X17.1067 Y25.1427
G01 X17.0756 Y25.1411
G01 X17.0444 Y25.1411
G01 X17.0288 Y25.1417
G01 X16.9978 Y25.1440
G01 X16.9823 Y25.1457
G01 X16.9514 Y25.1503
G01 X16.9361 Y25.1532
G01 X16.9057 Y25.1600
G01 X16.8906 Y25.1640
G01 X16.8608 Y25.1730
G01 X16.8461 Y25.1781
G01 X16.8315 Y25.1835
G01 X16.8027 Y25.1954
G01 X16.7885 Y25.2019
G01 X16.7606 Y25.2159
G01 X16.7335 Y25.2313
G01 X16.7203 Y25.2395
G01 X16.7072 Y25.2480
G01 X16.6817 Y25.2659
G01 X16.6571 Y25.2851
G01 X16.6452 Y25.2951
G01 X16.6335 Y25.3055
G01 X16.6110 Y25.3269
G01 X16.6001 Y25.3381
G01 X16.5791 Y25.3612
G01 X16.5691 Y25.3731
G01 X16.5499 Y25.3977
G01 X16.5320 Y25.4232
G01 X16.5235 Y25.4362
G01 X16.5153 Y25.4495
G01 X16.4999 Y25.4766
G01 X16.4859 Y25.5045
G01 X16.4794 Y25.5186
G01 X16.4733 Y25.5330
G01 X16.4621 Y25.5621
G01 X16.4523 Y25.5916
G01 X16.4480 Y25.6066
G01 X16.4404 Y25.6369
G01 X16.4372 Y25.6521
G01 X16.4318 Y25.6828
G01 X16.4297 Y25.6983
G01 X16.4280 Y25.7137
G01 X16.4257 Y25.7448
G01 X16.4250 Y25.7760
G01 X16.4252 Y25.7916
G01 X16.4267 Y25.8227
G01 X16.4280 Y25.8382
G01 X16.4297 Y25.8537
G01 X16.4343 Y25.8846
G01 X16.4404 Y25.9151
G01 X16.4440 Y25.9303
G01 X16.4480 Y25.9454
G01 X16.4570 Y25.9752
G01 X16.4675 Y26.0045
G01 X16.4733 Y26.0190
G01 X16.4794 Y26.0333
G01 X16.4928 Y26.0615
G01 X16.5075 Y26.0890
G01 X16.5153 Y26.1025
G01 X16.5320 Y26.1288
G01 X16.5499 Y26.1543
G01 X16.5594 Y26.1667
G01 X16.5791 Y26.1908
G01 X16.6001 Y26.2139
G01 X16.6221 Y26.2359
G01 X16.6452 Y26.2568
G01 X16.6571 Y26.2669
G01 X16.6693 Y26.2766
G01 X16.6943 Y26.2952
G01 X16.7203 Y26.3125
G01 X16.7470 Y26.3285
G01 X16.7745 Y26.3432
G01 X16.7885 Y26.3501
G01 X16.8027 Y26.3565
G01 X16.8315 Y26.3685
G01 X16.8608 Y26.3790
G01 X16.8906 Y26.3880
G01 X16.9209 Y26.3956
G01 X16.9361 Y26.3988
G01 X16.9668 Y26.4042
G01 X16.9978 Y26.4080
G01 X17.0288 Y26.4103
G01 X17.0600 Y26.4110
G01 X17.0756 Y26.4108
G01 X17.1067 Y26.4093
G01 X17.1377 Y26.4063
G01 X17.1532 Y26.4042
G01 X17.1839 Y26.3988
G01 X17.1991 Y26.3956
G01 X17.2294 Y26.3880
G01 X17.2443 Y26.3837
G01 X17.2739 Y26.3739
G01 X17.3030 Y26.3627
G01 X17.3173 Y26.3565
G01 X17.3455 Y26.3432
G01 X17.3730 Y26.3285
G01 X17.3997 Y26.3125
G01 X17.4128 Y26.3040
G01 X17.4383 Y26.2861
G01 X17.4629 Y26.2669
G01 X17.4865 Y26.2465
G01 X17.5090 Y26.2250
G01 X17.5199 Y26.2139
G01 X17.5409 Y26.1908
G01 X17.5606 Y26.1667
G01 X17.5792 Y26.1417
G01 X17.5880 Y26.1288
G01 X17.6047 Y26.1025
G01 X17.6201 Y26.0753
G01 X17.6341 Y26.0475
G01 X17.6467 Y26.0190
G01 X17.6579 Y25.9899
G01 X17.6630 Y25.9752
G01 X17.6720 Y25.9454
G01 X17.6796 Y25.9151
G01 X17.6857 Y25.8846
G01 X17.6903 Y25.8537
G01 X17.6933 Y25.8227
G01 X17.6943 Y25.8071
G01 X17.6950 Y25.7760
G01 X17.5136 Y25.7760
G01 X17.5131 Y25.7537
G01 X17.5124 Y25.7426
G01 X17.5102 Y25.7205
G01 X17.5069 Y25.6984
G01 X17.5049 Y25.6875
G01 X17.5000 Y25.6658
G01 X17.4941 Y25.6443
G01 X17.4871 Y25.6232
G01 X17.4832 Y25.6127
G01 X17.4747 Y25.5922
G01 X17.4700 Y25.5821
G01 X17.4600 Y25.5622
G01 X17.4491 Y25.5428
G01 X17.4432 Y25.5333
G01 X17.4309 Y25.5148
G01 X17.4176 Y25.4969
G01 X17.4035 Y25.4797
G01 X17.3961 Y25.4714
G01 X17.3885 Y25.4632
G01 X17.3728 Y25.4475
G01 X17.3563 Y25.4325
G01 X17.3391 Y25.4184
G01 X17.3302 Y25.4117
G01 X17.3120 Y25.3988
G01 X17.2932 Y25.3869
G01 X17.2738 Y25.3760
G01 X17.2539 Y25.3659
G01 X17.2438 Y25.3613
G01 X17.2232 Y25.3528
G01 X17.2128 Y25.3489
G01 X17.1917 Y25.3419
G01 X17.1702 Y25.3360
G01 X17.1485 Y25.3311
G01 X17.1375 Y25.3291
G01 X17.1155 Y25.3258
G01 X17.1045 Y25.3246
G01 X17.0823 Y25.3229
G01 X17.0711 Y25.3225
G01 X17.0600 Y25.3224
G01 X17.0377 Y25.3229
G01 X17.0266 Y25.3236
G01 X17.0045 Y25.3258
G01 X16.9825 Y25.3291
G01 X16.9715 Y25.3311
G01 X16.9498 Y25.3360
G01 X16.9390 Y25.3388
G01 X16.9177 Y25.3453
G01 X16.8968 Y25.3528
G01 X16.8762 Y25.3613
G01 X16.8661 Y25.3659
G01 X16.8462 Y25.3760
G01 X16.8364 Y25.3813
G01 X16.8268 Y25.3869
G01 X16.8080 Y25.3988
G01 X16.7988 Y25.4051
G01 X16.7809 Y25.4184
G01 X16.7637 Y25.4325
G01 X16.7554 Y25.4399
G01 X16.7393 Y25.4552
G01 X16.7239 Y25.4714
G01 X16.7094 Y25.4882
G01 X16.7024 Y25.4969
G01 X16.6891 Y25.5148
G01 X16.6828 Y25.5240
G01 X16.6709 Y25.5428
G01 X16.6653 Y25.5524
G01 X16.6548 Y25.5720
G01 X16.6500 Y25.5821
G01 X16.6409 Y25.6024
G01 X16.6368 Y25.6127
G01 X16.6293 Y25.6337
G01 X16.6259 Y25.6443
G01 X16.6200 Y25.6658
G01 X16.6174 Y25.6766
G01 X16.6151 Y25.6875
G01 X16.6113 Y25.7094
G01 X16.6098 Y25.7205
G01 X16.6076 Y25.7426
G01 X16.6069 Y25.7537
G01 X16.6064 Y25.7760
G01 X16.6069 Y25.7982
G01 X16.6076 Y25.8094
G01 X16.6098 Y25.8315
G01 X16.6113 Y25.8425
G01 X16.6131 Y25.8535
G01 X16.6174 Y25.8754
G01 X16.6200 Y25.8862
G01 X16.6259 Y25.9077
G01 X16.6329 Y25.9288
G01 X16.6368 Y25.9392
G01 X16.6409 Y25.9496
G01 X16.6500 Y25.9699
G01 X16.6600 Y25.9898
G01 X16.6653 Y25.9996
G01 X16.6768 Y26.0187
G01 X16.6891 Y26.0372
G01 X16.7024 Y26.0551
G01 X16.7165 Y26.0723
G01 X16.7315 Y26.0888
G01 X16.7393 Y26.0967
G01 X16.7554 Y26.1121
G01 X16.7722 Y26.1266
G01 X16.7898 Y26.1403
G01 X16.7988 Y26.1468
G01 X16.8173 Y26.1592
G01 X16.8364 Y26.1707
G01 X16.8462 Y26.1760
G01 X16.8661 Y26.1860
G01 X16.8864 Y26.1951
G01 X16.9072 Y26.2031
G01 X16.9283 Y26.2101
G01 X16.9498 Y26.2160
G01 X16.9715 Y26.2209
G01 X16.9934 Y26.2247
G01 X17.0155 Y26.2274
G01 X17.0266 Y26.2284
G01 X17.0489 Y26.2295
G01 X17.0711 Y26.2295
G01 X17.0934 Y26.2284
G01 X17.1155 Y26.2262
G01 X17.1266 Y26.2247
G01 X17.1375 Y26.2229
G01 X17.1594 Y26.2186
G01 X17.1810 Y26.2132
G01 X17.2023 Y26.2067
G01 X17.2128 Y26.2031
G01 X17.2336 Y26.1951
G01 X17.2539 Y26.1860
G01 X17.2639 Y26.1812
G01 X17.2836 Y26.1707
G01 X17.3027 Y26.1592
G01 X17.3212 Y26.1468
G01 X17.3391 Y26.1336
G01 X17.3563 Y26.1195
G01 X17.3646 Y26.1121
G01 X17.3807 Y26.0967
G01 X17.3961 Y26.0806
G01 X17.4035 Y26.0723
G01 X17.4176 Y26.0551
G01 X17.4309 Y26.0372
G01 X17.4432 Y26.0187
G01 X17.4547 Y25.9996
G01 X17.4652 Y25.9799
G01 X17.4747 Y25.9598
G01 X17.4832 Y25.9392
G01 X17.4907 Y25.9183
G01 X17.4941 Y25.9077
G01 X17.4972 Y25.8970
G01 X17.5026 Y25.8754
G01 X17.5069 Y25.8535
G01 X17.5102 Y25.8315
G01 X17.5124 Y25.8094
G01 X17.5135 Y25.7871
G01 X17.5136 Y25.7760
G01 X17.3322 Y25.7760
G01 X17.3314 Y25.7560
G01 X17.3292 Y25.7361
G01 X17.3255 Y25.7164
G01 X17.3204 Y25.6970
G01 X17.3163 Y25.6843
G01 X17.3114 Y25.6718
G01 X17.3031 Y25.6536
G01 X17.2934 Y25.6361
G01 X17.2825 Y25.6193
G01 X17.2704 Y25.6033
G01 X17.2571 Y25.5883
G01 X17.2428 Y25.5743
G01 X17.2274 Y25.5614
G01 X17.2112 Y25.5497
G01 X17.1941 Y25.5392
G01 X17.1764 Y25.5300
G01 X17.1642 Y25.5245
G01 X17.1517 Y25.5197
G01 X17.1390 Y25.5155
G01 X17.1261 Y25.5120
G01 X17.1065 Y25.5078
G01 X17.0933 Y25.5059
G01 X17.0800 Y25.5046
G01 X17.0667 Y25.5039
G01 X17.0533 Y25.5039
G01 X17.0400 Y25.5046
G01 X17.0267 Y25.5059
G01 X17.0135 Y25.5078
G01 X17.0004 Y25.5104
G01 X16.9810 Y25.5155
G01 X16.9683 Y25.5197
G01 X16.9558 Y25.5245
G01 X16.9436 Y25.5300
G01 X16.9317 Y25.5360
G01 X16.9144 Y25.5461
G01 X16.9033 Y25.5535
G01 X16.8926 Y25.5614
G01 X16.8772 Y25.5743
G01 X16.8629 Y25.5883
G01 X16.8539 Y25.5982
G01 X16.8454 Y25.6085
G01 X16.8375 Y25.6193
G01 X16.8301 Y25.6304
G01 X16.8232 Y25.6418
G01 X16.8169 Y25.6536
G01 X16.8112 Y25.6657
G01 X16.8061 Y25.6780
G01 X16.7996 Y25.6970
G01 X16.7945 Y25.7164
G01 X16.7918 Y25.7295
G01 X16.7899 Y25.7427
G01 X16.7886 Y25.7560
G01 X16.7879 Y25.7693
G01 X16.7879 Y25.7827
G01 X16.7886 Y25.7960
G01 X16.7908 Y25.8159
G01 X16.7931 Y25.8291
G01 X16.7960 Y25.8421
G01 X16.8016 Y25.8614
G01 X16.8061 Y25.8739
G01 X16.8112 Y25.8863
G01 X16.8169 Y25.8984
G01 X16.8232 Y25.9101
G01 X16.8337 Y25.9272
G01 X16.8414 Y25.9381
G01 X16.8496 Y25.9486
G01 X16.8629 Y25.9637
G01 X16.8723 Y25.9731
G01 X16.8822 Y25.9821
G01 X16.8926 Y25.9905
G01 X16.9033 Y25.9985
G01 X16.9144 Y26.0059
G01 X16.9317 Y26.0160
G01 X16.9436 Y26.0220
G01 X16.9558 Y26.0274
G01 X16.9683 Y26.0322
G01 X16.9810 Y26.0364
G01 X16.9939 Y26.0400
G01 X17.0069 Y26.0429
G01 X17.0267 Y26.0461
G01 X17.0400 Y26.0474
G01 X17.0533 Y26.0481
G01 X17.0667 Y26.0481
G01 X17.0800 Y26.0474
G01 X17.0933 Y26.0461
G01 X17.1065 Y26.0441
G01 X17.1196 Y26.0415
G01 X17.1390 Y26.0364
G01 X17.1517 Y26.0322
G01 X17.1642 Y26.0274
G01 X17.1764 Y26.0220
G01 X17.1883 Y26.0160
G01 X17.2056 Y26.0059
G01 X17.2167 Y25.9985
G01 X17.2274 Y25.9905
G01 X17.2378 Y25.9821
G01 X17.2477 Y25.9731
G01 X17.2571 Y25.9637
G01 X17.2661 Y25.9538
G01 X17.2746 Y25.9434
G01 X17.2825 Y25.9327
G01 X17.2934 Y25.9159
G01 X17.3000 Y25.9043
G01 X17.3088 Y25.8863
G01 X17.3139 Y25.8739
G01 X17.3184 Y25.8614
G01 X17.3223 Y25.8486
G01 X17.3240 Y25.8421
G01 X17.3269 Y25.8291
G01 X17.3301 Y25.8093
G01 X17.3314 Y25.7960
G01 X17.3322 Y25.7760
G01 X17.1507 Y25.7760
G01 X17.1505 Y25.7693
G01 X17.1494 Y25.7605
G01 X17.1474 Y25.7518
G01 X17.1446 Y25.7433
G01 X17.1410 Y25.7352
G01 X17.1366 Y25.7275
G01 X17.1315 Y25.7202
G01 X17.1272 Y25.7151
G01 X17.1226 Y25.7103
G01 X17.1158 Y25.7045
G01 X17.1085 Y25.6993
G01 X17.1008 Y25.6950
G01 X17.0947 Y25.6922
G01 X17.0863 Y25.6892
G01 X17.0777 Y25.6870
G01 X17.0689 Y25.6857
G01 X17.0600 Y25.6853
G01 X17.0533 Y25.6855
G01 X17.0445 Y25.6866
G01 X17.0358 Y25.6886
G01 X17.0294 Y25.6906
G01 X17.0212 Y25.6940
G01 X17.0153 Y25.6971
G01 X17.0078 Y25.7018
G01 X17.0024 Y25.7059
G01 X16.9959 Y25.7118
G01 X16.9899 Y25.7184
G01 X16.9858 Y25.7238
G01 X16.9822 Y25.7294
G01 X16.9780 Y25.7372
G01 X16.9754 Y25.7433
G01 X16.9726 Y25.7518
G01 X16.9706 Y25.7605
G01 X16.9697 Y25.7671
G01 X16.9693 Y25.7760
G01 X16.9695 Y25.7827
G01 X16.9706 Y25.7915
G01 X16.9726 Y25.8002
G01 X16.9746 Y25.8066
G01 X16.9780 Y25.8148
G01 X16.9811 Y25.8207
G01 X16.9858 Y25.8282
G01 X16.9899 Y25.8335
G01 X16.9959 Y25.8401
G01 X17.0007 Y25.8447
G01 X17.0078 Y25.8502
G01 X17.0134 Y25.8538
G01 X17.0212 Y25.8580
G01 X17.0315 Y25.8621
G01 X17.0423 Y25.8650
G01 X17.0533 Y25.8665
G01 X17.0645 Y25.8666
G01 X17.0755 Y25.8654
G01 X17.0885 Y25.8621
G01 X17.0988 Y25.8580
G01 X17.1085 Y25.8526
G01 X17.1176 Y25.8461
G01 X17.1257 Y25.8385
G01 X17.1342 Y25.8282
G01 X17.1400 Y25.8188
G01 X17.1446 Y25.8086
G01 X17.1480 Y25.7980
G01 X17.1500 Y25.7871
G01 X17.1507 Y25.7760
G01 X17.9974 Y26.1181
G01 X17.9911 Y26.1351
G01 X17.9820 Y26.1579
G01 X17.9723 Y26.1804
G01 X17.9621 Y26.2027
G01 X17.9514 Y26.2247
G01 X17.9401 Y26.2464
G01 X17.9283 Y26.2679
G01 X17.9159 Y26.2890
G01 X17.9031 Y26.3099
G01 X17.8897 Y26.3304
G01 X17.8759 Y26.3506
G01 X17.8615 Y26.3704
G01 X17.8467 Y26.3899
G01 X17.8314 Y26.4091
G01 X17.8156 Y26.4278
G01 X17.7994 Y26.4462
G01 X17.7827 Y26.4641
G01 X17.7656 Y26.4816
G01 X17.7481 Y26.4987
G01 X17.7302 Y26.5154
G01 X17.7118 Y26.5316
G01 X17.6931 Y26.5474
G01 X17.6740 Y26.5627
G01 X17.6545 Y26.5775
G01 X17.6346 Y26.5919
G01 X17.6144 Y26.6057
G01 X17.5939 Y26.6191
G01 X17.5730 Y26.6319
G01 X17.5519 Y26.6443
G01 X17.5304 Y26.6561
G01 X17.5087 Y26.6674
G01 X17.4867 Y26.6781
G01 X17.4644 Y26.6883
G01 X17.4419 Y26.6979
G01 X17.4191 Y26.7070
G01 X17.4021 Y26.7134
G01 X17.7755 Y26.7134
G01 X17.8082 Y26.6876
G01 X17.8303 Y26.6690
G01 X17.8520 Y26.6498
G01 X17.8732 Y26.6301
G01 X17.8939 Y26.6099
G01 X17.9141 Y26.5892
G01 X17.9338 Y26.5680
G01 X17.9530 Y26.5463
G01 X17.9717 Y26.5242
G01 X17.9974 Y26.4915
G01 X16.7179 Y26.7134
G01 X16.7009 Y26.7070
G01 X16.6781 Y26.6979
G01 X16.6556 Y26.6883
G01 X16.6333 Y26.6781
G01 X16.6113 Y26.6674
G01 X16.5896 Y26.6561
G01 X16.5681 Y26.6443
G01 X16.5470 Y26.6319
G01 X16.5261 Y26.6191
G01 X16.5056 Y26.6057
G01 X16.4854 Y26.5919
G01 X16.4655 Y26.5775
G01 X16.4460 Y26.5627
G01 X16.4269 Y26.5474
G01 X16.4082 Y26.5316
G01 X16.3898 Y26.5154
G01 X16.3719 Y26.4987
G01 X16.3544 Y26.4816
G01 X16.3373 Y26.4641
G01 X16.3206 Y26.4462
G01 X16.3044 Y26.4278
G01 X16.2886 Y26.4091
G01 X16.2733 Y26.3899
G01 X16.2585 Y26.3704
G01 X16.2441 Y26.3506
G01 X16.2303 Y26.3304
G01 X16.2169 Y26.3099
G01 X16.2041 Y26.2890
G01 X16.1917 Y26.2679
G01 X16.1799 Y26.2464
G01 X16.1686 Y26.2247
G01 X16.1579 Y26.2027
G01 X16.1477 Y26.1804
G01 X16.1380 Y26.1579
G01 X16.1289 Y26.1351
G01 X16.1226 Y26.1181
G01 X16.1226 Y26.4915
G01 X16.1483 Y26.5242
G01 X16.1670 Y26.5463
G01 X16.1862 Y26.5680
G01 X16.2059 Y26.5892
G01 X16.2261 Y26.6099
G01 X16.2468 Y26.6301
G01 X16.2680 Y26.6498
G01 X16.2897 Y26.6690
G01 X16.3118 Y26.6876
G01 X16.3445 Y26.7134
G00 Z2.0000
G00 X16.1226 Y26.7134
G01 F60.00
G01 Z0.0000
G01 F120.00
G01 X17.9974 Y26.7134
G01 X17.9974 Y24.8386
G01 X16.1226 Y24.8386
G01 X16.1226 Y26.7134
G00 Z2.0000
G00 X17.7755 Y24.8386
G01 F60.00
G01 Z0.0000
G01 F120.00
G01 X17.8082 Y24.8643
G01 X17.8303 Y24.8830
G01 X17.8520 Y24.9021
G01 X17.8732 Y24.9218
G01 X17.8939 Y24.9421
G01 X17.9141 Y24.9628
G01 X17.9338 Y24.9840
G01 X17.9530 Y25.0057
G01 X17.9717 Y25.0278
G01 X17.9974 Y25.0605
G00 Z2.0000
G00 X20.3639 Y30.1568
G01 F60.00
G01 Z0.0000
G01 F120.00
G01 X20.3497 Y30.1499
G01 X20.3194 Y30.1359
G01 X20.2887 Y30.1228
G01 X20.2576 Y30.1104
G01 X20.2263 Y30.0987
G01 X20.1948 Y30.0879
G01 X20.1629 Y30.0778
G01 X20.1308 Y30.0685
G01 X20.0985 Y30.0600
G01 X20.0661 Y30.0523
G01 X20.0334 Y30.0453
G01 X20.0005 Y30.0392
G01 X19.9676 Y30.0339
G01 X19.9345 Y30.0294
G01 X19.9013 Y30.0258
G01 X19.8680 Y30.0229
G01 X19.8347 Y30.0208
G01 X19.8013 Y30.0196
G01 X19.7679 Y30.0192
G01 X19.7345 Y30.0196
G01 X19.7011 Y30.0208
G01 X19.6678 Y30.0229
G01 X19.6345 Y30.0258
G01 X19.6013 Y30.0294
G01 X19.5682 Y30.0339
G01 X19.5353 Y30.0392
G01 X19.5024 Y30.0453
G01 X19.4697 Y30.0523
G01 X19.4373 Y30.0600
G01 X19.4050 Y30.0685
G01 X19.3729 Y30.0778
G01 X19.3410 Y30.0879
G01 X19.3095 Y30.0987
G01 X19.2782 Y30.1104
G01 X19.2471 Y30.1228
G01 X19.2164 Y30.1359
G01 X19.1861 Y30.1499
G01 X19.1719 Y30.1568
G01 X18.8687 Y30.6170
G01 X18.8941 Y30.5880
G01 X18.9138 Y30.5668
G01 X18.9340 Y30.5461
G01 X18.9547 Y30.5259
G01 X18.9759 Y30.5062
G01 X18.9976 Y30.4870
G01 X19.0197 Y30.4683
G01 X19.0423 Y30.4503
G01 X19.0654 Y30.4327
G01 X19.0888 Y30.4158
G01 X19.1127 Y30.3994
G01 X19.1369 Y30.3836
G01 X19.1616 Y30.3684
G01 X19.1866 Y30.3539
G01 X19.2120 Y30.3399
G01 X19.2376 Y30.3266
G01 X19.2637 Y30.3139
G01 X19.2900 Y30.3018
G01 X19.3166 Y30.2904
G01 X19.3435 Y30.2797
G01 X19.3706 Y30.2696
G01 X19.3980 Y30.2602
G01 X19.4255 Y30.2514
G01 X19.4533 Y30.2434
G01 X19.4813 Y30.2360
G01 X19.5095 Y30.2293
G01 X19.5378 Y30.2233
G01 X19.5663 Y30.2180
G01 X19.5949 Y30.2134
G01 X19.6235 Y30.2095
G01 X19.6523 Y30.2063
G01 X19.6811 Y30.2038
G01 X19.7100 Y30.2021
G01 X19.7390 Y30.2010
G01 X19.7679 Y30.2006
G01 X19.7968 Y30.2010
G01 X19.8258 Y30.2021
G01 X19.8547 Y30.2038
G01 X19.8835 Y30.2063
G01 X19.9123 Y30.2095
G01 X19.9409 Y30.2134
G01 X19.9695 Y30.2180
G01 X19.9980 Y30.2233
G01 X20.0263 Y30.2293
G01 X20.0545 Y30.2360
G01 X20.0825 Y30.2434
G01 X20.1103 Y30.2514
G01 X20.1378 Y30.2602
G01 X20.1652 Y30.2696
G01 X20.1923 Y30.2797
G01 X20.2192 Y30.2904
G01 X20.2458 Y30.3018
G01 X20.2721 Y30.3139
G01 X20.2982 Y30.3266
G01 X20.3238 Y30.3399
G01 X20.3492 Y30.3539
G01 X20.3742 Y30.3684
G01 X20.3989 Y30.3836
G01 X20.4231 Y30.3994
G01 X20.4470 Y30.4158
G01 X20.4704 Y30.4327
G01 X20.4935 Y30.4503
G01 X20.5161 Y30.4683
G01 X20.5382 Y30.4870
G01 X20.5599 Y30.5062
G01 X20.5811 Y30.5259
G01 X20.6018 Y30.5461
G01 X20.6220 Y30.5668
G01 X20.6417 Y30.5880
G01 X20.6671 Y30.6170
G01 X20.7053 Y31.0379
G01 X20.6990 Y31.0209
G01 X20.6899 Y30.9981
G01 X20.6802 Y30.9756
G01 X20.6700 Y30.9533
G01 X20.6593 Y30.9313
G01 X20.6480 Y30.9096
G01 X20.6362 Y30.8881
G01 X20.6238 Y30.8670
G01 X20.6110 Y30.8461
G01 X20.5976 Y30.8256
G01 X20.5838 Y30.8054
G01 X20.5694 Y30.7855
G01 X20.5546 Y30.7660
G01 X20.5393 Y30.7469
G01 X20.5235 Y30.7282
G01 X20.5073 Y30.7098
G01 X20.4906 Y30.6919
G01 X20.4735 Y30.6744
G01 X20.4560 Y30.6573
G01 X20.4381 Y30.6406
G01 X20.4197 Y30.6244
G01 X20.4010 Y30.6086
G01 X20.3819 Y30.5933
G01 X20.3624 Y30.5785
G01 X20.3425 Y30.5641
G01 X20.3223 Y30.5503
G01 X20.3018 Y30.5369
G01 X20.2809 Y30.5241
G01 X20.2598 Y30.5117
G01 X20.2383 Y30.4999
G01 X20.2166 Y30.4886
G01 X20.1946 Y30.4779
G01 X20.1723 Y30.4677
G01 X20.1498 Y30.4580
G01 X20.1270 Y30.4489
G01 X20.1041 Y30.4404
G01 X20.0809 Y30.4324
G01 X20.0576 Y30.4250
G01 X20.0341 Y30.4182
G01 X20.0104 Y30.4120
G01 X19.9865 Y30.4063
G01 X19.9626 Y30.4013
G01 X19.9385 Y30.3968
G01 X19.9143 Y30.3929
G01 X19.8901 Y30.3896
G01 X19.8657 Y30.3869
G01 X19.8413 Y30.3848
G01 X19.8169 Y30.3833
G01 X19.7924 Y30.3824
G01 X19.7679 Y30.3821
G01 X19.7434 Y30.3824
G01 X19.7189 Y30.3833
G01 X19.6945 Y30.3848
G01 X19.6701 Y30.3869
G01 X19.6457 Y30.3896
G01 X19.6215 Y30.3929
G01 X19.5973 Y30.3968
G01 X19.5732 Y30.4013
G01 X19.5493 Y30.4063
G01 X19.5254 Y30.4120
G01 X19.5017 Y30.4182
G01 X19.4782 Y30.4250
G01 X19.4549 Y30.4324
G01 X19.4317 Y30.4404
G01 X19.4088 Y30.4489
G01 X19.3860 Y30.4580
G01 X19.3635 Y30.4677
G01 X19.3412 Y30.4779
G01 X19.3192 Y30.4886
G01 X19.2975 Y30.4999
G01 X19.2760 Y30.5117
G01 X19.2549 Y30.5241
G01 X19.2340 Y30.5369
G01 X19.2135 Y30.5503
G01 X19.1933 Y30.5641
G01 X19.1734 Y30.5785
G01 X19.1539 Y30.5933
G01 X19.1348 Y30.6086
G01 X19.1161 Y30.6244
G01 X19.0977 Y30.6406
G01 X19.0798 Y30.6573
G01 X19.0623 Y30.6744
G01 X19.0452 Y30.6919
G01 X19.0285 Y30.7098
G01 X19.0123 Y30.7282
G01 X18.9965 Y30.7469
G01 X18.9812 Y30.7660
G01 X18.9664 Y30.7855
G01 X18.9520 Y30.8054
G01 X18.9382 Y30.8256
G01 X18.9248 Y30.8461
G01 X18.9120 Y30.8670
G01 X18.8996 Y30.8881
G01 X18.8878 Y30.9096
G01 X18.8765 Y30.9313
G01 X18.8658 Y30.9533
G01 X18.8556 Y30.9756
G01 X18.8459 Y30.9981
G01 X18.8368 Y31.0209
G01 X18.8305 Y31.0379
G00 Z2.0000
G00 X18.8305 Y31.7221
G01 F60.00
G01 Z0.0000
G01 F120.00
G01 X18.8368 Y31.7391
G01 X18.8459 Y31.7619
G01 X18.8556 Y31.7844
G01 X18.8658 Y31.8067
G01 X18.8765 Y31.8287
G01 X18.8878 Y31.8504
G01 X18.8996 Y31.8719
G01 X18.9120 Y31.8930
G01 X18.9248 Y31.9139
G01 X18.9382 Y31.9344
G01 X18.9520 Y31.9546
G01 X18.9664 Y31.9745
G01 X18.9812 Y31.9940
G01 X18.9965 Y32.0131
G01 X19.0123 Y32.0318
G01 X19.0285 Y32.0502
G01 X19.0452 Y32.0681
G01 X19.0623 Y32.0856
G01 X19.0798 Y32.1027
G01 X19.0977 Y32.1194
G01 X19.1161 Y32.1356
G01 X19.1348 Y32.1514
G01 X19.1539 Y32.1667
G01 X19.1734 Y32.1815
G01 X19.1933 Y32.1959
G01 X19.2135 Y32.2097
G01 X19.2340 Y32.2231
G01 X19.2549 Y32.2359
G01 X19.2760 Y32.2483
G01 X19.2975 Y32.2601
G01 X19.3192 Y32.2714
G01 X19.3412 Y32.2821
G01 X19.3635 Y32.2923
G01 X19.3860 Y32.3020
G01 X19.4088 Y32.3111
G01 X19.4317 Y32.3196
G01 X19.4549 Y32.3276
G01 X19.4782 Y32.3349
G01 X19.5017 Y32.3418
G01 X19.5254 Y32.3480
G01 X19.5493 Y32.3537
G01 X19.5732 Y32.3587
G01 X19.5973 Y32.3632
G01 X19.6215 Y32.3671
G01 X19.6457 Y32.3704
G01 X19.6701 Y32.3731
G01 X19.6945 Y32.3752
G01 X19.7189 Y32.3767
G01 X19.7434 Y32.3776
G01 X19.7679 Y32.3779
G01 X19.7924 Y32.3776
G01 X19.8169 Y32.3767
G01 X19.8413 Y32.3752
G01 X19.8657 Y32.3731
G01 X19.8901 Y32.3704
G01 X19.9143 Y32.3671
G01 X19.9385 Y32.3632
G01 X19.9626 Y32.3587
G01 X19.9865 Y32.3537
G01 X20.0104 Y32.3480
G01 X20.0341 Y32.3418
G01 X20.0576 Y32.3349
G01 X20.0809 Y32.3276
G01 X20.1041 Y32.3196
G01 X20.1270 Y32.3111
G01 X20.1498 Y32.3020
G01 X20.1723 Y32.2923
G01 X20.1946 Y32.2821
G01 X20.2166 Y32.2714
G01 X20.2383 Y32.2601
G01 X20.2598 Y32.2483
G01 X20.2809 Y32.2359
G01 X20.3018 Y32.2231
G01 X20.3223 Y32.2097
G01 X20.3425 Y32.1959
G01 X20.3624 Y32.1815
G01 X20.3819 Y32.1667
G01 X20.4010 Y32.1514
G01 X20.4197 Y32.1356
G01 X20.4381 Y32.1194
G01 X20.4560 Y32.1027
G01 X20.4735 Y32.0856
G01 X20.4906 Y32.0681
G01 X20.5073 Y32.0502
G01 X20.5235 Y32.0318
G01 X20.5393 Y32.0131
G01 X20.5546 Y31.9940
G01 X20.5694 Y31.9745
G01 X20.5838 Y31.9546
G01 X20.5976 Y31.9344
G01 X20.6110 Y31.9139
G01 X20.6238 Y31.8930
G01 X20.6362 Y31.8719
G01 X20.6480 Y31.8504
G01 X20.6593 Y31.8287
G01 X20.6700 Y31.8067
G01 X20.6802 Y31.7844
G01 X20.6899 Y31.7619
G01 X20.6990 Y31.7391
G01 X20.7053 Y31.7221
G01 X20.5844 Y31.3800
G01 X20.5841 Y31.3600
G01 X20.5822 Y31.3199
G01 X20.5782 Y31.2801
G01 X20.5724 Y31.2404
G01 X20.5687 Y31.2207
G01 X20.5599 Y31.1816
G01 X20.5492 Y31.1430
G01 X20.5432 Y31.1239
G01 X20.5297 Y31.0862
G01 X20.5143 Y31.0491
G01 X20.4972 Y31.0129
G01 X20.4783 Y30.9776
G01 X20.4682 Y30.9602
G01 X20.4577 Y30.9432
G01 X20.4354 Y30.9099
G01 X20.4237 Y30.8936
G01 X20.3990 Y30.8620
G01 X20.3861 Y30.8467
G01 X20.3592 Y30.8170
G01 X20.3452 Y30.8027
G01 X20.3162 Y30.7750
G01 X20.3012 Y30.7618
G01 X20.2702 Y30.7363
G01 X20.2380 Y30.7125
G01 X20.2215 Y30.7011
G01 X20.1877 Y30.6797
G01 X20.1703 Y30.6696
G01 X20.1350 Y30.6507
G01 X20.1170 Y30.6419
G01 X20.0804 Y30.6257
G01 X20.0617 Y30.6182
G01 X20.0240 Y30.6047
G01 X20.0049 Y30.5987
G01 X19.9663 Y30.5880
G01 X19.9468 Y30.5834
G01 X19.9075 Y30.5755
G01 X19.8877 Y30.5724
G01 X19.8479 Y30.5675
G01 X19.8280 Y30.5657
G01 X19.7879 Y30.5638
G01 X19.7479 Y30.5638
G01 X19.7078 Y30.5657
G01 X19.6879 Y30.5675
G01 X19.6680 Y30.5697
G01 X19.6283 Y30.5755
G01 X19.5890 Y30.5834
G01 X19.5695 Y30.5880
G01 X19.5309 Y30.5987
G01 X19.5118 Y30.6047
G01 X19.4741 Y30.6182
G01 X19.4554 Y30.6257
G01 X19.4188 Y30.6419
G01 X19.4008 Y30.6507
G01 X19.3830 Y30.6599
G01 X19.3481 Y30.6797
G01 X19.3311 Y30.6902
G01 X19.2978 Y30.7125
G01 X19.2815 Y30.7242
G01 X19.2499 Y30.7489
G01 X19.2196 Y30.7750
G01 X19.2049 Y30.7887
G01 X19.1766 Y30.8170
G01 X19.1629 Y30.8317
G01 X19.1368 Y30.8620
G01 X19.1242 Y30.8777
G01 X19.1004 Y30.9099
G01 X19.0890 Y30.9264
G01 X19.0781 Y30.9432
G01 X19.0575 Y30.9776
G01 X19.0478 Y30.9951
G01 X19.0298 Y31.0309
G01 X19.0136 Y31.0675
G01 X19.0061 Y31.0862
G01 X18.9991 Y31.1049
G01 X18.9866 Y31.1430
G01 X18.9810 Y31.1622
G01 X18.9713 Y31.2011
G01 X18.9634 Y31.2404
G01 X18.9576 Y31.2801
G01 X18.9536 Y31.3199
G01 X18.9524 Y31.3399
G01 X18.9517 Y31.3600
G01 X18.9517 Y31.4000
G01 X18.9524 Y31.4201
G01 X18.9554 Y31.4600
G01 X18.9603 Y31.4998
G01 X18.9634 Y31.5196
G01 X18.9713 Y31.5589
G01 X18.9759 Y31.5784
G01 X18.9866 Y31.6170
G01 X18.9926 Y31.6361
G01 X19.0061 Y31.6738
G01 X19.0215 Y31.7109
G01 X19.0298 Y31.7291
G01 X19.0386 Y31.7471
G01 X19.0575 Y31.7824
G01 X19.0781 Y31.8168
G01 X19.1004 Y31.8501
G01 X19.1242 Y31.8823
G01 X19.1368 Y31.8980
G01 X19.1629 Y31.9283
G01 X19.1766 Y31.9430
G01 X19.2049 Y31.9713
G01 X19.2346 Y31.9982
G01 X19.2656 Y32.0237
G01 X19.2815 Y32.0358
G01 X19.3143 Y32.0589
G01 X19.3311 Y32.0698
G01 X19.3655 Y32.0904
G01 X19.3830 Y32.1001
G01 X19.4188 Y32.1181
G01 X19.4554 Y32.1343
G01 X19.4928 Y32.1488
G01 X19.5309 Y32.1613
G01 X19.5501 Y32.1669
G01 X19.5890 Y32.1766
G01 X19.6086 Y32.1808
G01 X19.6481 Y32.1876
G01 X19.6879 Y32.1925
G01 X19.7078 Y32.1943
G01 X19.7479 Y32.1962
G01 X19.7879 Y32.1962
G01 X19.8080 Y32.1955
G01 X19.8280 Y32.1943
G01 X19.8678 Y32.1903
G01 X19.9075 Y32.1845
G01 X19.9468 Y32.1766
G01 X19.9663 Y32.1720
G01 X20.0049 Y32.1613
G01 X20.0430 Y32.1488
G01 X20.0617 Y32.1418
G01 X20.0804 Y32.1343
G01 X20.1170 Y32.1181
G01 X20.1528 Y32.1001
G01 X20.1877 Y32.0803
G01 X20.2047 Y32.0698
G01 X20.2380 Y32.0475
G01 X20.2702 Y32.0237
G01 X20.2859 Y32.0111
G01 X20.3162 Y31.9850
G01 X20.3452 Y31.9573
G01 X20.3729 Y31.9283
G01 X20.3861 Y31.9133
G01 X20.3990 Y31.8980
G01 X20.4116 Y31.8823
G01 X20.4354 Y31.8501
G01 X20.4577 Y31.8168
G01 X20.4783 Y31.7824
G01 X20.4972 Y31.7471
G01 X20.5143 Y31.7109
G01 X20.5297 Y31.6738
G01 X20.5432 Y31.6361
G01 X20.5548 Y31.5978
G01 X20.5599 Y31.5784
G01 X20.5687 Y31.5393
G01 X20.5755 Y31.4998
G01 X20.5804 Y31.4600
G01 X20.5834 Y31.4201
G01 X20.5844 Y31.3800
G01 X20.4029 Y31.3800
G01 X20.4027 Y31.3644
G01 X20.4012 Y31.3333
G01 X20.3982 Y31.3023
G01 X20.3936 Y31.2714
G01 X20.3875 Y31.2409
G01 X20.3839 Y31.2257
G01 X20.3799 Y31.2106
G01 X20.3709 Y31.1808
G01 X20.3658 Y31.1661
G01 X20.3546 Y31.1370
G01 X20.3485 Y31.1227
G01 X20.3351 Y31.0945
G01 X20.3204 Y31.0670
G01 X20.3044 Y31.0403
G01 X20.2959 Y31.0272
G01 X20.2780 Y31.0017
G01 X20.2588 Y30.9771
G01 X20.2488 Y30.9652
G01 X20.2384 Y30.9535
G01 X20.2169 Y30.9310
G01 X20.1944 Y30.9095
G01 X20.1827 Y30.8991
G01 X20.1586 Y30.8794
G01 X20.1336 Y30.8608
G01 X20.1076 Y30.8435
G01 X20.0944 Y30.8353
G01 X20.0809 Y30.8275
G01 X20.0534 Y30.8128
G01 X20.0252 Y30.7994
G01 X20.0109 Y30.7933
G01 X19.9818 Y30.7821
G01 X19.9522 Y30.7723
G01 X19.9222 Y30.7640
G01 X19.9070 Y30.7604
G01 X19.8765 Y30.7543
G01 X19.8611 Y30.7518
G01 X19.8301 Y30.7480
G01 X19.8146 Y30.7467
G01 X19.7835 Y30.7452
G01 X19.7679 Y30.7450
G01 X19.7523 Y30.7452
G01 X19.7212 Y30.7467
G01 X19.7057 Y30.7480
G01 X19.6747 Y30.7518
G01 X19.6593 Y30.7543
G01 X19.6288 Y30.7604
G01 X19.6136 Y30.7640
G01 X19.5836 Y30.7723
G01 X19.5687 Y30.7770
G01 X19.5394 Y30.7875
G01 X19.5249 Y30.7933
G01 X19.4964 Y30.8059
G01 X19.4685 Y30.8199
G01 X19.4549 Y30.8275
G01 X19.4414 Y30.8353
G01 X19.4151 Y30.8520
G01 X19.4022 Y30.8608
G01 X19.3772 Y30.8794
G01 X19.3650 Y30.8891
G01 X19.3414 Y30.9095
G01 X19.3300 Y30.9201
G01 X19.3080 Y30.9421
G01 X19.2974 Y30.9535
G01 X19.2770 Y30.9771
G01 X19.2578 Y31.0017
G01 X19.2487 Y31.0143
G01 X19.2399 Y31.0272
G01 X19.2232 Y31.0535
G01 X19.2078 Y31.0806
G01 X19.2007 Y31.0945
G01 X19.1938 Y31.1085
G01 X19.1812 Y31.1370
G01 X19.1754 Y31.1515
G01 X19.1649 Y31.1808
G01 X19.1602 Y31.1957
G01 X19.1519 Y31.2257
G01 X19.1483 Y31.2409
G01 X19.1422 Y31.2714
G01 X19.1397 Y31.2868
G01 X19.1359 Y31.3178
G01 X19.1346 Y31.3333
G01 X19.1331 Y31.3644
G01 X19.1331 Y31.3956
G01 X19.1336 Y31.4112
G01 X19.1346 Y31.4267
G01 X19.1376 Y31.4577
G01 X19.1397 Y31.4732
G01 X19.1451 Y31.5039
G01 X19.1483 Y31.5191
G01 X19.1559 Y31.5494
G01 X19.1649 Y31.5792
G01 X19.1754 Y31.6085
G01 X19.1812 Y31.6230
G01 X19.1873 Y31.6373
G01 X19.2007 Y31.6655
G01 X19.2154 Y31.6930
G01 X19.2314 Y31.7197
G01 X19.2399 Y31.7328
G01 X19.2578 Y31.7583
G01 X19.2673 Y31.7707
G01 X19.2870 Y31.7948
G01 X19.3080 Y31.8179
G01 X19.3300 Y31.8399
G01 X19.3414 Y31.8505
G01 X19.3650 Y31.8709
G01 X19.3896 Y31.8901
G01 X19.4151 Y31.9080
G01 X19.4282 Y31.9165
G01 X19.4549 Y31.9325
G01 X19.4824 Y31.9472
G01 X19.4964 Y31.9541
G01 X19.5249 Y31.9667
G01 X19.5394 Y31.9725
G01 X19.5687 Y31.9830
G01 X19.5985 Y31.9920
G01 X19.6288 Y31.9996
G01 X19.6593 Y32.0057
G01 X19.6902 Y32.0103
G01 X19.7212 Y32.0133
G01 X19.7523 Y32.0148
G01 X19.7835 Y32.0148
G01 X19.7991 Y32.0143
G01 X19.8301 Y32.0120
G01 X19.8611 Y32.0082
G01 X19.8765 Y32.0057
G01 X19.9070 Y31.9996
G01 X19.9373 Y31.9920
G01 X19.9522 Y31.9877
G01 X19.9818 Y31.9779
G01 X20.0109 Y31.9667
G01 X20.0252 Y31.9606
G01 X20.0534 Y31.9472
G01 X20.0809 Y31.9325
G01 X20.0944 Y31.9247
G01 X20.1207 Y31.9080
G01 X20.1462 Y31.8901
G01 X20.1586 Y31.8806
G01 X20.1827 Y31.8609
G01 X20.1944 Y31.8505
G01 X20.2169 Y31.8290
G01 X20.2384 Y31.8065
G01 X20.2588 Y31.7829
G01 X20.2685 Y31.7707
G01 X20.2780 Y31.7583
G01 X20.2959 Y31.7328
G01 X20.3126 Y31.7065
G01 X20.3280 Y31.6794
G01 X20.3420 Y31.6515
G01 X20.3546 Y31.6230
G01 X20.3658 Y31.5939
G01 X20.3756 Y31.5643
G01 X20.3839 Y31.5343
G01 X20.3907 Y31.5039
G01 X20.3961 Y31.4732
G01 X20.3999 Y31.4422
G01 X20.4022 Y31.4112
G01 X20.4029 Y31.3800
G01 X20.2215 Y31.3800
G01 X20.2210 Y31.3577
G01 X20.2203 Y31.3466
G01 X20.2181 Y31.3245
G01 X20.2148 Y31.3025
G01 X20.2128 Y31.2915
G01 X20.2079 Y31.2698
G01 X20.2020 Y31.2483
G01 X20.1986 Y31.2377
G01 X20.1911 Y31.2168
G01 X20.1826 Y31.1962
G01 X20.1779 Y31.1861
G01 X20.1679 Y31.1662
G01 X20.1570 Y31.1468
G01 X20.1511 Y31.1373
G01 X20.1388 Y31.1188
G01 X20.1322 Y31.1098
G01 X20.1255 Y31.1009
G01 X20.1114 Y31.0837
G01 X20.0964 Y31.0672
G01 X20.0886 Y31.0593
G01 X20.0807 Y31.0515
G01 X20.0642 Y31.0365
G01 X20.0470 Y31.0224
G01 X20.0381 Y31.0157
G01 X20.0199 Y31.0028
G01 X20.0106 Y30.9968
G01 X19.9915 Y30.9853
G01 X19.9817 Y30.9800
G01 X19.9618 Y30.9700
G01 X19.9517 Y30.9653
G01 X19.9311 Y30.9568
G01 X19.9102 Y30.9493
G01 X19.8996 Y30.9459
G01 X19.8781 Y30.9400
G01 X19.8564 Y30.9351
G01 X19.8454 Y30.9331
G01 X19.8234 Y30.9298
G01 X19.8013 Y30.9276
G01 X19.7902 Y30.9269
G01 X19.7679 Y30.9264
G01 X19.7456 Y30.9269
G01 X19.7345 Y30.9276
G01 X19.7124 Y30.9298
G01 X19.7013 Y30.9313
G01 X19.6904 Y30.9331
G01 X19.6685 Y30.9374
G01 X19.6577 Y30.9400
G01 X19.6362 Y30.9459
G01 X19.6256 Y30.9493
G01 X19.6047 Y30.9568
G01 X19.5841 Y30.9653
G01 X19.5640 Y30.9748
G01 X19.5541 Y30.9800
G01 X19.5347 Y30.9909
G01 X19.5252 Y30.9968
G01 X19.5067 Y31.0091
G01 X19.4888 Y31.0224
G01 X19.4801 Y31.0294
G01 X19.4633 Y31.0439
G01 X19.4551 Y31.0515
G01 X19.4472 Y31.0593
G01 X19.4318 Y31.0754
G01 X19.4173 Y31.0922
G01 X19.4103 Y31.1009
G01 X19.3970 Y31.1188
G01 X19.3907 Y31.1280
G01 X19.3788 Y31.1468
G01 X19.3732 Y31.1564
G01 X19.3627 Y31.1761
G01 X19.3579 Y31.1861
G01 X19.3488 Y31.2064
G01 X19.3408 Y31.2272
G01 X19.3338 Y31.2483
G01 X19.3307 Y31.2590
G01 X19.3279 Y31.2698
G01 X19.3230 Y31.2915
G01 X19.3192 Y31.3134
G01 X19.3177 Y31.3245
G01 X19.3155 Y31.3466
G01 X19.3148 Y31.3577
G01 X19.3143 Y31.3800
G01 X19.3144 Y31.3911
G01 X19.3148 Y31.4023
G01 X19.3165 Y31.4245
G01 X19.3177 Y31.4355
G01 X19.3210 Y31.4575
G01 X19.3253 Y31.4794
G01 X19.3279 Y31.4902
G01 X19.3338 Y31.5117
G01 X19.3372 Y31.5223
G01 X19.3408 Y31.5328
G01 X19.3488 Y31.5536
G01 X19.3579 Y31.5739
G01 X19.3679 Y31.5938
G01 X19.3732 Y31.6036
G01 X19.3847 Y31.6227
G01 X19.3907 Y31.6320
G01 X19.4036 Y31.6502
G01 X19.4173 Y31.6678
G01 X19.4318 Y31.6846
G01 X19.4472 Y31.7007
G01 X19.4551 Y31.7085
G01 X19.4716 Y31.7235
G01 X19.4888 Y31.7376
G01 X19.5067 Y31.7509
G01 X19.5252 Y31.7632
G01 X19.5347 Y31.7691
G01 X19.5541 Y31.7800
G01 X19.5740 Y31.7900
G01 X19.5943 Y31.7991
G01 X19.6151 Y31.8071
G01 X19.6256 Y31.8107
G01 X19.6469 Y31.8172
G01 X19.6685 Y31.8226
G01 X19.6904 Y31.8269
G01 X19.7124 Y31.8302
G01 X19.7345 Y31.8324
G01 X19.7456 Y31.8331
G01 X19.7679 Y31.8336
G01 X19.7902 Y31.8331
G01 X19.8124 Y31.8314
G01 X19.8345 Y31.8287
G01 X19.8454 Y31.8269
G01 X19.8673 Y31.8226
G01 X19.8889 Y31.8172
G01 X19.9102 Y31.8107
G01 X19.9207 Y31.8071
G01 X19.9415 Y31.7991
G01 X19.9618 Y31.7900
G01 X19.9817 Y31.7800
G01 X20.0011 Y31.7691
G01 X20.0106 Y31.7632
G01 X20.0291 Y31.7509
G01 X20.0470 Y31.7376
G01 X20.0642 Y31.7235
G01 X20.0725 Y31.7161
G01 X20.0886 Y31.7007
G01 X20.1040 Y31.6846
G01 X20.1185 Y31.6678
G01 X20.1322 Y31.6502
G01 X20.1388 Y31.6412
G01 X20.1451 Y31.6320
G01 X20.1570 Y31.6132
G01 X20.1679 Y31.5938
G01 X20.1779 Y31.5739
G01 X20.1870 Y31.5536
G01 X20.1950 Y31.5328
G01 X20.2020 Y31.5117
G01 X20.2079 Y31.4902
G01 X20.2128 Y31.4685
G01 X20.2166 Y31.4466
G01 X20.2193 Y31.4245
G01 X20.2210 Y31.4023
G01 X20.2215 Y31.3800
G01 X20.0401 Y31.3800
G01 X20.0393 Y31.3600
G01 X20.0371 Y31.3401
G01 X20.0334 Y31.3204
G01 X20.0283 Y31.3010
G01 X20.0218 Y31.2821
G01 X20.0139 Y31.2636
G01 X20.0047 Y31.2459
G01 X19.9942 Y31.2288
G01 X19.9825 Y31.2126
G01 X19.9696 Y31.1972
G01 X19.9556 Y31.1829
G01 X19.9406 Y31.1696
G01 X19.9246 Y31.1575
G01 X19.9078 Y31.1466
G01 X19.8903 Y31.1369
G01 X19.8721 Y31.1286
G01 X19.8596 Y31.1237
G01 X19.8469 Y31.1196
G01 X19.8275 Y31.1145
G01 X19.8078 Y31.1108
G01 X19.7879 Y31.1086
G01 X19.7746 Y31.1079
G01 X19.7612 Y31.1079
G01 X19.7412 Y31.1092
G01 X19.7214 Y31.1118
G01 X19.7083 Y31.1145
G01 X19.6953 Y31.1177
G01 X19.6762 Y31.1237
G01 X19.6576 Y31.1312
G01 X19.6396 Y31.1400
G01 X19.6280 Y31.1466
G01 X19.6167 Y31.1537
G01 X19.6005 Y31.1654
G01 X19.5851 Y31.1783
G01 X19.5708 Y31.1923
G01 X19.5618 Y31.2022
G01 X19.5533 Y31.2126
G01 X19.5454 Y31.2233
G01 X19.5380 Y31.2344
G01 X19.5279 Y31.2517
G01 X19.5191 Y31.2697
G01 X19.5140 Y31.2821
G01 X19.5095 Y31.2946
G01 X19.5056 Y31.3074
G01 X19.5024 Y31.3204
G01 X19.4987 Y31.3401
G01 X19.4965 Y31.3600
G01 X19.4957 Y31.3800
G01 X19.4965 Y31.4000
G01 X19.4987 Y31.4199
G01 X19.5024 Y31.4396
G01 X19.5056 Y31.4526
G01 X19.5095 Y31.4654
G01 X19.5140 Y31.4779
G01 X19.5191 Y31.4903
G01 X19.5279 Y31.5083
G01 X19.5345 Y31.5199
G01 X19.5416 Y31.5312
G01 X19.5533 Y31.5474
G01 X19.5618 Y31.5578
G01 X19.5708 Y31.5677
G01 X19.5851 Y31.5817
G01 X19.6005 Y31.5946
G01 X19.6167 Y31.6063
G01 X19.6280 Y31.6134
G01 X19.6396 Y31.6200
G01 X19.6576 Y31.6288
G01 X19.6762 Y31.6363
G01 X19.6953 Y31.6423
G01 X19.7148 Y31.6469
G01 X19.7346 Y31.6501
G01 X19.7545 Y31.6518
G01 X19.7746 Y31.6521
G01 X19.7879 Y31.6514
G01 X19.8012 Y31.6501
G01 X19.8210 Y31.6469
G01 X19.8405 Y31.6423
G01 X19.8596 Y31.6363
G01 X19.8782 Y31.6288
G01 X19.8903 Y31.6231
G01 X19.9020 Y31.6168
G01 X19.9191 Y31.6063
G01 X19.9353 Y31.5946
G01 X19.9507 Y31.5817
G01 X19.9650 Y31.5677
G01 X19.9783 Y31.5527
G01 X19.9904 Y31.5367
G01 X20.0013 Y31.5199
G01 X20.0047 Y31.5141
G01 X20.0110 Y31.5024
G01 X20.0193 Y31.4842
G01 X20.0263 Y31.4654
G01 X20.0319 Y31.4461
G01 X20.0348 Y31.4331
G01 X20.0371 Y31.4199
G01 X20.0393 Y31.4000
G01 X20.0401 Y31.3800
G01 X19.8586 Y31.3800
G01 X19.8582 Y31.3711
G01 X19.8569 Y31.3623
G01 X19.8547 Y31.3537
G01 X19.8517 Y31.3453
G01 X19.8479 Y31.3372
G01 X19.8433 Y31.3296
G01 X19.8380 Y31.3224
G01 X19.8320 Y31.3159
G01 X19.8255 Y31.3099
G01 X19.8183 Y31.3046
G01 X19.8107 Y31.3000
G01 X19.8026 Y31.2962
G01 X19.7942 Y31.2932
G01 X19.7856 Y31.2910
G01 X19.7768 Y31.2897
G01 X19.7679 Y31.2893
G01 X19.7590 Y31.2897
G01 X19.7502 Y31.2910
G01 X19.7416 Y31.2932
G01 X19.7332 Y31.2962
G01 X19.7251 Y31.3000
G01 X19.7175 Y31.3046
G01 X19.7103 Y31.3099
G01 X19.7038 Y31.3159
G01 X19.6978 Y31.3224
G01 X19.6925 Y31.3296
G01 X19.6879 Y31.3372
G01 X19.6841 Y31.3453
G01 X19.6811 Y31.3537
G01 X19.6789 Y31.3623
G01 X19.6776 Y31.3711
G01 X19.6772 Y31.3800
G01 X19.6776 Y31.3889
G01 X19.6789 Y31.3977
G01 X19.6811 Y31.4063
G01 X19.6841 Y31.4147
G01 X19.6879 Y31.4228
G01 X19.6925 Y31.4304
G01 X19.6978 Y31.4376
G01 X19.7038 Y31.4441
G01 X19.7103 Y31.4501
G01 X19.7175 Y31.4554
G01 X19.7251 Y31.4600
G01 X19.7332 Y31.4638
G01 X19.7416 Y31.4668
G01 X19.7502 Y31.4690
G01 X19.7590 Y31.4703
G01 X19.7679 Y31.4707
G01 X19.7768 Y31.4703
G01 X19.7856 Y31.4690
G01 X19.7942 Y31.4668
G01 X19.8026 Y31.4638
G01 X19.8107 Y31.4600
G01 X19.8183 Y31.4554
G01 X19.8255 Y31.4501
G01 X19.8320 Y31.4441
G01 X19.8380 Y31.4376
G01 X19.8433 Y31.4304
G01 X19.8479 Y31.4228
G01 X19.8517 Y31.4147
G01 X19.8547 Y31.4063
G01 X19.8569 Y31.3977
G01 X19.8582 Y31.3889
G01 X19.8586 Y31.3800
G01 X20.6671 Y32.1430
G01 X20.6609 Y32.1503
G01 X20.6417 Y32.1720
G01 X20.6220 Y32.1932
G01 X20.6018 Y32.2139
G01 X20.5811 Y32.2341
G01 X20.5599 Y32.2538
G01 X20.5382 Y32.2730
G01 X20.5161 Y32.2917
G01 X20.4935 Y32.3097
G01 X20.4704 Y32.3273
G01 X20.4470 Y32.3442
G01 X20.4231 Y32.3606
G01 X20.3989 Y32.3764
G01 X20.3742 Y32.3916
G01 X20.3492 Y32.4061
G01 X20.3238 Y32.4201
G01 X20.2982 Y32.4334
G01 X20.2721 Y32.4461
G01 X20.2458 Y32.4582
G01 X20.2192 Y32.4696
G01 X20.1923 Y32.4803
G01 X20.1652 Y32.4904
G01 X20.1378 Y32.4998
G01 X20.1103 Y32.5086
G01 X20.0825 Y32.5166
G01 X20.0545 Y32.5240
G01 X20.0263 Y32.5307
G01 X19.9980 Y32.5367
G01 X19.9695 Y32.5420
G01 X19.9409 Y32.5466
G01 X19.9123 Y32.5505
G01 X19.8835 Y32.5537
G01 X19.8547 Y32.5562
G01 X19.8258 Y32.5579
G01 X19.7968 Y32.5590
G01 X19.7679 Y32.5594
G01 X19.7390 Y32.5590
G01 X19.7100 Y32.5579
G01 X19.6811 Y32.5562
G01 X19.6523 Y32.5537
G01 X19.6235 Y32.5505
G01 X19.5949 Y32.5466
G01 X19.5663 Y32.5420
G01 X19.5378 Y32.5367
G01 X19.5095 Y32.5307
G01 X19.4813 Y32.5240
G01 X19.4533 Y32.5166
G01 X19.4255 Y32.5086
G01 X19.3980 Y32.4998
G01 X19.3706 Y32.4904
G01 X19.3435 Y32.4803
G01 X19.3166 Y32.4696
G01 X19.2900 Y32.4582
G01 X19.2637 Y32.4461
G01 X19.2376 Y32.4334
G01 X19.2120 Y32.4201
G01 X19.1866 Y32.4061
G01 X19.1616 Y32.3916
G01 X19.1369 Y32.3764
G01 X19.1127 Y32.3606
G01 X19.0888 Y32.3442
G01 X19.0654 Y32.3273
G01 X19.0423 Y32.3097
G01 X19.0197 Y32.2917
G01 X18.9976 Y32.2730
G01 X18.9759 Y32.2538
G01 X18.9547 Y32.2341
G01 X18.9340 Y32.2139
G01 X18.9138 Y32.1932
G01 X18.8941 Y32.1720
G01 X18.8749 Y32.1503
G01 X18.8687 Y32.1430
G01 X19.1719 Y32.6032
G01 X19.1861 Y32.6101
G01 X19.2164 Y32.6241
G01 X19.2471 Y32.6372
G01 X19.2782 Y32.6496
G01 X19.3095 Y32.6613
G01 X19.3410 Y32.6721
G01 X19.3729 Y32.6822
G01 X19.4050 Y32.6915
G01 X19.4373 Y32.7000
G01 X19.4697 Y32.7077
G01 X19.5024 Y32.7147
G01 X19.5353 Y32.7208
G01 X19.5682 Y32.7261
G01 X19.6013 Y32.7306
G01 X19.6345 Y32.7342
G01 X19.6678 Y32.7371
G01 X19.7011 Y32.7392
G01 X19.7345 Y32.7404
G01 X19.7679 Y32.7408
G01 X19.8013 Y32.7404
G01 X19.8347 Y32.7392
G01 X19.8680 Y32.7371
G01 X19.9013 Y32.7342
G01 X19.9345 Y32.7306
G01 X19.9676 Y32.7261
G01 X20.0005 Y32.7208
G01 X20.0334 Y32.7147
G01 X20.0661 Y32.7077
G01 X20.0985 Y32.7000
G01 X20.1308 Y32.6915
G01 X20.1629 Y32.6822
G01 X20.1948 Y32.6721
G01 X20.2263 Y32.6613
G01 X20.2576 Y32.6496
G01 X20.2887 Y32.6372
G01 X20.3194 Y32.6241
G01 X20.3497 Y32.6101
G01 X20.3639 Y32.6032
G01 X19.7679 Y32.8173
G01 X19.8598 Y32.8127
G01 X19.9508 Y32.7993
G01 X20.0400 Y32.7769
G01 X20.1266 Y32.7459
G01 X20.2097 Y32.7066
G01 X20.2886 Y32.6593
G01 X20.3625 Y32.6045
G01 X20.4306 Y32.5427
G01 X20.4924 Y32.4746
G01 X20.5472 Y32.4007
G01 X20.5945 Y32.3218
G01 X20.6338 Y32.2387
G01 X20.6648 Y32.1521
G01 X20.6872 Y32.0628
G01 X20.7006 Y31.9719
G01 X20.7053 Y31.8772
G01 X20.7053 Y30.8828
G01 X20.7006 Y30.7881
G01 X20.6872 Y30.6972
G01 X20.6648 Y30.6079
G01 X20.6338 Y30.5213
G01 X20.5945 Y30.4382
G01 X20.5472 Y30.3593
G01 X20.4924 Y30.2854
G01 X20.4306 Y30.2173
G01 X20.3625 Y30.1555
G01 X20.2886 Y30.1007
G01 X20.2097 Y30.0534
G01 X20.1266 Y30.0141
G01 X20.0400 Y29.9831
G01 X19.9508 Y29.9607
G01 X19.8598 Y29.9473
G01 X19.7679 Y29.9427
G01 X19.6760 Y29.9473
G01 X19.5850 Y29.9607
G01 X19.4958 Y29.9831
G01 X19.4092 Y30.0141
G01 X19.3261 Y30.0534
G01 X19.2472 Y30.1007
G01 X19.1733 Y30.1555
G01 X19.1052 Y30.2173
G01 X19.0434 Y30.2854
G01 X18.9886 Y30.3593
G01 X18.9413 Y30.4382
G01 X18.9020 Y30.5213
G01 X18.8710 Y30.6079
G01 X18.8486 Y30.6972
G01 X18.8352 Y30.7881
G01 X18.8305 Y30.8828
G01 X18.8305 Y31.8772
G01 X18.8352 Y31.9719
G01 X18.8486 Y32.0628
G01 X18.8710 Y32.1521
G01 X18.9020 Y32.2387
G01 X18.9413 Y32.3218
G01 X18.9886 Y32.4007
G01 X19.0434 Y32.4746
G01 X19.1052 Y32.5427
G01 X19.1733 Y32.6045
G01 X19.2472 Y32.6593
G01 X19.3261 Y32.7066
G01 X19.4092 Y32.7459
G01 X19.4958 Y32.7769
G01 X19.5850 Y32.7993
G01 X19.6760 Y32.8127
G01 X19.7679 Y32.8173
G00 Z2.0000
G00 X21.9180 Y32.1173
G01 F60.00
G01 Z0.0000
G01 F120.00
G01 X21.8457 Y32.1137
G01 X21.7742 Y32.1031
G01 X21.7040 Y32.0855
G01 X21.6359 Y32.0611
G01 X21.5705 Y32.0302
G01 X21.5084 Y31.9930
G01 X21.4503 Y31.9499
G01 X21.3967 Y31.9013
G01 X21.3481 Y31.8477
G01 X21.3050 Y31.7896
G01 X21.2678 Y31.7276
G01 X21.2369 Y31.6622
G01 X21.2125 Y31.5940
G01 X21.1949 Y31.5239
G01 X21.1843 Y31.4523
G01 X21.1808 Y31.3800
G01 X21.1843 Y31.3077
G01 X21.1949 Y31.2361
G01 X21.2125 Y31.1660
G01 X21.2369 Y31.0978
G01 X21.2678 Y31.0324
G01 X21.3050 Y30.9704
G01 X21.3481 Y30.9123
G01 X21.3967 Y30.8587
G01 X21.4503 Y30.8101
G01 X21.5084 Y30.7670
G01 X21.5705 Y30.7298
G01 X21.6359 Y30.6989
G01 X21.7040 Y30.6745
G01 X21.7742 Y30.6569
G01 X21.8457 Y30.6463
G01 X21.9180 Y30.6427
G01 X21.9903 Y30.6463
G01 X22.0618 Y30.6569
G01 X22.1320 Y30.6745
G01 X22.2001 Y30.6989
G01 X22.2655 Y30.7298
G01 X22.3276 Y30.7670
G01 X22.3857 Y30.8101
G01 X22.4393 Y30.8587
G01 X22.4879 Y30.9123
G01 X22.5310 Y30.9704
G01 X22.5682 Y31.0324
G01 X22.5991 Y31.0978
G01 X22.6235 Y31.1660
G01 X22.6411 Y31.2361
G01 X22.6517 Y31.3077
G01 X22.6552 Y31.3800
G01 X22.6517 Y31.4523
G01 X22.6411 Y31.5239
G01 X22.6235 Y31.5940
G01 X22.5991 Y31.6622
G01 X22.5682 Y31.7276
G01 X22.5310 Y31.7896
G01 X22.4879 Y31.8477
G01 X22.4393 Y31.9013
G01 X22.3857 Y31.9499
G01 X22.3276 Y31.9930
G01 X22.2655 Y32.0302
G01 X22.2001 Y32.0611
G01 X22.1320 Y32.0855
G01 X22.0618 Y32.1031
G01 X21.9903 Y32.1137
G01 X21.9180 Y32.1173
G01 X22.5530 Y31.3800
G01 X22.5523 Y31.4112
G01 X22.5500 Y31.4422
G01 X22.5462 Y31.4732
G01 X22.5408 Y31.5039
G01 X22.5340 Y31.5343
G01 X22.5300 Y31.5494
G01 X22.5210 Y31.5792
G01 X22.5105 Y31.6085
G01 X22.4986 Y31.6373
G01 X22.4852 Y31.6655
G01 X22.4706 Y31.6930
G01 X22.4545 Y31.7197
G01 X22.4372 Y31.7457
G01 X22.4186 Y31.7707
G01 X22.3989 Y31.7948
G01 X22.3885 Y31.8065
G01 X22.3671 Y31.8290
G01 X22.3445 Y31.8505
G01 X22.3209 Y31.8709
G01 X22.2963 Y31.8901
G01 X22.2708 Y31.9080
G01 X22.2445 Y31.9247
G01 X22.2174 Y31.9401
G01 X22.1895 Y31.9541
G01 X22.1610 Y31.9667
G01 X22.1319 Y31.9779
G01 X22.1024 Y31.9877
G01 X22.0874 Y31.9920
G01 X22.0571 Y31.9996
G01 X22.0266 Y32.0057
G01 X22.0112 Y32.0082
G01 X21.9957 Y32.0103
G01 X21.9647 Y32.0133
G01 X21.9336 Y32.0148
G01 X21.9024 Y32.0148
G01 X21.8713 Y32.0133
G01 X21.8403 Y32.0103
G01 X21.8094 Y32.0057
G01 X21.7789 Y31.9996
G01 X21.7486 Y31.9920
G01 X21.7188 Y31.9830
G01 X21.6895 Y31.9725
G01 X21.6607 Y31.9606
G01 X21.6465 Y31.9541
G01 X21.6187 Y31.9401
G01 X21.5915 Y31.9247
G01 X21.5652 Y31.9080
G01 X21.5397 Y31.8901
G01 X21.5151 Y31.8709
G01 X21.4915 Y31.8505
G01 X21.4690 Y31.8290
G01 X21.4475 Y31.8065
G01 X21.4271 Y31.7829
G01 X21.4079 Y31.7583
G01 X21.3900 Y31.7328
G01 X21.3815 Y31.7197
G01 X21.3655 Y31.6930
G01 X21.3508 Y31.6655
G01 X21.3375 Y31.6373
G01 X21.3255 Y31.6085
G01 X21.3150 Y31.5792
G01 X21.3060 Y31.5494
G01 X21.2984 Y31.5191
G01 X21.2923 Y31.4886
G01 X21.2877 Y31.4577
G01 X21.2847 Y31.4267
G01 X21.2832 Y31.3956
G01 X21.2832 Y31.3644
G01 X21.2847 Y31.3333
G01 X21.2877 Y31.3023
G01 X21.2923 Y31.2714
G01 X21.2984 Y31.2409
G01 X21.3060 Y31.2106
G01 X21.3103 Y31.1957
G01 X21.3201 Y31.1661
G01 X21.3313 Y31.1370
G01 X21.3439 Y31.1085
G01 X21.3580 Y31.0806
G01 X21.3733 Y31.0535
G01 X21.3900 Y31.0272
G01 X21.4079 Y31.0017
G01 X21.4271 Y30.9771
G01 X21.4475 Y30.9535
G01 X21.4690 Y30.9310
G01 X21.4915 Y30.9095
G01 X21.5151 Y30.8891
G01 X21.5397 Y30.8699
G01 X21.5652 Y30.8520
G01 X21.5915 Y30.8353
G01 X21.6187 Y30.8199
G01 X21.6465 Y30.8059
G01 X21.6750 Y30.7933
G01 X21.7041 Y30.7821
G01 X21.7337 Y30.7723
G01 X21.7637 Y30.7640
G01 X21.7941 Y30.7572
G01 X21.8248 Y30.7518
G01 X21.8558 Y30.7480
G01 X21.8869 Y30.7457
G01 X21.9180 Y30.7450
G01 X21.9492 Y30.7457
G01 X21.9803 Y30.7480
G01 X22.0112 Y30.7518
G01 X22.0419 Y30.7572
G01 X22.0723 Y30.7640
G01 X22.1024 Y30.7723
G01 X22.1319 Y30.7821
G01 X22.1610 Y30.7933
G01 X22.1754 Y30.7994
G01 X22.2035 Y30.8128
G01 X22.2310 Y30.8275
G01 X22.2578 Y30.8435
G01 X22.2837 Y30.8608
G01 X22.2963 Y30.8699
G01 X22.3209 Y30.8891
G01 X22.3445 Y30.9095
G01 X22.3671 Y30.9310
G01 X22.3779 Y30.9421
G01 X22.3989 Y30.9652
G01 X22.4186 Y30.9893
G01 X22.4372 Y31.0143
G01 X22.4545 Y31.0403
G01 X22.4706 Y31.0670
G01 X22.4852 Y31.0945
G01 X22.4986 Y31.1227
G01 X22.5047 Y31.1370
G01 X22.5159 Y31.1661
G01 X22.5257 Y31.1957
G01 X22.5300 Y31.2106
G01 X22.5376 Y31.2409
G01 X22.5437 Y31.2714
G01 X22.5462 Y31.2868
G01 X22.5500 Y31.3178
G01 X22.5523 Y31.3488
G01 X22.5530 Y31.3800
G01 X22.3716 Y31.3800
G01 X22.3711 Y31.4023
G01 X22.3694 Y31.4245
G01 X22.3667 Y31.4466
G01 X22.3649 Y31.4575
G01 X22.3606 Y31.4794
G01 X22.3552 Y31.5010
G01 X22.3521 Y31.5117
G01 X22.3451 Y31.5328
G01 X22.3371 Y31.5536
G01 X22.3281 Y31.5739
G01 X22.3180 Y31.5938
G01 X22.3127 Y31.6036
G01 X22.3012 Y31.6227
G01 X22.2889 Y31.6412
G01 X22.2756 Y31.6591
G01 X22.2686 Y31.6678
G01 X22.2541 Y31.6846
G01 X22.2388 Y31.7007
G01 X22.2308 Y31.7085
G01 X22.2143 Y31.7235
G01 X22.1971 Y31.7376
G01 X22.1792 Y31.7509
G01 X22.1700 Y31.7572
G01 X22.1607 Y31.7632
G01 X22.1416 Y31.7747
G01 X22.1220 Y31.7852
G01 X22.1119 Y31.7900
G01 X22.0916 Y31.7991
G01 X22.0708 Y31.8071
G01 X22.0603 Y31.8107
G01 X22.0390 Y31.8172
G01 X22.0174 Y31.8226
G01 X21.9956 Y31.8269
G01 X21.9846 Y31.8287
G01 X21.9625 Y31.8314
G01 X21.9403 Y31.8331
G01 X21.9291 Y31.8335
G01 X21.9069 Y31.8335
G01 X21.8846 Y31.8324
G01 X21.8625 Y31.8302
G01 X21.8405 Y31.8269
G01 X21.8186 Y31.8226
G01 X21.7970 Y31.8172
G01 X21.7757 Y31.8107
G01 X21.7548 Y31.8032
G01 X21.7342 Y31.7947
G01 X21.7141 Y31.7852
G01 X21.6944 Y31.7747
G01 X21.6753 Y31.7632
G01 X21.6568 Y31.7509
G01 X21.6389 Y31.7376
G01 X21.6217 Y31.7235
G01 X21.6052 Y31.7085
G01 X21.5895 Y31.6928
G01 X21.5745 Y31.6763
G01 X21.5674 Y31.6678
G01 X21.5537 Y31.6502
G01 X21.5409 Y31.6320
G01 X21.5289 Y31.6132
G01 X21.5180 Y31.5938
G01 X21.5080 Y31.5739
G01 X21.4989 Y31.5536
G01 X21.4909 Y31.5328
G01 X21.4839 Y31.5117
G01 X21.4780 Y31.4902
G01 X21.4731 Y31.4685
G01 X21.4693 Y31.4466
G01 X21.4666 Y31.4245
G01 X21.4650 Y31.4023
G01 X21.4644 Y31.3800
G01 X21.4650 Y31.3577
G01 X21.4666 Y31.3355
G01 X21.4693 Y31.3134
G01 X21.4731 Y31.2915
G01 X21.4780 Y31.2698
G01 X21.4839 Y31.2483
G01 X21.4909 Y31.2272
G01 X21.4989 Y31.2064
G01 X21.5080 Y31.1861
G01 X21.5180 Y31.1662
G01 X21.5289 Y31.1468
G01 X21.5409 Y31.1280
G01 X21.5537 Y31.1098
G01 X21.5674 Y31.0922
G01 X21.5819 Y31.0754
G01 X21.5973 Y31.0593
G01 X21.6134 Y31.0439
G01 X21.6302 Y31.0294
G01 X21.6478 Y31.0157
G01 X21.6660 Y31.0028
G01 X21.6848 Y30.9909
G01 X21.7042 Y30.9800
G01 X21.7241 Y30.9700
G01 X21.7444 Y30.9609
G01 X21.7652 Y30.9529
G01 X21.7863 Y30.9459
G01 X21.8078 Y30.9400
G01 X21.8295 Y30.9351
G01 X21.8515 Y30.9313
G01 X21.8735 Y30.9286
G01 X21.8958 Y30.9269
G01 X21.9180 Y30.9264
G01 X21.9403 Y30.9269
G01 X21.9514 Y30.9276
G01 X21.9735 Y30.9298
G01 X21.9956 Y30.9331
G01 X22.0065 Y30.9351
G01 X22.0282 Y30.9400
G01 X22.0497 Y30.9459
G01 X22.0708 Y30.9529
G01 X22.0916 Y30.9609
G01 X22.1119 Y30.9700
G01 X22.1318 Y30.9800
G01 X22.1416 Y30.9853
G01 X22.1607 Y30.9968
G01 X22.1792 Y31.0091
G01 X22.1882 Y31.0157
G01 X22.2058 Y31.0294
G01 X22.2143 Y31.0365
G01 X22.2308 Y31.0515
G01 X22.2465 Y31.0672
G01 X22.2615 Y31.0837
G01 X22.2756 Y31.1009
G01 X22.2823 Y31.1098
G01 X22.2952 Y31.1280
G01 X22.3071 Y31.1468
G01 X22.3180 Y31.1662
G01 X22.3281 Y31.1861
G01 X22.3327 Y31.1962
G01 X22.3412 Y31.2168
G01 X22.3487 Y31.2377
G01 X22.3521 Y31.2483
G01 X22.3580 Y31.2698
G01 X22.3629 Y31.2915
G01 X22.3667 Y31.3134
G01 X22.3694 Y31.3355
G01 X22.3711 Y31.3577
G01 X22.3716 Y31.3800
G01 X22.1902 Y31.3800
G01 X22.1898 Y31.3934
G01 X22.1889 Y31.4067
G01 X22.1872 Y31.4199
G01 X22.1849 Y31.4331
G01 X22.1803 Y31.4526
G01 X22.1764 Y31.4654
G01 X22.1719 Y31.4779
G01 X22.1668 Y31.4903
G01 X22.1611 Y31.5024
G01 X22.1514 Y31.5199
G01 X22.1443 Y31.5312
G01 X22.1366 Y31.5421
G01 X22.1284 Y31.5527
G01 X22.1197 Y31.5628
G01 X22.1057 Y31.5771
G01 X22.0958 Y31.5861
G01 X22.0855 Y31.5946
G01 X22.0747 Y31.6025
G01 X22.0636 Y31.6099
G01 X22.0463 Y31.6200
G01 X22.0344 Y31.6260
G01 X22.0222 Y31.6314
G01 X22.0097 Y31.6363
G01 X21.9970 Y31.6404
G01 X21.9841 Y31.6440
G01 X21.9711 Y31.6469
G01 X21.9513 Y31.6501
G01 X21.9380 Y31.6514
G01 X21.9247 Y31.6521
G01 X21.9113 Y31.6521
G01 X21.8913 Y31.6508
G01 X21.8781 Y31.6492
G01 X21.8649 Y31.6469
G01 X21.8519 Y31.6440
G01 X21.8326 Y31.6384
G01 X21.8201 Y31.6339
G01 X21.8077 Y31.6288
G01 X21.7956 Y31.6231
G01 X21.7839 Y31.6168
G01 X21.7724 Y31.6099
G01 X21.7613 Y31.6025
G01 X21.7454 Y31.5904
G01 X21.7352 Y31.5817
G01 X21.7256 Y31.5724
G01 X21.7164 Y31.5628
G01 X21.7076 Y31.5527
G01 X21.6994 Y31.5421
G01 X21.6917 Y31.5312
G01 X21.6812 Y31.5141
G01 X21.6749 Y31.5024
G01 X21.6692 Y31.4903
G01 X21.6641 Y31.4779
G01 X21.6596 Y31.4654
G01 X21.6557 Y31.4526
G01 X21.6525 Y31.4396
G01 X21.6499 Y31.4265
G01 X21.6479 Y31.4133
G01 X21.6466 Y31.4000
G01 X21.6458 Y31.3800
G01 X21.6462 Y31.3666
G01 X21.6472 Y31.3533
G01 X21.6488 Y31.3401
G01 X21.6511 Y31.3269
G01 X21.6540 Y31.3139
G01 X21.6576 Y31.3010
G01 X21.6618 Y31.2883
G01 X21.6666 Y31.2758
G01 X21.6720 Y31.2636
G01 X21.6780 Y31.2517
G01 X21.6846 Y31.2401
G01 X21.6917 Y31.2288
G01 X21.6994 Y31.2179
G01 X21.7076 Y31.2073
G01 X21.7164 Y31.1972
G01 X21.7256 Y31.1876
G01 X21.7352 Y31.1783
G01 X21.7454 Y31.1696
G01 X21.7559 Y31.1614
G01 X21.7668 Y31.1537
G01 X21.7781 Y31.1466
G01 X21.7897 Y31.1400
G01 X21.8016 Y31.1340
G01 X21.8139 Y31.1286
G01 X21.8263 Y31.1237
G01 X21.8390 Y31.1196
G01 X21.8519 Y31.1160
G01 X21.8649 Y31.1131
G01 X21.8781 Y31.1108
G01 X21.8913 Y31.1092
G01 X21.9047 Y31.1082
G01 X21.9180 Y31.1078
G01 X21.9380 Y31.1086
G01 X21.9579 Y31.1108
G01 X21.9776 Y31.1145
G01 X21.9970 Y31.1196
G01 X22.0097 Y31.1237
G01 X22.0222 Y31.1286
G01 X22.0404 Y31.1369
G01 X22.0579 Y31.1466
G01 X22.0747 Y31.1575
G01 X22.0855 Y31.1654
G01 X22.0958 Y31.1739
G01 X22.1105 Y31.1876
G01 X22.1241 Y31.2022
G01 X22.1366 Y31.2179
G01 X22.1443 Y31.2288
G01 X22.1514 Y31.2401
G01 X22.1611 Y31.2576
G01 X22.1695 Y31.2758
G01 X22.1764 Y31.2946
G01 X22.1820 Y31.3139
G01 X22.1862 Y31.3335
G01 X22.1881 Y31.3467
G01 X22.1894 Y31.3600
G01 X22.1902 Y31.3800
G01 X22.0087 Y31.3800
G01 X22.0077 Y31.3933
G01 X22.0065 Y31.3999
G01 X22.0042 Y31.4085
G01 X22.0018 Y31.4147
G01 X21.9980 Y31.4228
G01 X21.9934 Y31.4304
G01 X21.9895 Y31.4358
G01 X21.9837 Y31.4426
G01 X21.9789 Y31.4472
G01 X21.9738 Y31.4515
G01 X21.9665 Y31.4566
G01 X21.9608 Y31.4600
G01 X21.9527 Y31.4638
G01 X21.9401 Y31.4680
G01 X21.9313 Y31.4697
G01 X21.9202 Y31.4707
G01 X21.9113 Y31.4705
G01 X21.9003 Y31.4690
G01 X21.8896 Y31.4661
G01 X21.8792 Y31.4620
G01 X21.8695 Y31.4566
G01 X21.8622 Y31.4515
G01 X21.8555 Y31.4457
G01 X21.8479 Y31.4376
G01 X21.8414 Y31.4285
G01 X21.8370 Y31.4208
G01 X21.8326 Y31.4106
G01 X21.8300 Y31.4020
G01 X21.8280 Y31.3911
G01 X21.8273 Y31.3800
G01 X21.8277 Y31.3711
G01 X21.8290 Y31.3623
G01 X21.8312 Y31.3537
G01 X21.8342 Y31.3453
G01 X21.8380 Y31.3372
G01 X21.8426 Y31.3296
G01 X21.8479 Y31.3224
G01 X21.8539 Y31.3159
G01 X21.8605 Y31.3099
G01 X21.8676 Y31.3046
G01 X21.8752 Y31.3000
G01 X21.8833 Y31.2962
G01 X21.8917 Y31.2932
G01 X21.9003 Y31.2910
G01 X21.9091 Y31.2897
G01 X21.9180 Y31.2893
G01 X21.9269 Y31.2897
G01 X21.9357 Y31.2910
G01 X21.9443 Y31.2932
G01 X21.9527 Y31.2962
G01 X21.9608 Y31.3000
G01 X21.9684 Y31.3046
G01 X21.9756 Y31.3099
G01 X21.9822 Y31.3159
G01 X21.9881 Y31.3224
G01 X21.9934 Y31.3296
G01 X21.9980 Y31.3372
G01 X22.0018 Y31.3453
G01 X22.0048 Y31.3537
G01 X22.0070 Y31.3623
G01 X22.0083 Y31.3711
G01 X22.0087 Y31.3800
G00 Z2.0000
G00 X23.9180 Y32.1173
G01 F60.00
G01 Z0.0000
G01 F120.00
G01 X23.8457 Y32.1137
G01 X23.7742 Y32.1031
G01 X23.7040 Y32.0855
G01 X23.6359 Y32.0611
G01 X23.5705 Y32.0302
G01 X23.5084 Y31.9930
G01 X23.4503 Y31.9499
G01 X23.3967 Y31.9013
G01 X23.3481 Y31.8477
G01 X23.3050 Y31.7896
G01 X23.2678 Y31.7276
G01 X23.2369 Y31.6622
G01 X23.2125 Y31.5940
G01 X23.1949 Y31.5239
G01 X23.1843 Y31.4523
G01 X23.1808 Y31.3800
G01 X23.1843 Y31.3077
G01 X23.1949 Y31.2361
G01 X23.2125 Y31.1660
G01 X23.2369 Y31.0978
G01 X23.2678 Y31.0324
G01 X23.3050 Y30.9704
G01 X23.3481 Y30.9123
G01 X23.3967 Y30.8587
G01 X23.4503 Y30.8101
G01 X23.5084 Y30.7670
G01 X23.5705 Y30.7298
G01 X23.6359 Y30.6989
G01 X23.7040 Y30.6745
G01 X23.7742 Y30.6569
G01 X23.8457 Y30.6463
G01 X23.9180 Y30.6427
G01 X23.9903 Y30.6463
G01 X24.0618 Y30.6569
G01 X24.1320 Y30.6745
G01 X24.2001 Y30.6989
G01 X24.2655 Y30.7298
G01 X24.3276 Y30.7670
G01 X24.3857 Y30.8101
G01 X24.4393 Y30.8587
G01 X24.4879 Y30.9123
G01 X24.5310 Y30.9704
G01 X24.5682 Y31.0324
G01 X24.5991 Y31.0978
G01 X24.6235 Y31.1660
G01 X24.6411 Y31.2361
G01 X24.6517 Y31.3077
G01 X24.6552 Y31.3800
G01 X24.6517 Y31.4523
G01 X24.6411 Y31.5239
G01 X24.6235 Y31.5940
G01 X24.5991 Y31.6622
G01 X24.5682 Y31.7276
G01 X24.5310 Y31.7896
G01 X24.4879 Y31.8477
G01 X24.4393 Y31.9013
G01 X24.3857 Y31.9499
G01 X24.3276 Y31.9930
G01 X24.2655 Y32.0302
G01 X24.2001 Y32.0611
G01 X24.1320 Y32.0855
G01 X24.0618 Y32.1031
G01 X23.9903 Y32.1137
G01 X23.9180 Y32.1173
G01 X24.5530 Y31.3800
G01 X24.5523 Y31.4112
G01 X24.5500 Y31.4422
G01 X24.5462 Y31.4732
G01 X24.5408 Y31.5039
G01 X24.5340 Y31.5343
G01 X24.5257 Y31.5643
G01 X24.5159 Y31.5939
G01 X24.5047 Y31.6230
G01 X24.4921 Y31.6515
G01 X24.4781 Y31.6794
G01 X24.4627 Y31.7065
G01 X24.4460 Y31.7328
G01 X24.4281 Y31.7583
G01 X24.4186 Y31.7707
G01 X24.3989 Y31.7948
G01 X24.3779 Y31.8179
G01 X24.3559 Y31.8399
G01 X24.3328 Y31.8609
G01 X24.3087 Y31.8806
G01 X24.2837 Y31.8992
G01 X24.2577 Y31.9165
G01 X24.2310 Y31.9325
G01 X24.2035 Y31.9472
G01 X24.1753 Y31.9606
G01 X24.1610 Y31.9667
G01 X24.1319 Y31.9779
G01 X24.1023 Y31.9877
G01 X24.0723 Y31.9960
G01 X24.0419 Y32.0028
G01 X24.0266 Y32.0057
G01 X24.0112 Y32.0082
G01 X23.9802 Y32.0120
G01 X23.9492 Y32.0143
G01 X23.9180 Y32.0150
G01 X23.8868 Y32.0143
G01 X23.8558 Y32.0120
G01 X23.8248 Y32.0082
G01 X23.7941 Y32.0028
G01 X23.7637 Y31.9960
G01 X23.7337 Y31.9877
G01 X23.7041 Y31.9779
G01 X23.6750 Y31.9667
G01 X23.6465 Y31.9541
G01 X23.6325 Y31.9472
G01 X23.6050 Y31.9325
G01 X23.5783 Y31.9165
G01 X23.5523 Y31.8992
G01 X23.5273 Y31.8806
G01 X23.5032 Y31.8609
G01 X23.4801 Y31.8399
G01 X23.4581 Y31.8179
G01 X23.4371 Y31.7948
G01 X23.4174 Y31.7707
G01 X23.3988 Y31.7457
G01 X23.3815 Y31.7197
G01 X23.3655 Y31.6930
G01 X23.3508 Y31.6655
G01 X23.3374 Y31.6373
G01 X23.3313 Y31.6230
G01 X23.3201 Y31.5939
G01 X23.3103 Y31.5643
G01 X23.3020 Y31.5343
G01 X23.2952 Y31.5039
G01 X23.2923 Y31.4886
G01 X23.2877 Y31.4577
G01 X23.2847 Y31.4267
G01 X23.2832 Y31.3956
G01 X23.2832 Y31.3644
G01 X23.2847 Y31.3333
G01 X23.2877 Y31.3023
G01 X23.2923 Y31.2714
G01 X23.2984 Y31.2409
G01 X23.3060 Y31.2106
G01 X23.3103 Y31.1957
G01 X23.3201 Y31.1661
G01 X23.3313 Y31.1370
G01 X23.3439 Y31.1085
G01 X23.3579 Y31.0806
G01 X23.3733 Y31.0535
G01 X23.3900 Y31.0272
G01 X23.4079 Y31.0017
G01 X23.4271 Y30.9771
G01 X23.4475 Y30.9535
G01 X23.4690 Y30.9310
G01 X23.4915 Y30.9095
G01 X23.5151 Y30.8891
G01 X23.5397 Y30.8699
G01 X23.5652 Y30.8520
G01 X23.5915 Y30.8353
G01 X23.6186 Y30.8199
G01 X23.6465 Y30.8059
G01 X23.6750 Y30.7933
G01 X23.7041 Y30.7821
G01 X23.7337 Y30.7723
G01 X23.7637 Y30.7640
G01 X23.7941 Y30.7572
G01 X23.8248 Y30.7518
G01 X23.8558 Y30.7480
G01 X23.8868 Y30.7457
G01 X23.9180 Y30.7450
G01 X23.9492 Y30.7457
G01 X23.9802 Y30.7480
G01 X24.0112 Y30.7518
G01 X24.0419 Y30.7572
G01 X24.0723 Y30.7640
G01 X24.1023 Y30.7723
G01 X24.1319 Y30.7821
G01 X24.1610 Y30.7933
G01 X24.1753 Y30.7994
G01 X24.2035 Y30.8128
G01 X24.2310 Y30.8275
G01 X24.2577 Y30.8435
G01 X24.2837 Y30.8608
G01 X24.2963 Y30.8699
G01 X24.3209 Y30.8891
G01 X24.3445 Y30.9095
G01 X24.3670 Y30.9310
G01 X24.3779 Y30.9421
G01 X24.3989 Y30.9652
G01 X24.4186 Y30.9893
G01 X24.4372 Y31.0143
G01 X24.4545 Y31.0403
G01 X24.4705 Y31.0670
G01 X24.4852 Y31.0945
G01 X24.4986 Y31.1227
G01 X24.5047 Y31.1370
G01 X24.5159 Y31.1661
G01 X24.5210 Y31.1808
G01 X24.5300 Y31.2106
G01 X24.5376 Y31.2409
G01 X24.5437 Y31.2714
G01 X24.5462 Y31.2868
G01 X24.5500 Y31.3178
G01 X24.5523 Y31.3488
G01 X24.5530 Y31.3800
G01 X24.3716 Y31.3800
G01 X24.3711 Y31.4023
G01 X24.3694 Y31.4245
G01 X24.3667 Y31.4466
G01 X24.3649 Y31.4575
G01 X24.3606 Y31.4794
G01 X24.3552 Y31.5010
G01 X24.3521 Y31.5117
G01 X24.3451 Y31.5328
G01 X24.3371 Y31.5536
G01 X24.3280 Y31.5739
G01 X24.3180 Y31.5938
G01 X24.3127 Y31.6036
G01 X24.3012 Y31.6227
G01 X24.2889 Y31.6412
G01 X24.2756 Y31.6591
G01 X24.2686 Y31.6678
G01 X24.2541 Y31.6846
G01 X24.2387 Y31.7007
G01 X24.2308 Y31.7085
G01 X24.2143 Y31.7235
G01 X24.1971 Y31.7376
G01 X24.1792 Y31.7509
G01 X24.1700 Y31.7572
G01 X24.1607 Y31.7632
G01 X24.1416 Y31.7747
G01 X24.1219 Y31.7852
G01 X24.1119 Y31.7900
G01 X24.0916 Y31.7991
G01 X24.0708 Y31.8071
G01 X24.0603 Y31.8107
G01 X24.0390 Y31.8172
G01 X24.0174 Y31.8226
G01 X23.9955 Y31.8269
G01 X23.9846 Y31.8287
G01 X23.9625 Y31.8314
G01 X23.9403 Y31.8331
G01 X23.9291 Y31.8335
G01 X23.9069 Y31.8335
G01 X23.8846 Y31.8324
G01 X23.8625 Y31.8302
G01 X23.8405 Y31.8269
G01 X23.8186 Y31.8226
G01 X23.7970 Y31.8172
G01 X23.7757 Y31.8107
G01 X23.7548 Y31.8032
G01 X23.7342 Y31.7947
G01 X23.7141 Y31.7852
G01 X23.6944 Y31.7747
G01 X23.6753 Y31.7632
G01 X23.6568 Y31.7509
G01 X23.6389 Y31.7376
G01 X23.6217 Y31.7235
G01 X23.6052 Y31.7085
G01 X23.5895 Y31.6928
G01 X23.5745 Y31.6763
G01 X23.5674 Y31.6678
G01 X23.5537 Y31.6502
G01 X23.5408 Y31.6320
G01 X23.5289 Y31.6132
G01 X23.5180 Y31.5938
G01 X23.5080 Y31.5739
G01 X23.4989 Y31.5536
G01 X23.4909 Y31.5328
G01 X23.4839 Y31.5117
G01 X23.4780 Y31.4902
G01 X23.4731 Y31.4685
G01 X23.4693 Y31.4466
G01 X23.4666 Y31.4245
G01 X23.4649 Y31.4023
G01 X23.4644 Y31.3800
G01 X23.4649 Y31.3577
G01 X23.4666 Y31.3355
G01 X23.4693 Y31.3134
G01 X23.4731 Y31.2915
G01 X23.4780 Y31.2698
G01 X23.4839 Y31.2483
G01 X23.4909 Y31.2272
G01 X23.4989 Y31.2064
G01 X23.5080 Y31.1861
G01 X23.5180 Y31.1662
G01 X23.5289 Y31.1468
G01 X23.5408 Y31.1280
G01 X23.5537 Y31.1098
G01 X23.5674 Y31.0922
G01 X23.5819 Y31.0754
G01 X23.5973 Y31.0593
G01 X23.6134 Y31.0439
G01 X23.6302 Y31.0294
G01 X23.6478 Y31.0157
G01 X23.6660 Y31.0028
G01 X23.6848 Y30.9909
G01 X23.7042 Y30.9800
G01 X23.7241 Y30.9700
G01 X23.7444 Y30.9609
G01 X23.7652 Y30.9529
G01 X23.7863 Y30.9459
G01 X23.8078 Y30.9400
G01 X23.8295 Y30.9351
G01 X23.8514 Y30.9313
G01 X23.8735 Y30.9286
G01 X23.8957 Y30.9269
G01 X23.9180 Y30.9264
G01 X23.9403 Y30.9269
G01 X23.9514 Y30.9276
G01 X23.9735 Y30.9298
G01 X23.9955 Y30.9331
G01 X24.0065 Y30.9351
G01 X24.0282 Y30.9400
G01 X24.0497 Y30.9459
G01 X24.0708 Y30.9529
G01 X24.0916 Y30.9609
G01 X24.1119 Y30.9700
G01 X24.1318 Y30.9800
G01 X24.1416 Y30.9853
G01 X24.1607 Y30.9968
G01 X24.1792 Y31.0091
G01 X24.1882 Y31.0157
G01 X24.2058 Y31.0294
G01 X24.2143 Y31.0365
G01 X24.2308 Y31.0515
G01 X24.2465 Y31.0672
G01 X24.2615 Y31.0837
G01 X24.2756 Y31.1009
G01 X24.2823 Y31.1098
G01 X24.2952 Y31.1280
G01 X24.3071 Y31.1468
G01 X24.3180 Y31.1662
G01 X24.3280 Y31.1861
G01 X24.3327 Y31.1962
G01 X24.3412 Y31.2168
G01 X24.3487 Y31.2377
G01 X24.3521 Y31.2483
G01 X24.3580 Y31.2698
G01 X24.3629 Y31.2915
G01 X24.3667 Y31.3134
G01 X24.3694 Y31.3355
G01 X24.3711 Y31.3577
G01 X24.3716 Y31.3800
G01 X24.1902 Y31.3800
G01 X24.1898 Y31.3934
G01 X24.1888 Y31.4067
G01 X24.1872 Y31.4199
G01 X24.1849 Y31.4331
G01 X24.1803 Y31.4526
G01 X24.1764 Y31.4654
G01 X24.1719 Y31.4779
G01 X24.1668 Y31.4903
G01 X24.1611 Y31.5024
G01 X24.1514 Y31.5199
G01 X24.1443 Y31.5312
G01 X24.1366 Y31.5421
G01 X24.1284 Y31.5527
G01 X24.1197 Y31.5628
G01 X24.1057 Y31.5771
G01 X24.0958 Y31.5861
G01 X24.0854 Y31.5946
G01 X24.0692 Y31.6063
G01 X24.0579 Y31.6134
G01 X24.0463 Y31.6200
G01 X24.0344 Y31.6260
G01 X24.0222 Y31.6314
G01 X24.0097 Y31.6363
G01 X23.9970 Y31.6404
G01 X23.9776 Y31.6455
G01 X23.9645 Y31.6482
G01 X23.9513 Y31.6501
G01 X23.9380 Y31.6514
G01 X23.9247 Y31.6521
G01 X23.9113 Y31.6521
G01 X23.8913 Y31.6508
G01 X23.8781 Y31.6492
G01 X23.8649 Y31.6469
G01 X23.8519 Y31.6440
G01 X23.8326 Y31.6384
G01 X23.8201 Y31.6339
G01 X23.8077 Y31.6288
G01 X23.7956 Y31.6231
G01 X23.7839 Y31.6168
G01 X23.7724 Y31.6099
G01 X23.7613 Y31.6025
G01 X23.7453 Y31.5904
G01 X23.7352 Y31.5817
G01 X23.7256 Y31.5724
G01 X23.7163 Y31.5628
G01 X23.7076 Y31.5527
G01 X23.6994 Y31.5421
G01 X23.6917 Y31.5312
G01 X23.6812 Y31.5141
G01 X23.6749 Y31.5024
G01 X23.6692 Y31.4903
G01 X23.6641 Y31.4779
G01 X23.6596 Y31.4654
G01 X23.6557 Y31.4526
G01 X23.6525 Y31.4396
G01 X23.6498 Y31.4265
G01 X23.6479 Y31.4133
G01 X23.6466 Y31.4000
G01 X23.6458 Y31.3800
G01 X23.6462 Y31.3666
G01 X23.6472 Y31.3533
G01 X23.6488 Y31.3401
G01 X23.6511 Y31.3269
G01 X23.6540 Y31.3139
G01 X23.6576 Y31.3010
G01 X23.6617 Y31.2883
G01 X23.6666 Y31.2758
G01 X23.6720 Y31.2636
G01 X23.6780 Y31.2517
G01 X23.6846 Y31.2401
G01 X23.6917 Y31.2288
G01 X23.6994 Y31.2179
G01 X23.7076 Y31.2073
G01 X23.7163 Y31.1972
G01 X23.7256 Y31.1876
G01 X23.7352 Y31.1783
G01 X23.7453 Y31.1696
G01 X23.7559 Y31.1614
G01 X23.7668 Y31.1537
G01 X23.7781 Y31.1466
G01 X23.7897 Y31.1400
G01 X23.8016 Y31.1340
G01 X23.8138 Y31.1286
G01 X23.8263 Y31.1237
G01 X23.8390 Y31.1196
G01 X23.8519 Y31.1160
G01 X23.8649 Y31.1131
G01 X23.8781 Y31.1108
G01 X23.8913 Y31.1092
G01 X23.9046 Y31.1082
G01 X23.9180 Y31.1078
G01 X23.9380 Y31.1086
G01 X23.9579 Y31.1108
G01 X23.9776 Y31.1145
G01 X23.9970 Y31.1196
G01 X24.0097 Y31.1237
G01 X24.0222 Y31.1286
G01 X24.0404 Y31.1369
G01 X24.0579 Y31.1466
G01 X24.0747 Y31.1575
G01 X24.0854 Y31.1654
G01 X24.0958 Y31.1739
G01 X24.1104 Y31.1876
G01 X24.1241 Y31.2022
G01 X24.1366 Y31.2179
G01 X24.1443 Y31.2288
G01 X24.1514 Y31.2401
G01 X24.1611 Y31.2576
G01 X24.1694 Y31.2758
G01 X24.1764 Y31.2946
G01 X24.1820 Y31.3139
G01 X24.1862 Y31.3335
G01 X24.1881 Y31.3467
G01 X24.1894 Y31.3600
G01 X24.1902 Y31.3800
G01 X24.0087 Y31.3800
G01 X24.0077 Y31.3933
G01 X24.0065 Y31.3999
G01 X24.0041 Y31.4085
G01 X24.0018 Y31.4147
G01 X23.9980 Y31.4228
G01 X23.9934 Y31.4304
G01 X23.9895 Y31.4358
G01 X23.9837 Y31.4426
G01 X23.9789 Y31.4472
G01 X23.9738 Y31.4515
G01 X23.9665 Y31.4566
G01 X23.9608 Y31.4600
G01 X23.9527 Y31.4638
G01 X23.9400 Y31.4680
G01 X23.9313 Y31.4697
G01 X23.9202 Y31.4707
G01 X23.9113 Y31.4705
G01 X23.9003 Y31.4690
G01 X23.8895 Y31.4661
G01 X23.8792 Y31.4620
G01 X23.8695 Y31.4566
G01 X23.8622 Y31.4515
G01 X23.8554 Y31.4457
G01 X23.8479 Y31.4376
G01 X23.8414 Y31.4285
G01 X23.8370 Y31.4208
G01 X23.8326 Y31.4106
G01 X23.8300 Y31.4020
G01 X23.8280 Y31.3911
G01 X23.8273 Y31.3800
G01 X23.8277 Y31.3711
G01 X23.8290 Y31.3623
G01 X23.8312 Y31.3537
G01 X23.8342 Y31.3453
G01 X23.8380 Y31.3372
G01 X23.8426 Y31.3296
G01 X23.8479 Y31.3224
G01 X23.8539 Y31.3159
G01 X23.8604 Y31.3099
G01 X23.8676 Y31.3046
G01 X23.8752 Y31.3000
G01 X23.8833 Y31.2962
G01 X23.8917 Y31.2932
G01 X23.9003 Y31.2910
G01 X23.9091 Y31.2897
G01 X23.9180 Y31.2893
G01 X23.9269 Y31.2897
G01 X23.9357 Y31.2910
G01 X23.9443 Y31.2932
G01 X23.9527 Y31.2962
G01 X23.9608 Y31.3000
G01 X23.9684 Y31.3046
G01 X23.9756 Y31.3099
G01 X23.9821 Y31.3159
G01 X23.9881 Y31.3224
G01 X23.9934 Y31.3296
G01 X23.9980 Y31.3372
G01 X24.0018 Y31.3453
G01 X24.0048 Y31.3537
G01 X24.0070 Y31.3623
G01 X24.0083 Y31.3711
G01 X24.0087 Y31.3800
G00 Z2.0000
G00 X25.9180 Y32.1173
G01 F60.00
G01 Z0.0000
G01 F120.00
G01 X25.8457 Y32.1137
G01 X25.7742 Y32.1031
G01 X25.7040 Y32.0855
G01 X25.6359 Y32.0611
G01 X25.5705 Y32.0302
G01 X25.5084 Y31.9930
G01 X25.4503 Y31.9499
G01 X25.3967 Y31.9013
G01 X25.3481 Y31.8477
G01 X25.3050 Y31.7896
G01 X25.2678 Y31.7276
G01 X25.2369 Y31.6622
G01 X25.2125 Y31.5940
G01 X25.1949 Y31.5239
G01 X25.1843 Y31.4523
G01 X25.1808 Y31.3800
G01 X25.1843 Y31.3077
G01 X25.1949 Y31.2361
G01 X25.2125 Y31.1660
G01 X25.2369 Y31.0978
G01 X25.2678 Y31.0324
G01 X25.3050 Y30.9704
G01 X25.3481 Y30.9123
G01 X25.3967 Y30.8587
G01 X25.4503 Y30.8101
G01 X25.5084 Y30.7670
G01 X25.5705 Y30.7298
G01 X25.6359 Y30.6989
G01 X25.7040 Y30.6745
G01 X25.7742 Y30.6569
G01 X25.8457 Y30.6463
G01 X25.9180 Y30.6427
G01 X25.9903 Y30.6463
G01 X26.0618 Y30.6569
G01 X26.1320 Y30.6745
G01 X26.2001 Y30.6989
G01 X26.2655 Y30.7298
G01 X26.3276 Y30.7670
G01 X26.3857 Y30.8101
G01 X26.4393 Y30.8587
G01 X26.4879 Y30.9123
G01 X26.5310 Y30.9704
G01 X26.5682 Y31.0324
G01 X26.5991 Y31.0978
G01 X26.6235 Y31.1660
G01 X26.6411 Y31.2361
G01 X26.6517 Y31.3077
G01 X26.6552 Y31.3800
G01 X26.6517 Y31.4523
G01 X26.6411 Y31.5239
G01 X26.6235 Y31.5940
G01 X26.5991 Y31.6622
G01 X26.5682 Y31.7276
G01 X26.5310 Y31.7896
G01 X26.4879 Y31.8477
G01 X26.4393 Y31.9013
G01 X26.3857 Y31.9499
G01 X26.3276 Y31.9930
G01 X26.2655 Y32.0302
G01 X26.2001 Y32.0611
G01 X26.1320 Y32.0855
G01 X26.0618 Y32.1031
G01 X25.9903 Y32.1137
G01 X25.9180 Y32.1173
G01 X26.5530 Y31.3800
G01 X26.5523 Y31.4112
G01 X26.5500 Y31.4422
G01 X26.5462 Y31.4732
G01 X26.5408 Y31.5039
G01 X26.5340 Y31.5343
G01 X26.5257 Y31.5643
G01 X26.5159 Y31.5939
G01 X26.5047 Y31.6230
G01 X26.4921 Y31.6515
G01 X26.4781 Y31.6794
G01 X26.4627 Y31.7065
G01 X26.4460 Y31.7328
G01 X26.4281 Y31.7583
G01 X26.4186 Y31.7707
G01 X26.3989 Y31.7948
G01 X26.3779 Y31.8179
G01 X26.3559 Y31.8399
G01 X26.3328 Y31.8609
G01 X26.3087 Y31.8806
G01 X26.2837 Y31.8992
G01 X26.2577 Y31.9165
G01 X26.2310 Y31.9325
G01 X26.2035 Y31.9472
G01 X26.1753 Y31.9606
G01 X26.1610 Y31.9667
G01 X26.1319 Y31.9779
G01 X26.1023 Y31.9877
G01 X26.0723 Y31.9960
G01 X26.0419 Y32.0028
G01 X26.0266 Y32.0057
G01 X26.0112 Y32.0082
G01 X25.9802 Y32.0120
G01 X25.9492 Y32.0143
G01 X25.9180 Y32.0150
G01 X25.8868 Y32.0143
G01 X25.8558 Y32.0120
G01 X25.8248 Y32.0082
G01 X25.7941 Y32.0028
G01 X25.7637 Y31.9960
G01 X25.7337 Y31.9877
G01 X25.7041 Y31.9779
G01 X25.6750 Y31.9667
G01 X25.6465 Y31.9541
G01 X25.6325 Y31.9472
G01 X25.6050 Y31.9325
G01 X25.5783 Y31.9165
G01 X25.5523 Y31.8992
G01 X25.5273 Y31.8806
G01 X25.5032 Y31.8609
G01 X25.4801 Y31.8399
G01 X25.4581 Y31.8179
G01 X25.4371 Y31.7948
G01 X25.4174 Y31.7707
G01 X25.3988 Y31.7457
G01 X25.3815 Y31.7197
G01 X25.3655 Y31.6930
G01 X25.3508 Y31.6655
G01 X25.3374 Y31.6373
G01 X25.3313 Y31.6230
G01 X25.3201 Y31.5939
G01 X25.3103 Y31.5643
G01 X25.3020 Y31.5343
G01 X25.2952 Y31.5039
G01 X25.2923 Y31.4886
G01 X25.2877 Y31.4577
G01 X25.2847 Y31.4267
G01 X25.2832 Y31.3956
G01 X25.2832 Y31.3644
G01 X25.2847 Y31.3333
G01 X25.2877 Y31.3023
G01 X25.2923 Y31.2714
G01 X25.2984 Y31.2409
G01 X25.3060 Y31.2106
G01 X25.3103 Y31.1957
G01 X25.3201 Y31.1661
G01 X25.3313 Y31.1370
G01 X25.3439 Y31.1085
G01 X25.3579 Y31.0806
G01 X25.3733 Y31.0535
G01 X25.3900 Y31.0272
G01 X25.4079 Y31.0017
G01 X25.4271 Y30.9771
G01 X25.4475 Y30.9535
G01 X25.4690 Y30.9310
G01 X25.4915 Y30.9095
G01 X25.5151 Y30.8891
G01 X25.5397 Y30.8699
G01 X25.5652 Y30.8520
G01 X25.5915 Y30.8353
G01 X25.6186 Y30.8199
G01 X25.6465 Y30.8059
G01 X25.6750 Y30.7933
G01 X25.7041 Y30.7821
G01 X25.7337 Y30.7723
G01 X25.7637 Y30.7640
G01 X25.7941 Y30.7572
G01 X25.8248 Y30.7518
G01 X25.8558 Y30.7480
G01 X25.8868 Y30.7457
G01 X25.9180 Y30.7450
G01 X25.9492 Y30.7457
G01 X25.9802 Y30.7480
G01 X26.0112 Y30.7518
G01 X26.0419 Y30.7572
G01 X26.0723 Y30.7640
G01 X26.1023 Y30.7723
G01 X26.1319 Y30.7821
G01 X26.1610 Y30.7933
G01 X26.1753 Y30.7994
G01 X26.2035 Y30.8128
G01 X26.2310 Y30.8275
G01 X26.2577 Y30.8435
G01 X26.2837 Y30.8608
G01 X26.2963 Y30.8699
G01 X26.3209 Y30.8891
G01 X26.3445 Y30.9095
G01 X26.3670 Y30.9310
G01 X26.3779 Y30.9421
G01 X26.3989 Y30.9652
G01 X26.4186 Y30.9893
G01 X26.4372 Y31.0143
G01 X26.4545 Y31.0403
G01 X26.4705 Y31.0670
G01 X26.4852 Y31.0945
G01 X26.4986 Y31.1227
G01 X26.5047 Y31.1370
G01 X26.5159 Y31.1661
G01 X26.5210 Y31.1808
G01 X26.5300 Y31.2106
G01 X26.5376 Y31.2409
G01 X26.5437 Y31.2714
G01 X26.5462 Y31.2868
G01 X26.5500 Y31.3178
G01 X26.5523 Y31.3488
G01 X26.5530 Y31.3800
G01 X26.3716 Y31.3800
G01 X26.3711 Y31.4023
G01 X26.3694 Y31.4245
G01 X26.3667 Y31.4466
G01 X26.3649 Y31.4575
G01 X26.3606 Y31.4794
G01 X26.3552 Y31.5010
G01 X26.3521 Y31.5117
G01 X26.3451 Y31.5328
G01 X26.3371 Y31.5536
G01 X26.3280 Y31.5739
G01 X26.3180 Y31.5938
G01 X26.3127 Y31.6036
G01 X26.3012 Y31.6227
G01 X26.2889 Y31.6412
G01 X26.2756 Y31.6591
G01 X26.2686 Y31.6678
G01 X26.2541 Y31.6846
G01 X26.2387 Y31.7007
G01 X26.2308 Y31.7085
G01 X26.2143 Y31.7235
G01 X26.1971 Y31.7376
G01 X26.1792 Y31.7509
G01 X26.1700 Y31.7572
G01 X26.1607 Y31.7632
G01 X26.1416 Y31.7747
G01 X26.1219 Y31.7852
G01 X26.1119 Y31.7900
G01 X26.0916 Y31.7991
G01 X26.0708 Y31.8071
G01 X26.0603 Y31.8107
G01 X26.0390 Y31.8172
G01 X26.0174 Y31.8226
G01 X25.9955 Y31.8269
G01 X25.9846 Y31.8287
G01 X25.9625 Y31.8314
G01 X25.9403 Y31.8331
G01 X25.9291 Y31.8335
G01 X25.9069 Y31.8335
G01 X25.8846 Y31.8324
G01 X25.8625 Y31.8302
G01 X25.8405 Y31.8269
G01 X25.8186 Y31.8226
G01 X25.7970 Y31.8172
G01 X25.7757 Y31.8107
G01 X25.7548 Y31.8032
G01 X25.7342 Y31.7947
G01 X25.7141 Y31.7852
G01 X25.6944 Y31.7747
G01 X25.6753 Y31.7632
G01 X25.6568 Y31.7509
G01 X25.6389 Y31.7376
G01 X25.6217 Y31.7235
G01 X25.6052 Y31.7085
G01 X25.5895 Y31.6928
G01 X25.5745 Y31.6763
G01 X25.5674 Y31.6678
G01 X25.5537 Y31.6502
G01 X25.5408 Y31.6320
G01 X25.5289 Y31.6132
G01 X25.5180 Y31.5938
G01 X25.5080 Y31.5739
G01 X25.4989 Y31.5536
G01 X25.4909 Y31.5328
G01 X25.4839 Y31.5117
G01 X25.4780 Y31.4902
G01 X25.4731 Y31.4685
G01 X25.4693 Y31.4466
G01 X25.4666 Y31.4245
G01 X25.4649 Y31.4023
G01 X25.4644 Y31.3800
G01 X25.4649 Y31.3577
G01 X25.4666 Y31.3355
G01 X25.4693 Y31.3134
G01 X25.4731 Y31.2915
G01 X25.4780 Y31.2698
G01 X25.4839 Y31.2483
G01 X25.4909 Y31.2272
G01 X25.4989 Y31.2064
G01 X25.5080 Y31.1861
G01 X25.5180 Y31.1662
G01 X25.5289 Y31.1468
G01 X25.5408 Y31.1280
G01 X25.5537 Y31.1098
G01 X25.5674 Y31.0922
G01 X25.5819 Y31.0754
G01 X25.5973 Y31.0593
G01 X25.6134 Y31.0439
G01 X25.6302 Y31.0294
G01 X25.6478 Y31.0157
G01 X25.6660 Y31.0028
G01 X25.6848 Y30.9909
G01 X25.7042 Y30.9800
G01 X25.7241 Y30.9700
G01 X25.7444 Y30.9609
G01 X25.7652 Y30.9529
G01 X25.7863 Y30.9459
G01 X25.8078 Y30.9400
G01 X25.8295 Y30.9351
G01 X25.8514 Y30.9313
G01 X25.8735 Y30.9286
G01 X25.8957 Y30.9269
G01 X25.9180 Y30.9264
G01 X25.9403 Y30.9269
G01 X25.9514 Y30.9276
G01 X25.9735 Y30.9298
G01 X25.9955 Y30.9331
G01 X26.0065 Y30.9351
G01 X26.0282 Y30.9400
G01 X26.0497 Y30.9459
G01 X26.0708 Y30.9529
G01 X26.0916 Y30.9609
G01 X26.1119 Y30.9700
G01 X26.1318 Y30.9800
G01 X26.1416 Y30.9853
G01 X26.1607 Y30.9968
G01 X26.1792 Y31.0091
G01 X26.1882 Y31.0157
G01 X26.2058 Y31.0294
G01 X26.2143 Y31.0365
G01 X26.2308 Y31.0515
G01 X26.2465 Y31.0672
G01 X26.2615 Y31.0837
G01 X26.2756 Y31.1009
G01 X26.2823 Y31.1098
G01 X26.2952 Y31.1280
G01 X26.3071 Y31.1468
G01 X26.3180 Y31.1662
G01 X26.3280 Y31.1861
G01 X26.3327 Y31.1962
G01 X26.3412 Y31.2168
G01 X26.3487 Y31.2377
G01 X26.3521 Y31.2483
G01 X26.3580 Y31.2698
G01 X26.3629 Y31.2915
G01 X26.3667 Y31.3134
G01 X26.3694 Y31.3355
G01 X26.3711 Y31.3577
G01 X26.3716 Y31.3800
G01 X26.1902 Y31.3800
G01 X26.1898 Y31.3934
G01 X26.1888 Y31.4067
G01 X26.1872 Y31.4199
G01 X26.1849 Y31.4331
G01 X26.1803 Y31.4526
G01 X26.1764 Y31.4654
G01 X26.1719 Y31.4779
G01 X26.1668 Y31.4903
G01 X26.1611 Y31.5024
G01 X26.1514 Y31.5199
G01 X26.1443 Y31.5312
G01 X26.1366 Y31.5421
G01 X26.1284 Y31.5527
G01 X26.1197 Y31.5628
G01 X26.1057 Y31.5771
G01 X26.0958 Y31.5861
G01 X26.0854 Y31.5946
G01 X26.0692 Y31.6063
G01 X26.0579 Y31.6134
G01 X26.0463 Y31.6200
G01 X26.0344 Y31.6260
G01 X26.0222 Y31.6314
G01 X26.0097 Y31.6363
G01 X25.9970 Y31.6404
G01 X25.9776 Y31.6455
G01 X25.9645 Y31.6482
G01 X25.9513 Y31.6501
G01 X25.9380 Y31.6514
G01 X25.9247 Y31.6521
G01 X25.9113 Y31.6521
G01 X25.8913 Y31.6508
G01 X25.8781 Y31.6492
G01 X25.8649 Y31.6469
G01 X25.8519 Y31.6440
G01 X25.8326 Y31.6384
G01 X25.8201 Y31.6339
G01 X25.8077 Y31.6288
G01 X25.7956 Y31.6231
G01 X25.7839 Y31.6168
G01 X25.7724 Y31.6099
G01 X25.7613 Y31.6025
G01 X25.7453 Y31.5904
G01 X25.7352 Y31.5817
G01 X25.7256 Y31.5724
G01 X25.7163 Y31.5628
G01 X25.7076 Y31.5527
G01 X25.6994 Y31.5421
G01 X25.6917 Y31.5312
G01 X25.6812 Y31.5141
G01 X25.6749 Y31.5024
G01 X25.6692 Y31.4903
G01 X25.6641 Y31.4779
G01 X25.6596 Y31.4654
G01 X25.6557 Y31.4526
G01 X25.6525 Y31.4396
G01 X25.6498 Y31.4265
G01 X25.6479 Y31.4133
G01 X25.6466 Y31.4000
G01 X25.6458 Y31.3800
G01 X25.6462 Y31.3666
G01 X25.6472 Y31.3533
G01 X25.6488 Y31.3401
G01 X25.6511 Y31.3269
G01 X25.6540 Y31.3139
G01 X25.6576 Y31.3010
G01 X25.6617 Y31.2883
G01 X25.6666 Y31.2758
G01 X25.6720 Y31.2636
G01 X25.6780 Y31.2517
G01 X25.6846 Y31.2401
G01 X25.6917 Y31.2288
G01 X25.6994 Y31.2179
G01 X25.7076 Y31.2073
G01 X25.7163 Y31.1972
G01 X25.7256 Y31.1876
G01 X25.7352 Y31.1783
G01 X25.7453 Y31.1696
G01 X25.7559 Y31.1614
G01 X25.7668 Y31.1537
G01 X25.7781 Y31.1466
G01 X25.7897 Y31.1400
G01 X25.8016 Y31.1340
G01 X25.8138 Y31.1286
G01 X25.8263 Y31.1237
G01 X25.8390 Y31.1196
G01 X25.8519 Y31.1160
G01 X25.8649 Y31.1131
G01 X25.8781 Y31.1108
G01 X25.8913 Y31.1092
G01 X25.9046 Y31.1082
G01 X25.9180 Y31.1078
G01 X25.9380 Y31.1086
G01 X25.9579 Y31.1108
G01 X25.9776 Y31.1145
G01 X25.9970 Y31.1196
G01 X26.0097 Y31.1237
G01 X26.0222 Y31.1286
G01 X26.0404 Y31.1369
G01 X26.0579 Y31.1466
G01 X26.0747 Y31.1575
G01 X26.0854 Y31.1654
G01 X26.0958 Y31.1739
G01 X26.1104 Y31.1876
G01 X26.1241 Y31.2022
G01 X26.1366 Y31.2179
G01 X26.1443 Y31.2288
G01 X26.1514 Y31.2401
G01 X26.1611 Y31.2576
G01 X26.1694 Y31.2758
G01 X26.1764 Y31.2946
G01 X26.1820 Y31.3139
G01 X26.1862 Y31.3335
G01 X26.1881 Y31.3467
G01 X26.1894 Y31.3600
G01 X26.1902 Y31.3800
G01 X26.0087 Y31.3800
G01 X26.0077 Y31.3933
G01 X26.0065 Y31.3999
G01 X26.0041 Y31.4085
G01 X26.0018 Y31.4147
G01 X25.9980 Y31.4228
G01 X25.9934 Y31.4304
G01 X25.9895 Y31.4358
G01 X25.9837 Y31.4426
G01 X25.9789 Y31.4472
G01 X25.9738 Y31.4515
G01 X25.9665 Y31.4566
G01 X25.9608 Y31.4600
G01 X25.9527 Y31.4638
G01 X25.9400 Y31.4680
G01 X25.9313 Y31.4697
G01 X25.9202 Y31.4707
G01 X25.9113 Y31.4705
G01 X25.9003 Y31.4690
G01 X25.8895 Y31.4661
G01 X25.8792 Y31.4620
G01 X25.8695 Y31.4566
G01 X25.8622 Y31.4515
G01 X25.8554 Y31.4457
G01 X25.8479 Y31.4376
G01 X25.8414 Y31.4285
G01 X25.8370 Y31.4208
G01 X25.8326 Y31.4106
G01 X25.8300 Y31.4020
G01 X25.8280 Y31.3911
G01 X25.8273 Y31.3800
G01 X25.8277 Y31.3711
G01 X25.8290 Y31.3623
G01 X25.8312 Y31.3537
G01 X25.8342 Y31.3453
G01 X25.8380 Y31.3372
G01 X25.8426 Y31.3296
G01 X25.8479 Y31.3224
G01 X25.8539 Y31.3159
G01 X25.8604 Y31.3099
G01 X25.8676 Y31.3046
G01 X25.8752 Y31.3000
G01 X25.8833 Y31.2962
G01 X25.8917 Y31.2932
G01 X25.9003 Y31.2910
G01 X25.9091 Y31.2897
G01 X25.9180 Y31.2893
G01 X25.9269 Y31.2897
G01 X25.9357 Y31.2910
G01 X25.9443 Y31.2932
G01 X25.9527 Y31.2962
G01 X25.9608 Y31.3000
G01 X25.9684 Y31.3046
G01 X25.9756 Y31.3099
G01 X25.9821 Y31.3159
G01 X25.9881 Y31.3224
G01 X25.9934 Y31.3296
G01 X25.9980 Y31.3372
G01 X26.0018 Y31.3453
G01 X26.0048 Y31.3537
G01 X26.0070 Y31.3623
G01 X26.0083 Y31.3711
G01 X26.0087 Y31.3800
G00 Z2.0000
G00 X27.1307 Y31.7221
G01 F60.00
G01 Z0.0000
G01 F120.00
G01 X27.1371 Y31.7391
G01 X27.1462 Y31.7619
G01 X27.1558 Y31.7844
G01 X27.1660 Y31.8067
G01 X27.1767 Y31.8287
G01 X27.1880 Y31.8504
G01 X27.1998 Y31.8719
G01 X27.2122 Y31.8930
G01 X27.2250 Y31.9139
G01 X27.2384 Y31.9344
G01 X27.2522 Y31.9546
G01 X27.2666 Y31.9745
G01 X27.2814 Y31.9940
G01 X27.2967 Y32.0131
G01 X27.3125 Y32.0318
G01 X27.3287 Y32.0502
G01 X27.3454 Y32.0681
G01 X27.3625 Y32.0856
G01 X27.3800 Y32.1027
G01 X27.3979 Y32.1194
G01 X27.4163 Y32.1356
G01 X27.4350 Y32.1514
G01 X27.4542 Y32.1667
G01 X27.4736 Y32.1815
G01 X27.4935 Y32.1959
G01 X27.5137 Y32.2097
G01 X27.5342 Y32.2231
G01 X27.5551 Y32.2359
G01 X27.5762 Y32.2483
G01 X27.5977 Y32.2601
G01 X27.6194 Y32.2714
G01 X27.6414 Y32.2821
G01 X27.6637 Y32.2923
G01 X27.6862 Y32.3020
G01 X27.7090 Y32.3111
G01 X27.7319 Y32.3196
G01 X27.7551 Y32.3276
G01 X27.7784 Y32.3349
G01 X27.8020 Y32.3418
G01 X27.8256 Y32.3480
G01 X27.8495 Y32.3537
G01 X27.8734 Y32.3587
G01 X27.8975 Y32.3632
G01 X27.9217 Y32.3671
G01 X27.9460 Y32.3704
G01 X27.9703 Y32.3731
G01 X27.9947 Y32.3752
G01 X28.0191 Y32.3767
G01 X28.0436 Y32.3776
G01 X28.0681 Y32.3779
G01 X28.0926 Y32.3776
G01 X28.1171 Y32.3767
G01 X28.1415 Y32.3752
G01 X28.1659 Y32.3731
G01 X28.1903 Y32.3704
G01 X28.2145 Y32.3671
G01 X28.2387 Y32.3632
G01 X28.2628 Y32.3587
G01 X28.2868 Y32.3537
G01 X28.3106 Y32.3480
G01 X28.3343 Y32.3418
G01 X28.3578 Y32.3349
G01 X28.3811 Y32.3276
G01 X28.4043 Y32.3196
G01 X28.4273 Y32.3111
G01 X28.4500 Y32.3020
G01 X28.4725 Y32.2923
G01 X28.4948 Y32.2821
G01 X28.5168 Y32.2714
G01 X28.5385 Y32.2601
G01 X28.5600 Y32.2483
G01 X28.5811 Y32.2359
G01 X28.6020 Y32.2231
G01 X28.6225 Y32.2097
G01 X28.6427 Y32.1959
G01 X28.6626 Y32.1815
G01 X28.6821 Y32.1667
G01 X28.7012 Y32.1514
G01 X28.7199 Y32.1356
G01 X28.7383 Y32.1194
G01 X28.7562 Y32.1027
G01 X28.7737 Y32.0856
G01 X28.7909 Y32.0681
G01 X28.8075 Y32.0502
G01 X28.8237 Y32.0318
G01 X28.8395 Y32.0131
G01 X28.8548 Y31.9940
G01 X28.8696 Y31.9745
G01 X28.8840 Y31.9546
G01 X28.8979 Y31.9344
G01 X28.9112 Y31.9139
G01 X28.9241 Y31.8930
G01 X28.9364 Y31.8719
G01 X28.9482 Y31.8504
G01 X28.9595 Y31.8287
G01 X28.9702 Y31.8067
G01 X28.9804 Y31.7844
G01 X28.9901 Y31.7619
G01 X28.9992 Y31.7391
G01 X29.0055 Y31.7221
G01 X28.8846 Y31.3800
G01 X28.8843 Y31.3600
G01 X28.8824 Y31.3199
G01 X28.8784 Y31.2801
G01 X28.8726 Y31.2404
G01 X28.8689 Y31.2207
G01 X28.8601 Y31.1816
G01 X28.8494 Y31.1430
G01 X28.8434 Y31.1239
G01 X28.8299 Y31.0862
G01 X28.8145 Y31.0491
G01 X28.7974 Y31.0129
G01 X28.7785 Y30.9776
G01 X28.7684 Y30.9602
G01 X28.7579 Y30.9432
G01 X28.7357 Y30.9099
G01 X28.7239 Y30.8936
G01 X28.6993 Y30.8620
G01 X28.6864 Y30.8467
G01 X28.6594 Y30.8170
G01 X28.6454 Y30.8027
G01 X28.6164 Y30.7750
G01 X28.6014 Y30.7618
G01 X28.5704 Y30.7363
G01 X28.5382 Y30.7125
G01 X28.5217 Y30.7011
G01 X28.4879 Y30.6797
G01 X28.4706 Y30.6696
G01 X28.4352 Y30.6507
G01 X28.4172 Y30.6419
G01 X28.3806 Y30.6257
G01 X28.3620 Y30.6182
G01 X28.3242 Y30.6047
G01 X28.3051 Y30.5987
G01 X28.2665 Y30.5880
G01 X28.2470 Y30.5834
G01 X28.2077 Y30.5755
G01 X28.1879 Y30.5724
G01 X28.1481 Y30.5675
G01 X28.1282 Y30.5657
G01 X28.0881 Y30.5638
G01 X28.0481 Y30.5638
G01 X28.0080 Y30.5657
G01 X27.9881 Y30.5675
G01 X27.9682 Y30.5697
G01 X27.9285 Y30.5755
G01 X27.8892 Y30.5834
G01 X27.8697 Y30.5880
G01 X27.8311 Y30.5987
G01 X27.8120 Y30.6047
G01 X27.7743 Y30.6182
G01 X27.7557 Y30.6257
G01 X27.7190 Y30.6419
G01 X27.7010 Y30.6507
G01 X27.6832 Y30.6599
G01 X27.6484 Y30.6797
G01 X27.6313 Y30.6902
G01 X27.5980 Y30.7125
G01 X27.5817 Y30.7242
G01 X27.5501 Y30.7489
G01 X27.5198 Y30.7750
G01 X27.5051 Y30.7887
G01 X27.4768 Y30.8170
G01 X27.4631 Y30.8317
G01 X27.4370 Y30.8620
G01 X27.4244 Y30.8777
G01 X27.4006 Y30.9099
G01 X27.3892 Y30.9264
G01 X27.3783 Y30.9432
G01 X27.3577 Y30.9776
G01 X27.3480 Y30.9951
G01 X27.3300 Y31.0309
G01 X27.3138 Y31.0675
G01 X27.3063 Y31.0862
G01 X27.2994 Y31.1049
G01 X27.2868 Y31.1430
G01 X27.2812 Y31.1622
G01 X27.2715 Y31.2011
G01 X27.2637 Y31.2404
G01 X27.2578 Y31.2801
G01 X27.2538 Y31.3199
G01 X27.2526 Y31.3399
G01 X27.2519 Y31.3600
G01 X27.2519 Y31.4000
G01 X27.2526 Y31.4201
G01 X27.2556 Y31.4600
G01 X27.2605 Y31.4998
G01 X27.2637 Y31.5196
G01 X27.2715 Y31.5589
G01 X27.2761 Y31.5784
G01 X27.2868 Y31.6170
G01 X27.2928 Y31.6361
G01 X27.3063 Y31.6738
G01 X27.3217 Y31.7109
G01 X27.3300 Y31.7291
G01 X27.3388 Y31.7471
G01 X27.3577 Y31.7824
G01 X27.3783 Y31.8168
G01 X27.4006 Y31.8501
G01 X27.4244 Y31.8823
G01 X27.4370 Y31.8980
G01 X27.4499 Y31.9133
G01 X27.4768 Y31.9430
G01 X27.5051 Y31.9713
G01 X27.5348 Y31.9982
G01 X27.5501 Y32.0111
G01 X27.5817 Y32.0358
G01 X27.6145 Y32.0589
G01 X27.6313 Y32.0698
G01 X27.6657 Y32.0904
G01 X27.6832 Y32.1001
G01 X27.7190 Y32.1181
G01 X27.7557 Y32.1343
G01 X27.7930 Y32.1488
G01 X27.8311 Y32.1613
G01 X27.8503 Y32.1669
G01 X27.8892 Y32.1766
G01 X27.9088 Y32.1808
G01 X27.9483 Y32.1876
G01 X27.9881 Y32.1925
G01 X28.0080 Y32.1943
G01 X28.0481 Y32.1962
G01 X28.0881 Y32.1962
G01 X28.1082 Y32.1955
G01 X28.1282 Y32.1943
G01 X28.1681 Y32.1903
G01 X28.2077 Y32.1845
G01 X28.2470 Y32.1766
G01 X28.2665 Y32.1720
G01 X28.3051 Y32.1613
G01 X28.3432 Y32.1488
G01 X28.3620 Y32.1418
G01 X28.3806 Y32.1343
G01 X28.4172 Y32.1181
G01 X28.4530 Y32.1001
G01 X28.4879 Y32.0803
G01 X28.5049 Y32.0698
G01 X28.5382 Y32.0475
G01 X28.5704 Y32.0237
G01 X28.5861 Y32.0111
G01 X28.6164 Y31.9850
G01 X28.6454 Y31.9573
G01 X28.6731 Y31.9283
G01 X28.6864 Y31.9133
G01 X28.6993 Y31.8980
G01 X28.7118 Y31.8823
G01 X28.7357 Y31.8501
G01 X28.7579 Y31.8168
G01 X28.7785 Y31.7824
G01 X28.7974 Y31.7471
G01 X28.8145 Y31.7109
G01 X28.8299 Y31.6738
G01 X28.8434 Y31.6361
G01 X28.8494 Y31.6170
G01 X28.8601 Y31.5784
G01 X28.8689 Y31.5393
G01 X28.8758 Y31.4998
G01 X28.8807 Y31.4600
G01 X28.8836 Y31.4201
G01 X28.8846 Y31.3800
G01 X28.7031 Y31.3800
G01 X28.7030 Y31.3644
G01 X28.7014 Y31.3333
G01 X28.6984 Y31.3023
G01 X28.6938 Y31.2714
G01 X28.6877 Y31.2409
G01 X28.6841 Y31.2257
G01 X28.6801 Y31.2106
G01 X28.6711 Y31.1808
G01 X28.6660 Y31.1661
G01 X28.6548 Y31.1370
G01 X28.6422 Y31.1085
G01 X28.6282 Y31.0806
G01 X28.6207 Y31.0670
G01 X28.6046 Y31.0403
G01 X28.5873 Y31.0143
G01 X28.5782 Y31.0017
G01 X28.5590 Y30.9771
G01 X28.5490 Y30.9652
G01 X28.5386 Y30.9535
G01 X28.5172 Y30.9310
G01 X28.4946 Y30.9095
G01 X28.4829 Y30.8991
G01 X28.4588 Y30.8794
G01 X28.4338 Y30.8608
G01 X28.4079 Y30.8435
G01 X28.3946 Y30.8353
G01 X28.3811 Y30.8275
G01 X28.3536 Y30.8128
G01 X28.3255 Y30.7994
G01 X28.3111 Y30.7933
G01 X28.2820 Y30.7821
G01 X28.2525 Y30.7723
G01 X28.2224 Y30.7640
G01 X28.2072 Y30.7604
G01 X28.1767 Y30.7543
G01 X28.1613 Y30.7518
G01 X28.1304 Y30.7480
G01 X28.1148 Y30.7467
G01 X28.0837 Y30.7452
G01 X28.0681 Y30.7450
G01 X28.0525 Y30.7452
G01 X28.0214 Y30.7467
G01 X28.0059 Y30.7480
G01 X27.9749 Y30.7518
G01 X27.9595 Y30.7543
G01 X27.9290 Y30.7604
G01 X27.9138 Y30.7640
G01 X27.8838 Y30.7723
G01 X27.8689 Y30.7770
G01 X27.8396 Y30.7875
G01 X27.8251 Y30.7933
G01 X27.7966 Y30.8059
G01 X27.7688 Y30.8199
G01 X27.7551 Y30.8275
G01 X27.7416 Y30.8353
G01 X27.7153 Y30.8520
G01 X27.7024 Y30.8608
G01 X27.6774 Y30.8794
G01 X27.6652 Y30.8891
G01 X27.6416 Y30.9095
G01 X27.6302 Y30.9201
G01 X27.6082 Y30.9421
G01 X27.5976 Y30.9535
G01 X27.5772 Y30.9771
G01 X27.5580 Y31.0017
G01 X27.5489 Y31.0143
G01 X27.5401 Y31.0272
G01 X27.5234 Y31.0535
G01 X27.5081 Y31.0806
G01 X27.5009 Y31.0945
G01 X27.4940 Y31.1085
G01 X27.4814 Y31.1370
G01 X27.4756 Y31.1515
G01 X27.4651 Y31.1808
G01 X27.4604 Y31.1957
G01 X27.4521 Y31.2257
G01 X27.4485 Y31.2409
G01 X27.4424 Y31.2714
G01 X27.4399 Y31.2868
G01 X27.4361 Y31.3178
G01 X27.4348 Y31.3333
G01 X27.4333 Y31.3644
G01 X27.4333 Y31.3956
G01 X27.4338 Y31.4112
G01 X27.4348 Y31.4267
G01 X27.4378 Y31.4577
G01 X27.4424 Y31.4886
G01 X27.4453 Y31.5039
G01 X27.4521 Y31.5343
G01 X27.4561 Y31.5494
G01 X27.4651 Y31.5792
G01 X27.4756 Y31.6085
G01 X27.4814 Y31.6230
G01 X27.4876 Y31.6373
G01 X27.5009 Y31.6655
G01 X27.5156 Y31.6930
G01 X27.5316 Y31.7197
G01 X27.5401 Y31.7328
G01 X27.5580 Y31.7583
G01 X27.5772 Y31.7829
G01 X27.5873 Y31.7948
G01 X27.6082 Y31.8179
G01 X27.6302 Y31.8399
G01 X27.6416 Y31.8505
G01 X27.6652 Y31.8709
G01 X27.6898 Y31.8901
G01 X27.7153 Y31.9080
G01 X27.7284 Y31.9165
G01 X27.7551 Y31.9325
G01 X27.7826 Y31.9472
G01 X27.7966 Y31.9541
G01 X27.8251 Y31.9667
G01 X27.8396 Y31.9725
G01 X27.8689 Y31.9830
G01 X27.8987 Y31.9920
G01 X27.9290 Y31.9996
G01 X27.9595 Y32.0057
G01 X27.9904 Y32.0103
G01 X28.0214 Y32.0133
G01 X28.0525 Y32.0148
G01 X28.0837 Y32.0148
G01 X28.0993 Y32.0143
G01 X28.1304 Y32.0120
G01 X28.1613 Y32.0082
G01 X28.1767 Y32.0057
G01 X28.2072 Y31.9996
G01 X28.2375 Y31.9920
G01 X28.2525 Y31.9877
G01 X28.2820 Y31.9779
G01 X28.3111 Y31.9667
G01 X28.3255 Y31.9606
G01 X28.3536 Y31.9472
G01 X28.3811 Y31.9325
G01 X28.3946 Y31.9247
G01 X28.4209 Y31.9080
G01 X28.4464 Y31.8901
G01 X28.4588 Y31.8806
G01 X28.4829 Y31.8609
G01 X28.4946 Y31.8505
G01 X28.5172 Y31.8290
G01 X28.5386 Y31.8065
G01 X28.5590 Y31.7829
G01 X28.5687 Y31.7707
G01 X28.5782 Y31.7583
G01 X28.5961 Y31.7328
G01 X28.6128 Y31.7065
G01 X28.6282 Y31.6794
G01 X28.6422 Y31.6515
G01 X28.6548 Y31.6230
G01 X28.6660 Y31.5939
G01 X28.6758 Y31.5643
G01 X28.6841 Y31.5343
G01 X28.6909 Y31.5039
G01 X28.6963 Y31.4732
G01 X28.7001 Y31.4422
G01 X28.7024 Y31.4112
G01 X28.7031 Y31.3800
G01 X28.5217 Y31.3800
G01 X28.5212 Y31.3577
G01 X28.5205 Y31.3466
G01 X28.5183 Y31.3245
G01 X28.5150 Y31.3025
G01 X28.5130 Y31.2915
G01 X28.5081 Y31.2698
G01 X28.5022 Y31.2483
G01 X28.4988 Y31.2377
G01 X28.4913 Y31.2168
G01 X28.4828 Y31.1962
G01 X28.4782 Y31.1861
G01 X28.4681 Y31.1662
G01 X28.4628 Y31.1564
G01 X28.4513 Y31.1373
G01 X28.4453 Y31.1280
G01 X28.4324 Y31.1098
G01 X28.4257 Y31.1009
G01 X28.4116 Y31.0837
G01 X28.3966 Y31.0672
G01 X28.3889 Y31.0593
G01 X28.3809 Y31.0515
G01 X28.3644 Y31.0365
G01 X28.3472 Y31.0224
G01 X28.3383 Y31.0157
G01 X28.3201 Y31.0028
G01 X28.3108 Y30.9968
G01 X28.2917 Y30.9853
G01 X28.2819 Y30.9800
G01 X28.2620 Y30.9700
G01 X28.2519 Y30.9653
G01 X28.2314 Y30.9568
G01 X28.2104 Y30.9493
G01 X28.1998 Y30.9459
G01 X28.1783 Y30.9400
G01 X28.1566 Y30.9351
G01 X28.1457 Y30.9331
G01 X28.1236 Y30.9298
G01 X28.1015 Y30.9276
G01 X28.0904 Y30.9269
G01 X28.0681 Y30.9264
G01 X28.0459 Y30.9269
G01 X28.0347 Y30.9276
G01 X28.0126 Y30.9298
G01 X28.0016 Y30.9313
G01 X27.9906 Y30.9331
G01 X27.9687 Y30.9374
G01 X27.9579 Y30.9400
G01 X27.9364 Y30.9459
G01 X27.9258 Y30.9493
G01 X27.9049 Y30.9568
G01 X27.8843 Y30.9653
G01 X27.8642 Y30.9748
G01 X27.8543 Y30.9800
G01 X27.8349 Y30.9909
G01 X27.8254 Y30.9968
G01 X27.8069 Y31.0091
G01 X27.7890 Y31.0224
G01 X27.7803 Y31.0294
G01 X27.7635 Y31.0439
G01 X27.7553 Y31.0515
G01 X27.7474 Y31.0593
G01 X27.7320 Y31.0754
G01 X27.7175 Y31.0922
G01 X27.7105 Y31.1009
G01 X27.6973 Y31.1188
G01 X27.6910 Y31.1280
G01 X27.6790 Y31.1468
G01 X27.6734 Y31.1564
G01 X27.6629 Y31.1761
G01 X27.6581 Y31.1861
G01 X27.6490 Y31.2064
G01 X27.6410 Y31.2272
G01 X27.6340 Y31.2483
G01 X27.6309 Y31.2590
G01 X27.6281 Y31.2698
G01 X27.6232 Y31.2915
G01 X27.6194 Y31.3134
G01 X27.6179 Y31.3245
G01 X27.6157 Y31.3466
G01 X27.6151 Y31.3577
G01 X27.6145 Y31.3800
G01 X27.6146 Y31.3911
G01 X27.6151 Y31.4023
G01 X27.6167 Y31.4245
G01 X27.6194 Y31.4466
G01 X27.6212 Y31.4575
G01 X27.6255 Y31.4794
G01 X27.6281 Y31.4902
G01 X27.6340 Y31.5117
G01 X27.6374 Y31.5223
G01 X27.6410 Y31.5328
G01 X27.6490 Y31.5536
G01 X27.6581 Y31.5739
G01 X27.6681 Y31.5938
G01 X27.6734 Y31.6036
G01 X27.6849 Y31.6227
G01 X27.6910 Y31.6320
G01 X27.7038 Y31.6502
G01 X27.7175 Y31.6678
G01 X27.7320 Y31.6846
G01 X27.7474 Y31.7007
G01 X27.7553 Y31.7085
G01 X27.7718 Y31.7235
G01 X27.7890 Y31.7376
G01 X27.8069 Y31.7509
G01 X27.8254 Y31.7632
G01 X27.8349 Y31.7691
G01 X27.8543 Y31.7800
G01 X27.8742 Y31.7900
G01 X27.8945 Y31.7991
G01 X27.9153 Y31.8071
G01 X27.9258 Y31.8107
G01 X27.9471 Y31.8172
G01 X27.9687 Y31.8226
G01 X27.9906 Y31.8269
G01 X28.0126 Y31.8302
G01 X28.0347 Y31.8324
G01 X28.0459 Y31.8331
G01 X28.0681 Y31.8336
G01 X28.0904 Y31.8331
G01 X28.1126 Y31.8314
G01 X28.1347 Y31.8287
G01 X28.1457 Y31.8269
G01 X28.1675 Y31.8226
G01 X28.1891 Y31.8172
G01 X28.2104 Y31.8107
G01 X28.2209 Y31.8071
G01 X28.2417 Y31.7991
G01 X28.2620 Y31.7900
G01 X28.2819 Y31.7800
G01 X28.3013 Y31.7691
G01 X28.3108 Y31.7632
G01 X28.3293 Y31.7509
G01 X28.3472 Y31.7376
G01 X28.3644 Y31.7235
G01 X28.3727 Y31.7161
G01 X28.3889 Y31.7007
G01 X28.4042 Y31.6846
G01 X28.4187 Y31.6678
G01 X28.4324 Y31.6502
G01 X28.4390 Y31.6412
G01 X28.4453 Y31.6320
G01 X28.4572 Y31.6132
G01 X28.4681 Y31.5938
G01 X28.4782 Y31.5739
G01 X28.4872 Y31.5536
G01 X28.4952 Y31.5328
G01 X28.5022 Y31.5117
G01 X28.5081 Y31.4902
G01 X28.5130 Y31.4685
G01 X28.5168 Y31.4466
G01 X28.5195 Y31.4245
G01 X28.5212 Y31.4023
G01 X28.5217 Y31.3800
G01 X28.3403 Y31.3800
G01 X28.3395 Y31.3600
G01 X28.3373 Y31.3401
G01 X28.3337 Y31.3204
G01 X28.3286 Y31.3010
G01 X28.3220 Y31.2821
G01 X28.3141 Y31.2636
G01 X28.3049 Y31.2459
G01 X28.2944 Y31.2288
G01 X28.2827 Y31.2126
G01 X28.2698 Y31.1972
G01 X28.2558 Y31.1829
G01 X28.2408 Y31.1696
G01 X28.2248 Y31.1575
G01 X28.2080 Y31.1466
G01 X28.1905 Y31.1369
G01 X28.1723 Y31.1286
G01 X28.1598 Y31.1237
G01 X28.1471 Y31.1196
G01 X28.1277 Y31.1145
G01 X28.1080 Y31.1108
G01 X28.0881 Y31.1086
G01 X28.0748 Y31.1079
G01 X28.0614 Y31.1079
G01 X28.0414 Y31.1092
G01 X28.0216 Y31.1118
G01 X28.0085 Y31.1145
G01 X27.9955 Y31.1177
G01 X27.9764 Y31.1237
G01 X27.9578 Y31.1312
G01 X27.9398 Y31.1400
G01 X27.9282 Y31.1466
G01 X27.9169 Y31.1537
G01 X27.9007 Y31.1654
G01 X27.8853 Y31.1783
G01 X27.8710 Y31.1923
G01 X27.8620 Y31.2022
G01 X27.8536 Y31.2126
G01 X27.8456 Y31.2233
G01 X27.8382 Y31.2344
G01 X27.8281 Y31.2517
G01 X27.8193 Y31.2697
G01 X27.8142 Y31.2821
G01 X27.8097 Y31.2946
G01 X27.8041 Y31.3139
G01 X27.8000 Y31.3335
G01 X27.7980 Y31.3467
G01 X27.7967 Y31.3600
G01 X27.7959 Y31.3800
G01 X27.7967 Y31.4000
G01 X27.7980 Y31.4133
G01 X27.8000 Y31.4265
G01 X27.8041 Y31.4461
G01 X27.8097 Y31.4654
G01 X27.8142 Y31.4779
G01 X27.8193 Y31.4903
G01 X27.8281 Y31.5083
G01 X27.8347 Y31.5199
G01 X27.8418 Y31.5312
G01 X27.8536 Y31.5474
G01 X27.8620 Y31.5578
G01 X27.8710 Y31.5677
G01 X27.8853 Y31.5817
G01 X27.9007 Y31.5946
G01 X27.9169 Y31.6063
G01 X27.9282 Y31.6134
G01 X27.9398 Y31.6200
G01 X27.9578 Y31.6288
G01 X27.9764 Y31.6363
G01 X27.9955 Y31.6423
G01 X28.0150 Y31.6469
G01 X28.0348 Y31.6501
G01 X28.0548 Y31.6518
G01 X28.0748 Y31.6521
G01 X28.0881 Y31.6514
G01 X28.1014 Y31.6501
G01 X28.1212 Y31.6469
G01 X28.1407 Y31.6423
G01 X28.1598 Y31.6363
G01 X28.1784 Y31.6288
G01 X28.1905 Y31.6231
G01 X28.2023 Y31.6168
G01 X28.2193 Y31.6063
G01 X28.2356 Y31.5946
G01 X28.2509 Y31.5817
G01 X28.2652 Y31.5677
G01 X28.2785 Y31.5527
G01 X28.2906 Y31.5367
G01 X28.3015 Y31.5199
G01 X28.3049 Y31.5141
G01 X28.3112 Y31.5024
G01 X28.3169 Y31.4903
G01 X28.3220 Y31.4779
G01 X28.3286 Y31.4590
G01 X28.3337 Y31.4396
G01 X28.3373 Y31.4199
G01 X28.3395 Y31.4000
G01 X28.3403 Y31.3800
G01 X28.1588 Y31.3800
G01 X28.1584 Y31.3711
G01 X28.1571 Y31.3623
G01 X28.1549 Y31.3537
G01 X28.1519 Y31.3453
G01 X28.1481 Y31.3372
G01 X28.1435 Y31.3296
G01 X28.1382 Y31.3224
G01 X28.1323 Y31.3159
G01 X28.1257 Y31.3099
G01 X28.1185 Y31.3046
G01 X28.1109 Y31.3000
G01 X28.1028 Y31.2962
G01 X28.0944 Y31.2932
G01 X28.0858 Y31.2910
G01 X28.0770 Y31.2897
G01 X28.0681 Y31.2893
G01 X28.0592 Y31.2897
G01 X28.0504 Y31.2910
G01 X28.0418 Y31.2932
G01 X28.0334 Y31.2962
G01 X28.0253 Y31.3000
G01 X28.0177 Y31.3046
G01 X28.0106 Y31.3099
G01 X28.0040 Y31.3159
G01 X27.9980 Y31.3224
G01 X27.9927 Y31.3296
G01 X27.9881 Y31.3372
G01 X27.9843 Y31.3453
G01 X27.9813 Y31.3537
G01 X27.9791 Y31.3623
G01 X27.9778 Y31.3711
G01 X27.9774 Y31.3800
G01 X27.9778 Y31.3889
G01 X27.9791 Y31.3977
G01 X27.9813 Y31.4063
G01 X27.9843 Y31.4147
G01 X27.9881 Y31.4228
G01 X27.9927 Y31.4304
G01 X27.9980 Y31.4376
G01 X28.0040 Y31.4441
G01 X28.0106 Y31.4501
G01 X28.0177 Y31.4554
G01 X28.0253 Y31.4600
G01 X28.0334 Y31.4638
G01 X28.0418 Y31.4668
G01 X28.0504 Y31.4690
G01 X28.0592 Y31.4703
G01 X28.0681 Y31.4707
G01 X28.0770 Y31.4703
G01 X28.0858 Y31.4690
G01 X28.0944 Y31.4668
G01 X28.1028 Y31.4638
G01 X28.1109 Y31.4600
G01 X28.1185 Y31.4554
G01 X28.1257 Y31.4501
G01 X28.1323 Y31.4441
G01 X28.1382 Y31.4376
G01 X28.1435 Y31.4304
G01 X28.1481 Y31.4228
G01 X28.1519 Y31.4147
G01 X28.1549 Y31.4063
G01 X28.1571 Y31.3977
G01 X28.1584 Y31.3889
G01 X28.1588 Y31.3800
G01 X28.9673 Y32.1430
G01 X28.9611 Y32.1503
G01 X28.9420 Y32.1720
G01 X28.9223 Y32.1932
G01 X28.9020 Y32.2139
G01 X28.8813 Y32.2341
G01 X28.8601 Y32.2538
G01 X28.8384 Y32.2730
G01 X28.8163 Y32.2917
G01 X28.7937 Y32.3097
G01 X28.7707 Y32.3273
G01 X28.7472 Y32.3442
G01 X28.7233 Y32.3606
G01 X28.6991 Y32.3764
G01 X28.6744 Y32.3916
G01 X28.6494 Y32.4061
G01 X28.6241 Y32.4201
G01 X28.5984 Y32.4334
G01 X28.5724 Y32.4461
G01 X28.5460 Y32.4582
G01 X28.5194 Y32.4696
G01 X28.4926 Y32.4803
G01 X28.4654 Y32.4904
G01 X28.4381 Y32.4998
G01 X28.4105 Y32.5086
G01 X28.3827 Y32.5166
G01 X28.3547 Y32.5240
G01 X28.3265 Y32.5307
G01 X28.2982 Y32.5367
G01 X28.2697 Y32.5420
G01 X28.2412 Y32.5466
G01 X28.2125 Y32.5505
G01 X28.1837 Y32.5537
G01 X28.1549 Y32.5562
G01 X28.1260 Y32.5579
G01 X28.0971 Y32.5590
G01 X28.0681 Y32.5594
G01 X28.0392 Y32.5590
G01 X28.0102 Y32.5579
G01 X27.9814 Y32.5562
G01 X27.9525 Y32.5537
G01 X27.9237 Y32.5505
G01 X27.8951 Y32.5466
G01 X27.8665 Y32.5420
G01 X27.8380 Y32.5367
G01 X27.8097 Y32.5307
G01 X27.7815 Y32.5240
G01 X27.7536 Y32.5166
G01 X27.7258 Y32.5086
G01 X27.6982 Y32.4998
G01 X27.6708 Y32.4904
G01 X27.6437 Y32.4803
G01 X27.6168 Y32.4696
G01 X27.5902 Y32.4582
G01 X27.5639 Y32.4461
G01 X27.5379 Y32.4334
G01 X27.5122 Y32.4201
G01 X27.4868 Y32.4061
G01 X27.4618 Y32.3916
G01 X27.4372 Y32.3764
G01 X27.4129 Y32.3606
G01 X27.3890 Y32.3442
G01 X27.3656 Y32.3273
G01 X27.3425 Y32.3097
G01 X27.3199 Y32.2917
G01 X27.2978 Y32.2730
G01 X27.2761 Y32.2538
G01 X27.2549 Y32.2341
G01 X27.2342 Y32.2139
G01 X27.2140 Y32.1932
G01 X27.1943 Y32.1720
G01 X27.1689 Y32.1430
G01 X27.4721 Y32.6032
G01 X27.4863 Y32.6101
G01 X27.5167 Y32.6241
G01 X27.5474 Y32.6372
G01 X27.5784 Y32.6496
G01 X27.6097 Y32.6613
G01 X27.6413 Y32.6721
G01 X27.6731 Y32.6822
G01 X27.7052 Y32.6915
G01 X27.7375 Y32.7000
G01 X27.7700 Y32.7077
G01 X27.8026 Y32.7147
G01 X27.8355 Y32.7208
G01 X27.8684 Y32.7261
G01 X27.9015 Y32.7306
G01 X27.9347 Y32.7342
G01 X27.9680 Y32.7371
G01 X28.0013 Y32.7392
G01 X28.0347 Y32.7404
G01 X28.0681 Y32.7408
G01 X28.1015 Y32.7404
G01 X28.1349 Y32.7392
G01 X28.1682 Y32.7371
G01 X28.2015 Y32.7342
G01 X28.2347 Y32.7306
G01 X28.2678 Y32.7261
G01 X28.3008 Y32.7208
G01 X28.3336 Y32.7147
G01 X28.3663 Y32.7077
G01 X28.3988 Y32.7000
G01 X28.4311 Y32.6915
G01 X28.4631 Y32.6822
G01 X28.4950 Y32.6721
G01 X28.5265 Y32.6613
G01 X28.5579 Y32.6496
G01 X28.5889 Y32.6372
G01 X28.6196 Y32.6241
G01 X28.6499 Y32.6101
G01 X28.6641 Y32.6032
G01 X28.0681 Y32.8173
G01 X28.1600 Y32.8127
G01 X28.2510 Y32.7993
G01 X28.3402 Y32.7769
G01 X28.4268 Y32.7459
G01 X28.5099 Y32.7066
G01 X28.5888 Y32.6593
G01 X28.6627 Y32.6045
G01 X28.7309 Y32.5427
G01 X28.7926 Y32.4746
G01 X28.8474 Y32.4007
G01 X28.8947 Y32.3218
G01 X28.9340 Y32.2387
G01 X28.9650 Y32.1521
G01 X28.9874 Y32.0628
G01 X29.0009 Y31.9719
G01 X29.0055 Y31.8772
G01 X29.0055 Y30.8828
G01 X29.0009 Y30.7881
G01 X28.9874 Y30.6972
G01 X28.9650 Y30.6079
G01 X28.9340 Y30.5213
G01 X28.8947 Y30.4382
G01 X28.8474 Y30.3593
G01 X28.7926 Y30.2854
G01 X28.7309 Y30.2173
G01 X28.6627 Y30.1555
G01 X28.5888 Y30.1007
G01 X28.5099 Y30.0534
G01 X28.4268 Y30.0141
G01 X28.3402 Y29.9831
G01 X28.2510 Y29.9607
G01 X28.1600 Y29.9473
G01 X28.0681 Y29.9427
G01 X27.9762 Y29.9473
G01 X27.8853 Y29.9607
G01 X27.7960 Y29.9831
G01 X27.7094 Y30.0141
G01 X27.6263 Y30.0534
G01 X27.5474 Y30.1007
G01 X27.4735 Y30.1555
G01 X27.4054 Y30.2173
G01 X27.3436 Y30.2854
G01 X27.2888 Y30.3593
G01 X27.2415 Y30.4382
G01 X27.2022 Y30.5213
G01 X27.1712 Y30.6079
G01 X27.1489 Y30.6972
G01 X27.1354 Y30.7881
G01 X27.1307 Y30.8828
G01 X27.1307 Y31.8772
G01 X27.1354 Y31.9719
G01 X27.1489 Y32.0628
G01 X27.1712 Y32.1521
G01 X27.2022 Y32.2387
G01 X27.2415 Y32.3218
G01 X27.2888 Y32.4007
G01 X27.3436 Y32.4746
G01 X27.4054 Y32.5427
G01 X27.4735 Y32.6045
G01 X27.5474 Y32.6593
G01 X27.6263 Y32.7066
G01 X27.7094 Y32.7459
G01 X27.7960 Y32.7769
G01 X27.8853 Y32.7993
G01 X27.9762 Y32.8127
G01 X28.0681 Y32.8173
G00 Z2.0000
G00 X28.0966 Y33.9466
G01 F60.00
G01 Z0.0000
G01 F120.00
G01 X28.1102 Y33.9746
G01 X28.1260 Y34.0090
G01 X28.1409 Y34.0438
G01 X28.1550 Y34.0789
G01 X28.1682 Y34.1144
G01 X28.1805 Y34.1502
G01 X28.1919 Y34.1863
G01 X28.2024 Y34.2226
G01 X28.2121 Y34.2592
G01 X28.2208 Y34.2961
G01 X28.2287 Y34.3331
G01 X28.2356 Y34.3703
G01 X28.2416 Y34.4077
G01 X28.2467 Y34.4452
G01 X28.2509 Y34.4828
G01 X28.2541 Y34.5205
G01 X28.2565 Y34.5583
G01 X28.2578 Y34.5961
G01 X28.2583 Y34.6340
G01 X28.2578 Y34.6718
G01 X28.2565 Y34.7097
G01 X28.2541 Y34.7474
G01 X28.2509 Y34.7851
G01 X28.2467 Y34.8228
G01 X28.2416 Y34.8603
G01 X28.2356 Y34.8976
G01 X28.2287 Y34.9349
G01 X28.2208 Y34.9719
G01 X28.2121 Y35.0087
G01 X28.2024 Y35.0453
G01 X28.1919 Y35.0817
G01 X28.1805 Y35.1178
G01 X28.1682 Y35.1535
G01 X28.1550 Y35.1890
G01 X28.1409 Y35.2242
G01 X28.1260 Y35.2590
G01 X28.1102 Y35.2934
G01 X28.0966 Y35.3214
G00 Z2.0000
G00 X28.2966 Y33.9466
G01 F60.00
G01 Z0.0000
G01 F120.00
G01 X28.3085 Y33.9744
G01 X28.3243 Y34.0136
G01 X28.3390 Y34.0533
G01 X28.3535 Y34.0956
G01 X27.5325 Y34.6340
G01 X27.5316 Y34.6740
G01 X27.5303 Y34.6940
G01 X27.5264 Y34.7339
