(G-CODE GENERATED BY FLATCAM v8.994 - www.flatcam.org - Version Date: 2020/11/7)

(Name: Gerber_TopSilkscreenLayer.GTO_mt_paint_cnc)
(Type: G-code from Geometry)
(Units: MM)

(Created on Tuesday, 28 May 2024 at 20:14)

(This preprocessor is the default preprocessor used by FlatCAM.)
(It is made to work with MACH3 compatible motion controllers.)

(TOOL DIAMETER: 0.1 mm)
(Feedrate_XY: 120.0 mm/min)
(Feedrate_Z: 60.0 mm/min)
(Feedrate rapids 1500.0 mm/min)

(Z_Cut: -0.05 mm)
(Z_Move: 2.0 mm)
(Z Start: None mm)
(Z End: 15.0 mm)
(X,Y End: None mm)
(Steps per circle: 64)
(Preprocessor Geometry: default)

(X range:   24.3148 ...   76.0900  mm)
(Y range:   24.9487 ...   45.5137  mm)

(Spindle Speed: 0.0 RPM)
G21
G90
G94

G01 F120.00

M5
G00 Z15.0000
G00 X0.0000 Y0.0000
T1
M6    
(MSG, Change to Tool Dia = 0.1000)
M0
G00 Z15.0000

M03
G01 F120.00
G00 X24.5964 Y27.2397
G01 F60.00
G01 Z-0.0500
G01 F120.00
G01 X24.6199 Y27.2397
G01 X24.6177 Y27.3197
G01 X24.5466 Y27.3197
G01 X24.5320 Y27.3480
G01 X24.5282 Y27.3538
G01 X24.5238 Y27.3592
G01 X24.3787 Y27.5045
G01 X24.3736 Y27.5105
G01 X24.3707 Y27.5160
G01 X24.3689 Y27.5219
G01 X24.3683 Y27.5281
G01 X24.3689 Y27.5342
G01 X24.3707 Y27.5402
G01 X24.3736 Y27.5456
G01 X24.3775 Y27.5504
G01 X24.3823 Y27.5543
G01 X24.3850 Y27.5559
G01 X24.3907 Y27.5583
G01 X24.3968 Y27.5595
G01 X24.4016 Y27.5597
G01 X25.4878 Y27.5597
G01 X25.4926 Y27.5595
G01 X25.4987 Y27.5583
G01 X25.5016 Y27.5572
G01 X25.5070 Y27.5543
G01 X25.5095 Y27.5525
G01 X25.5139 Y27.5481
G01 X25.5173 Y27.5430
G01 X25.5197 Y27.5372
G01 X25.5209 Y27.5312
G01 X25.5209 Y27.5250
G01 X25.5205 Y27.5219
G01 X25.5187 Y27.5160
G01 X25.5173 Y27.5132
G01 X25.5139 Y27.5081
G01 X25.5095 Y27.5037
G01 X25.5070 Y27.5018
G01 X25.5016 Y27.4989
G01 X25.4957 Y27.4971
G01 X25.4878 Y27.4964
G01 X24.6412 Y27.4964
G01 X24.6343 Y27.4961
G01 X24.6274 Y27.4950
G01 X24.6161 Y27.4918
G01 X24.6108 Y27.4895
G01 X24.6047 Y27.4861
G01 X24.5953 Y27.4792
G01 X24.5911 Y27.4753
G01 X24.5865 Y27.4700
G01 X24.5824 Y27.4644
G01 X24.5795 Y27.4594
G01 X24.5749 Y27.4487
G01 X24.5721 Y27.4373
G01 X24.5712 Y27.4258
G01 X24.5718 Y27.4176
G01 X24.5730 Y27.4107
G01 X24.5749 Y27.4040
G01 X24.5775 Y27.3975
G01 X24.5838 Y27.3859
G01 X24.6355 Y27.2850
G01 X24.6385 Y27.2776
G01 X24.6392 Y27.2746
G01 X24.6397 Y27.2684
G01 X24.6390 Y27.2623
G01 X24.6382 Y27.2593
G01 X24.6357 Y27.2536
G01 X24.6322 Y27.2486
G01 X24.6301 Y27.2463
G01 X24.6252 Y27.2425
G01 X24.6225 Y27.2409
G01 X24.6197 Y27.2396
G01 X24.6137 Y27.2379
G01 X24.6076 Y27.2374
G01 X24.6014 Y27.2382
G01 X24.5984 Y27.2390
G01 X24.5955 Y27.2401
G01 X24.5901 Y27.2431
G01 X24.5854 Y27.2471
G01 X24.5816 Y27.2519
G01 X24.5792 Y27.2561
G01 X24.5339 Y27.3445
G00 Z2.0000
G00 X24.5765 Y27.3997
G01 F60.00
G01 Z-0.0500
G01 F120.00
G01 X24.4834 Y27.3997
G01 X24.4034 Y27.4797
G01 X24.5959 Y27.4797
G00 Z2.0000
G00 X25.1990 Y27.9262
G01 F60.00
G01 Z-0.0500
G01 F120.00
G01 X25.1990 Y27.9213
G01 X25.2002 Y27.9152
G01 X25.2026 Y27.9095
G01 X25.2060 Y27.9043
G01 X25.2602 Y27.8498
G01 X25.2663 Y27.8447
G01 X25.2719 Y27.8417
G01 X25.2779 Y27.8400
G01 X25.2810 Y27.8395
G01 X25.2873 Y27.8396
G01 X25.2934 Y27.8409
G01 X25.2992 Y27.8434
G01 X25.3043 Y27.8470
G01 X25.3079 Y27.8504
G01 X25.3563 Y27.9013
G01 X25.3594 Y27.9049
G01 X25.3627 Y27.9100
G01 X25.3649 Y27.9157
G01 X25.3660 Y27.9217
G01 X25.3661 Y27.9247
G01 X25.3655 Y27.9308
G01 X25.3637 Y27.9366
G01 X25.3608 Y27.9419
G01 X25.3589 Y27.9444
G01 X25.3557 Y27.9479
G01 X25.3073 Y27.9963
G01 X25.3014 Y28.0013
G01 X25.2988 Y28.0029
G01 X25.2932 Y28.0053
G01 X25.2872 Y28.0065
G01 X25.2811 Y28.0066
G01 X25.2781 Y28.0062
G01 X25.2751 Y28.0055
G01 X25.2722 Y28.0045
G01 X25.2668 Y28.0017
G01 X25.2643 Y28.0000
G01 X25.2098 Y27.9484
G01 X25.2060 Y27.9444
G01 X25.2036 Y27.9409
G01 X25.2013 Y27.9364
G01 X25.1995 Y27.9305
G01 X25.1990 Y27.9262
G01 X25.3588 Y27.9445
G01 X25.3588 Y27.9041
G01 X25.2788 Y27.8398
G01 X25.2788 Y28.0063
G00 Z2.0000
G00 X25.1164 Y28.3587
G01 F60.00
G01 Z-0.0500
G01 F120.00
G01 X24.9901 Y28.3587
G01 X24.9996 Y28.4387
G01 X24.9101 Y28.4387
G00 Z2.0000
G00 X24.8015 Y28.5987
G01 F60.00
G01 Z-0.0500
G01 F120.00
G01 X24.9109 Y28.5987
G01 X24.9372 Y28.5187
G01 X24.7769 Y28.5187
G01 X24.8108 Y28.4387
G01 X24.7241 Y28.4387
G01 X24.7051 Y28.3587
G01 X24.5086 Y28.3587
G00 Z2.0000
G00 X24.8198 Y28.6787
G01 F60.00
G01 Z-0.0500
G01 F120.00
G01 X24.8892 Y28.6787
G00 Z2.0000
G00 X24.8911 Y28.6991
G01 F60.00
G01 Z-0.0500
G01 F120.00
G01 X24.8899 Y28.6925
G01 X24.8893 Y28.6871
G01 X24.8892 Y28.6804
G01 X24.8896 Y28.6746
G01 X24.8909 Y28.6670
G01 X24.8976 Y28.6396
G01 X24.9409 Y28.5074
G01 X24.9442 Y28.4993
G01 X24.9492 Y28.4908
G01 X24.9531 Y28.4856
G01 X24.9575 Y28.4807
G01 X25.0332 Y28.4051
G01 X25.0396 Y28.3994
G01 X25.0445 Y28.3959
G01 X25.0498 Y28.3928
G01 X25.1198 Y28.3569
G01 X25.1269 Y28.3539
G01 X25.1344 Y28.3516
G01 X25.1409 Y28.3504
G01 X25.1486 Y28.3497
G01 X25.2603 Y28.3497
G01 X25.2692 Y28.3504
G01 X25.2789 Y28.3525
G01 X25.2851 Y28.3546
G01 X25.2912 Y28.3574
G01 X25.3598 Y28.3925
G01 X25.3675 Y28.3972
G01 X25.3760 Y28.4042
G01 X25.4010 Y28.4293
G01 X25.4075 Y28.4375
G01 X25.4125 Y28.4460
G01 X25.4162 Y28.4551
G01 X25.4544 Y28.5715
G01 X25.4563 Y28.5787
G01 X25.4573 Y28.5847
G01 X25.4578 Y28.5933
G01 X25.4578 Y28.7694
G01 X25.4575 Y28.7767
G01 X25.4563 Y28.7838
G01 X25.4545 Y28.7909
G01 X25.4158 Y28.9108
G01 X25.4114 Y28.9209
G01 X25.4055 Y28.9303
G01 X25.3997 Y28.9371
G01 X25.3764 Y28.9604
G01 X25.3714 Y28.9648
G01 X25.3666 Y28.9684
G01 X25.3592 Y28.9728
G01 X25.2902 Y29.0081
G01 X25.2831 Y29.0111
G01 X25.2757 Y29.0134
G01 X25.2692 Y29.0146
G01 X25.2620 Y29.0153
G01 X25.1502 Y29.0153
G01 X25.1388 Y29.0143
G01 X25.1292 Y29.0119
G01 X25.1198 Y29.0081
G01 X25.0498 Y28.9722
G01 X25.0445 Y28.9691
G01 X25.0396 Y28.9656
G01 X25.0332 Y28.9600
G01 X24.9568 Y28.8836
G01 X24.9511 Y28.8769
G01 X24.9457 Y28.8686
G01 X24.9429 Y28.8627
G01 X24.9407 Y28.8572
G01 X24.8984 Y28.7280
G01 X24.8911 Y28.6991
G00 Z2.0000
G00 X24.9084 Y28.7587
G01 F60.00
G01 Z-0.0500
G01 F120.00
G01 X24.8034 Y28.7587
G00 Z2.0000
G00 X24.7809 Y28.8387
G01 F60.00
G01 Z-0.0500
G01 F120.00
G01 X24.9346 Y28.8387
G01 X24.9010 Y28.9187
G01 X24.9919 Y28.9187
G01 X24.9824 Y28.9987
G01 X25.1013 Y28.9987
G00 Z2.0000
G00 X25.3087 Y28.9987
G01 F60.00
G01 Z-0.0500
G01 F120.00
G01 X25.4277 Y28.9987
G00 Z2.0000
G00 X25.4126 Y28.9187
G01 F60.00
G01 Z-0.0500
G01 F120.00
G01 X25.4798 Y28.9187
G01 X25.5056 Y28.8387
G01 X25.4391 Y28.8387
G00 Z2.0000
G00 X25.4578 Y28.7587
G01 F60.00
G01 Z-0.0500
G01 F120.00
G01 X25.5212 Y28.7587
G01 X25.5212 Y28.6787
G01 X25.4578 Y28.6787
G01 X25.4578 Y28.5987
G01 X25.5212 Y28.5987
G01 X25.5036 Y28.5187
G01 X25.4370 Y28.5187
G00 Z2.0000
G00 X25.4083 Y28.4387
G01 F60.00
G01 Z-0.0500
G01 F120.00
G01 X25.4774 Y28.4387
G01 X25.4200 Y28.3587
G01 X25.2937 Y28.3587
G00 Z2.0000
G00 X24.8199 Y28.9187
G01 F60.00
G01 Z-0.0500
G01 F120.00
G01 X24.7346 Y28.9187
G01 X24.7209 Y28.9987
G01 X24.4928 Y28.9987
G00 Z2.0000
G00 X24.4833 Y28.9187
G01 F60.00
G01 Z-0.0500
G01 F120.00
G01 X24.4096 Y28.9187
G01 X24.3838 Y28.8387
G01 X24.4503 Y28.8387
G00 Z2.0000
G00 X24.4315 Y28.7587
G01 F60.00
G01 Z-0.0500
G01 F120.00
G01 X24.3682 Y28.7587
G01 X24.3682 Y28.6787
G01 X24.4315 Y28.6787
G01 X24.4315 Y28.5933
G01 X24.4315 Y28.7694
G01 X24.4322 Y28.7790
G01 X24.4347 Y28.7903
G01 X24.4675 Y28.8920
G01 X24.4700 Y28.8985
G01 X24.4737 Y28.9059
G01 X24.4782 Y28.9126
G01 X24.4836 Y28.9189
G01 X24.4897 Y28.9246
G01 X24.4972 Y28.9300
G01 X24.5034 Y28.9334
G01 X24.5481 Y28.9552
G01 X24.5575 Y28.9588
G01 X24.5676 Y28.9612
G01 X24.5772 Y28.9620
G01 X24.6365 Y28.9620
G01 X24.6429 Y28.9616
G01 X24.6492 Y28.9606
G01 X24.6573 Y28.9585
G01 X24.6642 Y28.9558
G01 X24.7234 Y28.9268
G01 X24.7306 Y28.9219
G01 X24.7370 Y28.9163
G01 X24.7427 Y28.9100
G01 X24.7477 Y28.9029
G01 X24.7831 Y28.8343
G01 X24.7869 Y28.8249
G01 X24.8181 Y28.6981
G01 X24.8194 Y28.6904
G01 X24.8199 Y28.6825
G01 X24.8194 Y28.6746
G01 X24.8181 Y28.6670
G01 X24.7869 Y28.5401
G01 X24.7831 Y28.5307
G01 X24.7477 Y28.4621
G01 X24.7427 Y28.4550
G01 X24.7370 Y28.4487
G01 X24.7306 Y28.4431
G01 X24.7234 Y28.4382
G01 X24.6642 Y28.4092
G01 X24.6562 Y28.4062
G01 X24.6481 Y28.4042
G01 X24.6365 Y28.4030
G01 X24.5783 Y28.4030
G01 X24.5708 Y28.4034
G01 X24.5636 Y28.4046
G01 X24.5564 Y28.4065
G01 X24.5485 Y28.4097
G01 X24.5021 Y28.4323
G01 X24.4941 Y28.4371
G01 X24.4859 Y28.4436
G01 X24.4788 Y28.4514
G01 X24.4730 Y28.4601
G01 X24.4686 Y28.4693
G01 X24.4342 Y28.5739
G01 X24.4328 Y28.5800
G01 X24.4319 Y28.5860
G01 X24.4315 Y28.5908
G01 X24.4315 Y28.5933
G01 X24.4315 Y28.5987
G01 X24.3682 Y28.5987
G01 X24.3682 Y28.5771
G01 X24.3690 Y28.5703
G01 X24.3703 Y28.5656
G01 X24.4200 Y28.4140
G01 X24.4218 Y28.4094
G01 X24.4249 Y28.4039
G01 X24.4290 Y28.3991
G01 X24.4340 Y28.3953
G01 X24.5395 Y28.3436
G01 X24.5463 Y28.3409
G01 X24.5519 Y28.3399
G01 X24.5564 Y28.3397
G01 X24.6573 Y28.3397
G01 X24.6646 Y28.3403
G01 X24.6701 Y28.3418
G01 X24.6742 Y28.3436
G01 X24.7755 Y28.3930
G01 X24.7819 Y28.3968
G01 X24.7862 Y28.4007
G01 X24.7897 Y28.4052
G01 X24.7999 Y28.4245
G01 X24.8064 Y28.4338
G01 X24.8102 Y28.4381
G01 X24.8153 Y28.4428
G01 X24.8208 Y28.4470
G01 X24.8256 Y28.4500
G01 X24.8362 Y28.4550
G01 X24.8462 Y28.4578
G01 X24.8577 Y28.4592
G01 X24.8691 Y28.4588
G01 X24.8783 Y28.4570
G01 X24.8881 Y28.4536
G01 X24.8963 Y28.4494
G01 X24.9048 Y28.4435
G01 X24.9099 Y28.4388
G01 X24.9985 Y28.3503
G01 X25.0049 Y28.3449
G01 X25.0093 Y28.3424
G01 X25.1146 Y28.2887
G01 X25.1203 Y28.2870
G01 X25.1279 Y28.2864
G01 X25.2821 Y28.2864
G01 X25.2897 Y28.2870
G01 X25.2954 Y28.2887
G01 X25.2997 Y28.2906
G01 X25.4007 Y28.3424
G01 X25.4051 Y28.3449
G01 X25.4116 Y28.3503
G01 X25.4599 Y28.3986
G01 X25.4648 Y28.4044
G01 X25.4677 Y28.4096
G01 X25.5190 Y28.5655
G01 X25.5209 Y28.5738
G01 X25.5212 Y28.5790
G01 X25.5212 Y28.7836
G01 X25.5209 Y28.7887
G01 X25.5191 Y28.7968
G01 X25.4693 Y28.9510
G01 X25.4664 Y28.9580
G01 X25.4630 Y28.9630
G01 X25.4116 Y29.0148
G01 X25.4051 Y29.0201
G01 X25.4007 Y29.0227
G01 X25.2997 Y29.0744
G01 X25.2926 Y29.0773
G01 X25.2868 Y29.0784
G01 X25.2821 Y29.0787
G01 X25.1279 Y29.0787
G01 X25.1203 Y29.0780
G01 X25.1146 Y29.0763
G01 X25.0093 Y29.0227
G01 X25.0049 Y29.0201
G01 X24.9985 Y29.0148
G01 X24.9099 Y28.9262
G01 X24.9048 Y28.9216
G01 X24.8963 Y28.9156
G01 X24.8870 Y28.9110
G01 X24.8771 Y28.9077
G01 X24.8656 Y28.9059
G01 X24.8542 Y28.9060
G01 X24.8440 Y28.9077
G01 X24.8329 Y28.9114
G01 X24.8237 Y28.9161
G01 X24.8143 Y28.9230
G01 X24.8102 Y28.9270
G01 X24.8056 Y28.9322
G01 X24.7999 Y28.9405
G01 X24.7897 Y28.9598
G01 X24.7862 Y28.9644
G01 X24.7819 Y28.9682
G01 X24.7755 Y28.9720
G01 X24.6701 Y29.0232
G01 X24.6646 Y29.0247
G01 X24.6573 Y29.0253
G01 X24.5564 Y29.0253
G01 X24.5519 Y29.0251
G01 X24.5463 Y29.0241
G01 X24.5395 Y29.0214
G01 X24.4383 Y28.9721
G01 X24.4314 Y28.9679
G01 X24.4290 Y28.9658
G01 X24.4248 Y28.9610
G01 X24.4217 Y28.9555
G01 X24.4200 Y28.9509
G01 X24.3703 Y28.7968
G01 X24.3690 Y28.7919
G01 X24.3682 Y28.7836
G01 X24.3682 Y28.5787
G01 X24.3682 Y28.5771
G01 X24.3857 Y28.5187
G01 X24.4523 Y28.5187
G00 Z2.0000
G00 X24.4119 Y28.4387
G01 F60.00
G01 Z-0.0500
G01 F120.00
G01 X24.4919 Y28.4387
G00 Z2.0000
G00 X24.3738 Y29.3721
G01 F60.00
G01 Z-0.0500
G01 F120.00
G01 X24.4420 Y29.3721
G01 X24.4744 Y29.4521
G01 X24.6526 Y29.4521
G01 X24.6849 Y29.5321
G01 X24.8631 Y29.5321
G01 X24.8955 Y29.6121
G01 X25.0737 Y29.6121
G01 X25.1060 Y29.6921
G01 X25.2842 Y29.6921
G01 X25.2289 Y29.7388
G01 X25.2381 Y29.7431
G01 X25.2466 Y29.7486
G01 X25.2542 Y29.7553
G01 X25.2600 Y29.7621
G01 X25.2650 Y29.7698
G01 X25.2693 Y29.7789
G01 X25.2720 Y29.7874
G01 X25.2737 Y29.7974
G01 X25.2740 Y29.8075
G01 X25.2730 Y29.8164
G01 X25.2705 Y29.8262
G01 X25.2671 Y29.8347
G01 X25.2627 Y29.8425
G01 X25.2566 Y29.8505
G01 X25.2493 Y29.8576
G01 X25.2411 Y29.8636
G01 X25.2353 Y29.8669
G01 X25.2291 Y29.8696
G01 X24.3857 Y30.1922
G01 X24.3805 Y30.1955
G01 X24.3782 Y30.1976
G01 X24.3741 Y30.2022
G01 X24.3710 Y30.2076
G01 X24.3699 Y30.2105
G01 X24.3691 Y30.2135
G01 X24.3683 Y30.2196
G01 X24.3687 Y30.2258
G01 X24.3694 Y30.2288
G01 X24.3716 Y30.2346
G01 X24.3731 Y30.2373
G01 X24.3769 Y30.2422
G01 X24.3792 Y30.2443
G01 X24.3842 Y30.2479
G01 X24.3870 Y30.2493
G01 X24.3928 Y30.2513
G01 X24.3990 Y30.2520
G01 X24.4052 Y30.2516
G01 X24.4128 Y30.2494
G01 X25.4992 Y29.8341
G01 X25.5035 Y29.8322
G01 X25.5079 Y29.8296
G01 X25.5111 Y29.8270
G01 X25.5152 Y29.8223
G01 X25.5178 Y29.8178
G01 X25.5200 Y29.8120
G01 X25.5208 Y29.8080
G01 X25.5211 Y29.8028
G01 X25.5207 Y29.7988
G01 X25.5191 Y29.7928
G01 X25.5168 Y29.7881
G01 X25.5145 Y29.7847
G01 X25.5110 Y29.7808
G01 X25.5079 Y29.7783
G01 X25.5034 Y29.7756
G01 X25.4991 Y29.7737
G01 X24.4127 Y29.3609
G01 X24.4051 Y29.3588
G01 X24.3989 Y29.3583
G01 X24.3928 Y29.3591
G01 X24.3898 Y29.3600
G01 X24.3842 Y29.3625
G01 X24.3791 Y29.3661
G01 X24.3769 Y29.3682
G01 X24.3749 Y29.3706
G01 X24.3731 Y29.3731
G01 X24.3716 Y29.3758
G01 X24.3694 Y29.3816
G01 X24.3684 Y29.3877
G01 X24.3683 Y29.3908
G01 X24.3691 Y29.3970
G01 X24.3699 Y29.4000
G01 X24.3725 Y29.4056
G01 X24.3761 Y29.4106
G01 X24.3782 Y29.4129
G01 X24.3806 Y29.4149
G01 X24.3858 Y29.4182
G01 X24.3902 Y29.4201
G01 X25.2289 Y29.7388
G00 Z2.0000
G00 X25.2663 Y29.7721
G01 F60.00
G01 Z-0.0500
G01 F120.00
G01 X25.4948 Y29.7721
G01 X25.4522 Y29.8521
G01 X25.2551 Y29.8521
G01 X25.2429 Y29.9321
G01 X25.0656 Y29.9321
G01 X25.0337 Y30.0121
G01 X24.8564 Y30.0121
G01 X24.8244 Y30.0921
G01 X24.6471 Y30.0921
G01 X24.6151 Y30.1721
G01 X24.4378 Y30.1721
G00 Z2.0000
G00 X24.6032 Y31.0624
G01 F60.00
G01 Z-0.0500
G01 F120.00
G01 X24.6032 Y30.9991
G01 X24.6832 Y30.9991
G01 X24.6832 Y31.0624
G01 X24.7632 Y31.0624
G01 X24.7632 Y30.9991
G01 X24.8432 Y30.9991
G01 X24.8432 Y31.0624
G00 Z2.0000
G00 X24.9232 Y31.0624
G01 F60.00
G01 Z-0.0500
G01 F120.00
G01 X24.9232 Y30.9990
G00 Z2.0000
G00 X24.9905 Y30.9291
G01 F60.00
G01 Z-0.0500
G01 F120.00
G01 X24.9907 Y30.5603
G01 X24.9919 Y30.5542
G01 X24.9943 Y30.5485
G01 X24.9977 Y30.5434
G01 X25.0021 Y30.5390
G01 X25.0046 Y30.5371
G01 X25.0073 Y30.5355
G01 X25.0130 Y30.5332
G01 X25.0190 Y30.5320
G01 X25.0252 Y30.5320
G01 X25.0283 Y30.5324
G01 X25.0342 Y30.5342
G01 X25.0397 Y30.5371
G01 X25.0445 Y30.5411
G01 X25.0484 Y30.5458
G01 X25.0513 Y30.5513
G01 X25.0531 Y30.5572
G01 X25.0536 Y30.5603
G01 X25.0539 Y30.9328
G01 X25.0545 Y30.9394
G01 X25.0559 Y30.9461
G01 X25.0579 Y30.9527
G01 X25.0600 Y30.9579
G01 X25.0626 Y30.9632
G01 X25.0663 Y30.9690
G01 X25.0697 Y30.9735
G01 X25.0743 Y30.9786
G01 X25.0794 Y30.9832
G01 X25.0839 Y30.9866
G01 X25.0897 Y30.9902
G01 X25.0950 Y30.9929
G01 X25.1002 Y30.9950
G01 X25.1068 Y30.9970
G01 X25.1135 Y30.9983
G01 X25.1200 Y30.9990
G01 X25.4926 Y30.9993
G01 X25.4987 Y31.0005
G01 X25.5044 Y31.0029
G01 X25.5095 Y31.0063
G01 X25.5139 Y31.0107
G01 X25.5173 Y31.0159
G01 X25.5187 Y31.0187
G01 X25.5205 Y31.0246
G01 X25.5211 Y31.0307
G01 X25.5205 Y31.0369
G01 X25.5187 Y31.0428
G01 X25.5157 Y31.0483
G01 X25.5118 Y31.0531
G01 X25.5070 Y31.0570
G01 X25.5016 Y31.0599
G01 X25.4957 Y31.0617
G01 X25.4926 Y31.0622
G01 X25.1200 Y31.0625
G01 X25.1135 Y31.0631
G01 X25.1080 Y31.0642
G01 X25.0970 Y31.0677
G01 X25.0908 Y31.0707
G01 X25.0859 Y31.0735
G01 X25.0811 Y31.0769
G01 X25.0759 Y31.0814
G01 X25.0719 Y31.0854
G01 X25.0676 Y31.0907
G01 X25.0637 Y31.0964
G01 X25.0605 Y31.1025
G01 X25.0579 Y31.1088
G01 X25.0559 Y31.1154
G01 X25.0545 Y31.1221
G01 X25.0539 Y31.1286
G01 X25.0538 Y31.4964
G01 X25.0531 Y31.5043
G01 X25.0513 Y31.5102
G01 X25.0500 Y31.5130
G01 X25.0484 Y31.5156
G01 X25.0445 Y31.5204
G01 X25.0422 Y31.5225
G01 X25.0370 Y31.5259
G01 X25.0313 Y31.5283
G01 X25.0252 Y31.5295
G01 X25.0190 Y31.5295
G01 X25.0160 Y31.5291
G01 X25.0101 Y31.5273
G01 X25.0073 Y31.5259
G01 X25.0046 Y31.5244
G01 X25.0021 Y31.5225
G01 X24.9998 Y31.5204
G01 X24.9959 Y31.5156
G01 X24.9930 Y31.5102
G01 X24.9912 Y31.5043
G01 X24.9905 Y31.4964
G01 X24.9903 Y31.1277
G01 X24.9897 Y31.1221
G01 X24.9884 Y31.1154
G01 X24.9864 Y31.1088
G01 X24.9843 Y31.1036
G01 X24.9787 Y31.0935
G01 X24.9746 Y31.0880
G01 X24.9708 Y31.0838
G01 X24.9658 Y31.0791
G01 X24.9604 Y31.0749
G01 X24.9546 Y31.0712
G01 X24.9493 Y31.0686
G01 X24.9441 Y31.0665
G01 X24.9375 Y31.0645
G01 X24.9308 Y31.0631
G01 X24.9242 Y31.0625
G01 X24.5517 Y31.0622
G01 X24.5456 Y31.0609
G01 X24.5399 Y31.0586
G01 X24.5348 Y31.0551
G01 X24.5304 Y31.0508
G01 X24.5270 Y31.0456
G01 X24.5256 Y31.0428
G01 X24.5238 Y31.0369
G01 X24.5232 Y31.0307
G01 X24.5238 Y31.0246
G01 X24.5256 Y31.0187
G01 X24.5285 Y31.0132
G01 X24.5325 Y31.0084
G01 X24.5373 Y31.0045
G01 X24.5427 Y31.0016
G01 X24.5486 Y30.9998
G01 X24.5517 Y30.9993
G01 X24.9242 Y30.9990
G01 X24.9308 Y30.9983
G01 X24.9375 Y30.9970
G01 X24.9441 Y30.9950
G01 X24.9493 Y30.9929
G01 X24.9546 Y30.9902
G01 X24.9604 Y30.9866
G01 X24.9658 Y30.9824
G01 X24.9708 Y30.9777
G01 X24.9746 Y30.9735
G01 X24.9787 Y30.9680
G01 X24.9843 Y30.9579
G01 X24.9864 Y30.9527
G01 X24.9884 Y30.9461
G01 X24.9897 Y30.9394
G01 X24.9903 Y30.9337
G01 X24.9904 Y30.9314
G01 X25.0032 Y30.5382
G01 X25.0032 Y31.5233
G00 Z2.0000
G00 X25.0832 Y30.9861
G01 F60.00
G01 Z-0.0500
G01 F120.00
G01 X25.0832 Y31.0754
G00 Z2.0000
G00 X25.1632 Y30.9991
G01 F60.00
G01 Z-0.0500
G01 F120.00
G01 X25.1632 Y31.0624
G01 X25.2432 Y31.0624
G01 X25.2432 Y30.9991
G01 X25.3232 Y30.9991
G01 X25.3232 Y31.0624
G01 X25.4032 Y31.0624
G01 X25.4032 Y30.9991
G01 X25.4832 Y30.9991
G01 X25.4832 Y31.0624
G00 Z2.0000
G00 X29.8237 Y34.0793
G01 F60.00
G01 Z-0.0500
G01 F120.00
G01 X31.9503 Y34.0793
G01 X31.9601 Y34.1593
G01 X29.8139 Y34.1593
G01 X29.8139 Y34.2393
G01 X29.9281 Y34.2393
G01 X29.9281 Y34.3193
G01 X29.8139 Y34.3193
G01 X29.8139 Y34.3993
G01 X29.9281 Y34.3993
G01 X29.9281 Y34.4793
G01 X29.8139 Y34.4793
G01 X29.8139 Y34.5593
G01 X29.9281 Y34.5593
G01 X29.9281 Y34.6393
G01 X29.8139 Y34.6393
G01 X29.8139 Y34.7193
G01 X29.9281 Y34.7193
G01 X29.9281 Y34.7993
G01 X29.8139 Y34.7993
G01 X29.8139 Y34.8793
G01 X29.9281 Y34.8793
G01 X29.9281 Y34.9593
G01 X29.8139 Y34.9593
G01 X29.8139 Y35.0393
G01 X29.9281 Y35.0393
G01 X29.9281 Y35.1193
G01 X29.8139 Y35.1193
G01 X29.8139 Y35.1993
G01 X29.9281 Y35.1993
G01 X29.9281 Y35.2793
G01 X29.8139 Y35.2793
G01 X29.8139 Y35.3593
G01 X29.9281 Y35.3593
G01 X29.9281 Y35.4393
G01 X29.8139 Y35.4393
G01 X29.8139 Y35.5193
G01 X29.9281 Y35.5193
G01 X29.9281 Y35.5993
G01 X29.8139 Y35.5993
G01 X29.8139 Y35.6793
G01 X29.9281 Y35.6793
G01 X29.9281 Y35.7593
G01 X29.8139 Y35.7593
G01 X29.8139 Y35.8393
G01 X29.9281 Y35.8393
G01 X29.9281 Y35.9193
G01 X29.8139 Y35.9193
G01 X29.8139 Y35.9993
G01 X29.9281 Y35.9993
G01 X29.9281 Y36.0793
G01 X29.8139 Y36.0793
G01 X29.8139 Y36.1593
G01 X29.9281 Y36.1593
G01 X29.9281 Y36.2393
G01 X29.8139 Y36.2393
G01 X29.8139 Y36.3193
G01 X29.9281 Y36.3193
G01 X29.9281 Y36.3993
G01 X29.8139 Y36.3993
G01 X29.8139 Y36.4793
G01 X29.9281 Y36.4793
G01 X29.9281 Y36.5593
G01 X29.8139 Y36.5593
G00 Z2.0000
G00 X29.8075 Y36.6393
G01 F60.00
G01 Z-0.0500
G01 F120.00
G01 X29.9345 Y36.6393
G00 Z2.0000
G00 X31.8395 Y36.6393
G01 F60.00
G01 Z-0.0500
G01 F120.00
G01 X31.9665 Y36.6393
G00 Z2.0000
G00 X31.9601 Y36.5593
G01 F60.00
G01 Z-0.0500
G01 F120.00
G01 X31.8459 Y36.5593
G01 X31.8459 Y36.6099
G01 X31.8456 Y36.6168
G01 X31.8446 Y36.6236
G01 X31.8429 Y36.6303
G01 X31.8406 Y36.6367
G01 X31.8371 Y36.6440
G01 X31.8322 Y36.6516
G01 X31.8263 Y36.6586
G01 X31.8194 Y36.6648
G01 X31.8119 Y36.6700
G01 X31.8047 Y36.6737
G01 X31.7963 Y36.6769
G01 X31.7874 Y36.6790
G01 X31.7783 Y36.6799
G01 X29.9957 Y36.6799
G01 X29.9890 Y36.6794
G01 X29.9822 Y36.6781
G01 X29.9766 Y36.6766
G01 X29.9701 Y36.6741
G01 X29.9651 Y36.6717
G01 X29.9592 Y36.6681
G01 X29.9537 Y36.6641
G01 X29.9486 Y36.6594
G01 X29.9440 Y36.6544
G01 X29.9399 Y36.6488
G01 X29.9363 Y36.6429
G01 X29.9339 Y36.6379
G01 X29.9314 Y36.6314
G01 X29.9299 Y36.6258
G01 X29.9287 Y36.6190
G01 X29.9281 Y36.6123
G01 X29.9281 Y34.2374
G01 X29.9284 Y34.2312
G01 X29.9294 Y34.2244
G01 X29.9326 Y34.2133
G01 X29.9348 Y34.2081
G01 X29.9380 Y34.2021
G01 X29.9447 Y34.1927
G01 X29.9494 Y34.1877
G01 X29.9554 Y34.1826
G01 X29.9621 Y34.1780
G01 X29.9681 Y34.1748
G01 X29.9745 Y34.1722
G01 X29.9822 Y34.1699
G01 X29.9900 Y34.1685
G01 X29.9970 Y34.1681
G01 X31.7759 Y34.1681
G01 X31.7840 Y34.1685
G01 X31.7918 Y34.1699
G01 X31.7995 Y34.1722
G01 X31.8059 Y34.1748
G01 X31.8130 Y34.1787
G01 X31.8194 Y34.1832
G01 X31.8254 Y34.1886
G01 X31.8308 Y34.1946
G01 X31.8371 Y34.2040
G01 X31.8418 Y34.2145
G01 X31.8448 Y34.2256
G01 X31.8456 Y34.2312
G01 X31.8459 Y34.2374
G01 X31.8459 Y36.6099
G01 X31.8459 Y36.4793
G01 X31.9601 Y36.4793
G01 X31.9601 Y36.3993
G01 X31.8459 Y36.3993
G01 X31.8459 Y36.3193
G01 X31.9601 Y36.3193
G01 X31.9601 Y36.2393
G01 X31.8459 Y36.2393
G01 X31.8459 Y36.1593
G01 X31.9601 Y36.1593
G01 X31.9601 Y36.0793
G01 X31.8459 Y36.0793
G01 X31.8459 Y35.9993
G01 X31.9601 Y35.9993
G01 X31.9601 Y35.9193
G01 X31.8459 Y35.9193
G01 X31.8459 Y35.8393
G01 X31.9601 Y35.8393
G01 X31.9601 Y35.7593
G01 X31.8459 Y35.7593
G01 X31.8459 Y35.6793
G01 X31.9601 Y35.6793
G01 X31.9601 Y35.5993
G01 X31.8459 Y35.5993
G01 X31.8459 Y35.5193
G01 X31.9601 Y35.5193
G01 X31.9601 Y35.4393
G01 X31.8459 Y35.4393
G01 X31.8459 Y35.3593
G01 X31.9601 Y35.3593
G01 X31.9601 Y35.2793
G01 X31.8459 Y35.2793
G01 X31.8459 Y35.1993
G01 X31.9601 Y35.1993
G01 X31.9601 Y35.1193
G01 X31.8459 Y35.1193
G01 X31.8459 Y35.0393
G01 X31.9601 Y35.0393
G01 X31.9601 Y34.9593
G01 X31.8459 Y34.9593
G01 X31.8459 Y34.8793
G01 X31.9601 Y34.8793
G01 X31.9601 Y34.7993
G01 X31.8459 Y34.7993
G01 X31.8459 Y34.7193
G01 X31.9601 Y34.7193
G01 X31.9601 Y34.6393
G01 X31.8459 Y34.6393
G01 X31.8459 Y34.5593
G01 X31.9601 Y34.5593
G01 X31.9601 Y34.4793
G01 X31.8459 Y34.4793
G01 X31.8459 Y34.3993
G01 X31.9601 Y34.3993
G01 X31.9601 Y34.3193
G01 X31.8459 Y34.3193
G01 X31.8459 Y34.2393
G01 X31.9601 Y34.2393
G00 Z2.0000
G00 X36.2024 Y36.7993
G01 F60.00
G01 Z-0.0500
G01 F120.00
G01 X36.3601 Y36.7993
G01 X36.3601 Y36.8793
G01 X36.2459 Y36.8793
G01 X36.2459 Y36.9593
G01 X36.3601 Y36.9593
G01 X36.3601 Y37.0393
G01 X36.2459 Y37.0393
G01 X36.2459 Y37.1193
G01 X36.3601 Y37.1193
G01 X36.3601 Y37.1993
G01 X36.2459 Y37.1993
G01 X36.3571 Y36.7193
G01 X27.4489 Y36.7193
G01 X27.4459 Y36.7387
G01 X27.4459 Y37.2205
G01 X27.4463 Y37.2278
G01 X27.4471 Y37.2334
G01 X27.4485 Y37.2388
G01 X27.4504 Y37.2441
G01 X27.4528 Y37.2491
G01 X27.4556 Y37.2539
G01 X27.4590 Y37.2584
G01 X27.4627 Y37.2625
G01 X27.4669 Y37.2663
G01 X27.4714 Y37.2696
G01 X27.4762 Y37.2725
G01 X27.4812 Y37.2749
G01 X27.4865 Y37.2768
G01 X27.4919 Y37.2781
G01 X27.4974 Y37.2790
G01 X27.5030 Y37.2792
G01 X27.5086 Y37.2790
G01 X27.5141 Y37.2781
G01 X27.5196 Y37.2768
G01 X27.5248 Y37.2749
G01 X27.5299 Y37.2725
G01 X27.5347 Y37.2696
G01 X27.5392 Y37.2663
G01 X27.5433 Y37.2625
G01 X27.5471 Y37.2584
G01 X27.5504 Y37.2539
G01 X27.5533 Y37.2491
G01 X27.5557 Y37.2441
G01 X27.5575 Y37.2388
G01 X27.5589 Y37.2334
G01 X27.5597 Y37.2278
G01 X27.5601 Y37.2205
G01 X27.5601 Y36.8641
G01 X27.5610 Y36.8526
G01 X27.5622 Y36.8471
G01 X27.5642 Y36.8405
G01 X27.5668 Y36.8341
G01 X27.5694 Y36.8291
G01 X27.5760 Y36.8197
G01 X27.5806 Y36.8146
G01 X27.5847 Y36.8108
G01 X27.5902 Y36.8066
G01 X27.5951 Y36.8034
G01 X27.6001 Y36.8008
G01 X27.6065 Y36.7982
G01 X27.6176 Y36.7952
G01 X27.6232 Y36.7944
G01 X27.6301 Y36.7941
G01 X36.1788 Y36.7941
G01 X36.1850 Y36.7947
G01 X36.1908 Y36.7957
G01 X36.1963 Y36.7971
G01 X36.2027 Y36.7994
G01 X36.2130 Y36.8047
G01 X36.2176 Y36.8078
G01 X36.2229 Y36.8122
G01 X36.2278 Y36.8171
G01 X36.2314 Y36.8214
G01 X36.2377 Y36.8311
G01 X36.2406 Y36.8373
G01 X36.2426 Y36.8426
G01 X36.2452 Y36.8538
G01 X36.2459 Y36.8641
G01 X36.2459 Y37.2205
G01 X36.2463 Y37.2278
G01 X36.2471 Y37.2334
G01 X36.2485 Y37.2388
G01 X36.2504 Y37.2441
G01 X36.2527 Y37.2491
G01 X36.2556 Y37.2539
G01 X36.2590 Y37.2584
G01 X36.2627 Y37.2625
G01 X36.2669 Y37.2663
G01 X36.2713 Y37.2696
G01 X36.2761 Y37.2725
G01 X36.2812 Y37.2749
G01 X36.2865 Y37.2768
G01 X36.2919 Y37.2781
G01 X36.2974 Y37.2790
G01 X36.3030 Y37.2792
G01 X36.3086 Y37.2790
G01 X36.3141 Y37.2781
G01 X36.3195 Y37.2768
G01 X36.3248 Y37.2749
G01 X36.3299 Y37.2725
G01 X36.3347 Y37.2696
G01 X36.3391 Y37.2663
G01 X36.3433 Y37.2625
G01 X36.3470 Y37.2584
G01 X36.3504 Y37.2539
G01 X36.3533 Y37.2491
G01 X36.3556 Y37.2441
G01 X36.3575 Y37.2388
G01 X36.3589 Y37.2334
G01 X36.3597 Y37.2278
G01 X36.3601 Y37.2205
G01 X36.3601 Y36.7387
G01 X36.3597 Y36.7314
G01 X36.3589 Y36.7259
G01 X36.3575 Y36.7205
G01 X36.3556 Y36.7152
G01 X36.3533 Y36.7102
G01 X36.3504 Y36.7054
G01 X36.3470 Y36.7009
G01 X36.3433 Y36.6967
G01 X36.3391 Y36.6930
G01 X36.3347 Y36.6896
G01 X36.3299 Y36.6868
G01 X36.3248 Y36.6844
G01 X36.3195 Y36.6825
G01 X36.3141 Y36.6811
G01 X36.3086 Y36.6803
G01 X36.3013 Y36.6799
G01 X32.0301 Y36.6799
G01 X32.0220 Y36.6795
G01 X32.0142 Y36.6781
G01 X32.0065 Y36.6759
G01 X31.9990 Y36.6727
G01 X31.9912 Y36.6681
G01 X31.9831 Y36.6618
G01 X31.9760 Y36.6544
G01 X31.9707 Y36.6470
G01 X31.9663 Y36.6388
G01 X31.9631 Y36.6303
G01 X31.9608 Y36.6202
G01 X31.9601 Y36.6111
G01 X31.9601 Y34.1127
G01 X31.9597 Y34.1054
G01 X31.9589 Y34.0999
G01 X31.9575 Y34.0945
G01 X31.9556 Y34.0892
G01 X31.9533 Y34.0841
G01 X31.9504 Y34.0793
G01 X31.9470 Y34.0749
G01 X31.9433 Y34.0707
G01 X31.9391 Y34.0670
G01 X31.9347 Y34.0636
G01 X31.9299 Y34.0607
G01 X31.9248 Y34.0584
G01 X31.9195 Y34.0565
G01 X31.9141 Y34.0551
G01 X31.9086 Y34.0543
G01 X31.9013 Y34.0539
G01 X29.8727 Y34.0539
G01 X29.8654 Y34.0543
G01 X29.8599 Y34.0551
G01 X29.8545 Y34.0565
G01 X29.8492 Y34.0584
G01 X29.8441 Y34.0607
G01 X29.8393 Y34.0636
G01 X29.8349 Y34.0670
G01 X29.8307 Y34.0707
G01 X29.8270 Y34.0749
G01 X29.8236 Y34.0793
G01 X29.8207 Y34.0841
G01 X29.8184 Y34.0892
G01 X29.8165 Y34.0945
G01 X29.8151 Y34.0999
G01 X29.8143 Y34.1054
G01 X29.8139 Y34.1127
G01 X29.8139 Y36.6106
G01 X29.8136 Y36.6168
G01 X29.8128 Y36.6224
G01 X29.8098 Y36.6335
G01 X29.8072 Y36.6399
G01 X29.8046 Y36.6449
G01 X29.7980 Y36.6544
G01 X29.7926 Y36.6603
G01 X29.7866 Y36.6654
G01 X29.7799 Y36.6700
G01 X29.7739 Y36.6732
G01 X29.7675 Y36.6759
G01 X29.7598 Y36.6781
G01 X29.7520 Y36.6795
G01 X29.7450 Y36.6799
G01 X27.5047 Y36.6799
G01 X27.4974 Y36.6803
G01 X27.4919 Y36.6811
G01 X27.4865 Y36.6825
G01 X27.4812 Y36.6844
G01 X27.4762 Y36.6868
G01 X27.4714 Y36.6896
G01 X27.4669 Y36.6930
G01 X27.4627 Y36.6967
G01 X27.4590 Y36.7009
G01 X27.4556 Y36.7054
G01 X27.4528 Y36.7102
G01 X27.4504 Y36.7152
G01 X27.4485 Y36.7205
G01 X27.4471 Y36.7259
G01 X27.4463 Y36.7314
G01 X27.4459 Y36.7387
G01 X27.4459 Y36.7993
G01 X27.6036 Y36.7993
G00 Z2.0000
G00 X27.5601 Y36.8793
G01 F60.00
G01 Z-0.0500
G01 F120.00
G01 X27.4459 Y36.8793
G01 X27.4459 Y36.9593
G01 X27.5601 Y36.9593
G01 X27.5601 Y37.0393
G01 X27.4459 Y37.0393
G01 X27.4459 Y37.1193
G01 X27.5601 Y37.1193
G01 X27.5601 Y37.1993
G01 X27.4459 Y37.1993
G00 Z2.0000
G00 X24.8455 Y38.6423
G01 F60.00
G01 Z-0.0500
G01 F120.00
G01 X24.8448 Y38.6344
G01 X24.8430 Y38.6285
G01 X24.8401 Y38.6230
G01 X24.8362 Y38.6182
G01 X24.8314 Y38.6143
G01 X24.8259 Y38.6114
G01 X24.8200 Y38.6096
G01 X24.8139 Y38.6090
G01 X24.8077 Y38.6096
G01 X24.8018 Y38.6114
G01 X24.7963 Y38.6143
G01 X24.7915 Y38.6182
G01 X24.7876 Y38.6230
G01 X24.7847 Y38.6285
G01 X24.7829 Y38.6344
G01 X24.7822 Y38.6423
G01 X24.7822 Y39.5736
G01 X24.7829 Y39.5814
G01 X24.7847 Y39.5874
G01 X24.7876 Y39.5928
G01 X24.7915 Y39.5976
G01 X24.7963 Y39.6015
G01 X24.8018 Y39.6045
G01 X24.8077 Y39.6062
G01 X24.8139 Y39.6069
G01 X24.8200 Y39.6062
G01 X24.8259 Y39.6045
G01 X24.8314 Y39.6015
G01 X24.8362 Y39.5976
G01 X24.8401 Y39.5928
G01 X24.8430 Y39.5874
G01 X24.8448 Y39.5814
G01 X24.8455 Y39.5736
G01 X24.8455 Y38.6423
G00 Z2.0000
G00 X25.4678 Y39.9563
G01 F60.00
G01 Z-0.0500
G01 F120.00
G01 X25.4045 Y39.9563
G01 X25.4045 Y40.0363
G01 X25.4678 Y40.0363
G01 X25.4678 Y40.1163
G01 X25.4045 Y40.1163
G00 Z2.0000
G00 X25.4025 Y40.1963
G01 F60.00
G01 Z-0.0500
G01 F120.00
G01 X25.4678 Y40.1963
G01 X25.4678 Y40.5963
G01 X25.4045 Y40.5963
G01 X25.4045 Y40.5163
G01 X25.4678 Y40.5163
G01 X25.4678 Y40.4363
G01 X25.4045 Y40.4363
G00 Z2.0000
G00 X25.3992 Y40.3563
G01 F60.00
G01 Z-0.0500
G01 F120.00
G01 X25.4678 Y40.3563
G01 X25.4678 Y40.2763
G01 X24.3154 Y40.2763
G01 X24.3482 Y40.2498
G01 X25.3345 Y40.2498
G01 X25.3414 Y40.2494
G01 X25.3470 Y40.2486
G01 X25.3581 Y40.2457
G01 X25.3664 Y40.2421
G01 X25.3734 Y40.2380
G01 X25.3806 Y40.2324
G01 X25.3864 Y40.2268
G01 X25.3920 Y40.2197
G01 X25.3962 Y40.2128
G01 X25.4000 Y40.2045
G01 X25.4027 Y40.1956
G01 X25.4040 Y40.1879
G01 X25.4045 Y40.1804
G01 X25.4047 Y39.9151
G01 X25.4060 Y39.9090
G01 X25.4083 Y39.9033
G01 X25.4118 Y39.8982
G01 X25.4161 Y39.8938
G01 X25.4213 Y39.8904
G01 X25.4270 Y39.8880
G01 X25.4331 Y39.8868
G01 X25.4393 Y39.8868
G01 X25.4453 Y39.8880
G01 X25.4510 Y39.8904
G01 X25.4562 Y39.8938
G01 X25.4606 Y39.8982
G01 X25.4640 Y39.9033
G01 X25.4664 Y39.9090
G01 X25.4676 Y39.9151
G01 X25.4678 Y39.9199
G01 X25.4678 Y40.6429
G01 X25.4676 Y40.6477
G01 X25.4664 Y40.6538
G01 X25.4640 Y40.6595
G01 X25.4624 Y40.6622
G01 X25.4585 Y40.6670
G01 X25.4537 Y40.6709
G01 X25.4482 Y40.6738
G01 X25.4453 Y40.6748
G01 X25.4393 Y40.6760
G01 X25.4331 Y40.6760
G01 X25.4300 Y40.6756
G01 X25.4241 Y40.6738
G01 X25.4186 Y40.6709
G01 X25.4138 Y40.6670
G01 X25.4099 Y40.6622
G01 X25.4070 Y40.6567
G01 X25.4052 Y40.6508
G01 X25.4045 Y40.6429
G01 X25.4045 Y40.3831
G01 X25.4039 Y40.3740
G01 X25.4021 Y40.3649
G01 X25.3992 Y40.3563
G01 X25.3952 Y40.3481
G01 X25.3900 Y40.3404
G01 X25.3840 Y40.3336
G01 X25.3762 Y40.3268
G01 X25.3686 Y40.3219
G01 X25.3602 Y40.3179
G01 X25.3548 Y40.3161
G01 X25.3482 Y40.3144
G01 X25.3414 Y40.3134
G01 X25.3345 Y40.3131
G01 X24.3434 Y40.3128
G01 X24.3373 Y40.3116
G01 X24.3316 Y40.3093
G01 X24.3265 Y40.3058
G01 X24.3221 Y40.3014
G01 X24.3187 Y40.2963
G01 X24.3163 Y40.2906
G01 X24.3151 Y40.2845
G01 X24.3151 Y40.2783
G01 X24.3155 Y40.2753
G01 X24.3163 Y40.2723
G01 X24.3187 Y40.2665
G01 X24.3221 Y40.2614
G01 X24.3265 Y40.2570
G01 X24.3316 Y40.2536
G01 X24.3373 Y40.2512
G01 X24.3434 Y40.2500
G01 X24.3482 Y40.2498
G00 Z2.0000
G00 X25.2322 Y41.2922
G01 F60.00
G01 Z-0.0500
G01 F120.00
G01 X25.0549 Y41.2922
G01 X25.0229 Y41.2122
G01 X24.8457 Y41.2122
G01 X24.8137 Y41.1322
G01 X24.6362 Y41.1322
G01 X24.6044 Y41.0522
G01 X24.4271 Y41.0522
G01 X24.3952 Y40.9722
G01 X24.3189 Y40.9722
G00 Z2.0000
G00 X25.2138 Y41.3722
G01 F60.00
G01 Z-0.0500
G01 F120.00
G01 X25.4415 Y41.3722
G01 X25.3989 Y41.4522
G01 X25.2023 Y41.4522
G01 X25.1896 Y41.5322
G01 X25.0123 Y41.5322
G01 X24.9803 Y41.6122
G01 X24.6781 Y41.6122
G00 Z2.0000
G00 X24.6781 Y41.5322
G01 F60.00
G01 Z-0.0500
G01 F120.00
G01 X24.7414 Y41.5322
G01 X24.7414 Y41.4522
G01 X24.6781 Y41.4522
G01 X24.6781 Y41.3722
G01 X24.7414 Y41.3722
G01 X24.7414 Y41.2922
G01 X24.6781 Y41.2922
G01 X24.6781 Y41.2122
G01 X24.7786 Y41.2122
G00 Z2.0000
G00 X24.8364 Y41.5995
G01 F60.00
G01 Z-0.0500
G01 F120.00
G01 X24.8299 Y41.6016
G01 X24.8221 Y41.6033
G01 X24.8144 Y41.6040
G01 X24.8064 Y41.6039
G01 X24.7985 Y41.6029
G01 X24.7910 Y41.6011
G01 X24.7835 Y41.5983
G01 X24.7764 Y41.5947
G01 X24.7699 Y41.5905
G01 X24.7638 Y41.5854
G01 X24.7590 Y41.5806
G01 X24.7541 Y41.5743
G01 X24.7500 Y41.5678
G01 X24.7466 Y41.5605
G01 X24.7440 Y41.5530
G01 X24.7423 Y41.5454
G01 X24.7414 Y41.5341
G01 X24.7414 Y41.2741
G01 X24.7417 Y41.2673
G01 X24.7431 Y41.2585
G01 X24.7453 Y41.2508
G01 X24.7484 Y41.2434
G01 X24.7522 Y41.2367
G01 X24.7568 Y41.2302
G01 X24.7622 Y41.2243
G01 X24.7680 Y41.2191
G01 X24.7745 Y41.2146
G01 X24.7804 Y41.2113
G01 X24.7878 Y41.2082
G01 X24.7952 Y41.2060
G01 X24.8031 Y41.2046
G01 X24.8110 Y41.2041
G01 X24.8188 Y41.2045
G01 X24.8266 Y41.2058
G01 X24.8342 Y41.2079
G01 X25.1786 Y41.3396
G01 X25.1886 Y41.3447
G01 X25.1967 Y41.3507
G01 X25.2040 Y41.3578
G01 X25.2107 Y41.3668
G01 X25.2135 Y41.3716
G01 X25.2163 Y41.3778
G01 X25.2186 Y41.3841
G01 X25.2202 Y41.3907
G01 X25.2212 Y41.3974
G01 X25.2215 Y41.4041
G01 X25.2212 Y41.4108
G01 X25.2202 Y41.4175
G01 X25.2186 Y41.4241
G01 X25.2163 Y41.4304
G01 X25.2135 Y41.4366
G01 X25.2107 Y41.4414
G01 X25.2069 Y41.4469
G01 X25.2031 Y41.4513
G01 X25.1984 Y41.4561
G01 X25.1931 Y41.4604
G01 X25.1856 Y41.4652
G01 X25.1770 Y41.4693
G01 X24.8364 Y41.5995
G01 X24.7710 Y41.6922
G01 X24.5938 Y41.6922
G01 X24.5618 Y41.7722
G01 X24.3845 Y41.7722
G01 X24.3368 Y41.7905
G01 X24.3297 Y41.7939
G01 X24.3248 Y41.7977
G01 X24.3207 Y41.8024
G01 X24.3191 Y41.8050
G01 X24.3166 Y41.8107
G01 X24.3157 Y41.8136
G01 X24.3149 Y41.8198
G01 X24.3154 Y41.8260
G01 X24.3161 Y41.8290
G01 X24.3183 Y41.8348
G01 X24.3216 Y41.8400
G01 X24.3258 Y41.8445
G01 X24.3309 Y41.8481
G01 X24.3365 Y41.8506
G01 X24.3425 Y41.8520
G01 X24.3487 Y41.8521
G01 X24.3548 Y41.8511
G01 X24.3594 Y41.8496
G01 X25.4459 Y41.4343
G01 X25.4519 Y41.4315
G01 X25.4569 Y41.4279
G01 X25.4612 Y41.4234
G01 X25.4645 Y41.4181
G01 X25.4666 Y41.4123
G01 X25.4677 Y41.4062
G01 X25.4675 Y41.4000
G01 X25.4661 Y41.3940
G01 X25.4629 Y41.3874
G01 X25.4578 Y41.3811
G01 X25.4529 Y41.3773
G01 X25.4459 Y41.3739
G01 X24.3594 Y40.9586
G01 X24.3548 Y40.9571
G01 X24.3487 Y40.9560
G01 X24.3425 Y40.9562
G01 X24.3365 Y40.9576
G01 X24.3309 Y40.9601
G01 X24.3282 Y40.9618
G01 X24.3236 Y40.9658
G01 X24.3216 Y40.9682
G01 X24.3183 Y40.9734
G01 X24.3170 Y40.9763
G01 X24.3154 Y40.9822
G01 X24.3150 Y40.9853
G01 X24.3152 Y40.9915
G01 X24.3157 Y40.9945
G01 X24.3177 Y41.0004
G01 X24.3191 Y41.0032
G01 X24.3227 Y41.0082
G01 X24.3248 Y41.0105
G01 X24.3297 Y41.0142
G01 X24.3368 Y41.0177
G01 X24.6331 Y41.1310
G01 X24.6406 Y41.1344
G01 X24.6485 Y41.1392
G01 X24.6557 Y41.1451
G01 X24.6623 Y41.1520
G01 X24.6677 Y41.1596
G01 X24.6725 Y41.1690
G01 X24.6755 Y41.1777
G01 X24.6774 Y41.1871
G01 X24.6781 Y41.1964
G01 X24.6781 Y41.6130
G01 X24.6773 Y41.6223
G01 X24.6755 Y41.6304
G01 X24.6725 Y41.6392
G01 X24.6688 Y41.6466
G01 X24.6623 Y41.6561
G01 X24.6541 Y41.6646
G01 X24.6456 Y41.6709
G01 X24.6357 Y41.6761
G01 X24.3368 Y41.7905
G00 Z2.0000
G00 X24.4165 Y42.2017
G01 F60.00
G01 Z-0.0500
G01 F120.00
G01 X24.5464 Y42.2017
G00 Z2.0000
G00 X24.4290 Y42.2817
G01 F60.00
G01 Z-0.0500
G01 F120.00
G01 X24.3594 Y42.2817
G01 X24.3332 Y42.3617
G01 X24.3998 Y42.3617
G00 Z2.0000
G00 X24.3782 Y42.4417
G01 F60.00
G01 Z-0.0500
G01 F120.00
G01 X24.3148 Y42.4417
G01 X24.3148 Y42.5217
G01 X24.3782 Y42.5217
G01 X24.3782 Y42.6017
G01 X24.3148 Y42.6017
G01 X24.3148 Y42.6817
G01 X24.3782 Y42.6817
G01 X24.3782 Y42.7617
G01 X24.3148 Y42.7617
G01 X24.3148 Y42.8417
G01 X24.4028 Y42.8417
G00 Z2.0000
G00 X24.4482 Y42.8583
G01 F60.00
G01 Z-0.0500
G01 F120.00
G01 X24.4413 Y42.8580
G01 X24.4345 Y42.8570
G01 X24.4278 Y42.8553
G01 X24.4225 Y42.8535
G01 X24.4162 Y42.8506
G01 X24.4111 Y42.8477
G01 X24.4055 Y42.8438
G01 X24.4002 Y42.8394
G01 X24.3963 Y42.8354
G01 X24.3919 Y42.8300
G01 X24.3881 Y42.8243
G01 X24.3849 Y42.8183
G01 X24.3822 Y42.8119
G01 X24.3802 Y42.8054
G01 X24.3789 Y42.7986
G01 X24.3783 Y42.7921
G01 X24.3782 Y42.4389
G01 X24.3784 Y42.4328
G01 X24.3794 Y42.4255
G01 X24.3814 Y42.4177
G01 X24.4211 Y42.2970
G01 X24.4232 Y42.2917
G01 X24.4261 Y42.2862
G01 X24.4294 Y42.2810
G01 X24.4332 Y42.2760
G01 X24.4591 Y42.2487
G01 X24.4678 Y42.2412
G01 X24.4729 Y42.2378
G01 X24.4779 Y42.2350
G01 X24.5450 Y42.2023
G01 X24.5509 Y42.1998
G01 X24.5620 Y42.1966
G01 X24.5736 Y42.1952
G01 X24.6906 Y42.1953
G01 X24.6969 Y42.1960
G01 X24.7031 Y42.1973
G01 X24.7092 Y42.1991
G01 X24.7146 Y42.2012
G01 X24.7881 Y42.2372
G01 X24.7951 Y42.2419
G01 X24.8018 Y42.2476
G01 X24.8285 Y42.2757
G01 X24.8356 Y42.2854
G01 X24.8385 Y42.2908
G01 X24.8411 Y42.2966
G01 X24.8833 Y42.4193
G01 X24.8856 Y42.4295
G01 X24.8863 Y42.4389
G01 X24.8863 Y42.7890
G01 X24.8858 Y42.7974
G01 X24.8843 Y42.8054
G01 X24.8818 Y42.8131
G01 X24.8786 Y42.8203
G01 X24.8739 Y42.8283
G01 X24.8682 Y42.8354
G01 X24.8624 Y42.8410
G01 X24.8552 Y42.8466
G01 X24.8483 Y42.8506
G01 X24.8399 Y42.8543
G01 X24.8322 Y42.8565
G01 X24.8232 Y42.8580
G01 X24.8163 Y42.8583
G01 X24.4482 Y42.8583
G01 X24.3148 Y42.8883
G01 X24.3155 Y42.8962
G01 X24.3173 Y42.9021
G01 X24.3203 Y42.9075
G01 X24.3242 Y42.9123
G01 X24.3290 Y42.9162
G01 X24.3344 Y42.9192
G01 X24.3403 Y42.9210
G01 X24.3482 Y42.9217
G01 X25.4344 Y42.9217
G01 X25.4393 Y42.9214
G01 X25.4453 Y42.9202
G01 X25.4482 Y42.9192
G01 X25.4537 Y42.9162
G01 X25.4585 Y42.9123
G01 X25.4606 Y42.9100
G01 X25.4640 Y42.9049
G01 X25.4664 Y42.8992
G01 X25.4671 Y42.8962
G01 X25.4678 Y42.8883
G01 X25.4678 Y42.4245
G01 X25.4675 Y42.4193
G01 X25.4657 Y42.4110
G01 X25.4160 Y42.2594
G01 X25.4143 Y42.2551
G01 X25.4115 Y42.2499
G01 X25.4066 Y42.2441
G01 X25.3558 Y42.1933
G01 X25.3489 Y42.1877
G01 X25.3442 Y42.1851
G01 X25.2432 Y42.1358
G01 X25.2364 Y42.1331
G01 X25.2307 Y42.1321
G01 X25.1253 Y42.1319
G01 X25.1180 Y42.1325
G01 X25.1125 Y42.1340
G01 X25.0033 Y42.1873
G01 X24.9988 Y42.1906
G01 X24.9956 Y42.1936
G01 X24.9654 Y42.2253
G01 X24.9567 Y42.2325
G01 X24.9487 Y42.2373
G01 X24.9398 Y42.2410
G01 X24.9308 Y42.2435
G01 X24.9215 Y42.2448
G01 X24.9119 Y42.2448
G01 X24.9014 Y42.2433
G01 X24.8924 Y42.2406
G01 X24.8828 Y42.2362
G01 X24.8758 Y42.2317
G01 X24.8688 Y42.2260
G01 X24.8379 Y42.1937
G01 X24.8347 Y42.1906
G01 X24.8302 Y42.1873
G01 X24.7250 Y42.1358
G01 X24.7182 Y42.1331
G01 X24.7126 Y42.1321
G01 X24.5538 Y42.1319
G01 X24.5465 Y42.1325
G01 X24.5410 Y42.1340
G01 X24.5369 Y42.1358
G01 X24.4318 Y42.1873
G01 X24.4273 Y42.1906
G01 X24.4241 Y42.1936
G01 X24.3755 Y42.2447
G01 X24.3726 Y42.2480
G01 X24.3695 Y42.2527
G01 X24.3667 Y42.2593
G01 X24.3170 Y42.4110
G01 X24.3156 Y42.4160
G01 X24.3148 Y42.4245
G01 X24.3148 Y42.8883
G00 Z2.0000
G00 X24.8617 Y42.8417
G01 F60.00
G01 Z-0.0500
G01 F120.00
G01 X24.9743 Y42.8417
G00 Z2.0000
G00 X25.0197 Y42.8583
G01 F60.00
G01 Z-0.0500
G01 F120.00
G01 X25.0128 Y42.8580
G01 X25.0072 Y42.8572
G01 X25.0015 Y42.8559
G01 X24.9949 Y42.8538
G01 X24.9897 Y42.8516
G01 X24.9837 Y42.8484
G01 X24.9780 Y42.8446
G01 X24.9736 Y42.8410
G01 X24.9693 Y42.8370
G01 X24.9648 Y42.8318
G01 X24.9614 Y42.8272
G01 X24.9579 Y42.8213
G01 X24.9533 Y42.8108
G01 X24.9517 Y42.8054
G01 X24.9504 Y42.7986
G01 X24.9497 Y42.7883
G01 X24.9497 Y42.4389
G01 X24.9505 Y42.4278
G01 X24.9528 Y42.4182
G01 X24.9917 Y42.2994
G01 X24.9952 Y42.2907
G01 X24.9998 Y42.2826
G01 X25.0058 Y42.2748
G01 X25.0306 Y42.2487
G01 X25.0368 Y42.2431
G01 X25.0427 Y42.2388
G01 X25.0490 Y42.2352
G01 X25.1165 Y42.2023
G01 X25.1234 Y42.1994
G01 X25.1315 Y42.1970
G01 X25.1377 Y42.1958
G01 X25.1451 Y42.1952
G01 X25.2054 Y42.1952
G01 X25.2150 Y42.1960
G01 X25.2252 Y42.1984
G01 X25.2351 Y42.2023
G01 X25.3029 Y42.2353
G01 X25.3096 Y42.2391
G01 X25.3159 Y42.2436
G01 X25.3208 Y42.2479
G01 X25.3462 Y42.2733
G01 X25.3510 Y42.2787
G01 X25.3542 Y42.2830
G01 X25.3576 Y42.2886
G01 X25.3621 Y42.2985
G01 X25.4018 Y42.4195
G01 X25.4038 Y42.4291
G01 X25.4045 Y42.4382
G01 X25.4045 Y42.7883
G01 X25.4038 Y42.7986
G01 X25.4015 Y42.8087
G01 X25.3978 Y42.8183
G01 X25.3927 Y42.8272
G01 X25.3864 Y42.8354
G01 X25.3799 Y42.8417
G01 X25.3715 Y42.8477
G01 X25.3624 Y42.8525
G01 X25.3527 Y42.8559
G01 X25.3436 Y42.8578
G01 X25.3345 Y42.8583
G01 X25.0197 Y42.8583
G00 Z2.0000
G00 X24.9497 Y42.7617
G01 F60.00
G01 Z-0.0500
G01 F120.00
G01 X24.8863 Y42.7617
G01 X24.8863 Y42.6817
G01 X24.9497 Y42.6817
G01 X24.9497 Y42.6017
G01 X24.8863 Y42.6017
G01 X24.8863 Y42.5217
G01 X24.9497 Y42.5217
G01 X24.9497 Y42.4417
G01 X24.8863 Y42.4417
G00 Z2.0000
G00 X24.8635 Y42.3617
G01 F60.00
G01 Z-0.0500
G01 F120.00
G01 X24.9713 Y42.3617
G00 Z2.0000
G00 X25.0005 Y42.2817
G01 F60.00
G01 Z-0.0500
G01 F120.00
G01 X24.8331 Y42.2817
G00 Z2.0000
G00 X24.8455 Y42.2017
G01 F60.00
G01 Z-0.0500
G01 F120.00
G01 X24.7156 Y42.2017
G00 Z2.0000
G00 X24.9880 Y42.2017
G01 F60.00
G01 Z-0.0500
G01 F120.00
G01 X25.1179 Y42.2017
G00 Z2.0000
G00 X25.2338 Y42.2017
G01 F60.00
G01 Z-0.0500
G01 F120.00
G01 X25.3641 Y42.2017
G01 X25.3532 Y42.2817
G01 X25.4233 Y42.2817
G01 X25.4495 Y42.3617
G01 X25.3829 Y42.3617
G00 Z2.0000
G00 X25.4045 Y42.4417
G01 F60.00
G01 Z-0.0500
G01 F120.00
G01 X25.4678 Y42.4417
G01 X25.4678 Y42.5217
G01 X25.4045 Y42.5217
G01 X25.4045 Y42.6017
G01 X25.4678 Y42.6017
G01 X25.4678 Y42.6817
G01 X25.4045 Y42.6817
G01 X25.4045 Y42.7617
G01 X25.4678 Y42.7617
G01 X25.4678 Y42.8417
G01 X25.3799 Y42.8417
G00 Z2.0000
G00 X27.4459 Y41.1353
G01 F60.00
G01 Z-0.0500
G01 F120.00
G01 X27.4463 Y41.1426
G01 X27.4471 Y41.1481
G01 X27.4485 Y41.1535
G01 X27.4504 Y41.1588
G01 X27.4528 Y41.1638
G01 X27.4556 Y41.1686
G01 X27.4590 Y41.1731
G01 X27.4627 Y41.1773
G01 X27.4669 Y41.1810
G01 X27.4714 Y41.1844
G01 X27.4762 Y41.1872
G01 X27.4812 Y41.1896
G01 X27.4865 Y41.1915
G01 X27.4919 Y41.1929
G01 X27.4974 Y41.1937
G01 X27.5047 Y41.1941
G01 X36.3013 Y41.1941
G01 X36.3086 Y41.1937
G01 X36.3141 Y41.1929
G01 X36.3195 Y41.1915
G01 X36.3248 Y41.1896
G01 X36.3299 Y41.1872
G01 X36.3347 Y41.1844
G01 X36.3391 Y41.1810
G01 X36.3433 Y41.1773
G01 X36.3470 Y41.1731
G01 X36.3504 Y41.1686
G01 X36.3535 Y41.1633
G01 X36.3556 Y41.1588
G01 X36.3575 Y41.1535
G01 X36.3589 Y41.1481
G01 X36.3597 Y41.1426
G01 X36.3601 Y41.1353
G01 X36.3601 Y40.6535
G01 X36.3597 Y40.6462
G01 X36.3589 Y40.6406
G01 X36.3575 Y40.6352
G01 X36.3556 Y40.6299
G01 X36.3533 Y40.6249
G01 X36.3504 Y40.6201
G01 X36.3470 Y40.6156
G01 X36.3433 Y40.6115
G01 X36.3391 Y40.6077
G01 X36.3347 Y40.6044
G01 X36.3299 Y40.6015
G01 X36.3248 Y40.5991
G01 X36.3195 Y40.5972
G01 X36.3141 Y40.5959
G01 X36.3086 Y40.5950
G01 X36.3030 Y40.5948
G01 X36.2974 Y40.5950
G01 X36.2919 Y40.5959
G01 X36.2865 Y40.5972
G01 X36.2812 Y40.5991
G01 X36.2761 Y40.6015
G01 X36.2713 Y40.6044
G01 X36.2669 Y40.6077
G01 X36.2627 Y40.6115
G01 X36.2590 Y40.6156
G01 X36.2556 Y40.6201
G01 X36.2527 Y40.6249
G01 X36.2504 Y40.6299
G01 X36.2485 Y40.6352
G01 X36.2471 Y40.6406
G01 X36.2463 Y40.6462
G01 X36.2459 Y40.6535
G01 X36.2459 Y41.0099
G01 X36.2452 Y41.0202
G01 X36.2426 Y41.0314
G01 X36.2406 Y41.0367
G01 X36.2377 Y41.0429
G01 X36.2314 Y41.0526
G01 X36.2278 Y41.0569
G01 X36.2229 Y41.0618
G01 X36.2176 Y41.0662
G01 X36.2130 Y41.0693
G01 X36.2027 Y41.0746
G01 X36.1963 Y41.0769
G01 X36.1908 Y41.0783
G01 X36.1850 Y41.0793
G01 X36.1788 Y41.0799
G01 X27.6301 Y41.0799
G01 X27.6186 Y41.0790
G01 X27.6077 Y41.0762
G01 X27.5971 Y41.0717
G01 X27.5874 Y41.0654
G01 X27.5790 Y41.0578
G01 X27.5719 Y41.0488
G01 X27.5663 Y41.0387
G01 X27.5625 Y41.0281
G01 X27.5608 Y41.0202
G01 X27.5601 Y41.0105
G01 X27.5601 Y40.6535
G01 X27.5597 Y40.6462
G01 X27.5589 Y40.6406
G01 X27.5575 Y40.6352
G01 X27.5557 Y40.6299
G01 X27.5533 Y40.6249
G01 X27.5504 Y40.6201
G01 X27.5471 Y40.6156
G01 X27.5433 Y40.6115
G01 X27.5392 Y40.6077
G01 X27.5347 Y40.6044
G01 X27.5299 Y40.6015
G01 X27.5248 Y40.5991
G01 X27.5196 Y40.5972
G01 X27.5141 Y40.5959
G01 X27.5086 Y40.5950
G01 X27.5030 Y40.5948
G01 X27.4974 Y40.5950
G01 X27.4919 Y40.5959
G01 X27.4865 Y40.5972
G01 X27.4812 Y40.5991
G01 X27.4762 Y40.6015
G01 X27.4714 Y40.6044
G01 X27.4669 Y40.6077
G01 X27.4627 Y40.6115
G01 X27.4590 Y40.6156
G01 X27.4556 Y40.6201
G01 X27.4528 Y40.6249
G01 X27.4504 Y40.6299
G01 X27.4485 Y40.6352
G01 X27.4471 Y40.6406
G01 X27.4463 Y40.6462
G01 X27.4459 Y40.6535
G01 X27.4459 Y41.1353
G00 Z2.0000
G00 X27.5644 Y41.0341
G01 F60.00
G01 Z-0.0500
G01 F120.00
G01 X27.4459 Y41.0341
G01 X27.4459 Y41.1141
G01 X36.3601 Y41.1141
G01 X36.3601 Y41.0341
G01 X36.2416 Y41.0341
G00 Z2.0000
G00 X36.2459 Y40.9541
G01 F60.00
G01 Z-0.0500
G01 F120.00
G01 X36.3601 Y40.9541
G01 X36.3601 Y40.8741
G01 X36.2459 Y40.8741
G01 X36.2459 Y40.7941
G01 X36.3601 Y40.7941
G01 X36.3601 Y40.7141
G01 X36.2459 Y40.7141
G01 X36.2489 Y40.6341
G01 X36.3571 Y40.6341
G00 Z2.0000
G00 X33.8423 Y41.8926
G01 F60.00
G01 Z-0.0500
G01 F120.00
G01 X33.8420 Y41.8891
G01 X33.8405 Y41.8865
G01 X33.8379 Y41.8850
G01 X33.8344 Y41.8846
G01 X32.0036 Y41.8846
G01 X32.0007 Y41.8848
G01 X31.9985 Y41.8857
G01 X31.9972 Y41.8870
G01 X31.9962 Y41.8885
G01 X31.9957 Y41.8926
G01 X31.9957 Y43.1741
G01 X31.9959 Y43.1770
G01 X31.9968 Y43.1792
G01 X31.9980 Y43.1806
G01 X32.0001 Y43.1817
G01 X32.0025 Y43.1819
G01 X32.0043 Y43.1815
G01 X32.0063 Y43.1802
G01 X32.0073 Y43.1787
G01 X32.0079 Y43.1770
G01 X32.0081 Y43.1741
G01 X32.0082 Y41.9648
G01 X32.0089 Y41.9568
G01 X32.0106 Y41.9489
G01 X32.0130 Y41.9414
G01 X32.0164 Y41.9341
G01 X32.0199 Y41.9282
G01 X32.0248 Y41.9218
G01 X32.0302 Y41.9161
G01 X32.0364 Y41.9109
G01 X32.0452 Y41.9054
G01 X32.0557 Y41.9008
G01 X32.0667 Y41.8981
G01 X32.0775 Y41.8971
G01 X33.7599 Y41.8971
G01 X33.7667 Y41.8974
G01 X33.7735 Y41.8984
G01 X33.7802 Y41.9001
G01 X33.7855 Y41.9020
G01 X33.7918 Y41.9048
G01 X33.7969 Y41.9077
G01 X33.8025 Y41.9116
G01 X33.8078 Y41.9161
G01 X33.8117 Y41.9201
G01 X33.8161 Y41.9254
G01 X33.8199 Y41.9311
G01 X33.8231 Y41.9372
G01 X33.8258 Y41.9435
G01 X33.8278 Y41.9501
G01 X33.8291 Y41.9568
G01 X33.8297 Y41.9624
G01 X33.8299 Y43.1741
G01 X33.8304 Y43.1782
G01 X33.8313 Y43.1797
G01 X33.8327 Y43.1809
G01 X33.8343 Y43.1817
G01 X33.8361 Y43.1820
G01 X33.8379 Y43.1817
G01 X33.8395 Y43.1809
G01 X33.8409 Y43.1797
G01 X33.8418 Y43.1782
G01 X33.8423 Y43.1741
G01 X33.8423 Y41.8926
G00 Z2.0000
G00 X33.7856 Y41.9020
G01 F60.00
G01 Z-0.0500
G01 F120.00
G01 X33.8423 Y41.9020
G01 X33.8423 Y41.9820
G01 X33.8299 Y41.9820
G01 X33.8299 Y42.0620
G01 X33.8423 Y42.0620
G01 X33.8423 Y42.1420
G01 X33.8299 Y42.1420
G01 X33.8299 Y42.2220
G01 X33.8423 Y42.2220
G01 X33.8423 Y42.3020
G01 X33.8299 Y42.3020
G01 X33.8299 Y42.3820
G01 X33.8423 Y42.3820
G01 X33.8423 Y42.4620
G01 X33.8299 Y42.4620
G01 X33.8299 Y42.5420
G01 X33.8423 Y42.5420
G01 X33.8423 Y42.6220
G01 X33.8299 Y42.6220
G01 X33.8299 Y42.7020
G01 X33.8423 Y42.7020
G01 X33.8423 Y42.7820
G01 X33.8299 Y42.7820
G01 X33.8299 Y42.8620
G01 X33.8423 Y42.8620
G01 X33.8423 Y42.9420
G01 X33.8299 Y42.9420
G01 X33.8299 Y43.0220
G01 X33.8423 Y43.0220
G01 X33.8423 Y43.1020
G01 X33.8299 Y43.1020
G00 Z2.0000
G00 X32.0524 Y41.9020
G01 F60.00
G01 Z-0.0500
G01 F120.00
G01 X31.9957 Y41.9020
G00 Z2.0000
G00 X32.0081 Y41.9820
G01 F60.00
G01 Z-0.0500
G01 F120.00
G01 X31.9957 Y41.9820
G01 X31.9957 Y42.0620
G01 X32.0081 Y42.0620
G01 X32.0081 Y42.1420
G01 X31.9957 Y42.1420
G01 X31.9957 Y42.2220
G01 X32.0081 Y42.2220
G01 X32.0081 Y42.3020
G01 X31.9957 Y42.3020
G01 X31.9957 Y42.3820
G01 X32.0081 Y42.3820
G01 X32.0081 Y42.4620
G01 X31.9957 Y42.4620
G01 X31.9957 Y42.5420
G01 X32.0081 Y42.5420
G01 X32.0081 Y42.6220
G01 X31.9957 Y42.6220
G01 X31.9957 Y42.7020
G01 X32.0081 Y42.7020
G01 X32.0081 Y42.7820
G01 X31.9957 Y42.7820
G01 X31.9957 Y42.8620
G01 X32.0081 Y42.8620
G01 X32.0081 Y42.9420
G01 X31.9957 Y42.9420
G01 X31.9957 Y43.0220
G01 X32.0081 Y43.0220
G01 X32.0081 Y43.1020
G01 X31.9957 Y43.1020
G00 Z2.0000
G00 X31.4471 Y42.8093
G01 F60.00
G01 Z-0.0500
G01 F120.00
G01 X31.4471 Y42.8620
G01 X31.3671 Y42.9345
G01 X31.3671 Y42.9521
G00 Z2.0000
G00 X31.2871 Y42.9852
G01 F60.00
G01 Z-0.0500
G01 F120.00
G01 X31.2871 Y42.9983
G01 X31.2071 Y43.0114
G01 X31.2071 Y43.0245
G00 Z2.0000
G00 X31.1271 Y43.0201
G01 F60.00
G01 Z-0.0500
G01 F120.00
G01 X31.1271 Y43.0334
G01 X31.0471 Y43.0079
G01 X31.0471 Y42.9948
G01 X30.9671 Y42.9813
G01 X30.9671 Y42.9634
G01 X30.8871 Y42.9015
G01 X30.8871 Y42.8838
G00 Z2.0000
G00 X30.8871 Y42.4974
G01 F60.00
G01 Z-0.0500
G01 F120.00
G01 X30.8871 Y42.4798
G00 Z2.0000
G00 X30.9671 Y42.4177
G01 F60.00
G01 Z-0.0500
G01 F120.00
G01 X30.9671 Y42.3999
G01 X31.0471 Y42.3852
G01 X31.0471 Y42.3720
G00 Z2.0000
G00 X31.1271 Y42.3587
G01 F60.00
G01 Z-0.0500
G01 F120.00
G01 X31.1271 Y42.3453
G01 X31.2071 Y42.3546
G01 X31.2071 Y42.3678
G01 X31.2871 Y42.3821
G01 X31.2871 Y42.3953
G00 Z2.0000
G00 X31.3671 Y42.4265
G01 F60.00
G01 Z-0.0500
G01 F120.00
G01 X31.3671 Y42.4467
G00 Z2.0000
G00 X31.4471 Y42.4221
G01 F60.00
G01 Z-0.0500
G01 F120.00
G01 X31.4471 Y42.5562
G01 X31.4777 Y42.6503
G01 X31.4792 Y42.6578
G01 X31.4798 Y42.6664
G01 X31.4794 Y42.6740
G01 X31.4780 Y42.6826
G01 X31.4369 Y42.8510
G01 X31.4343 Y42.8591
G01 X31.4307 Y42.8667
G01 X31.4256 Y42.8748
G01 X31.4194 Y42.8822
G01 X31.3421 Y42.9595
G01 X31.3377 Y42.9635
G01 X31.3324 Y42.9674
G01 X31.3268 Y42.9709
G01 X31.3220 Y42.9733
G01 X31.3148 Y42.9761
G01 X31.1849 Y43.0186
G01 X31.1780 Y43.0200
G01 X31.1710 Y43.0208
G01 X31.1379 Y43.0209
G01 X31.1269 Y43.0200
G01 X31.1173 Y43.0178
G01 X30.9895 Y42.9759
G01 X30.9791 Y42.9714
G01 X30.9707 Y42.9662
G01 X30.9628 Y42.9595
G01 X30.8830 Y42.8797
G01 X30.8781 Y42.8740
G01 X30.8737 Y42.8678
G01 X30.8701 Y42.8612
G01 X30.8669 Y42.8533
G01 X30.8231 Y42.7240
G01 X30.8212 Y42.7173
G01 X30.8202 Y42.7111
G01 X30.8196 Y42.7028
G01 X30.8197 Y42.6735
G01 X30.8205 Y42.6651
G01 X30.8224 Y42.6569
G01 X30.8676 Y42.5256
G01 X30.8701 Y42.5199
G01 X30.8731 Y42.5143
G01 X30.8766 Y42.5091
G01 X30.8806 Y42.5041
G01 X30.9635 Y42.4210
G01 X30.9700 Y42.4155
G01 X30.9769 Y42.4108
G01 X30.9826 Y42.4078
G01 X30.9890 Y42.4052
G01 X31.1157 Y42.3616
G01 X31.1232 Y42.3595
G01 X31.1308 Y42.3582
G01 X31.1378 Y42.3578
G01 X31.1690 Y42.3578
G01 X31.1779 Y42.3587
G01 X31.1851 Y42.3603
G01 X31.3174 Y42.4058
G01 X31.3279 Y42.4108
G01 X31.3374 Y42.4174
G01 X31.3421 Y42.4217
G01 X31.4217 Y42.5013
G01 X31.4266 Y42.5070
G01 X31.4311 Y42.5134
G01 X31.4347 Y42.5202
G01 X31.4376 Y42.5272
G01 X31.4379 Y42.5282
G01 X31.4763 Y42.6452
G00 Z2.0000
G00 X31.4727 Y42.3536
G01 F60.00
G01 Z-0.0500
G01 F120.00
G01 X31.4349 Y42.1590
G01 X31.4333 Y42.1528
G01 X31.4310 Y42.1462
G01 X31.4280 Y42.1399
G01 X31.4247 Y42.1344
G01 X31.3429 Y42.0126
G01 X31.3388 Y42.0073
G01 X31.3343 Y42.0025
G01 X31.3293 Y41.9981
G01 X31.3240 Y41.9942
G01 X31.3164 Y41.9898
G01 X31.3082 Y41.9864
G01 X31.1887 Y41.9472
G01 X31.1803 Y41.9450
G01 X31.1743 Y41.9441
G01 X31.1681 Y41.9437
G01 X31.0869 Y41.9437
G01 X31.0797 Y41.9441
G01 X31.0712 Y41.9455
G01 X30.9492 Y41.9846
G01 X30.9394 Y41.9888
G01 X30.9304 Y41.9944
G01 X30.9250 Y41.9988
G01 X30.9200 Y42.0038
G01 X30.9149 Y42.0101
G01 X30.9111 Y42.0160
G01 X30.8719 Y42.0957
G01 X30.8703 Y42.0974
G01 X30.8687 Y42.0982
G01 X30.8663 Y42.0986
G01 X30.8645 Y42.0982
G01 X30.8625 Y42.0969
G01 X30.8611 Y42.0950
G01 X30.8605 Y42.0927
G01 X30.8609 Y42.0903
G01 X30.9126 Y41.9845
G01 X30.9145 Y41.9829
G01 X30.9172 Y41.9818
G01 X31.0713 Y41.9321
G01 X31.0737 Y41.9315
G01 X31.0768 Y41.9313
G01 X31.1804 Y41.9315
G01 X31.3344 Y41.9818
G01 X31.3375 Y41.9832
G01 X31.3402 Y41.9862
G01 X31.4424 Y42.1383
G01 X31.4439 Y42.1409
G01 X31.4446 Y42.1438
G01 X31.4948 Y42.4020
G01 X31.4951 Y42.4043
G01 X31.4951 Y42.6645
G01 X31.4446 Y42.8721
G01 X31.4436 Y42.8752
G01 X31.4415 Y42.8777
G01 X31.3396 Y42.9796
G01 X31.3370 Y42.9817
G01 X31.1804 Y43.0332
G01 X31.1245 Y43.0332
G01 X30.9704 Y42.9828
G01 X30.9669 Y42.9811
G01 X30.8634 Y42.8778
G01 X30.8613 Y42.8752
G01 X30.8074 Y42.7161
G01 X30.8071 Y42.6659
G01 X30.8074 Y42.6626
G01 X30.8611 Y42.5065
G01 X30.8634 Y42.5035
G01 X30.9653 Y42.4016
G01 X30.9678 Y42.3995
G01 X31.1219 Y42.3463
G01 X31.1251 Y42.3454
G01 X31.1772 Y42.3453
G01 X31.1798 Y42.3454
G01 X31.1830 Y42.3463
G01 X31.3366 Y42.3992
G01 X31.3396 Y42.4016
G01 X31.3565 Y42.4184
G01 X31.3640 Y42.4244
G01 X31.3699 Y42.4281
G01 X31.3760 Y42.4311
G01 X31.3824 Y42.4335
G01 X31.3890 Y42.4353
G01 X31.3970 Y42.4366
G01 X31.4061 Y42.4369
G01 X31.4141 Y42.4362
G01 X31.4230 Y42.4343
G01 X31.4306 Y42.4317
G01 X31.4387 Y42.4277
G01 X31.4455 Y42.4233
G01 X31.4524 Y42.4174
G01 X31.4579 Y42.4115
G01 X31.4620 Y42.4060
G01 X31.4656 Y42.4001
G01 X31.4685 Y42.3940
G01 X31.4709 Y42.3875
G01 X31.4728 Y42.3797
G01 X31.4737 Y42.3729
G01 X31.4739 Y42.3650
G01 X31.4728 Y42.3542
G01 X31.4727 Y42.3536
G01 X31.4471 Y42.2219
G01 X31.4471 Y42.1565
G01 X31.3671 Y42.0487
G01 X31.3671 Y42.0263
G00 Z2.0000
G00 X31.2871 Y41.9795
G01 F60.00
G01 Z-0.0500
G01 F120.00
G01 X31.2871 Y41.9663
G01 X31.2071 Y41.9532
G01 X31.2071 Y41.9401
G01 X31.1271 Y41.9313
G01 X31.1271 Y41.9437
G01 X31.0471 Y41.9399
G01 X31.0471 Y41.9530
G01 X30.9671 Y41.9657
G01 X30.9671 Y41.9788
G00 Z2.0000
G00 X30.8871 Y42.0363
G01 F60.00
G01 Z-0.0500
G01 F120.00
G01 X30.8871 Y42.0648
G00 Z2.0000
G00 X30.4578 Y41.9691
G01 F60.00
G01 Z-0.0500
G01 F120.00
G01 X30.4578 Y41.9458
G01 X30.3778 Y42.0717
G01 X30.3778 Y42.0950
G01 X30.2978 Y42.1976
G01 X30.2978 Y42.2208
G01 X30.2178 Y42.3234
G01 X30.2178 Y42.3467
G01 X30.1378 Y42.4493
G01 X30.1378 Y42.5152
G01 X30.0578 Y42.5152
G01 X30.0578 Y42.5028
G01 X29.9778 Y42.5028
G01 X29.9778 Y42.5152
G01 X29.8978 Y42.5152
G01 X29.8978 Y42.5028
G00 Z2.0000
G00 X29.8178 Y42.5027
G01 F60.00
G01 Z-0.0500
G01 F120.00
G01 X29.8178 Y42.5153
G00 Z2.0000
G00 X30.2178 Y42.5177
G01 F60.00
G01 Z-0.0500
G01 F120.00
G01 X30.2178 Y42.5045
G00 Z2.0000
G00 X30.2978 Y42.5308
G01 F60.00
G01 Z-0.0500
G01 F120.00
G01 X30.2978 Y42.5439
G01 X30.3778 Y42.5621
G01 X30.3778 Y42.5793
G00 Z2.0000
G00 X30.4578 Y42.6745
G01 F60.00
G01 Z-0.0500
G01 F120.00
G01 X30.4578 Y42.7030
G00 Z2.0000
G00 X30.4578 Y42.8306
G01 F60.00
G01 Z-0.0500
G01 F120.00
G01 X30.4578 Y42.8591
G00 Z2.0000
G00 X30.3778 Y42.9561
G01 F60.00
G01 Z-0.0500
G01 F120.00
G01 X30.3778 Y42.9737
G01 X30.2978 Y42.9923
G01 X30.2978 Y43.0054
G01 X30.2178 Y43.0184
G01 X30.2178 Y43.0316
G01 X30.1378 Y43.0334
G01 X30.1378 Y43.0209
G01 X30.0578 Y43.0209
G01 X30.0578 Y43.0334
G01 X29.9778 Y43.0334
G01 X29.9778 Y43.0209
G01 X29.8978 Y43.0209
G01 X29.8978 Y43.0334
G01 X29.8202 Y43.0209
G01 X29.8122 Y43.0204
G01 X29.8044 Y43.0191
G01 X29.7967 Y43.0168
G01 X29.7903 Y43.0142
G01 X29.7843 Y43.0110
G01 X29.7776 Y43.0064
G01 X29.7716 Y43.0013
G01 X29.7669 Y42.9963
G01 X29.7620 Y42.9898
G01 X29.7585 Y42.9839
G01 X29.7556 Y42.9777
G01 X29.7529 Y42.9701
G01 X29.7512 Y42.9624
G01 X29.7503 Y42.9547
G01 X29.7504 Y42.5806
G01 X29.7510 Y42.5750
G01 X29.7523 Y42.5682
G01 X29.7543 Y42.5617
G01 X29.7564 Y42.5564
G01 X29.7620 Y42.5463
G01 X29.7661 Y42.5408
G01 X29.7699 Y42.5366
G01 X29.7785 Y42.5290
G01 X29.7843 Y42.5252
G01 X29.7892 Y42.5225
G01 X29.7999 Y42.5183
G01 X29.8066 Y42.5166
G01 X29.8122 Y42.5157
G01 X29.8202 Y42.5152
G01 X30.1992 Y42.5152
G01 X30.2053 Y42.5155
G01 X30.2126 Y42.5165
G01 X30.2204 Y42.5185
G01 X30.3480 Y42.5604
G01 X30.3538 Y42.5626
G01 X30.3604 Y42.5658
G01 X30.3664 Y42.5696
G01 X30.3713 Y42.5734
G01 X30.4069 Y42.6071
G01 X30.4117 Y42.6125
G01 X30.4154 Y42.6176
G01 X30.4198 Y42.6252
G01 X30.4582 Y42.7040
G01 X30.4607 Y42.7105
G01 X30.4624 Y42.7166
G01 X30.4637 Y42.7240
G01 X30.4642 Y42.7313
G01 X30.4641 Y42.8056
G01 X30.4634 Y42.8119
G01 X30.4621 Y42.8181
G01 X30.4603 Y42.8242
G01 X30.4580 Y42.8300
G01 X30.4193 Y42.9094
G01 X30.4137 Y42.9188
G01 X30.4071 Y42.9267
G01 X30.3728 Y42.9609
G01 X30.3647 Y42.9674
G01 X30.3591 Y42.9709
G01 X30.3543 Y42.9733
G01 X30.3471 Y42.9761
G01 X30.2204 Y43.0176
G01 X30.2126 Y43.0196
G01 X30.2053 Y43.0206
G01 X30.1992 Y43.0209
G01 X29.8202 Y43.0209
G00 Z2.0000
G00 X29.8178 Y43.0209
G01 F60.00
G01 Z-0.0500
G01 F120.00
G01 X29.8178 Y43.0334
G01 X29.7378 Y43.0254
G01 X29.7379 Y43.0278
G01 X29.7386 Y43.0301
G01 X29.7406 Y43.0323
G01 X29.7428 Y43.0332
G01 X29.7457 Y43.0334
G01 X30.2095 Y43.0334
G01 X30.2120 Y43.0333
G01 X30.3693 Y42.9817
G01 X30.3719 Y42.9796
G01 X30.4248 Y42.9263
G01 X30.4754 Y42.8230
G01 X30.4765 Y42.8200
G01 X30.4767 Y42.8173
G01 X30.4767 Y42.7163
G01 X30.4764 Y42.7131
G01 X30.4259 Y42.6093
G01 X30.4246 Y42.6070
G01 X30.4228 Y42.6050
G01 X30.3717 Y42.5563
G01 X30.3692 Y42.5544
G01 X30.2193 Y42.5050
G01 X30.2110 Y42.5016
G01 X30.2024 Y42.4965
G01 X30.1954 Y42.4910
G01 X30.1891 Y42.4845
G01 X30.1837 Y42.4774
G01 X30.1793 Y42.4697
G01 X30.1758 Y42.4613
G01 X30.1735 Y42.4528
G01 X30.1724 Y42.4450
G01 X30.1722 Y42.4361
G01 X30.1729 Y42.4282
G01 X30.1748 Y42.4196
G01 X30.1778 Y42.4113
G01 X30.1819 Y42.4032
G01 X30.4748 Y41.9423
G01 X30.4764 Y41.9392
G01 X30.4766 Y41.9368
G01 X30.4755 Y41.9340
G01 X30.4738 Y41.9323
G01 X30.4709 Y41.9314
G01 X30.4685 Y41.9317
G01 X30.4664 Y41.9328
G01 X30.4643 Y41.9356
G01 X30.1223 Y42.4735
G01 X30.1166 Y42.4804
G01 X30.1106 Y42.4862
G01 X30.1040 Y42.4911
G01 X30.0970 Y42.4952
G01 X30.0895 Y42.4985
G01 X30.0815 Y42.5009
G01 X30.0736 Y42.5023
G01 X30.0653 Y42.5028
G01 X29.8202 Y42.5028
G01 X29.8122 Y42.5023
G01 X29.8044 Y42.5009
G01 X29.7967 Y42.4987
G01 X29.7883 Y42.4951
G01 X29.7813 Y42.4910
G01 X29.7749 Y42.4861
G01 X29.7692 Y42.4807
G01 X29.7640 Y42.4745
G01 X29.7596 Y42.4677
G01 X29.7556 Y42.4595
G01 X29.7526 Y42.4510
G01 X29.7510 Y42.4430
G01 X29.7502 Y42.4339
G01 X29.7502 Y41.9392
G01 X29.7500 Y41.9363
G01 X29.7494 Y41.9346
G01 X29.7484 Y41.9331
G01 X29.7464 Y41.9318
G01 X29.7446 Y41.9314
G01 X29.7422 Y41.9316
G01 X29.7406 Y41.9324
G01 X29.7389 Y41.9341
G01 X29.7380 Y41.9363
G01 X29.7378 Y41.9392
G01 X29.7378 Y43.0254
G00 Z2.0000
G00 X31.9957 Y44.1394
G01 F60.00
G01 Z-0.0500
G01 F120.00
G01 X32.0081 Y44.1394
G01 X32.0081 Y44.2194
G01 X31.9957 Y44.2194
G01 X31.9957 Y44.2994
G01 X32.0081 Y44.2994
G01 X32.0081 Y44.3794
G01 X31.9957 Y44.3794
G01 X31.9957 Y44.4594
G01 X32.0081 Y44.4594
G01 X32.0081 Y44.5394
G01 X31.9957 Y44.5394
G01 X31.9957 Y44.6194
G01 X32.0081 Y44.6194
G01 X32.0081 Y44.6994
G01 X31.9957 Y44.6994
G01 X31.9957 Y44.7794
G01 X32.0081 Y44.7794
G01 X32.0081 Y44.8594
G01 X31.9957 Y44.8594
G01 X31.9957 Y44.9394
G01 X32.0081 Y44.9394
G01 X32.0081 Y45.0194
G01 X31.9957 Y45.0194
G01 X31.9957 Y45.0994
G01 X32.0081 Y45.0994
G01 X32.0081 Y45.1794
G01 X31.9957 Y45.1794
G01 X31.9957 Y45.2594
G01 X32.0081 Y45.2594
G00 Z2.0000
G00 X32.0082 Y45.3394
G01 F60.00
G01 Z-0.0500
G01 F120.00
G01 X31.9957 Y45.3394
G00 Z2.0000
G00 X33.8298 Y45.3394
G01 F60.00
G01 Z-0.0500
G01 F120.00
G01 X33.8423 Y45.3394
G01 X33.8299 Y45.3369
G01 X33.8295 Y45.3438
G01 X33.8285 Y45.3505
G01 X33.8268 Y45.3572
G01 X33.8245 Y45.3637
G01 X33.8216 Y45.3699
G01 X33.8181 Y45.3758
G01 X33.8140 Y45.3813
G01 X33.8094 Y45.3864
G01 X33.8043 Y45.3910
G01 X33.7988 Y45.3951
G01 X33.7929 Y45.3986
G01 X33.7878 Y45.4011
G01 X33.7823 Y45.4032
G01 X33.7757 Y45.4051
G01 X33.7689 Y45.4063
G01 X33.7622 Y45.4069
G01 X32.0775 Y45.4069
G01 X32.0679 Y45.4061
G01 X32.0578 Y45.4039
G01 X32.0482 Y45.4002
G01 X32.0393 Y45.3951
G01 X32.0321 Y45.3896
G01 X32.0263 Y45.3839
G01 X32.0212 Y45.3776
G01 X32.0170 Y45.3710
G01 X32.0135 Y45.3637
G01 X32.0108 Y45.3560
G01 X32.0089 Y45.3472
G01 X32.0082 Y45.3392
G01 X32.0081 Y44.1299
G01 X32.0078 Y44.1264
G01 X32.0067 Y44.1243
G01 X32.0048 Y44.1228
G01 X32.0025 Y44.1221
G01 X32.0001 Y44.1223
G01 X31.9980 Y44.1234
G01 X31.9965 Y44.1253
G01 X31.9959 Y44.1270
G01 X31.9957 Y44.1299
G01 X31.9957 Y45.4114
G01 X31.9960 Y45.4149
G01 X31.9976 Y45.4175
G01 X32.0001 Y45.4190
G01 X32.0036 Y45.4194
G01 X33.8344 Y45.4194
G01 X33.8373 Y45.4192
G01 X33.8395 Y45.4182
G01 X33.8409 Y45.4170
G01 X33.8418 Y45.4155
G01 X33.8423 Y45.4114
G01 X33.8423 Y44.1299
G01 X33.8418 Y44.1258
G01 X33.8400 Y44.1234
G01 X33.8385 Y44.1225
G01 X33.8367 Y44.1221
G01 X33.8349 Y44.1222
G01 X33.8332 Y44.1228
G01 X33.8317 Y44.1238
G01 X33.8304 Y44.1258
G01 X33.8299 Y44.1299
G01 X33.8299 Y45.3369
G01 X33.8299 Y45.2594
G01 X33.8423 Y45.2594
G01 X33.8423 Y45.1794
G01 X33.8299 Y45.1794
G01 X33.8299 Y45.0994
G01 X33.8423 Y45.0994
G01 X33.8423 Y45.0194
G01 X33.8299 Y45.0194
G01 X33.8299 Y44.9394
G01 X33.8423 Y44.9394
G01 X33.8423 Y44.8594
G01 X33.8299 Y44.8594
G01 X33.8299 Y44.7794
G01 X33.8423 Y44.7794
G01 X33.8423 Y44.6994
G01 X33.8299 Y44.6994
G01 X33.8299 Y44.6194
G01 X33.8423 Y44.6194
G01 X33.8423 Y44.5394
G01 X33.8299 Y44.5394
G01 X33.8299 Y44.4594
G01 X33.8423 Y44.4594
G01 X33.8423 Y44.3794
G01 X33.8299 Y44.3794
G01 X33.8299 Y44.2994
G01 X33.8423 Y44.2994
G01 X33.8423 Y44.2194
G01 X33.8299 Y44.2194
G01 X33.8299 Y44.1394
G01 X33.8423 Y44.1394
G00 Z2.0000
G00 X27.5601 Y40.9541
G01 F60.00
G01 Z-0.0500
G01 F120.00
G01 X27.4459 Y40.9541
G01 X27.4459 Y40.8741
G01 X27.5601 Y40.8741
G01 X27.5601 Y40.7941
G01 X27.4459 Y40.7941
G01 X27.4459 Y40.7141
G01 X27.5601 Y40.7141
G01 X27.5571 Y40.6341
G01 X27.4489 Y40.6341
G00 Z2.0000
G00 X37.5442 Y37.0644
G01 F60.00
G01 Z-0.0500
G01 F120.00
G01 X37.5268 Y37.0644
G01 X37.5005 Y36.9844
G01 X37.4865 Y36.9844
G01 X37.4746 Y36.9044
G01 X37.4871 Y36.9044
G01 X37.4871 Y36.8244
G01 X37.4746 Y36.8244
G01 X37.4770 Y36.7444
G01 X37.4913 Y36.7444
G00 Z2.0000
G00 X37.6330 Y37.1444
G01 F60.00
G01 Z-0.0500
G01 F120.00
G01 X37.6614 Y37.1444
G00 Z2.0000
G00 X37.8209 Y37.1444
G01 F60.00
G01 Z-0.0500
G01 F120.00
G01 X37.8494 Y37.1444
G01 X37.9601 Y37.0644
G01 X37.9824 Y37.0644
G00 Z2.0000
G00 X38.0689 Y36.9844
G01 F60.00
G01 Z-0.0500
G01 F120.00
G01 X38.0865 Y36.9844
G01 X38.1485 Y36.9044
G01 X38.1661 Y36.9044
G01 X38.2281 Y36.8244
G01 X38.2457 Y36.8244
G01 X38.3077 Y36.7444
G01 X38.3253 Y36.7444
G01 X38.3874 Y36.6644
G01 X38.4050 Y36.6644
G01 X38.4670 Y36.5844
G01 X38.5767 Y36.5844
G01 X38.5767 Y36.6644
G01 X38.5636 Y36.6644
G00 Z2.0000
G00 X38.5643 Y36.7444
G01 F60.00
G01 Z-0.0500
G01 F120.00
G01 X38.5767 Y36.7444
G01 X38.5767 Y36.8244
G01 X38.5643 Y36.8244
G01 X38.5643 Y36.9044
G01 X38.5767 Y36.9044
G01 X38.5767 Y36.9844
G01 X38.5643 Y36.9844
G01 X38.5643 Y37.0644
G01 X38.5767 Y37.0644
G01 X38.5767 Y37.1444
G01 X38.5643 Y37.1444
G01 X38.5767 Y36.5044
G01 X38.5466 Y36.5044
G00 Z2.0000
G00 X38.5767 Y36.0725
G01 F60.00
G01 Z-0.0500
G01 F120.00
G01 X38.5643 Y36.0725
G01 X38.5643 Y35.9925
G01 X38.5767 Y35.9925
G01 X38.5767 Y35.9125
G01 X38.5643 Y35.9125
G01 X38.5643 Y35.8325
G01 X38.5767 Y35.8325
G01 X38.5767 Y35.7525
G01 X38.5643 Y35.7525
G01 X38.5643 Y35.6725
G01 X38.5767 Y35.6725
G01 X38.5767 Y35.5925
G01 X38.5638 Y35.5925
G00 Z2.0000
G00 X38.4943 Y35.5302
G01 F60.00
G01 Z-0.0500
G01 F120.00
G01 X38.5011 Y35.5306
G01 X38.5067 Y35.5314
G01 X38.5125 Y35.5326
G01 X38.5190 Y35.5348
G01 X38.5242 Y35.5370
G01 X38.5302 Y35.5402
G01 X38.5360 Y35.5440
G01 X38.5404 Y35.5476
G01 X38.5446 Y35.5516
G01 X38.5491 Y35.5568
G01 X38.5525 Y35.5613
G01 X38.5560 Y35.5672
G01 X38.5589 Y35.5735
G01 X38.5609 Y35.5787
G01 X38.5627 Y35.5854
G01 X38.5637 Y35.5912
G01 X38.5643 Y35.6002
G01 X38.5643 Y36.1446
G01 X38.5646 Y36.1481
G01 X38.5657 Y36.1502
G01 X38.5681 Y36.1520
G01 X38.5711 Y36.1524
G01 X38.5734 Y36.1517
G01 X38.5756 Y36.1497
G01 X38.5765 Y36.1475
G01 X38.5767 Y36.1446
G01 X38.5767 Y35.5257
G01 X38.5762 Y35.5216
G01 X38.5749 Y35.5196
G01 X38.5734 Y35.5186
G01 X38.5717 Y35.5180
G01 X38.5688 Y35.5178
G01 X37.4826 Y35.5178
G01 X37.4791 Y35.5181
G01 X37.4769 Y35.5192
G01 X37.4754 Y35.5211
G01 X37.4747 Y35.5240
G01 X37.4754 Y35.5269
G01 X37.4769 Y35.5288
G01 X37.4791 Y35.5299
G01 X37.4826 Y35.5302
G01 X38.4943 Y35.5302
G00 Z2.0000
G00 X37.6907 Y36.5363
G01 F60.00
G01 Z-0.0500
G01 F120.00
G01 X37.7405 Y36.5364
G01 X37.7428 Y36.5371
G01 X37.7447 Y36.5386
G01 X37.7458 Y36.5408
G01 X37.7461 Y36.5431
G01 X37.7456 Y36.5449
G01 X37.7443 Y36.5469
G01 X37.7428 Y36.5480
G01 X37.7411 Y36.5486
G01 X37.7015 Y36.5490
G01 X37.6930 Y36.5501
G01 X37.6838 Y36.5526
G01 X37.6760 Y36.5559
G01 X37.5964 Y36.5948
G01 X37.5892 Y36.5993
G01 X37.5823 Y36.6050
G01 X37.5446 Y36.6426
G01 X37.5376 Y36.6509
G01 X37.5317 Y36.6609
G01 X37.4933 Y36.7397
G01 X37.4900 Y36.7485
G01 X37.4879 Y36.7578
G01 X37.4871 Y36.7684
G01 X37.4871 Y36.9411
G01 X37.4878 Y36.9508
G01 X37.4898 Y36.9603
G01 X37.4935 Y36.9704
G01 X37.5317 Y37.0468
G01 X37.5354 Y37.0534
G01 X37.5398 Y37.0595
G01 X37.5443 Y37.0646
G01 X37.5813 Y37.1015
G01 X37.5892 Y37.1081
G01 X37.5986 Y37.1137
G01 X37.6760 Y37.1515
G01 X37.6819 Y37.1540
G01 X37.6890 Y37.1563
G01 X37.6972 Y37.1580
G01 X37.7046 Y37.1586
G01 X37.7800 Y37.1585
G01 X37.7863 Y37.1578
G01 X37.7925 Y37.1565
G01 X37.7986 Y37.1547
G01 X37.8040 Y37.1526
G01 X37.8934 Y37.1089
G01 X38.0426 Y37.0089
G01 X38.0491 Y37.0040
G01 X38.5649 Y36.4860
G01 X38.5671 Y36.4841
G01 X38.5693 Y36.4832
G01 X38.5723 Y36.4833
G01 X38.5744 Y36.4844
G01 X38.5762 Y36.4868
G01 X38.5767 Y36.4909
G01 X38.5767 Y37.2165
G01 X38.5764 Y37.2200
G01 X38.5753 Y37.2221
G01 X38.5739 Y37.2233
G01 X38.5717 Y37.2242
G01 X38.5693 Y37.2242
G01 X38.5676 Y37.2236
G01 X38.5661 Y37.2225
G01 X38.5648 Y37.2205
G01 X38.5643 Y37.2165
G01 X38.5641 Y36.6692
G01 X38.5631 Y36.6614
G01 X38.5612 Y36.6536
G01 X38.5584 Y36.6460
G01 X38.5543 Y36.6379
G01 X38.5497 Y36.6312
G01 X38.5446 Y36.6252
G01 X38.5386 Y36.6197
G01 X38.5321 Y36.6150
G01 X38.5221 Y36.6097
G01 X38.5124 Y36.6063
G01 X38.5010 Y36.6042
G01 X38.4907 Y36.6040
G01 X38.4805 Y36.6053
G01 X38.4694 Y36.6085
G01 X38.4601 Y36.6128
G01 X38.4507 Y36.6191
G01 X38.4446 Y36.6245
G01 X38.0563 Y37.0146
G01 X37.9029 Y37.1179
G01 X37.8980 Y37.1207
G01 X37.7949 Y37.1708
G01 X37.7917 Y37.1711
G01 X37.6907 Y37.1711
G01 X37.6880 Y37.1709
G01 X37.6850 Y37.1698
G01 X37.5840 Y37.1205
G01 X37.5817 Y37.1192
G01 X37.5792 Y37.1171
G01 X37.5265 Y37.0640
G01 X37.4760 Y36.9634
G01 X37.4748 Y36.9602
G01 X37.4748 Y36.7497
G01 X37.4759 Y36.7467
G01 X37.5252 Y36.6457
G01 X37.5265 Y36.6434
G01 X37.5286 Y36.6409
G01 X37.5817 Y36.5882
G01 X37.5840 Y36.5869
G01 X37.6850 Y36.5376
G01 X37.6875 Y36.5366
G01 X37.6907 Y36.5363
G01 X37.6175 Y36.5844
G01 X37.5891 Y36.5844
G00 Z2.0000
G00 X37.5299 Y36.6644
G01 F60.00
G01 Z-0.0500
G01 F120.00
G01 X37.5161 Y36.6644
G00 Z2.0000
G00 X39.3409 Y38.1872
G01 F60.00
G01 Z-0.0500
G01 F120.00
G01 X39.3409 Y31.5907
G01 X39.3409 Y38.1872
G01 X39.3413 Y38.1945
G01 X39.3421 Y38.2000
G01 X39.3435 Y38.2055
G01 X39.3454 Y38.2107
G01 X39.3478 Y38.2158
G01 X39.3506 Y38.2206
G01 X39.3540 Y38.2251
G01 X39.3577 Y38.2292
G01 X39.3619 Y38.2330
G01 X39.3664 Y38.2363
G01 X39.3712 Y38.2392
G01 X39.3762 Y38.2416
G01 X39.3815 Y38.2434
G01 X39.3869 Y38.2448
G01 X39.3924 Y38.2456
G01 X39.3997 Y38.2460
G01 X40.7151 Y38.2460
G01 X40.7224 Y38.2456
G01 X40.7280 Y38.2448
G01 X40.7334 Y38.2434
G01 X40.7387 Y38.2416
G01 X40.7437 Y38.2392
G01 X40.7485 Y38.2363
G01 X40.7530 Y38.2330
G01 X40.7572 Y38.2292
G01 X40.7609 Y38.2251
G01 X40.7642 Y38.2206
G01 X40.7671 Y38.2158
G01 X40.7695 Y38.2107
G01 X40.7714 Y38.2055
G01 X40.7727 Y38.2000
G01 X40.7736 Y38.1945
G01 X40.7738 Y38.1889
G01 X40.7736 Y38.1833
G01 X40.7727 Y38.1778
G01 X40.7714 Y38.1724
G01 X40.7695 Y38.1671
G01 X40.7671 Y38.1621
G01 X40.7642 Y38.1573
G01 X40.7609 Y38.1528
G01 X40.7572 Y38.1486
G01 X40.7530 Y38.1449
G01 X40.7485 Y38.1415
G01 X40.7437 Y38.1387
G01 X40.7387 Y38.1363
G01 X40.7334 Y38.1344
G01 X40.7280 Y38.1330
G01 X40.7224 Y38.1322
G01 X40.7151 Y38.1318
G01 X39.5223 Y38.1318
G01 X39.5160 Y38.1313
G01 X39.5093 Y38.1300
G01 X39.5027 Y38.1282
G01 X39.4963 Y38.1256
G01 X39.4910 Y38.1230
G01 X39.4852 Y38.1194
G01 X39.4797 Y38.1152
G01 X39.4747 Y38.1105
G01 X39.4710 Y38.1063
G01 X39.4669 Y38.1007
G01 X39.4633 Y38.0948
G01 X39.4604 Y38.0886
G01 X39.4581 Y38.0822
G01 X39.4564 Y38.0755
G01 X39.4554 Y38.0687
G01 X39.4551 Y38.0625
G01 X39.4551 Y31.7160
G01 X39.4554 Y31.7092
G01 X39.4564 Y31.7024
G01 X39.4581 Y31.6957
G01 X39.4599 Y31.6904
G01 X39.4650 Y31.6800
G01 X39.4718 Y31.6707
G01 X39.4797 Y31.6627
G01 X39.4891 Y31.6560
G01 X39.4994 Y31.6509
G01 X39.5048 Y31.6490
G01 X39.5114 Y31.6474
G01 X39.5223 Y31.6461
G01 X40.7151 Y31.6460
G01 X40.7224 Y31.6457
G01 X40.7280 Y31.6448
G01 X40.7334 Y31.6435
G01 X40.7387 Y31.6416
G01 X40.7437 Y31.6392
G01 X40.7485 Y31.6363
G01 X40.7530 Y31.6330
G01 X40.7572 Y31.6293
G01 X40.7609 Y31.6251
G01 X40.7642 Y31.6206
G01 X40.7671 Y31.6158
G01 X40.7695 Y31.6108
G01 X40.7714 Y31.6055
G01 X40.7727 Y31.6001
G01 X40.7736 Y31.5945
G01 X40.7738 Y31.5890
G01 X40.7736 Y31.5834
G01 X40.7727 Y31.5778
G01 X40.7714 Y31.5724
G01 X40.7695 Y31.5672
G01 X40.7671 Y31.5621
G01 X40.7642 Y31.5573
G01 X40.7609 Y31.5528
G01 X40.7572 Y31.5487
G01 X40.7530 Y31.5449
G01 X40.7485 Y31.5416
G01 X40.7437 Y31.5387
G01 X40.7387 Y31.5363
G01 X40.7334 Y31.5344
G01 X40.7280 Y31.5331
G01 X40.7224 Y31.5323
G01 X40.7151 Y31.5319
G01 X39.3997 Y31.5319
G01 X39.3924 Y31.5323
G01 X39.3869 Y31.5331
G01 X39.3815 Y31.5344
G01 X39.3762 Y31.5363
G01 X39.3712 Y31.5387
G01 X39.3664 Y31.5416
G01 X39.3619 Y31.5449
G01 X39.3577 Y31.5487
G01 X39.3540 Y31.5528
G01 X39.3506 Y31.5573
G01 X39.3478 Y31.5621
G01 X39.3454 Y31.5672
G01 X39.3435 Y31.5724
G01 X39.3421 Y31.5778
G01 X39.3413 Y31.5834
G01 X39.3409 Y31.5907
G01 X39.4209 Y31.5319
G01 X39.4209 Y38.2460
G01 X39.5009 Y38.2460
G01 X39.5009 Y38.1276
G00 Z2.0000
G00 X39.5809 Y38.1318
G01 F60.00
G01 Z-0.0500
G01 F120.00
G01 X39.5809 Y38.2460
G01 X39.6609 Y38.2460
G01 X39.6609 Y38.1318
G01 X39.7409 Y38.1318
G01 X39.7409 Y38.2460
G01 X39.8209 Y38.2460
G01 X39.8209 Y38.1318
G01 X39.9009 Y38.1318
G01 X39.9009 Y38.2460
G01 X39.9809 Y38.2460
G01 X39.9809 Y38.1318
G01 X40.0609 Y38.1318
G01 X40.0609 Y38.2460
G01 X40.1409 Y38.2460
G01 X40.1409 Y38.1318
G01 X40.2209 Y38.1318
G01 X40.2209 Y38.2460
G01 X40.3009 Y38.2460
G01 X40.3009 Y38.1318
G01 X40.3809 Y38.1318
G01 X40.3809 Y38.2460
G01 X40.4609 Y38.2460
G01 X40.4609 Y38.1318
G01 X40.5409 Y38.1318
G01 X40.5409 Y38.2460
G01 X40.6209 Y38.2460
G01 X40.6209 Y38.1318
G01 X40.7009 Y38.1318
G01 X40.7009 Y38.2460
G00 Z2.0000
G00 X44.7021 Y38.2460
G01 F60.00
G01 Z-0.0500
G01 F120.00
G01 X44.7021 Y38.1318
G01 X44.7821 Y38.1318
G01 X44.7821 Y38.2460
G01 X44.8621 Y38.2460
G01 X44.8621 Y38.1318
G01 X44.9421 Y38.1318
G01 X44.9421 Y38.2460
G01 X45.0221 Y38.2460
G01 X45.0221 Y38.1318
G01 X45.1021 Y38.1318
G01 X45.1021 Y38.2460
G01 X45.1821 Y38.2460
G01 X45.1821 Y38.1318
G01 X45.2621 Y38.1318
G01 X45.2621 Y38.2460
G01 X45.3421 Y38.2460
G01 X45.3421 Y38.1318
G01 X45.4221 Y38.1318
G01 X45.4221 Y38.2460
G01 X45.5021 Y38.2460
G01 X45.5021 Y38.1318
G01 X45.5821 Y38.1318
G01 X45.5821 Y38.2460
G01 X45.6621 Y38.2460
G01 X45.6621 Y38.1318
G01 X45.7421 Y38.1318
G01 X45.7421 Y38.2460
G01 X45.8221 Y38.2460
G01 X45.8221 Y38.1318
G00 Z2.0000
G00 X45.9021 Y38.1245
G01 F60.00
G01 Z-0.0500
G01 F120.00
G01 X45.9021 Y38.2460
G01 X45.9821 Y38.2460
G01 X45.9821 Y31.5319
G01 X45.9021 Y31.5319
G01 X45.9021 Y31.6534
G00 Z2.0000
G00 X48.0996 Y37.5303
G01 F60.00
G01 Z-0.0500
G01 F120.00
G01 X48.4094 Y37.5303
G01 X48.4662 Y37.6103
G01 X48.0428 Y37.6103
G01 X48.0247 Y37.6903
G01 X48.4843 Y37.6903
G01 X48.4845 Y37.6946
G01 X48.4840 Y37.6833
G01 X48.4829 Y37.6721
G01 X48.4812 Y37.6609
G01 X48.4790 Y37.6499
G01 X48.4762 Y37.6389
G01 X48.4730 Y37.6281
G01 X48.4692 Y37.6175
G01 X48.4648 Y37.6070
G01 X48.4600 Y37.5968
G01 X48.4547 Y37.5869
G01 X48.4489 Y37.5772
G01 X48.4426 Y37.5678
G01 X48.4359 Y37.5587
G01 X48.4287 Y37.5500
G01 X48.4211 Y37.5416
G01 X48.4132 Y37.5336
G01 X48.4048 Y37.5261
G01 X48.3961 Y37.5189
G01 X48.3870 Y37.5122
G01 X48.3776 Y37.5059
G01 X48.3679 Y37.5001
G01 X48.3580 Y37.4948
G01 X48.3477 Y37.4899
G01 X48.3373 Y37.4856
G01 X48.3267 Y37.4818
G01 X48.3159 Y37.4785
G01 X48.3049 Y37.4758
G01 X48.2938 Y37.4736
G01 X48.2827 Y37.4719
G01 X48.2714 Y37.4708
G01 X48.2602 Y37.4703
G01 X48.2489 Y37.4703
G01 X48.2376 Y37.4708
G01 X48.2263 Y37.4719
G01 X48.2152 Y37.4736
G01 X48.2041 Y37.4758
G01 X48.1931 Y37.4785
G01 X48.1823 Y37.4818
G01 X48.1717 Y37.4856
G01 X48.1613 Y37.4899
G01 X48.1511 Y37.4948
G01 X48.1411 Y37.5001
G01 X48.1314 Y37.5059
G01 X48.1220 Y37.5122
G01 X48.1130 Y37.5189
G01 X48.1042 Y37.5261
G01 X48.0959 Y37.5336
G01 X48.0879 Y37.5416
G01 X48.0803 Y37.5500
G01 X48.0731 Y37.5587
G01 X48.0664 Y37.5678
G01 X48.0601 Y37.5772
G01 X48.0543 Y37.5869
G01 X48.0490 Y37.5968
G01 X48.0442 Y37.6070
G01 X48.0399 Y37.6175
G01 X48.0360 Y37.6281
G01 X48.0328 Y37.6389
G01 X48.0300 Y37.6499
G01 X48.0278 Y37.6609
G01 X48.0262 Y37.6721
G01 X48.0251 Y37.6833
G01 X48.0245 Y37.6946
G01 X48.0245 Y37.7059
G01 X48.0251 Y37.7172
G01 X48.0262 Y37.7284
G01 X48.0278 Y37.7396
G01 X48.0300 Y37.7507
G01 X48.0328 Y37.7616
G01 X48.0360 Y37.7724
G01 X48.0399 Y37.7831
G01 X48.0442 Y37.7935
G01 X48.0490 Y37.8037
G01 X48.0543 Y37.8137
G01 X48.0601 Y37.8234
G01 X48.0664 Y37.8327
G01 X48.0731 Y37.8418
G01 X48.0803 Y37.8505
G01 X48.0879 Y37.8589
G01 X48.0959 Y37.8669
G01 X48.1042 Y37.8745
G01 X48.1130 Y37.8816
G01 X48.1220 Y37.8884
G01 X48.1314 Y37.8946
G01 X48.1411 Y37.9005
G01 X48.1511 Y37.9058
G01 X48.1613 Y37.9106
G01 X48.1717 Y37.9149
G01 X48.1823 Y37.9187
G01 X48.1931 Y37.9220
G01 X48.2041 Y37.9248
G01 X48.2152 Y37.9270
G01 X48.2263 Y37.9286
G01 X48.2376 Y37.9297
G01 X48.2489 Y37.9303
G01 X48.2602 Y37.9303
G01 X48.2714 Y37.9297
G01 X48.2827 Y37.9286
G01 X48.2938 Y37.9270
G01 X48.3049 Y37.9248
G01 X48.3159 Y37.9220
G01 X48.3267 Y37.9187
G01 X48.3373 Y37.9149
G01 X48.3477 Y37.9106
G01 X48.3580 Y37.9058
G01 X48.3679 Y37.9005
G01 X48.3776 Y37.8946
G01 X48.3870 Y37.8884
G01 X48.3961 Y37.8816
G01 X48.4048 Y37.8745
G01 X48.4132 Y37.8669
G01 X48.4211 Y37.8589
G01 X48.4287 Y37.8505
G01 X48.4359 Y37.8418
G01 X48.4426 Y37.8327
G01 X48.4489 Y37.8234
G01 X48.4547 Y37.8137
G01 X48.4600 Y37.8037
G01 X48.4648 Y37.7935
G01 X48.4692 Y37.7831
G01 X48.4730 Y37.7724
G01 X48.4762 Y37.7616
G01 X48.4790 Y37.7507
G01 X48.4812 Y37.7396
G01 X48.4829 Y37.7284
G01 X48.4840 Y37.7172
G01 X48.4845 Y37.7059
G01 X48.4845 Y37.6946
G01 X48.4736 Y37.7703
G01 X48.0354 Y37.7703
G01 X48.0801 Y37.8503
G01 X48.4289 Y37.8503
G00 Z2.0000
G00 X48.7408 Y38.1236
G01 F60.00
G01 Z-0.0500
G01 F120.00
G01 X48.7408 Y38.1413
G00 Z2.0000
G00 X48.8208 Y38.0623
G01 F60.00
G01 Z-0.0500
G01 F120.00
G01 X48.8208 Y38.0452
G01 X48.9008 Y38.0324
G01 X48.9008 Y38.0193
G01 X48.9808 Y38.0076
G01 X48.9808 Y37.9943
G01 X49.0608 Y37.9943
G01 X49.0608 Y38.0067
G00 Z2.0000
G00 X49.1408 Y38.0127
G01 F60.00
G01 Z-0.0500
G01 F120.00
G01 X49.1408 Y38.0258
G01 X49.2208 Y38.0389
G01 X49.2208 Y38.0521
G00 Z2.0000
G00 X49.3008 Y38.1047
G01 F60.00
G01 Z-0.0500
G01 F120.00
G01 X49.3008 Y38.1224
G00 Z2.0000
G00 X49.3808 Y38.2517
G01 F60.00
G01 Z-0.0500
G01 F120.00
G01 X49.3808 Y38.2917
G00 Z2.0000
G00 X49.7303 Y38.3627
G01 F60.00
G01 Z-0.0500
G01 F120.00
G01 X49.7842 Y38.1527
G01 X49.7866 Y38.1497
G01 X49.8882 Y38.0480
G01 X49.8904 Y38.0462
G01 X49.8934 Y38.0449
G01 X50.0475 Y37.9945
G01 X50.1034 Y37.9945
G01 X50.2600 Y38.0459
G01 X50.2626 Y38.0480
G01 X50.3659 Y38.1515
G01 X50.3676 Y38.1550
G01 X50.4180 Y38.3091
G01 X50.4180 Y38.3650
G01 X50.3666 Y38.5216
G01 X50.3644 Y38.5242
G01 X50.2610 Y38.6275
G01 X50.2574 Y38.6292
G01 X50.1034 Y38.6796
G01 X50.0481 Y38.6797
G01 X49.8914 Y38.6284
G01 X49.8882 Y38.6260
G01 X49.8676 Y38.6056
G01 X49.8614 Y38.6008
G01 X49.8544 Y38.5965
G01 X49.8450 Y38.5923
G01 X49.8363 Y38.5899
G01 X49.8270 Y38.5885
G01 X49.8179 Y38.5884
G01 X49.8111 Y38.5891
G01 X49.8043 Y38.5904
G01 X49.7977 Y38.5924
G01 X49.7925 Y38.5946
G01 X49.7872 Y38.5973
G01 X49.7814 Y38.6009
G01 X49.7769 Y38.6043
G01 X49.7718 Y38.6090
G01 X49.7672 Y38.6141
G01 X49.7638 Y38.6186
G01 X49.7602 Y38.6245
G01 X49.7576 Y38.6298
G01 X49.7555 Y38.6350
G01 X49.7535 Y38.6416
G01 X49.7522 Y38.6484
G01 X49.7516 Y38.6540
G01 X49.7517 Y38.6634
G01 X49.7529 Y38.6724
G01 X49.7928 Y38.8662
G01 X49.7945 Y38.8727
G01 X49.7963 Y38.8778
G01 X49.7991 Y38.8839
G01 X49.8027 Y38.8902
G01 X49.8850 Y39.0147
G01 X49.8883 Y39.0192
G01 X49.8928 Y39.0242
G01 X49.8977 Y39.0287
G01 X49.9030 Y39.0328
G01 X49.9117 Y39.0379
G01 X49.9200 Y39.0413
G01 X50.0391 Y39.0804
G01 X50.0476 Y39.0826
G01 X50.0536 Y39.0835
G01 X50.0598 Y39.0839
G01 X50.1407 Y39.0839
G01 X50.1481 Y39.0835
G01 X50.1554 Y39.0824
G01 X50.1625 Y39.0804
G01 X50.2771 Y39.0428
G01 X50.2867 Y39.0387
G01 X50.2954 Y39.0334
G01 X50.3007 Y39.0291
G01 X50.3056 Y39.0243
G01 X50.3100 Y39.0191
G01 X50.3143 Y39.0126
G01 X50.3560 Y38.9319
G01 X50.3572 Y38.9305
G01 X50.3593 Y38.9294
G01 X50.3617 Y38.9291
G01 X50.3640 Y38.9297
G01 X50.3659 Y38.9312
G01 X50.3672 Y38.9339
G01 X50.3672 Y38.9363
G01 X50.3660 Y38.9396
G01 X50.3142 Y39.0407
G01 X50.3118 Y39.0440
G01 X50.3082 Y39.0458
G01 X50.1542 Y39.0962
G01 X50.0506 Y39.0964
G01 X50.0481 Y39.0963
G01 X50.0451 Y39.0955
G01 X49.8935 Y39.0458
G01 X49.8908 Y39.0447
G01 X49.8890 Y39.0432
G01 X49.7854 Y38.8867
G01 X49.7840 Y38.8842
G01 X49.7832 Y38.8815
G01 X49.7302 Y38.6234
G01 X49.7301 Y38.3652
G01 X49.7303 Y38.3627
G01 X49.7497 Y38.3833
G01 X49.7902 Y38.5009
G01 X49.7936 Y38.5087
G01 X49.7984 Y38.5169
G01 X49.8023 Y38.5220
G01 X49.8061 Y38.5263
G01 X49.8861 Y38.6063
G01 X49.8945 Y38.6132
G01 X49.9039 Y38.6188
G01 X49.9131 Y38.6225
G01 X50.0403 Y38.6642
G01 X50.0499 Y38.6665
G01 X50.0603 Y38.6674
G01 X50.0930 Y38.6673
G01 X50.1010 Y38.6665
G01 X50.1079 Y38.6650
G01 X50.2388 Y38.6222
G01 X50.2459 Y38.6193
G01 X50.2527 Y38.6157
G01 X50.2581 Y38.6120
G01 X50.2636 Y38.6074
G01 X50.3443 Y38.5267
G01 X50.3491 Y38.5213
G01 X50.3529 Y38.5160
G01 X50.3572 Y38.5085
G01 X50.3606 Y38.5004
G01 X50.4023 Y38.3733
G01 X50.4039 Y38.3675
G01 X50.4051 Y38.3613
G01 X50.4057 Y38.3546
G01 X50.4057 Y38.3219
G01 X50.4051 Y38.3128
G01 X50.4034 Y38.3046
G01 X50.3602 Y38.1726
G01 X50.3577 Y38.1666
G01 X50.3547 Y38.1608
G01 X50.3511 Y38.1553
G01 X50.3476 Y38.1509
G01 X50.2648 Y38.0678
G01 X50.2581 Y38.0621
G01 X50.2517 Y38.0578
G01 X50.2450 Y38.0544
G01 X50.2384 Y38.0517
G01 X50.1117 Y38.0102
G01 X50.1046 Y38.0083
G01 X50.0986 Y38.0073
G01 X50.0924 Y38.0068
G01 X50.0609 Y38.0067
G01 X50.0536 Y38.0071
G01 X50.0450 Y38.0086
G01 X50.0391 Y38.0102
G01 X49.9089 Y38.0531
G01 X49.9021 Y38.0562
G01 X49.8964 Y38.0596
G01 X49.8911 Y38.0634
G01 X49.8858 Y38.0682
G01 X49.8071 Y38.1469
G01 X49.8002 Y38.1556
G01 X49.7952 Y38.1644
G01 X49.7928 Y38.1701
G01 X49.7907 Y38.1766
G01 X49.7474 Y38.3458
G01 X49.7461 Y38.3553
G01 X49.7460 Y38.3645
G01 X49.7471 Y38.3734
G01 X49.7497 Y38.3833
G00 Z2.0000
G00 X49.8101 Y38.5303
G01 F60.00
G01 Z-0.0500
G01 F120.00
G01 X49.8101 Y38.5892
G00 Z2.0000
G00 X49.8901 Y38.6098
G01 F60.00
G01 Z-0.0500
G01 F120.00
G01 X49.8901 Y38.6277
G01 X49.9701 Y38.6412
G01 X49.9701 Y38.6544
G01 X50.0501 Y38.6798
G01 X50.0501 Y38.6665
G00 Z2.0000
G00 X50.1301 Y38.6710
G01 F60.00
G01 Z-0.0500
G01 F120.00
G01 X50.1301 Y38.6578
G01 X50.2101 Y38.6447
G01 X50.2101 Y38.6316
G00 Z2.0000
G00 X50.2901 Y38.5985
G01 F60.00
G01 Z-0.0500
G01 F120.00
G01 X50.2901 Y38.5809
G01 X50.3701 Y38.5115
G01 X50.3701 Y38.4714
G00 Z2.0000
G00 X50.3701 Y38.2027
G01 F60.00
G01 Z-0.0500
G01 F120.00
G01 X50.3701 Y38.1626
G01 X50.2901 Y38.0932
G01 X50.2901 Y38.0755
G00 Z2.0000
G00 X50.2101 Y38.0425
G01 F60.00
G01 Z-0.0500
G01 F120.00
G01 X50.2101 Y38.0293
G01 X50.1301 Y38.0162
G01 X50.1301 Y38.0031
G01 X50.0501 Y37.9943
G01 X50.0501 Y38.0076
G00 Z2.0000
G00 X49.9701 Y38.0197
G01 F60.00
G01 Z-0.0500
G01 F120.00
G01 X49.9701 Y38.0328
G01 X49.8901 Y38.0464
G01 X49.8901 Y38.0642
G01 X49.8101 Y38.1262
G01 X49.8101 Y38.1438
G00 Z2.0000
G00 X50.4435 Y37.5774
G01 F60.00
G01 Z-0.0500
G01 F120.00
G01 X50.4464 Y37.5772
G01 X50.4481 Y37.5766
G01 X50.4500 Y37.5751
G01 X50.4511 Y37.5730
G01 X50.4513 Y37.5706
G01 X50.4506 Y37.5683
G01 X50.4491 Y37.5664
G01 X50.4470 Y37.5653
G01 X50.4435 Y37.5650
G01 X48.6685 Y37.5650
G01 X48.6650 Y37.5653
G01 X48.6629 Y37.5664
G01 X48.6614 Y37.5683
G01 X48.6606 Y37.5712
G01 X48.6614 Y37.5741
G01 X48.6629 Y37.5759
G01 X48.6650 Y37.5771
G01 X48.6685 Y37.5774
G01 X50.4435 Y37.5774
G00 Z2.0000
G00 X50.2901 Y39.0368
G01 F60.00
G01 Z-0.0500
G01 F120.00
G01 X50.2901 Y39.0517
G01 X50.2101 Y39.0648
G01 X50.2101 Y39.0780
G00 Z2.0000
G00 X50.1301 Y39.0839
G01 F60.00
G01 Z-0.0500
G01 F120.00
G01 X50.1301 Y39.0964
G01 X50.0501 Y39.0964
G01 X50.0501 Y39.0831
G00 Z2.0000
G00 X49.9701 Y39.0709
G01 F60.00
G01 Z-0.0500
G01 F120.00
G01 X49.9701 Y39.0578
G01 X49.8901 Y39.0443
G01 X49.8901 Y39.0213
G00 Z2.0000
G00 X49.8101 Y38.9241
G01 F60.00
G01 Z-0.0500
G01 F120.00
G01 X49.8101 Y38.9014
G00 Z2.0000
G00 X49.6650 Y39.3240
G01 F60.00
G01 Z-0.0500
G01 F120.00
G01 X49.6480 Y39.3240
G00 Z2.0000
G00 X49.6892 Y39.4040
G01 F60.00
G01 Z-0.0500
G01 F120.00
G01 X49.7019 Y39.4040
G01 X49.7038 Y39.4840
G01 X49.6914 Y39.4840
G01 X49.6914 Y39.5640
G01 X49.7038 Y39.5640
G01 X49.7038 Y39.6440
G01 X49.6914 Y39.6440
G01 X49.6914 Y39.7240
G01 X49.7038 Y39.7240
G01 X49.7038 Y39.8040
G01 X49.6914 Y39.8040
G01 X49.6914 Y39.8840
G01 X49.7038 Y39.8840
G01 X49.7038 Y39.9640
G01 X49.6914 Y39.9640
G01 X49.6914 Y40.0440
G01 X49.7038 Y40.0440
G01 X49.7038 Y40.1240
G01 X49.6914 Y40.1240
G01 X49.6914 Y40.2040
G01 X49.7038 Y40.2040
G01 X49.7038 Y40.2840
G01 X49.6914 Y40.2840
G01 X49.6914 Y40.3640
G01 X49.7038 Y40.3640
G01 X49.7038 Y40.4440
G01 X49.6914 Y40.4440
G01 X49.6914 Y40.5240
G01 X49.7038 Y40.5240
G01 X49.7038 Y40.6040
G01 X49.6914 Y40.6040
G01 X49.6914 Y40.6840
G01 X49.7038 Y40.6840
G01 X49.7038 Y40.7640
G01 X49.6914 Y40.7640
G00 Z2.0000
G00 X50.4107 Y39.3620
G01 F60.00
G01 Z-0.0500
G01 F120.00
G01 X50.4674 Y39.3620
G00 Z2.0000
G00 X50.4231 Y39.4271
G01 F60.00
G01 Z-0.0500
G01 F120.00
G01 X50.4235 Y39.4202
G01 X50.4245 Y39.4134
G01 X50.4262 Y39.4068
G01 X50.4285 Y39.4003
G01 X50.4314 Y39.3941
G01 X50.4349 Y39.3882
G01 X50.4390 Y39.3827
G01 X50.4428 Y39.3785
G01 X50.4478 Y39.3738
G01 X50.4532 Y39.3696
G01 X50.4591 Y39.3660
G01 X50.4643 Y39.3633
G01 X50.4707 Y39.3608
G01 X50.4773 Y39.3589
G01 X50.4841 Y39.3577
G01 X50.4908 Y39.3571
G01 X52.1755 Y39.3571
G01 X52.1851 Y39.3579
G01 X52.1952 Y39.3601
G01 X52.2048 Y39.3638
G01 X52.2138 Y39.3689
G01 X52.2210 Y39.3744
G01 X52.2267 Y39.3801
G01 X52.2318 Y39.3864
G01 X52.2360 Y39.3930
G01 X52.2395 Y39.4003
G01 X52.2422 Y39.4080
G01 X52.2441 Y39.4168
G01 X52.2448 Y39.4248
G01 X52.2449 Y40.6341
G01 X52.2452 Y40.6376
G01 X52.2463 Y40.6397
G01 X52.2482 Y40.6412
G01 X52.2505 Y40.6419
G01 X52.2529 Y40.6417
G01 X52.2550 Y40.6406
G01 X52.2565 Y40.6387
G01 X52.2571 Y40.6370
G01 X52.2573 Y40.6341
G01 X52.2573 Y39.3526
G01 X52.2570 Y39.3491
G01 X52.2555 Y39.3465
G01 X52.2529 Y39.3450
G01 X52.2494 Y39.3446
G01 X50.4186 Y39.3446
G01 X50.4157 Y39.3448
G01 X50.4135 Y39.3457
G01 X50.4122 Y39.3470
G01 X50.4112 Y39.3485
G01 X50.4107 Y39.3526
G01 X50.4107 Y40.6341
G01 X50.4110 Y40.6376
G01 X50.4122 Y40.6397
G01 X50.4146 Y40.6415
G01 X50.4175 Y40.6419
G01 X50.4198 Y40.6412
G01 X50.4220 Y40.6392
G01 X50.4229 Y40.6370
G01 X50.4231 Y40.6341
G01 X50.4231 Y39.4271
G01 X50.4231 Y39.4420
G01 X50.4107 Y39.4420
G01 X50.4107 Y39.5220
G01 X50.4231 Y39.5220
G01 X50.4231 Y39.6020
G01 X50.4107 Y39.6020
G01 X50.4107 Y39.6820
G01 X50.4231 Y39.6820
G01 X50.4231 Y39.7620
G01 X50.4107 Y39.7620
G01 X50.4107 Y39.8420
G01 X50.4231 Y39.8420
G01 X50.4231 Y39.9220
G01 X50.4107 Y39.9220
G01 X50.4107 Y40.0020
G01 X50.4231 Y40.0020
G01 X50.4231 Y40.0820
G01 X50.4107 Y40.0820
G01 X50.4107 Y40.1620
G01 X50.4231 Y40.1620
G01 X50.4231 Y40.2420
G01 X50.4107 Y40.2420
G01 X50.4107 Y40.3220
G01 X50.4231 Y40.3220
G01 X50.4231 Y40.4020
G01 X50.4107 Y40.4020
G01 X50.4107 Y40.4820
G01 X50.4231 Y40.4820
G01 X50.4231 Y40.5620
G01 X50.4107 Y40.5620
G00 Z2.0000
G00 X50.4107 Y41.5994
G01 F60.00
G01 Z-0.0500
G01 F120.00
G01 X50.4231 Y41.5994
G01 X50.4231 Y41.6794
G01 X50.4107 Y41.6794
G01 X50.4107 Y41.7594
G01 X50.4231 Y41.7594
G01 X50.4231 Y41.8394
G01 X50.4107 Y41.8394
G01 X50.4107 Y41.9194
G01 X50.4231 Y41.9194
G01 X50.4231 Y41.9994
G01 X50.4107 Y41.9994
G01 X50.4107 Y42.0794
G01 X50.4231 Y42.0794
G01 X50.4231 Y42.1594
G01 X50.4107 Y42.1594
G01 X50.4107 Y42.2394
G01 X50.4231 Y42.2394
G01 X50.4231 Y42.3194
G01 X50.4107 Y42.3194
G01 X50.4107 Y42.3994
G01 X50.4231 Y42.3994
G01 X50.4231 Y42.4794
G01 X50.4107 Y42.4794
G01 X50.4107 Y42.5594
G01 X50.4231 Y42.5594
G01 X50.4231 Y42.6394
G01 X50.4107 Y42.6394
G01 X50.4107 Y42.7194
G01 X50.4231 Y42.7194
G00 Z2.0000
G00 X50.4232 Y42.7994
G01 F60.00
G01 Z-0.0500
G01 F120.00
G01 X50.4107 Y42.7994
G01 X50.4108 Y42.8737
G01 X50.4112 Y42.8755
G01 X50.4126 Y42.8775
G01 X50.4140 Y42.8786
G01 X50.4163 Y42.8793
G01 X52.2494 Y42.8794
G01 X52.2523 Y42.8792
G01 X52.2545 Y42.8782
G01 X52.2559 Y42.8770
G01 X52.2568 Y42.8755
G01 X52.2573 Y42.8714
G01 X52.2573 Y41.5899
G01 X52.2571 Y41.5870
G01 X52.2562 Y41.5848
G01 X52.2545 Y41.5831
G01 X52.2529 Y41.5823
G01 X52.2511 Y41.5820
G01 X52.2487 Y41.5825
G01 X52.2467 Y41.5838
G01 X52.2457 Y41.5853
G01 X52.2451 Y41.5870
G01 X52.2449 Y41.5899
G01 X52.2448 Y42.7992
G01 X52.2441 Y42.8072
G01 X52.2425 Y42.8151
G01 X52.2400 Y42.8225
G01 X52.2366 Y42.8299
G01 X52.2331 Y42.8358
G01 X52.2282 Y42.8422
G01 X52.2228 Y42.8479
G01 X52.2166 Y42.8531
G01 X52.2079 Y42.8586
G01 X52.1973 Y42.8632
G01 X52.1863 Y42.8659
G01 X52.1755 Y42.8669
G01 X50.4931 Y42.8669
G01 X50.4863 Y42.8666
G01 X50.4795 Y42.8655
G01 X50.4728 Y42.8639
G01 X50.4675 Y42.8620
G01 X50.4612 Y42.8592
G01 X50.4561 Y42.8563
G01 X50.4505 Y42.8524
G01 X50.4452 Y42.8479
G01 X50.4413 Y42.8439
G01 X50.4369 Y42.8386
G01 X50.4331 Y42.8329
G01 X50.4299 Y42.8268
G01 X50.4272 Y42.8205
G01 X50.4252 Y42.8139
G01 X50.4239 Y42.8072
G01 X50.4233 Y42.8016
G01 X50.4231 Y41.5899
G01 X50.4226 Y41.5858
G01 X50.4217 Y41.5843
G01 X50.4203 Y41.5831
G01 X50.4187 Y41.5823
G01 X50.4169 Y41.5820
G01 X50.4151 Y41.5823
G01 X50.4135 Y41.5831
G01 X50.4122 Y41.5843
G01 X50.4112 Y41.5858
G01 X50.4107 Y41.5899
G01 X50.4107 Y42.8714
G00 Z2.0000
G00 X50.7778 Y43.2158
G01 F60.00
G01 Z-0.0500
G01 F120.00
G01 X50.7778 Y43.2391
G01 X50.6978 Y43.3417
G01 X50.6978 Y43.3650
G01 X50.6178 Y43.4676
G01 X50.6178 Y43.4908
G01 X50.5378 Y43.5935
G01 X50.5378 Y43.6167
G00 Z2.0000
G00 X50.4578 Y43.7193
G01 F60.00
G01 Z-0.0500
G01 F120.00
G01 X50.4578 Y43.7852
G01 X50.3778 Y43.7852
G01 X50.3778 Y43.7728
G01 X50.2978 Y43.7728
G01 X50.2978 Y43.7852
G01 X50.2178 Y43.7852
G01 X50.2178 Y43.7728
G00 Z2.0000
G00 X50.5378 Y43.7745
G01 F60.00
G01 Z-0.0500
G01 F120.00
G01 X50.5378 Y43.7877
G01 X50.6178 Y43.8008
G01 X50.6178 Y43.8139
G01 X50.6978 Y43.8321
G01 X50.6978 Y43.8493
G00 Z2.0000
G00 X50.7778 Y43.9445
G01 F60.00
G01 Z-0.0500
G01 F120.00
G01 X50.7778 Y43.9730
G00 Z2.0000
G00 X50.7778 Y44.1006
G01 F60.00
G01 Z-0.0500
G01 F120.00
G01 X50.7778 Y44.1291
G00 Z2.0000
G00 X50.6978 Y44.2261
G01 F60.00
G01 Z-0.0500
G01 F120.00
G01 X50.6978 Y44.2437
G01 X50.6178 Y44.2623
G01 X50.6178 Y44.2754
G01 X50.5378 Y44.2884
G01 X50.5378 Y44.3016
G01 X50.4578 Y44.3034
G01 X50.4578 Y44.2909
G01 X50.3778 Y44.2909
G01 X50.3778 Y44.3034
G01 X50.2978 Y44.3034
G01 X50.2978 Y44.2909
G01 X50.2178 Y44.2909
G01 X50.2178 Y44.3034
G01 X50.1402 Y44.2909
G01 X50.1322 Y44.2904
G01 X50.1244 Y44.2891
G01 X50.1167 Y44.2868
G01 X50.1103 Y44.2842
G01 X50.1043 Y44.2810
G01 X50.0976 Y44.2764
G01 X50.0916 Y44.2713
G01 X50.0869 Y44.2663
G01 X50.0820 Y44.2598
G01 X50.0785 Y44.2539
G01 X50.0756 Y44.2477
G01 X50.0729 Y44.2401
G01 X50.0714 Y44.2334
G01 X50.0704 Y44.2256
G01 X50.0704 Y43.8506
G01 X50.0710 Y43.8450
G01 X50.0723 Y43.8382
G01 X50.0743 Y43.8317
G01 X50.0764 Y43.8264
G01 X50.0820 Y43.8163
G01 X50.0861 Y43.8108
G01 X50.0899 Y43.8066
G01 X50.0985 Y43.7990
G01 X50.1043 Y43.7952
G01 X50.1092 Y43.7925
G01 X50.1199 Y43.7883
G01 X50.1266 Y43.7866
G01 X50.1322 Y43.7857
G01 X50.1402 Y43.7852
G01 X50.5192 Y43.7852
G01 X50.5253 Y43.7855
G01 X50.5326 Y43.7865
G01 X50.5404 Y43.7885
G01 X50.6680 Y43.8304
G01 X50.6738 Y43.8326
G01 X50.6804 Y43.8358
G01 X50.6864 Y43.8396
G01 X50.6913 Y43.8434
G01 X50.7269 Y43.8771
G01 X50.7317 Y43.8825
G01 X50.7354 Y43.8876
G01 X50.7398 Y43.8952
G01 X50.7782 Y43.9740
G01 X50.7807 Y43.9805
G01 X50.7824 Y43.9866
G01 X50.7837 Y43.9940
G01 X50.7842 Y44.0013
G01 X50.7841 Y44.0756
G01 X50.7834 Y44.0819
G01 X50.7821 Y44.0881
G01 X50.7803 Y44.0942
G01 X50.7780 Y44.1000
G01 X50.7393 Y44.1794
G01 X50.7337 Y44.1888
G01 X50.7271 Y44.1967
G01 X50.6928 Y44.2309
G01 X50.6847 Y44.2374
G01 X50.6791 Y44.2409
G01 X50.6743 Y44.2433
G01 X50.6671 Y44.2461
G01 X50.5404 Y44.2876
G01 X50.5326 Y44.2896
G01 X50.5253 Y44.2906
G01 X50.5192 Y44.2909
G01 X50.1402 Y44.2909
G00 Z2.0000
G00 X50.1378 Y44.2909
G01 F60.00
G01 Z-0.0500
G01 F120.00
G01 X50.1378 Y44.3034
G01 X50.0578 Y44.2954
G01 X50.0579 Y44.2978
G01 X50.0586 Y44.3001
G01 X50.0606 Y44.3023
G01 X50.0628 Y44.3032
G01 X50.0657 Y44.3034
G01 X50.5295 Y44.3034
G01 X50.5320 Y44.3033
G01 X50.6893 Y44.2517
G01 X50.6919 Y44.2496
G01 X50.7448 Y44.1963
G01 X50.7954 Y44.0930
G01 X50.7965 Y44.0900
G01 X50.7967 Y44.0873
G01 X50.7967 Y43.9863
G01 X50.7964 Y43.9831
G01 X50.7459 Y43.8793
G01 X50.7446 Y43.8770
G01 X50.7428 Y43.8750
G01 X50.6917 Y43.8263
G01 X50.6892 Y43.8244
G01 X50.5393 Y43.7750
G01 X50.5310 Y43.7716
G01 X50.5224 Y43.7665
G01 X50.5154 Y43.7610
G01 X50.5098 Y43.7554
G01 X50.5044 Y43.7484
G01 X50.4998 Y43.7406
G01 X50.4962 Y43.7325
G01 X50.4938 Y43.7240
G01 X50.4924 Y43.7150
G01 X50.4922 Y43.7061
G01 X50.4930 Y43.6982
G01 X50.4948 Y43.6896
G01 X50.4978 Y43.6813
G01 X50.5019 Y43.6733
G01 X50.7948 Y43.2123
G01 X50.7964 Y43.2092
G01 X50.7965 Y43.2068
G01 X50.7958 Y43.2045
G01 X50.7937 Y43.2023
G01 X50.7909 Y43.2014
G01 X50.7885 Y43.2017
G01 X50.7864 Y43.2028
G01 X50.7843 Y43.2056
G01 X50.4423 Y43.7435
G01 X50.4366 Y43.7504
G01 X50.4306 Y43.7562
G01 X50.4240 Y43.7611
G01 X50.4171 Y43.7652
G01 X50.4095 Y43.7685
G01 X50.4015 Y43.7709
G01 X50.3936 Y43.7723
G01 X50.3854 Y43.7728
G01 X50.1402 Y43.7728
G01 X50.1322 Y43.7723
G01 X50.1244 Y43.7709
G01 X50.1167 Y43.7687
G01 X50.1083 Y43.7651
G01 X50.1013 Y43.7610
G01 X50.0949 Y43.7561
G01 X50.0892 Y43.7507
G01 X50.0840 Y43.7445
G01 X50.0796 Y43.7377
G01 X50.0756 Y43.7295
G01 X50.0726 Y43.7210
G01 X50.0710 Y43.7130
G01 X50.0702 Y43.7039
G01 X50.0702 Y43.2092
G01 X50.0700 Y43.2063
G01 X50.0694 Y43.2046
G01 X50.0684 Y43.2031
G01 X50.0664 Y43.2018
G01 X50.0640 Y43.2013
G01 X50.0622 Y43.2016
G01 X50.0606 Y43.2024
G01 X50.0589 Y43.2041
G01 X50.0580 Y43.2063
G01 X50.0578 Y43.2092
G01 X50.0578 Y44.2954
G00 Z2.0000
G00 X49.5955 Y44.3775
G01 F60.00
G01 Z-0.0500
G01 F120.00
G01 X49.5955 Y44.4964
G01 X49.6376 Y44.5551
G01 X49.6390 Y44.5563
G01 X49.6406 Y44.5570
G01 X49.6424 Y44.5573
G01 X49.6442 Y44.5570
G01 X49.6463 Y44.5559
G01 X49.6477 Y44.5542
G01 X49.6484 Y44.5523
G01 X49.6486 Y44.5494
G01 X49.6486 Y43.8998
G01 X49.6494 Y43.8907
G01 X49.6510 Y43.8828
G01 X49.6539 Y43.8742
G01 X49.6575 Y43.8669
G01 X49.6617 Y43.8602
G01 X49.6667 Y43.8539
G01 X49.6725 Y43.8483
G01 X49.6787 Y43.8434
G01 X49.6856 Y43.8392
G01 X49.6918 Y43.8363
G01 X49.6995 Y43.8336
G01 X49.7071 Y43.8319
G01 X49.7186 Y43.8309
G01 X49.8997 Y43.8309
G01 X49.9026 Y43.8307
G01 X49.9049 Y43.8298
G01 X49.9069 Y43.8276
G01 X49.9076 Y43.8253
G01 X49.9071 Y43.8224
G01 X49.9053 Y43.8200
G01 X49.9032 Y43.8188
G01 X49.8997 Y43.8185
G01 X49.7186 Y43.8185
G01 X49.7083 Y43.8177
G01 X49.7016 Y43.8164
G01 X49.6950 Y43.8144
G01 X49.6887 Y43.8118
G01 X49.6826 Y43.8085
G01 X49.6769 Y43.8047
G01 X49.6716 Y43.8003
G01 X49.6667 Y43.7955
G01 X49.6617 Y43.7892
G01 X49.6563 Y43.7804
G01 X49.6523 Y43.7709
G01 X49.6497 Y43.7609
G01 X49.6487 Y43.7513
G01 X49.6486 Y43.4632
G01 X49.6481 Y43.4591
G01 X49.6463 Y43.4567
G01 X49.6447 Y43.4558
G01 X49.6424 Y43.4553
G01 X49.6406 Y43.4556
G01 X49.6390 Y43.4564
G01 X49.6376 Y43.4576
G01 X49.6367 Y43.4591
G01 X49.6361 Y43.4632
G01 X49.6361 Y43.7485
G01 X49.6357 Y43.7566
G01 X49.6345 Y43.7633
G01 X49.6324 Y43.7709
G01 X49.6294 Y43.7784
G01 X49.6262 Y43.7845
G01 X49.6224 Y43.7902
G01 X49.6172 Y43.7964
G01 X49.6122 Y43.8012
G01 X49.6060 Y43.8060
G01 X49.5980 Y43.8108
G01 X49.5886 Y43.8148
G01 X49.5786 Y43.8174
G01 X49.5690 Y43.8184
G01 X49.1234 Y43.8185
G01 X49.1198 Y43.8188
G01 X49.1177 Y43.8200
G01 X49.1159 Y43.8225
G01 X49.1155 Y43.8249
G01 X49.1161 Y43.8272
G01 X49.1176 Y43.8298
G01 X49.6363 Y44.5534
G01 X49.6376 Y44.5551
G01 X49.2755 Y44.0500
G01 X49.2755 Y44.0286
G01 X49.2132 Y43.9417
G01 X49.2101 Y43.9369
G01 X49.2058 Y43.9285
G01 X49.2027 Y43.9198
G01 X49.2008 Y43.9108
G01 X49.2001 Y43.9026
G01 X49.2003 Y43.8956
G01 X49.2010 Y43.8900
G01 X49.2024 Y43.8831
G01 X49.2042 Y43.8774
G01 X49.2063 Y43.8721
G01 X49.2095 Y43.8659
G01 X49.2133 Y43.8601
G01 X49.2176 Y43.8546
G01 X49.2225 Y43.8496
G01 X49.2279 Y43.8451
G01 X49.2336 Y43.8412
G01 X49.2386 Y43.8384
G01 X49.2450 Y43.8356
G01 X49.2507 Y43.8337
G01 X49.2562 Y43.8323
G01 X49.2631 Y43.8313
G01 X49.2701 Y43.8309
G01 X49.5718 Y43.8312
G01 X49.5798 Y43.8323
G01 X49.5865 Y43.8340
G01 X49.5940 Y43.8368
G01 X49.6011 Y43.8403
G01 X49.6078 Y43.8447
G01 X49.6131 Y43.8491
G01 X49.6188 Y43.8549
G01 X49.6236 Y43.8610
G01 X49.6284 Y43.8690
G01 X49.6324 Y43.8785
G01 X49.6350 Y43.8885
G01 X49.6361 Y43.8986
G01 X49.6359 Y44.3195
G01 X49.6341 Y44.3307
G01 X49.6305 Y44.3415
G01 X49.6253 Y44.3514
G01 X49.6184 Y44.3604
G01 X49.6102 Y44.3683
G01 X49.6010 Y44.3746
G01 X49.5908 Y44.3795
G01 X49.5798 Y44.3826
G01 X49.5709 Y44.3838
G01 X49.5608 Y44.3837
G01 X49.5519 Y44.3825
G01 X49.5430 Y44.3800
G01 X49.5348 Y44.3765
G01 X49.5260 Y44.3713
G01 X49.5182 Y44.3649
G01 X49.5120 Y44.3584
G01 X49.2132 Y43.9417
G00 Z2.0000
G00 X49.1955 Y43.9384
G01 F60.00
G01 Z-0.0500
G01 F120.00
G01 X49.1955 Y43.8185
G01 X49.2755 Y43.8185
G01 X49.2755 Y43.8309
G01 X49.3555 Y43.8309
G01 X49.3555 Y43.8185
G01 X49.4355 Y43.8185
G01 X49.4355 Y43.8309
G01 X49.5155 Y43.8309
G01 X49.5155 Y43.8185
G00 Z2.0000
G00 X49.5955 Y43.8120
G01 F60.00
G01 Z-0.0500
G01 F120.00
G01 X49.5955 Y43.8374
G00 Z2.0000
G00 X49.6755 Y43.8458
G01 F60.00
G01 Z-0.0500
G01 F120.00
G01 X49.6755 Y43.8036
G00 Z2.0000
G00 X49.7555 Y43.8185
G01 F60.00
G01 Z-0.0500
G01 F120.00
G01 X49.7555 Y43.8309
G01 X49.8355 Y43.8309
G01 X49.8355 Y43.8185
G00 Z2.0000
G00 X50.1378 Y43.7853
G01 F60.00
G01 Z-0.0500
G01 F120.00
G01 X50.1378 Y43.7727
G00 Z2.0000
G00 X49.6828 Y43.1288
G01 F60.00
G01 Z-0.0500
G01 F120.00
G01 X49.6683 Y43.1288
G00 Z2.0000
G00 X49.6914 Y43.0488
G01 F60.00
G01 Z-0.0500
G01 F120.00
G01 X49.7038 Y43.0488
G01 X49.7038 Y42.9688
G01 X49.6914 Y42.9688
G01 X49.6914 Y42.8888
G01 X49.7038 Y42.8888
G01 X49.7038 Y42.8088
G01 X49.6914 Y42.8088
G01 X49.6914 Y42.7288
G01 X49.7038 Y42.7288
G01 X49.7038 Y42.6488
G01 X49.6914 Y42.6488
G01 X49.6914 Y42.5688
G01 X49.7038 Y42.5688
G01 X49.7038 Y42.4888
G01 X49.6914 Y42.4888
G01 X49.6914 Y42.4088
G01 X49.7038 Y42.4088
G01 X49.7038 Y42.3288
G01 X49.6914 Y42.3288
G01 X49.6914 Y42.2488
G01 X49.7038 Y42.2488
G01 X49.7038 Y42.1688
G01 X49.6914 Y42.1688
G01 X49.6914 Y42.0888
G01 X49.7038 Y42.0888
G01 X49.7038 Y42.0088
G01 X49.6914 Y42.0088
G01 X49.6914 Y41.9288
G01 X49.7038 Y41.9288
G01 X49.7038 Y41.8488
G01 X49.6914 Y41.8488
G01 X49.6914 Y41.7688
G01 X49.7038 Y41.7688
G01 X49.7038 Y41.6888
G01 X49.6914 Y41.6888
G00 Z2.0000
G00 X47.8842 Y41.6888
G01 F60.00
G01 Z-0.0500
G01 F120.00
G01 X47.8966 Y41.6888
G01 X47.8966 Y41.7688
G01 X47.8842 Y41.7688
G01 X47.8842 Y41.8488
G01 X47.8966 Y41.8488
G01 X47.8966 Y41.9288
G01 X47.8842 Y41.9288
G01 X47.8842 Y42.0088
G01 X47.8966 Y42.0088
G01 X47.8966 Y42.0888
G01 X47.8842 Y42.0888
G01 X47.8842 Y42.1688
G01 X47.8966 Y42.1688
G01 X47.8966 Y42.2488
G01 X47.8842 Y42.2488
G01 X47.8842 Y42.3288
G01 X47.8966 Y42.3288
G01 X47.8966 Y42.4088
G01 X47.8842 Y42.4088
G01 X47.8842 Y42.4888
G01 X47.8966 Y42.4888
G01 X47.8966 Y42.5688
G01 X47.8842 Y42.5688
G01 X47.8842 Y42.6488
G01 X47.8966 Y42.6488
G01 X47.8966 Y42.7288
G01 X47.8842 Y42.7288
G01 X47.8842 Y42.8088
G01 X47.8966 Y42.8088
G01 X47.8966 Y42.8888
G01 X47.8842 Y42.8888
G01 X47.8842 Y42.9688
G01 X47.8966 Y42.9688
G00 Z2.0000
G00 X47.8966 Y43.0488
G01 F60.00
G01 Z-0.0500
G01 F120.00
G01 X47.8842 Y43.0488
G00 Z2.0000
G00 X47.8842 Y43.0485
G01 F60.00
G01 Z-0.0500
G01 F120.00
G01 X47.8848 Y43.0637
G01 X47.8869 Y43.0791
G01 X47.8905 Y43.0943
G01 X47.8955 Y43.1090
G01 X47.9020 Y43.1232
G01 X47.9039 Y43.1267
G01 X47.9098 Y43.1366
G01 X47.9190 Y43.1492
G01 X47.9293 Y43.1609
G01 X47.9438 Y43.1740
G01 X47.9564 Y43.1831
G01 X47.9698 Y43.1910
G01 X47.9840 Y43.1974
G01 X47.9987 Y43.2025
G01 X48.0138 Y43.2061
G01 X48.0293 Y43.2082
G01 X48.0445 Y43.2088
G01 X49.5435 Y43.2088
G01 X49.5587 Y43.2082
G01 X49.5742 Y43.2061
G01 X49.5932 Y43.2013
G01 X49.6077 Y43.1959
G01 X49.6217 Y43.1891
G01 X49.6350 Y43.1809
G01 X49.6442 Y43.1740
G01 X49.6587 Y43.1609
G01 X49.6690 Y43.1492
G01 X49.6782 Y43.1366
G01 X49.6860 Y43.1232
G01 X49.6925 Y43.1090
G01 X49.6975 Y43.0943
G01 X49.7003 Y43.0831
G01 X49.7028 Y43.0678
G01 X49.7037 Y43.0522
G01 X49.7038 Y41.6419
G01 X49.7035 Y41.6384
G01 X49.7024 Y41.6363
G01 X49.7005 Y41.6348
G01 X49.6988 Y41.6342
G01 X49.6970 Y41.6341
G01 X49.6947 Y41.6348
G01 X49.6933 Y41.6358
G01 X49.6919 Y41.6378
G01 X49.6914 Y41.6419
G01 X49.6913 Y43.0504
G01 X49.6905 Y43.0651
G01 X49.6883 Y43.0793
G01 X49.6848 Y43.0932
G01 X49.6799 Y43.1067
G01 X49.6737 Y43.1196
G01 X49.6663 Y43.1319
G01 X49.6577 Y43.1433
G01 X49.6468 Y43.1551
G01 X49.6374 Y43.1635
G01 X49.6258 Y43.1720
G01 X49.6135 Y43.1793
G01 X49.6005 Y43.1854
G01 X49.5870 Y43.1902
G01 X49.5743 Y43.1933
G01 X49.5601 Y43.1955
G01 X49.5456 Y43.1963
G01 X48.0445 Y43.1964
G01 X48.0291 Y43.1956
G01 X48.0154 Y43.1937
G01 X48.0015 Y43.1903
G01 X47.9901 Y43.1864
G01 X47.9838 Y43.1838
G01 X47.9709 Y43.1773
G01 X47.9607 Y43.1710
G01 X47.9480 Y43.1613
G01 X47.9391 Y43.1530
G01 X47.9295 Y43.1424
G01 X47.9210 Y43.1308
G01 X47.9137 Y43.1185
G01 X47.9081 Y43.1067
G01 X47.9032 Y43.0932
G01 X47.8997 Y43.0793
G01 X47.8975 Y43.0651
G01 X47.8966 Y43.0483
G01 X47.8966 Y41.6419
G01 X47.8961 Y41.6378
G01 X47.8952 Y41.6363
G01 X47.8938 Y41.6351
G01 X47.8922 Y41.6343
G01 X47.8904 Y41.6340
G01 X47.8880 Y41.6345
G01 X47.8865 Y41.6354
G01 X47.8847 Y41.6378
G01 X47.8842 Y41.6419
G01 X47.8842 Y43.0485
G01 X47.9052 Y43.1288
G01 X47.9197 Y43.1288
G00 Z2.0000
G00 X47.7108 Y43.4697
G01 F60.00
G01 Z-0.0500
G01 F120.00
G01 X47.7108 Y43.4553
G01 X47.7908 Y43.4553
G01 X47.7908 Y43.4677
G01 X47.8708 Y43.4677
G01 X47.8708 Y43.4553
G01 X47.9508 Y43.4711
G01 X47.9508 Y43.4850
G01 X48.0308 Y43.5149
G01 X48.0308 Y43.5326
G01 X48.1108 Y43.5949
G01 X48.1108 Y43.6126
G00 Z2.0000
G00 X47.6308 Y43.5068
G01 F60.00
G01 Z-0.0500
G01 F120.00
G01 X47.6308 Y43.4929
G00 Z2.0000
G00 X47.5508 Y43.5580
G01 F60.00
G01 Z-0.0500
G01 F120.00
G01 X47.5508 Y43.5756
G00 Z2.0000
G00 X47.4708 Y43.6621
G01 F60.00
G01 Z-0.0500
G01 F120.00
G01 X47.4708 Y43.6894
G00 Z2.0000
G00 X47.4708 Y44.3232
G01 F60.00
G01 Z-0.0500
G01 F120.00
G01 X47.4708 Y44.3506
G00 Z2.0000
G00 X47.5508 Y44.4370
G01 F60.00
G01 Z-0.0500
G01 F120.00
G01 X47.5508 Y44.4547
G00 Z2.0000
G00 X47.6308 Y44.5058
G01 F60.00
G01 Z-0.0500
G01 F120.00
G01 X47.6308 Y44.5197
G00 Z2.0000
G00 X47.7108 Y44.5430
G01 F60.00
G01 Z-0.0500
G01 F120.00
G01 X47.7108 Y44.5574
G01 X47.7908 Y44.5574
G01 X47.7908 Y44.5449
G01 X47.8708 Y44.5449
G01 X47.8708 Y44.5574
G01 X47.9508 Y44.5416
G01 X47.9508 Y44.5276
G01 X48.0308 Y44.4977
G01 X48.0308 Y44.4801
G01 X48.1108 Y44.4177
G01 X48.1108 Y44.4001
G00 Z2.0000
G00 X48.1234 Y44.3827
G01 F60.00
G01 Z-0.0500
G01 F120.00
G01 X48.1176 Y44.3920
G01 X48.1114 Y44.3994
G01 X48.0236 Y44.4872
G01 X48.0151 Y44.4945
G01 X48.0060 Y44.5000
G01 X47.9286 Y44.5387
G01 X47.9220 Y44.5413
G01 X47.9147 Y44.5433
G01 X47.9073 Y44.5445
G01 X47.8997 Y44.5449
G01 X47.7249 Y44.5449
G01 X47.7186 Y44.5444
G01 X47.7124 Y44.5434
G01 X47.7011 Y44.5399
G01 X47.6189 Y44.5000
G01 X47.6127 Y44.4966
G01 X47.6075 Y44.4929
G01 X47.6007 Y44.4869
G01 X47.5136 Y44.3998
G01 X47.5077 Y44.3930
G01 X47.5031 Y44.3862
G01 X47.4562 Y44.2947
G01 X47.4534 Y44.2887
G01 X47.4066 Y44.1441
G01 X47.4045 Y44.1358
G01 X47.4036 Y44.1299
G01 X47.4032 Y44.1226
G01 X47.4032 Y43.8877
G01 X47.4036 Y43.8803
G01 X47.4048 Y43.8730
G01 X47.4065 Y43.8665
G01 X47.4531 Y43.7247
G01 X47.4561 Y43.7181
G01 X47.5024 Y43.6278
G01 X47.5069 Y43.6207
G01 X47.5132 Y43.6132
G01 X47.6012 Y43.5252
G01 X47.6095 Y43.5182
G01 X47.6195 Y43.5123
G01 X47.6983 Y43.4739
G01 X47.7071 Y43.4706
G01 X47.7155 Y43.4687
G01 X47.7270 Y43.4677
G01 X47.9008 Y43.4677
G01 X47.9115 Y43.4687
G01 X47.9220 Y43.4714
G01 X47.9305 Y43.4749
G01 X48.0065 Y43.5129
G01 X48.0151 Y43.5182
G01 X48.0228 Y43.5246
G01 X48.1105 Y43.6124
G01 X48.1154 Y43.6178
G01 X48.1197 Y43.6237
G01 X48.1228 Y43.6289
G01 X48.1716 Y43.7239
G01 X48.1728 Y43.7253
G01 X48.1743 Y43.7262
G01 X48.1761 Y43.7267
G01 X48.1779 Y43.7266
G01 X48.1796 Y43.7260
G01 X48.1811 Y43.7250
G01 X48.1822 Y43.7236
G01 X48.1829 Y43.7213
G01 X48.1827 Y43.7189
G01 X48.1815 Y43.7162
G01 X48.1298 Y43.6152
G01 X48.1282 Y43.6126
G01 X48.1266 Y43.6107
G01 X48.0232 Y43.5075
G01 X47.9199 Y43.4558
G01 X47.9161 Y43.4553
G01 X47.7083 Y43.4554
G01 X47.7053 Y43.4566
G01 X47.6020 Y43.5071
G01 X47.5995 Y43.5092
G01 X47.4980 Y43.6107
G01 X47.4960 Y43.6131
G01 X47.4948 Y43.6152
G01 X47.4421 Y43.7182
G01 X47.3909 Y43.8749
G01 X47.3910 Y44.1359
G01 X47.4421 Y44.2944
G01 X47.4960 Y44.3996
G01 X47.6014 Y44.5051
G01 X47.6043 Y44.5068
G01 X47.7072 Y44.5569
G01 X47.7110 Y44.5574
G01 X47.9161 Y44.5574
G01 X47.9194 Y44.5571
G01 X47.9220 Y44.5560
G01 X48.0232 Y44.5051
G01 X48.1266 Y44.4019
G01 X48.1286 Y44.3996
G01 X48.1298 Y44.3974
G01 X48.1815 Y44.2964
G01 X48.1827 Y44.2938
G01 X48.1829 Y44.2914
G01 X48.1818 Y44.2886
G01 X48.1801 Y44.2869
G01 X48.1779 Y44.2860
G01 X48.1755 Y44.2861
G01 X48.1733 Y44.2870
G01 X48.1716 Y44.2887
G01 X48.1234 Y44.3827
G00 Z2.0000
G00 X48.5935 Y44.3877
G01 F60.00
G01 Z-0.0500
G01 F120.00
G01 X48.5935 Y44.3737
G01 X48.6103 Y44.3963
G01 X48.6196 Y44.4020
G01 X48.6271 Y44.4083
G01 X48.7731 Y44.5543
G01 X48.7759 Y44.5566
G01 X48.7782 Y44.5573
G01 X48.7811 Y44.5568
G01 X48.7835 Y44.5551
G01 X48.7846 Y44.5529
G01 X48.7850 Y44.5494
G01 X48.7850 Y43.4632
G01 X48.7848 Y43.4603
G01 X48.7839 Y43.4581
G01 X48.7822 Y43.4564
G01 X48.7800 Y43.4555
G01 X48.7770 Y43.4556
G01 X48.7744 Y43.4571
G01 X48.7729 Y43.4597
G01 X48.7725 Y43.4632
G01 X48.7725 Y44.3671
G01 X48.7722 Y44.3740
G01 X48.7714 Y44.3795
G01 X48.7698 Y44.3862
G01 X48.7676 Y44.3927
G01 X48.7648 Y44.3990
G01 X48.7619 Y44.4041
G01 X48.7580 Y44.4098
G01 X48.7536 Y44.4150
G01 X48.7486 Y44.4198
G01 X48.7432 Y44.4240
G01 X48.7385 Y44.4271
G01 X48.7325 Y44.4304
