(G-CODE GENERATED BY FLATCAM v8.994 - www.flatcam.org - Version Date: 2020/11/7)

(Name: Gerber_BottomSilkscreenLayer.GBO_mt_paint_1_cnc)
(Type: G-code from Geometry)
(Units: MM)

(Created on Friday, 03 May 2024 at 15:25)

(This preprocessor is the default preprocessor used by FlatCAM.)
(It is made to work with MACH3 compatible motion controllers.)

(TOOL DIAMETER: 0.1 mm)
(Feedrate_XY: 120.0 mm/min)
(Feedrate_Z: 60.0 mm/min)
(Feedrate rapids 1500.0 mm/min)

(Z_Cut: -0.05 mm)
(Z_Move: 2.0 mm)
(Z Start: None mm)
(Z End: 15.0 mm)
(X,Y End: None mm)
(Steps per circle: 64)
(Preprocessor Geometry: default)

(X range:   15.7883 ...   68.2427  mm)
(Y range:   24.5043 ...   46.2246  mm)

(Spindle Speed: 0.0 RPM)
G21
G90
G94

G01 F120.00

M5
G00 Z15.0000
G00 X0.0000 Y0.0000
T1
M6    
(MSG, Change to Tool Dia = 0.1000)
M0
G00 Z15.0000

M03
G01 F120.00
G00 X15.8683 Y24.5104
G01 F60.00
G01 Z-0.0500
G01 F120.00
G01 X15.8683 Y24.5043
G01 X15.9483 Y24.5043
G01 X15.9483 Y24.5076
G01 X16.0283 Y24.5076
G01 X16.0283 Y24.5043
G01 X16.1083 Y24.5043
G01 X16.1083 Y24.5076
G01 X16.1883 Y24.5076
G01 X16.1883 Y24.5043
G01 X16.2683 Y24.5043
G01 X16.2683 Y24.5076
G01 X16.3483 Y24.5076
G01 X16.3483 Y24.5043
G01 X16.4283 Y24.5043
G01 X16.4283 Y24.5076
G01 X16.5083 Y24.5076
G01 X16.5083 Y24.5043
G01 X16.5883 Y24.5043
G01 X16.5883 Y24.5076
G01 X16.6683 Y24.5076
G01 X16.6683 Y24.5043
G01 X16.7483 Y24.5043
G01 X16.7483 Y24.5076
G01 X16.8283 Y24.5076
G01 X16.8283 Y24.5043
G01 X16.9083 Y24.5043
G01 X16.9083 Y24.5076
G01 X16.9883 Y24.5076
G01 X16.9883 Y24.5043
G01 X17.0683 Y24.5043
G01 X17.0683 Y24.5076
G01 X17.1483 Y24.5076
G01 X17.1483 Y24.5043
G01 X17.2283 Y24.5043
G01 X17.2283 Y24.5076
G01 X17.3083 Y24.5076
G01 X17.3083 Y24.5043
G01 X17.3883 Y24.5043
G01 X17.3883 Y24.5076
G01 X17.4683 Y24.5076
G01 X17.4683 Y24.5043
G01 X17.5483 Y24.5043
G01 X17.5483 Y24.5076
G01 X17.6283 Y24.5076
G01 X17.6283 Y24.5043
G01 X17.7083 Y24.5043
G01 X17.7083 Y24.5076
G01 X17.7883 Y24.5076
G01 X17.7883 Y24.5043
G01 X17.8683 Y24.5043
G01 X17.8683 Y24.5076
G01 X17.9483 Y24.5076
G01 X17.9483 Y24.5043
G01 X18.0283 Y24.5043
G01 X18.0283 Y24.5076
G01 X18.1083 Y24.5076
G01 X18.1083 Y24.5043
G01 X18.1883 Y24.5043
G01 X18.1883 Y24.5076
G01 X18.2683 Y24.5043
G01 X18.2683 Y24.5160
G00 Z2.0000
G00 X18.2683 Y27.0360
G01 F60.00
G01 Z-0.0500
G01 F120.00
G01 X18.2683 Y27.0476
G01 X18.1883 Y27.0476
G01 X18.1883 Y27.0443
G01 X18.1083 Y27.0443
G01 X18.1083 Y27.0476
G01 X18.0283 Y27.0476
G01 X18.0283 Y27.0443
G01 X17.9483 Y27.0443
G01 X17.9483 Y27.0476
G01 X17.8683 Y27.0476
G01 X17.8683 Y27.0443
G01 X17.7883 Y27.0443
G01 X17.7883 Y27.0476
G01 X17.7083 Y27.0476
G01 X17.7083 Y27.0443
G01 X17.6283 Y27.0443
G01 X17.6283 Y27.0476
G01 X17.5483 Y27.0476
G01 X17.5483 Y27.0443
G01 X17.4683 Y27.0443
G01 X17.4683 Y27.0476
G01 X17.3883 Y27.0476
G01 X17.3883 Y27.0443
G01 X17.3083 Y27.0443
G01 X17.3083 Y27.0476
G01 X17.2283 Y27.0476
G01 X17.2283 Y27.0443
G01 X17.1483 Y27.0443
G01 X17.1483 Y27.0476
G01 X17.0683 Y27.0476
G01 X17.0683 Y27.0443
G01 X16.9883 Y27.0443
G01 X16.9883 Y27.0476
G01 X16.9083 Y27.0476
G01 X16.9083 Y27.0443
G01 X16.8283 Y27.0443
G01 X16.8283 Y27.0476
G01 X16.7483 Y27.0476
G01 X16.7483 Y27.0443
G01 X16.6683 Y27.0443
G01 X16.6683 Y27.0476
G01 X16.5883 Y27.0476
G01 X16.5883 Y27.0443
G01 X16.5083 Y27.0443
G01 X16.5083 Y27.0476
G01 X16.4283 Y27.0476
G01 X16.4283 Y27.0443
G01 X16.3483 Y27.0443
G01 X16.3483 Y27.0476
G01 X16.2683 Y27.0476
G01 X16.2683 Y27.0443
G01 X16.1883 Y27.0443
G01 X16.1883 Y27.0476
G01 X16.1083 Y27.0476
G01 X16.1083 Y27.0443
G01 X16.0283 Y27.0443
G01 X16.0283 Y27.0476
G01 X15.9483 Y27.0476
G01 X15.9483 Y27.0443
G00 Z2.0000
G00 X15.8683 Y27.0416
G01 F60.00
G01 Z-0.0500
G01 F120.00
G01 X15.8683 Y27.0476
G00 Z2.0000
G00 X15.7916 Y26.9450
G01 F60.00
G01 Z-0.0500
G01 F120.00
G01 X15.7917 Y24.6058
G01 X15.7923 Y24.5966
G01 X15.7938 Y24.5869
G01 X15.7963 Y24.5774
G01 X15.7997 Y24.5682
G01 X15.8035 Y24.5605
G01 X15.8092 Y24.5511
G01 X15.8151 Y24.5433
G01 X15.8218 Y24.5361
G01 X15.8282 Y24.5303
G01 X15.8361 Y24.5245
G01 X15.8445 Y24.5194
G01 X15.8534 Y24.5153
G01 X15.8626 Y24.5119
G01 X15.8721 Y24.5096
G01 X15.8818 Y24.5081
G01 X15.8910 Y24.5076
G01 X18.2283 Y24.5076
G01 X18.2382 Y24.5081
G01 X18.2479 Y24.5096
G01 X18.2574 Y24.5119
G01 X18.2666 Y24.5153
G01 X18.2755 Y24.5194
G01 X18.2839 Y24.5245
G01 X18.2918 Y24.5303
G01 X18.2999 Y24.5378
G01 X18.3057 Y24.5442
G01 X18.3115 Y24.5521
G01 X18.3165 Y24.5605
G01 X18.3207 Y24.5694
G01 X18.3240 Y24.5786
G01 X18.3264 Y24.5881
G01 X18.3279 Y24.5978
G01 X18.3283 Y24.6070
G01 X18.3283 Y26.9443
G01 X18.3279 Y26.9541
G01 X18.3264 Y26.9638
G01 X18.3240 Y26.9734
G01 X18.3207 Y26.9826
G01 X18.3165 Y26.9915
G01 X18.3115 Y26.9999
G01 X18.3057 Y27.0078
G01 X18.2982 Y27.0159
G01 X18.2918 Y27.0216
G01 X18.2839 Y27.0275
G01 X18.2755 Y27.0325
G01 X18.2666 Y27.0367
G01 X18.2574 Y27.0400
G01 X18.2479 Y27.0424
G01 X18.2382 Y27.0439
G01 X18.2290 Y27.0443
G01 X15.8885 Y27.0443
G01 X15.8805 Y27.0437
G01 X15.8708 Y27.0422
G01 X15.8614 Y27.0397
G01 X15.8522 Y27.0362
G01 X15.8444 Y27.0325
G01 X15.8360 Y27.0275
G01 X15.8281 Y27.0216
G01 X15.8208 Y27.0150
G01 X15.8142 Y27.0078
G01 X15.8084 Y26.9999
G01 X15.8034 Y26.9915
G01 X15.7992 Y26.9826
G01 X15.7959 Y26.9734
G01 X15.7935 Y26.9638
G01 X15.7920 Y26.9541
G01 X15.7916 Y26.9450
G00 Z2.0000
G00 X15.7883 Y26.4086
G01 F60.00
G01 Z-0.0500
G01 F120.00
G01 X15.7884 Y27.0454
G01 X15.7887 Y27.0467
G01 X15.7896 Y27.0475
G01 X18.3275 Y27.0476
G01 X18.3310 Y27.0472
G01 X18.3315 Y27.0463
G01 X18.3317 Y27.0435
G01 X18.3317 Y24.5084
G01 X18.3312 Y24.5050
G01 X18.3303 Y24.5045
G01 X18.3275 Y24.5043
G01 X15.7925 Y24.5043
G01 X15.7890 Y24.5048
G01 X15.7885 Y24.5057
G01 X15.7883 Y24.5084
G01 X15.7883 Y26.4086
G00 Z2.0000
G00 X16.4130 Y27.6834
G01 F60.00
G01 Z-0.0500
G01 F120.00
G01 X16.4130 Y28.1459
G01 X16.4131 Y28.1487
G01 X16.4652 Y28.3052
G01 X16.5177 Y28.3577
G01 X16.6220 Y28.4098
G01 X16.7266 Y28.4099
G01 X16.8311 Y28.3577
G01 X16.8672 Y28.3220
G01 X16.8776 Y28.3138
G01 X16.8870 Y28.3081
G01 X16.8948 Y28.3043
G01 X16.9005 Y28.3021
G01 X16.9135 Y28.2984
G01 X16.9256 Y28.2966
G01 X16.9329 Y28.2963
G01 X16.9403 Y28.2964
G01 X16.9525 Y28.2979
G01 X16.9632 Y28.3006
G01 X16.9724 Y28.3039
G01 X16.9824 Y28.3087
G01 X16.9928 Y28.3152
G01 X17.0011 Y28.3220
G01 X17.0372 Y28.3577
G01 X17.1415 Y28.4098
G01 X17.2980 Y28.4099
G01 X17.4026 Y28.3577
G01 X17.4550 Y28.3053
G01 X17.5071 Y28.1487
G01 X17.5073 Y27.6834
G01 X17.5072 Y27.6807
G01 X17.5065 Y27.6797
G01 X17.5032 Y27.6793
G01 X16.4171 Y27.6793
G01 X16.4140 Y27.6796
G01 X16.4131 Y27.6808
G01 X16.4130 Y27.6834
G01 X16.4130 Y27.6900
G01 X16.4786 Y27.6900
G00 Z2.0000
G00 X16.5157 Y27.6826
G01 F60.00
G01 Z-0.0500
G01 F120.00
G01 X16.8325 Y27.6826
G01 X16.8411 Y27.6830
G01 X16.8484 Y27.6839
G01 X16.8615 Y27.6869
G01 X16.8674 Y27.6889
G01 X16.8753 Y27.6922
G01 X16.8807 Y27.6950
G01 X16.8881 Y27.6995
G01 X16.8988 Y27.7077
G01 X16.9074 Y27.7164
G01 X16.9128 Y27.7231
G01 X16.9163 Y27.7281
G01 X16.9229 Y27.7399
G01 X16.9254 Y27.7455
G01 X16.9282 Y27.7536
G01 X16.9298 Y27.7595
G01 X16.9314 Y27.7680
G01 X16.9325 Y27.7820
G01 X16.9325 Y28.1321
G01 X16.9323 Y28.1388
G01 X16.9312 Y28.1481
G01 X16.9280 Y28.1618
G01 X16.8869 Y28.2850
G01 X16.8834 Y28.2930
G01 X16.8802 Y28.2991
G01 X16.8759 Y28.3060
G01 X16.8703 Y28.3134
G01 X16.8645 Y28.3198
G01 X16.8384 Y28.3459
G01 X16.8317 Y28.3516
G01 X16.8241 Y28.3570
G01 X16.8148 Y28.3623
G01 X16.7466 Y28.3964
G01 X16.7386 Y28.3999
G01 X16.7309 Y28.4025
G01 X16.7174 Y28.4056
G01 X16.7041 Y28.4067
G01 X16.6435 Y28.4067
G01 X16.6326 Y28.4057
G01 X16.6235 Y28.4040
G01 X16.6135 Y28.4011
G01 X16.6017 Y28.3961
G01 X16.5322 Y28.3614
G01 X16.5247 Y28.3570
G01 X16.5171 Y28.3516
G01 X16.5085 Y28.3440
G01 X16.4807 Y28.3160
G01 X16.4729 Y28.3060
G01 X16.4658 Y28.2940
G01 X16.4607 Y28.2817
G01 X16.4204 Y28.1605
G01 X16.4186 Y28.1534
G01 X16.4174 Y28.1468
G01 X16.4165 Y28.1388
G01 X16.4163 Y28.1321
G01 X16.4163 Y27.7826
G01 X16.4168 Y27.7728
G01 X16.4182 Y27.7631
G01 X16.4202 Y27.7548
G01 X16.4225 Y27.7478
G01 X16.4259 Y27.7399
G01 X16.4305 Y27.7312
G01 X16.4360 Y27.7231
G01 X16.4414 Y27.7164
G01 X16.4464 Y27.7111
G01 X16.4528 Y27.7053
G01 X16.4607 Y27.6995
G01 X16.4681 Y27.6950
G01 X16.4746 Y27.6917
G01 X16.4826 Y27.6885
G01 X16.4908 Y27.6860
G01 X16.4980 Y27.6843
G01 X16.5065 Y27.6831
G01 X16.5157 Y27.6826
G00 Z2.0000
G00 X16.4171 Y27.7700
G01 F60.00
G01 Z-0.0500
G01 F120.00
G01 X16.4130 Y27.7700
G01 X16.4130 Y27.8500
G01 X16.4163 Y27.8500
G01 X16.4163 Y27.9300
G01 X16.4130 Y27.9300
G01 X16.4130 Y28.0100
G01 X16.4163 Y28.0100
G01 X16.4163 Y28.0900
G01 X16.4130 Y28.0900
G00 Z2.0000
G00 X16.4200 Y28.1700
G01 F60.00
G01 Z-0.0500
G01 F120.00
G01 X16.4235 Y28.1700
G01 X16.4467 Y28.2500
G01 X16.4502 Y28.2500
G00 Z2.0000
G00 X16.4898 Y28.3300
G01 F60.00
G01 Z-0.0500
G01 F120.00
G01 X16.4945 Y28.3300
G00 Z2.0000
G00 X16.8543 Y28.3300
G01 F60.00
G01 Z-0.0500
G01 F120.00
G01 X16.8590 Y28.3300
G00 Z2.0000
G00 X16.8986 Y28.2500
G01 F60.00
G01 Z-0.0500
G01 F120.00
G01 X16.9697 Y28.2500
G01 X16.9430 Y28.1700
G01 X16.9253 Y28.1700
G00 Z2.0000
G00 X16.9325 Y28.0900
G01 F60.00
G01 Z-0.0500
G01 F120.00
G01 X16.9358 Y28.0900
G01 X16.9358 Y28.0100
G01 X16.9325 Y28.0100
G01 X16.9325 Y27.9300
G01 X16.9358 Y27.9300
G01 X16.9358 Y27.8500
G01 X16.9325 Y27.8500
G00 Z2.0000
G00 X16.9317 Y27.7700
G01 F60.00
G01 Z-0.0500
G01 F120.00
G01 X16.9366 Y27.7700
G00 Z2.0000
G00 X16.9982 Y27.6900
G01 F60.00
G01 Z-0.0500
G01 F120.00
G01 X16.8702 Y27.6900
G00 Z2.0000
G00 X17.4416 Y27.6900
G01 F60.00
G01 Z-0.0500
G01 F120.00
G01 X17.5073 Y27.6900
G01 X17.5073 Y27.7700
G01 X17.5032 Y27.7700
G00 Z2.0000
G00 X17.5040 Y27.7820
G01 F60.00
G01 Z-0.0500
G01 F120.00
G01 X17.5040 Y28.1321
G01 X17.5034 Y28.1428
G01 X17.5017 Y28.1534
G01 X17.4995 Y28.1618
G01 X17.4588 Y28.2839
G01 X17.4559 Y28.2909
G01 X17.4517 Y28.2991
G01 X17.4474 Y28.3060
G01 X17.4418 Y28.3134
G01 X17.4360 Y28.3198
G01 X17.4089 Y28.3468
G01 X17.4000 Y28.3540
G01 X17.3913 Y28.3596
G01 X17.3133 Y28.3986
G01 X17.3057 Y28.4015
G01 X17.2980 Y28.4037
G01 X17.2912 Y28.4052
G01 X17.2831 Y28.4063
G01 X17.2739 Y28.4067
G01 X17.1642 Y28.4067
G01 X17.1532 Y28.4059
G01 X17.1430 Y28.4040
G01 X17.1330 Y28.4011
G01 X17.1212 Y28.3961
G01 X17.0518 Y28.3614
G01 X17.0442 Y28.3570
G01 X17.0355 Y28.3507
G01 X17.0280 Y28.3440
G01 X17.0003 Y28.3160
G01 X16.9918 Y28.3050
G01 X16.9849 Y28.2930
G01 X16.9803 Y28.2817
G01 X16.9407 Y28.1631
G01 X16.9381 Y28.1534
G01 X16.9366 Y28.1441
G01 X16.9358 Y28.1321
G01 X16.9360 Y27.7774
G01 X16.9367 Y27.7692
G01 X16.9380 Y27.7619
G01 X16.9401 Y27.7536
G01 X16.9430 Y27.7455
G01 X16.9460 Y27.7388
G01 X16.9500 Y27.7312
G01 X16.9534 Y27.7261
G01 X16.9585 Y27.7192
G01 X16.9651 Y27.7119
G01 X16.9724 Y27.7053
G01 X16.9803 Y27.6995
G01 X16.9887 Y27.6944
G01 X16.9976 Y27.6903
G01 X17.0068 Y27.6869
G01 X17.0163 Y27.6846
G01 X17.0272 Y27.6830
G01 X17.0358 Y27.6826
G01 X17.4040 Y27.6826
G01 X17.4150 Y27.6833
G01 X17.4235 Y27.6846
G01 X17.4330 Y27.6869
G01 X17.4423 Y27.6903
G01 X17.4500 Y27.6939
G01 X17.4565 Y27.6975
G01 X17.4645 Y27.7031
G01 X17.4712 Y27.7085
G01 X17.4781 Y27.7155
G01 X17.4843 Y27.7231
G01 X17.4891 Y27.7302
G01 X17.4939 Y27.7388
G01 X17.4968 Y27.7455
G01 X17.4997 Y27.7536
G01 X17.5021 Y27.7631
G01 X17.5035 Y27.7728
G01 X17.5040 Y27.7820
G00 Z2.0000
G00 X17.5040 Y27.8500
G01 F60.00
G01 Z-0.0500
G01 F120.00
G01 X17.5073 Y27.8500
G01 X17.5073 Y27.9300
G01 X17.5040 Y27.9300
G01 X17.5040 Y28.0100
G01 X17.5073 Y28.0100
G01 X17.5073 Y28.0900
G01 X17.5040 Y28.0900
G00 Z2.0000
G00 X17.5003 Y28.1700
G01 F60.00
G01 Z-0.0500
G01 F120.00
G01 X17.4968 Y28.1700
G01 X17.4736 Y28.2500
G01 X17.4701 Y28.2500
G00 Z2.0000
G00 X17.4305 Y28.3300
G01 F60.00
G01 Z-0.0500
G01 F120.00
G01 X17.4258 Y28.3300
G00 Z2.0000
G00 X17.0140 Y28.3300
G01 F60.00
G01 Z-0.0500
G01 F120.00
G01 X17.0093 Y28.3300
G00 Z2.0000
G00 X17.2048 Y28.8641
G01 F60.00
G01 Z-0.0500
G01 F120.00
G01 X17.2141 Y28.8641
G01 X17.4148 Y28.7841
G01 X17.4241 Y28.7841
G00 Z2.0000
G00 X17.1449 Y28.9441
G01 F60.00
G01 Z-0.0500
G01 F120.00
G01 X17.0765 Y28.9441
G00 Z2.0000
G00 X17.1436 Y29.0241
G01 F60.00
G01 Z-0.0500
G01 F120.00
G01 X17.1394 Y29.0241
G00 Z2.0000
G00 X17.1403 Y29.1041
G01 F60.00
G01 Z-0.0500
G01 F120.00
G01 X17.1436 Y29.1041
G01 X17.1436 Y29.1841
G01 X17.1403 Y29.1841
G01 X17.1403 Y29.2641
G01 X17.1436 Y29.2641
G01 X17.1436 Y29.3441
G01 X17.1282 Y29.3441
G00 Z2.0000
G00 X17.1571 Y29.4241
G01 F60.00
G01 Z-0.0500
G01 F120.00
G01 X17.0851 Y29.4241
G01 X16.8844 Y29.3441
G01 X16.8751 Y29.3441
G01 X16.6744 Y29.2641
G01 X16.6651 Y29.2641
G00 Z2.0000
G00 X16.6017 Y29.1841
G01 F60.00
G01 Z-0.0500
G01 F120.00
G01 X16.4551 Y29.1841
G00 Z2.0000
G00 X16.6223 Y29.1041
G01 F60.00
G01 Z-0.0500
G01 F120.00
G01 X16.5748 Y29.1041
G01 X16.6640 Y29.0737
G01 X17.0047 Y28.9439
G01 X17.0127 Y28.9412
G01 X17.0234 Y28.9388
G01 X17.0329 Y28.9376
G01 X17.0426 Y28.9373
G01 X17.0535 Y28.9382
G01 X17.0630 Y28.9399
G01 X17.0746 Y28.9434
G01 X17.0846 Y28.9476
G01 X17.0930 Y28.9523
G01 X17.1019 Y28.9585
G01 X17.1110 Y28.9666
G01 X17.1183 Y28.9746
G01 X17.1239 Y28.9825
G01 X17.1294 Y28.9919
G01 X17.1342 Y29.0029
G01 X17.1374 Y29.0134
G01 X17.1393 Y29.0228
G01 X17.1403 Y29.0373
G01 X17.1403 Y29.2995
G01 X17.1391 Y29.3121
G01 X17.1374 Y29.3204
G01 X17.1358 Y29.3262
G01 X17.1334 Y29.3331
G01 X17.1305 Y29.3397
G01 X17.1265 Y29.3472
G01 X17.1233 Y29.3523
G01 X17.1190 Y29.3582
G01 X17.1143 Y29.3637
G01 X17.1084 Y29.3697
G01 X17.1038 Y29.3737
G01 X17.0930 Y29.3815
G01 X17.0856 Y29.3856
G01 X17.0791 Y29.3887
G01 X17.0711 Y29.3916
G01 X17.0618 Y29.3941
G01 X17.0523 Y29.3958
G01 X17.0438 Y29.3964
G01 X17.0342 Y29.3963
G01 X17.0269 Y29.3956
G01 X17.0186 Y29.3941
G01 X17.0104 Y29.3919
G01 X16.6606 Y29.2587
G01 X16.6504 Y29.2536
G01 X16.6394 Y29.2463
G01 X16.6294 Y29.2375
G01 X16.6214 Y29.2285
G01 X16.6139 Y29.2175
G01 X16.6080 Y29.2057
G01 X16.6043 Y29.1954
G01 X16.6014 Y29.1825
G01 X16.6005 Y29.1753
G01 X16.6002 Y29.1669
G01 X16.6012 Y29.1525
G01 X16.6043 Y29.1383
G01 X16.6094 Y29.1248
G01 X16.6165 Y29.1121
G01 X16.6252 Y29.1006
G01 X16.6356 Y29.0905
G01 X16.6423 Y29.0854
G01 X16.6483 Y29.0814
G01 X16.6557 Y29.0773
G01 X16.6618 Y29.0746
G01 X16.6640 Y29.0737
G01 X16.7848 Y29.0241
G01 X16.7941 Y29.0241
G01 X16.9948 Y28.9441
G01 X17.0041 Y28.9441
G00 Z2.0000
G00 X16.4136 Y29.1657
G01 F60.00
G01 Z-0.0500
G01 F120.00
G01 X16.4131 Y29.1668
G01 X16.4134 Y29.1678
G01 X16.4163 Y29.1693
G01 X17.5028 Y29.5832
G01 X17.5057 Y29.5840
G01 X17.5065 Y29.5838
G01 X17.5071 Y29.5831
G01 X17.5071 Y29.5822
G01 X17.5067 Y29.5814
G01 X17.5039 Y29.5801
G01 X17.2080 Y29.4674
G01 X17.2022 Y29.4649
G01 X17.1944 Y29.4610
G01 X17.1849 Y29.4548
G01 X17.1743 Y29.4460
G01 X17.1650 Y29.4357
G01 X17.1579 Y29.4254
G01 X17.1516 Y29.4131
G01 X17.1471 Y29.4000
G01 X17.1446 Y29.3877
G01 X17.1436 Y29.3739
G01 X17.1437 Y28.9567
G01 X17.1448 Y28.9448
G01 X17.1471 Y28.9338
G01 X17.1516 Y28.9207
G01 X17.1566 Y28.9106
G01 X17.1642 Y28.8990
G01 X17.1699 Y28.8923
G01 X17.1752 Y28.8869
G01 X17.1809 Y28.8820
G01 X17.1869 Y28.8775
G01 X17.1944 Y28.8728
G01 X17.2022 Y28.8688
G01 X17.5039 Y28.7537
G01 X17.5070 Y28.7520
G01 X17.5071 Y28.7507
G01 X17.5061 Y28.7498
G01 X17.5028 Y28.7506
G01 X16.4136 Y29.1657
G00 Z2.0000
G00 X16.4130 Y29.9344
G01 F60.00
G01 Z-0.0500
G01 F120.00
G01 X16.4163 Y29.9344
G01 X16.4163 Y30.0144
G01 X16.4130 Y30.0144
G01 X16.4130 Y30.0944
G01 X16.4163 Y30.0944
G01 X16.4163 Y30.1744
G01 X16.4130 Y30.1744
G01 X16.4130 Y30.2544
G01 X16.4420 Y30.2544
G00 Z2.0000
G00 X16.4337 Y30.3344
G01 F60.00
G01 Z-0.0500
G01 F120.00
G01 X16.4130 Y30.3344
G01 X16.4130 Y30.4144
G01 X16.4163 Y30.4144
G01 X16.4163 Y30.4944
G01 X16.4130 Y30.4944
G01 X16.4130 Y30.5744
G01 X16.4163 Y30.5744
G01 X16.4163 Y30.6503
G01 X16.4163 Y30.3902
G01 X16.4168 Y30.3810
G01 X16.4182 Y30.3713
G01 X16.4217 Y30.3582
G01 X16.4264 Y30.3469
G01 X16.4331 Y30.3352
G01 X16.4414 Y30.3245
G01 X16.4500 Y30.3159
G01 X16.4607 Y30.3076
G01 X16.4724 Y30.3009
G01 X16.4837 Y30.2962
G01 X16.4920 Y30.2938
G01 X16.5004 Y30.2920
G01 X16.5077 Y30.2911
G01 X16.5157 Y30.2908
G01 X17.5032 Y30.2908
G01 X17.5062 Y30.2905
G01 X17.5069 Y30.2900
G01 X17.5072 Y30.2891
G01 X17.5069 Y30.2883
G01 X17.5062 Y30.2877
G01 X17.5032 Y30.2875
G01 X16.5157 Y30.2875
G01 X16.5077 Y30.2871
G01 X16.5004 Y30.2862
G01 X16.4920 Y30.2845
G01 X16.4837 Y30.2820
G01 X16.4724 Y30.2773
G01 X16.4607 Y30.2706
G01 X16.4500 Y30.2624
G01 X16.4414 Y30.2537
G01 X16.4331 Y30.2430
G01 X16.4264 Y30.2313
G01 X16.4217 Y30.2200
G01 X16.4182 Y30.2070
G01 X16.4168 Y30.1973
G01 X16.4163 Y30.1881
G01 X16.4163 Y29.9279
G01 X16.4160 Y29.9247
G01 X16.4152 Y29.9240
G01 X16.4142 Y29.9240
G01 X16.4132 Y29.9250
G01 X16.4130 Y29.9279
G01 X16.4130 Y30.6503
G01 X16.4131 Y30.6531
G01 X16.4138 Y30.6541
G01 X16.4149 Y30.6543
G01 X16.4159 Y30.6536
G01 X16.4163 Y30.6503
G00 Z2.0000
G00 X17.0397 Y31.9284
G01 F60.00
G01 Z-0.0500
G01 F120.00
G01 X17.0397 Y30.9982
G01 X17.0395 Y30.9951
G01 X17.0389 Y30.9944
G01 X17.0381 Y30.9942
G01 X17.0372 Y30.9944
G01 X17.0366 Y30.9951
G01 X17.0364 Y30.9982
G01 X17.0364 Y31.9284
G01 X17.0366 Y31.9312
G01 X17.0372 Y31.9321
G01 X17.0384 Y31.9324
G01 X17.0393 Y31.9317
G01 X17.0397 Y31.9284
G00 Z2.0000
G00 X17.2951 Y29.5041
G01 F60.00
G01 Z-0.0500
G01 F120.00
G01 X17.3044 Y29.5041
G00 Z2.0000
G00 X20.5392 Y34.0367
G01 F60.00
G01 Z-0.0500
G01 F120.00
G01 X20.5402 Y34.0505
G01 X20.5402 Y34.9818
G01 X20.5408 Y34.9895
G01 X20.5415 Y34.9921
G01 X20.5435 Y34.9970
G01 X20.5448 Y34.9992
G01 X20.5482 Y35.0033
G01 X20.5523 Y35.0067
G01 X20.5569 Y35.0091
G01 X20.5594 Y35.0100
G01 X20.5646 Y35.0111
G01 X20.5697 Y35.0113
G01 X22.0180 Y35.0114
G01 X22.0296 Y35.0124
G01 X22.0405 Y35.0146
G01 X22.0521 Y35.0185
G01 X22.0621 Y35.0231
G01 X22.0715 Y35.0289
G01 X22.0812 Y35.0364
G01 X22.0891 Y35.0442
G01 X22.0960 Y35.0527
G01 X22.1032 Y35.0642
G01 X22.1069 Y35.0719
G01 X22.1095 Y35.0788
G01 X22.1117 Y35.0858
G01 X22.1133 Y35.0930
G01 X22.1145 Y35.1015
G01 X22.1150 Y35.1095
G01 X22.1150 Y36.2493
G01 X22.1156 Y36.2570
G01 X22.1171 Y36.2620
G01 X22.1196 Y36.2667
G01 X22.1230 Y36.2708
G01 X22.1271 Y36.2741
G01 X22.1317 Y36.2766
G01 X22.1368 Y36.2781
G01 X22.1420 Y36.2787
G01 X22.1473 Y36.2781
G01 X22.1524 Y36.2766
G01 X22.1570 Y36.2741
G01 X22.1611 Y36.2708
G01 X22.1644 Y36.2667
G01 X22.1669 Y36.2620
G01 X22.1685 Y36.2570
G01 X22.1691 Y36.2493
G01 X22.1691 Y34.9867
G01 X22.1689 Y34.9816
G01 X22.1678 Y34.9764
G01 X22.1658 Y34.9715
G01 X22.1644 Y34.9693
G01 X22.1611 Y34.9652
G01 X22.1570 Y34.9618
G01 X22.1547 Y34.9605
G01 X22.1524 Y34.9594
G01 X22.1473 Y34.9578
G01 X22.1396 Y34.9572
G01 X20.6925 Y34.9572
G01 X20.6796 Y34.9561
G01 X20.6665 Y34.9532
G01 X20.6549 Y34.9491
G01 X20.6440 Y34.9436
G01 X20.6338 Y34.9368
G01 X20.6236 Y34.9279
G01 X20.6162 Y34.9197
G01 X20.6085 Y34.9086
G01 X20.6024 Y34.8966
G01 X20.5983 Y34.8850
G01 X20.5954 Y34.8719
G01 X20.5943 Y34.8590
G01 X20.5944 Y34.1558
G01 X20.5954 Y34.1464
G01 X20.5976 Y34.1356
G01 X20.6006 Y34.1262
G01 X20.6055 Y34.1150
G01 X20.6112 Y34.1055
G01 X20.6170 Y34.0976
G01 X20.6236 Y34.0903
G01 X20.6309 Y34.0837
G01 X20.6377 Y34.0786
G01 X20.6440 Y34.0747
G01 X20.6515 Y34.0706
G01 X20.6606 Y34.0669
G01 X20.6688 Y34.0644
G01 X20.6760 Y34.0627
G01 X20.6845 Y34.0615
G01 X20.6943 Y34.0610
G01 X24.7824 Y34.0610
G01 X24.7901 Y34.0604
G01 X24.7951 Y34.0589
G01 X24.7998 Y34.0564
G01 X24.8039 Y34.0530
G01 X24.8072 Y34.0489
G01 X24.8097 Y34.0443
G01 X24.8113 Y34.0392
G01 X24.8118 Y34.0340
G01 X24.8113 Y34.0287
G01 X24.8097 Y34.0237
G01 X24.8072 Y34.0190
G01 X24.8039 Y34.0149
G01 X24.7998 Y34.0116
G01 X24.7951 Y34.0091
G01 X24.7901 Y34.0076
G01 X24.7824 Y34.0069
G01 X20.5685 Y34.0069
G01 X20.5608 Y34.0076
G01 X20.5557 Y34.0091
G01 X20.5511 Y34.0116
G01 X20.5470 Y34.0149
G01 X20.5436 Y34.0190
G01 X20.5423 Y34.0213
G01 X20.5402 Y34.0262
G01 X20.5392 Y34.0313
G01 X20.5392 Y34.0367
G00 Z2.0000
G00 X20.5395 Y34.0387
G01 F60.00
G01 Z-0.0500
G01 F120.00
G01 X24.8113 Y34.0387
G00 Z2.0000
G00 X22.1691 Y34.9987
G01 F60.00
G01 Z-0.0500
G01 F120.00
G01 X20.5445 Y34.9987
G01 X20.5402 Y34.9187
G01 X20.6155 Y34.9187
G00 Z2.0000
G00 X20.5943 Y34.8387
G01 F60.00
G01 Z-0.0500
G01 F120.00
G01 X20.5402 Y34.8387
G01 X20.5402 Y34.7587
G01 X20.5943 Y34.7587
G01 X20.5943 Y34.6787
G01 X20.5402 Y34.6787
G01 X20.5402 Y34.5987
G01 X20.5943 Y34.5987
G01 X20.5943 Y34.5187
G01 X20.5402 Y34.5187
G01 X20.5402 Y34.4387
G01 X20.5943 Y34.4387
G01 X20.5943 Y34.3587
G01 X20.5402 Y34.3587
G01 X20.5402 Y34.2787
G01 X20.5943 Y34.2787
G01 X20.5943 Y34.1987
G01 X20.5402 Y34.1987
G01 X20.5402 Y34.1187
G01 X20.6037 Y34.1187
G00 Z2.0000
G00 X22.1095 Y35.0787
G01 F60.00
G01 Z-0.0500
G01 F120.00
G01 X22.1691 Y35.0787
G01 X22.1691 Y35.1587
G01 X22.1150 Y35.1587
G01 X22.1150 Y35.2387
G01 X22.1691 Y35.2387
G01 X22.1691 Y35.3187
G01 X22.1150 Y35.3187
G01 X22.1150 Y35.3987
G01 X22.1691 Y35.3987
G01 X22.1691 Y35.4787
G01 X22.1150 Y35.4787
G01 X22.1150 Y35.5587
G01 X22.1691 Y35.5587
G01 X22.1691 Y35.6387
G01 X22.1150 Y35.6387
G01 X22.1150 Y35.7187
G01 X22.1691 Y35.7187
G01 X22.1691 Y35.7987
G01 X22.1150 Y35.7987
G01 X22.1150 Y35.8787
G01 X22.1691 Y35.8787
G01 X22.1691 Y35.9587
G01 X22.1150 Y35.9587
G01 X22.1150 Y36.0387
G01 X22.1691 Y36.0387
G01 X22.1691 Y36.1187
G01 X22.1150 Y36.1187
G01 X22.1150 Y36.1987
G01 X22.1691 Y36.1987
G00 Z2.0000
G00 X22.1139 Y37.7176
G01 F60.00
G01 Z-0.0500
G01 F120.00
G01 X22.1142 Y38.2555
G01 X22.1152 Y38.2607
G01 X22.1172 Y38.2656
G01 X22.1202 Y38.2699
G01 X22.1239 Y38.2737
G01 X22.1283 Y38.2766
G01 X22.1332 Y38.2786
G01 X22.1384 Y38.2797
G01 X22.1436 Y38.2797
G01 X22.1488 Y38.2786
G01 X22.1537 Y38.2766
G01 X22.1581 Y38.2737
G01 X22.1618 Y38.2699
G01 X22.1648 Y38.2656
G01 X22.1668 Y38.2607
G01 X22.1678 Y38.2555
G01 X22.1681 Y38.2504
G01 X22.1678 Y37.7125
G01 X22.1668 Y37.7073
G01 X22.1648 Y37.7024
G01 X22.1618 Y37.6980
G01 X22.1581 Y37.6943
G01 X22.1537 Y37.6914
G01 X22.1488 Y37.6893
G01 X22.1436 Y37.6883
G01 X22.1384 Y37.6883
G01 X22.1332 Y37.6893
G01 X22.1283 Y37.6914
G01 X22.1239 Y37.6943
G01 X22.1202 Y37.6980
G01 X22.1172 Y37.7024
G01 X22.1152 Y37.7073
G01 X22.1142 Y37.7125
G01 X22.1139 Y37.7176
G00 Z2.0000
G00 X22.1139 Y39.7211
G01 F60.00
G01 Z-0.0500
G01 F120.00
G01 X22.1681 Y39.7211
G01 X22.1681 Y39.8011
G01 X22.1139 Y39.8011
G01 X22.1139 Y39.8811
G01 X22.1681 Y39.8811
G01 X22.1681 Y39.9611
G01 X22.1139 Y39.9611
G01 X22.1139 Y40.0411
G01 X22.1681 Y40.0411
G01 X22.1681 Y40.1211
G01 X22.1139 Y40.1211
G01 X22.1139 Y40.2011
G01 X22.1681 Y40.2011
G01 X22.1681 Y40.2811
G01 X22.1139 Y40.2811
G01 X22.1139 Y40.3611
G01 X22.1681 Y40.3611
G01 X22.1681 Y40.4411
G01 X22.1139 Y40.4411
G01 X22.1139 Y40.5211
G01 X22.1681 Y40.5211
G01 X22.1681 Y40.6011
G01 X22.1139 Y40.6011
G01 X22.1139 Y40.6811
G01 X22.1681 Y40.6811
G01 X22.1681 Y40.7611
G01 X22.1139 Y40.7611
G01 X22.1139 Y40.8411
G01 X22.1681 Y40.8411
G01 X22.1681 Y40.9211
G01 X22.0907 Y40.9211
G01 X22.1618 Y41.0011
G01 X20.5390 Y41.0011
G01 X20.5390 Y40.9864
G01 X20.5390 Y41.9315
G01 X20.5396 Y41.9392
G01 X20.5411 Y41.9443
G01 X20.5436 Y41.9490
G01 X20.5470 Y41.9530
G01 X20.5489 Y41.9548
G01 X20.5533 Y41.9578
G01 X20.5582 Y41.9598
G01 X20.5634 Y41.9608
G01 X20.5685 Y41.9611
G01 X24.7824 Y41.9611
G01 X24.7901 Y41.9604
G01 X24.7951 Y41.9589
G01 X24.7998 Y41.9564
G01 X24.8019 Y41.9548
G01 X24.8057 Y41.9511
G01 X24.8086 Y41.9467
G01 X24.8097 Y41.9443
G01 X24.8113 Y41.9392
G01 X24.8116 Y41.9366
G01 X24.8118 Y41.9340
G01 X24.8113 Y41.9287
G01 X24.8097 Y41.9237
G01 X24.8086 Y41.9213
G01 X24.8072 Y41.9190
G01 X24.8039 Y41.9149
G01 X24.7998 Y41.9116
G01 X24.7975 Y41.9102
G01 X24.7927 Y41.9082
G01 X24.7901 Y41.9076
G01 X24.7824 Y41.9069
G01 X20.6931 Y41.9069
G01 X20.6845 Y41.9065
G01 X20.6772 Y41.9056
G01 X20.6688 Y41.9039
G01 X20.6594 Y41.9011
G01 X20.6503 Y41.8973
G01 X20.6427 Y41.8933
G01 X20.6365 Y41.8894
G01 X20.6287 Y41.8834
G01 X20.6215 Y41.8768
G01 X20.6135 Y41.8675
G01 X20.6080 Y41.8594
G01 X20.6032 Y41.8508
G01 X20.5989 Y41.8406
G01 X20.5961 Y41.8312
G01 X20.5942 Y41.8216
G01 X20.5932 Y41.8112
G01 X20.5931 Y41.1092
G01 X20.5942 Y41.0964
G01 X20.5970 Y41.0832
G01 X20.6012 Y41.0716
G01 X20.6073 Y41.0596
G01 X20.6150 Y41.0486
G01 X20.6224 Y41.0403
G01 X20.6325 Y41.0315
G01 X20.6427 Y41.0247
G01 X20.6537 Y41.0191
G01 X20.6652 Y41.0150
G01 X20.6784 Y41.0121
G01 X20.6912 Y41.0111
G01 X22.1385 Y41.0110
G01 X22.1463 Y41.0104
G01 X22.1488 Y41.0098
G01 X22.1537 Y41.0077
G01 X22.1581 Y41.0048
G01 X22.1618 Y41.0011
G01 X22.1634 Y40.9989
G01 X22.1659 Y40.9943
G01 X22.1668 Y40.9918
G01 X22.1678 Y40.9866
G01 X22.1681 Y40.9815
G01 X22.1681 Y39.7176
G01 X22.1678 Y39.7125
G01 X22.1668 Y39.7073
G01 X22.1648 Y39.7024
G01 X22.1618 Y39.6980
G01 X22.1581 Y39.6943
G01 X22.1537 Y39.6914
G01 X22.1488 Y39.6893
G01 X22.1463 Y39.6887
G01 X22.1410 Y39.6882
G01 X22.1357 Y39.6887
G01 X22.1332 Y39.6893
G01 X22.1283 Y39.6914
G01 X22.1239 Y39.6943
G01 X22.1202 Y39.6980
G01 X22.1172 Y39.7024
G01 X22.1152 Y39.7073
G01 X22.1142 Y39.7125
G01 X22.1139 Y39.7176
G01 X22.1139 Y40.8600
G01 X22.1129 Y40.8716
G01 X22.1109 Y40.8812
G01 X22.1081 Y40.8906
G01 X22.1043 Y40.8997
G01 X22.0997 Y40.9083
G01 X22.0943 Y40.9165
G01 X22.0880 Y40.9241
G01 X22.0811 Y40.9310
G01 X22.0735 Y40.9372
G01 X22.0664 Y40.9420
G01 X22.0600 Y40.9457
G01 X22.0511 Y40.9498
G01 X22.0430 Y40.9526
G01 X22.0334 Y40.9550
G01 X22.0237 Y40.9564
G01 X22.0158 Y40.9569
G01 X20.5685 Y40.9569
G01 X20.5634 Y40.9572
G01 X20.5582 Y40.9582
G01 X20.5557 Y40.9591
G01 X20.5511 Y40.9616
G01 X20.5470 Y40.9649
G01 X20.5436 Y40.9690
G01 X20.5423 Y40.9713
G01 X20.5411 Y40.9737
G01 X20.5396 Y40.9787
G01 X20.5390 Y40.9864
G01 X20.5390 Y41.0811
G01 X20.5977 Y41.0811
G00 Z2.0000
G00 X20.5931 Y41.1611
G01 F60.00
G01 Z-0.0500
G01 F120.00
G01 X20.5390 Y41.1611
G01 X20.5390 Y41.2411
G01 X20.5931 Y41.2411
G01 X20.5931 Y41.3211
G01 X20.5390 Y41.3211
G01 X20.5390 Y41.4011
G01 X20.5931 Y41.4011
G01 X20.5931 Y41.4811
G01 X20.5390 Y41.4811
G01 X20.5390 Y41.5611
G01 X20.5931 Y41.5611
G01 X20.5931 Y41.6411
G01 X20.5390 Y41.6411
G01 X20.5390 Y41.7211
G01 X20.5931 Y41.7211
G01 X20.5931 Y41.8011
G01 X20.5390 Y41.8011
G01 X20.5390 Y41.8811
G01 X20.6260 Y41.8811
G00 Z2.0000
G00 X18.2683 Y43.5820
G01 F60.00
G01 Z-0.0500
G01 F120.00
G01 X18.2683 Y43.5703
G01 X18.1883 Y43.5736
G01 X18.1883 Y43.5703
G01 X18.1083 Y43.5703
G01 X18.1083 Y43.5736
G01 X18.0283 Y43.5736
G01 X18.0283 Y43.5703
G01 X17.9483 Y43.5703
G01 X17.9483 Y43.5736
G01 X17.8683 Y43.5736
G01 X17.8683 Y43.5703
G01 X17.7883 Y43.5703
G01 X17.7883 Y43.5736
G01 X17.7083 Y43.5736
G01 X17.7083 Y43.5703
G01 X17.6283 Y43.5703
G01 X17.6283 Y43.5736
G01 X17.5483 Y43.5736
G01 X17.5483 Y43.5703
G01 X17.4683 Y43.5703
G01 X17.4683 Y43.5736
G01 X17.3883 Y43.5736
G01 X17.3883 Y43.5703
G01 X17.3083 Y43.5703
G01 X17.3083 Y43.5736
G01 X17.2283 Y43.5736
G01 X17.2283 Y43.5703
G01 X17.1483 Y43.5703
G01 X17.1483 Y43.5736
G01 X17.0683 Y43.5736
G01 X17.0683 Y43.5703
G01 X16.9883 Y43.5703
G01 X16.9883 Y43.5736
G01 X16.9083 Y43.5736
G01 X16.9083 Y43.5703
G01 X16.8283 Y43.5703
G01 X16.8283 Y43.5736
G01 X16.7483 Y43.5736
G01 X16.7483 Y43.5703
G01 X16.6683 Y43.5703
G01 X16.6683 Y43.5736
G01 X16.5883 Y43.5736
G01 X16.5883 Y43.5703
G01 X16.5083 Y43.5703
G01 X16.5083 Y43.5736
G01 X16.4283 Y43.5736
G01 X16.4283 Y43.5703
G01 X16.3483 Y43.5703
G01 X16.3483 Y43.5736
G01 X16.2683 Y43.5736
G01 X16.2683 Y43.5703
G01 X16.1883 Y43.5703
G01 X16.1883 Y43.5736
G01 X16.1083 Y43.5736
G01 X16.1083 Y43.5703
G01 X16.0283 Y43.5703
G01 X16.0283 Y43.5736
G01 X15.9483 Y43.5736
G01 X15.9483 Y43.5703
G01 X15.8683 Y43.5703
G01 X15.8683 Y43.5764
G00 Z2.0000
G00 X17.4482 Y42.6171
G01 F60.00
G01 Z-0.0500
G01 F120.00
G01 X17.4482 Y42.6204
G01 X17.3682 Y42.6204
G01 X17.3682 Y42.6171
G01 X17.2882 Y42.6171
G01 X17.2882 Y42.6204
G01 X17.2082 Y42.6204
G01 X17.2082 Y42.6171
G00 Z2.0000
G00 X17.1282 Y42.6165
G01 F60.00
G01 Z-0.0500
G01 F120.00
G01 X17.1282 Y42.6209
G00 Z2.0000
G00 X17.0482 Y42.5594
G01 F60.00
G01 Z-0.0500
G01 F120.00
G01 X17.0482 Y42.6780
G00 Z2.0000
G00 X17.0355 Y42.7198
G01 F60.00
G01 Z-0.0500
G01 F120.00
G01 X17.0355 Y43.0836
G01 X17.0357 Y43.0867
G01 X17.0363 Y43.0874
G01 X17.0371 Y43.0876
G01 X17.0380 Y43.0874
G01 X17.0386 Y43.0867
G01 X17.0388 Y43.0836
G01 X17.0390 Y42.7142
G01 X17.0399 Y42.7057
G01 X17.0418 Y42.6961
G01 X17.0446 Y42.6867
G01 X17.0479 Y42.6787
G01 X17.0512 Y42.6722
G01 X17.0563 Y42.6638
G01 X17.0615 Y42.6569
G01 X17.0681 Y42.6497
G01 X17.0754 Y42.6431
G01 X17.0822 Y42.6379
G01 X17.0884 Y42.6340
G01 X17.0972 Y42.6295
G01 X17.1051 Y42.6262
G01 X17.1145 Y42.6234
G01 X17.1241 Y42.6215
G01 X17.1327 Y42.6206
G01 X17.5020 Y42.6204
G01 X17.5051 Y42.6201
G01 X17.5058 Y42.6196
G01 X17.5060 Y42.6187
G01 X17.5058 Y42.6179
G01 X17.5051 Y42.6173
G01 X17.5020 Y42.6171
G01 X17.1327 Y42.6169
G01 X17.1241 Y42.6160
G01 X17.1145 Y42.6141
G01 X17.1051 Y42.6112
G01 X17.0972 Y42.6080
G01 X17.0906 Y42.6047
G01 X17.0822 Y42.5995
G01 X17.0754 Y42.5944
G01 X17.0681 Y42.5878
G01 X17.0615 Y42.5805
G01 X17.0563 Y42.5736
G01 X17.0512 Y42.5653
G01 X17.0479 Y42.5587
G01 X17.0446 Y42.5508
G01 X17.0418 Y42.5414
G01 X17.0399 Y42.5317
G01 X17.0390 Y42.5232
G01 X17.0388 Y42.1538
G01 X17.0386 Y42.1508
G01 X17.0380 Y42.1501
G01 X17.0371 Y42.1498
G01 X17.0363 Y42.1501
G01 X17.0357 Y42.1508
G01 X17.0355 Y42.1538
G01 X17.0353 Y42.5232
G01 X17.0344 Y42.5317
G01 X17.0325 Y42.5414
G01 X17.0296 Y42.5508
G01 X17.0264 Y42.5587
G01 X17.0231 Y42.5653
G01 X17.0179 Y42.5736
G01 X17.0128 Y42.5805
G01 X17.0062 Y42.5878
G01 X16.9989 Y42.5944
G01 X16.9921 Y42.5995
G01 X16.9837 Y42.6047
G01 X16.9771 Y42.6080
G01 X16.9692 Y42.6112
G01 X16.9598 Y42.6141
G01 X16.9502 Y42.6160
G01 X16.9416 Y42.6169
G01 X16.5722 Y42.6171
G01 X16.5692 Y42.6173
G01 X16.5685 Y42.6179
G01 X16.5683 Y42.6187
G01 X16.5685 Y42.6196
G01 X16.5692 Y42.6201
G01 X16.5722 Y42.6204
G01 X16.9361 Y42.6204
G01 X16.9453 Y42.6209
G01 X16.9562 Y42.6225
G01 X16.9645 Y42.6247
G01 X16.9726 Y42.6275
G01 X16.9793 Y42.6305
G01 X16.9869 Y42.6346
G01 X16.9951 Y42.6400
G01 X17.0017 Y42.6455
G01 X17.0071 Y42.6505
G01 X17.0128 Y42.6569
G01 X17.0186 Y42.6648
G01 X17.0231 Y42.6722
G01 X17.0264 Y42.6787
G01 X17.0296 Y42.6867
G01 X17.0322 Y42.6949
G01 X17.0338 Y42.7021
G01 X17.0350 Y42.7106
G01 X17.0355 Y42.7198
G00 Z2.0000
G00 X16.9682 Y42.6259
G01 F60.00
G01 Z-0.0500
G01 F120.00
G01 X16.9682 Y42.6116
G00 Z2.0000
G00 X16.8882 Y42.6204
G01 F60.00
G01 Z-0.0500
G01 F120.00
G01 X16.8882 Y42.6171
G01 X16.8082 Y42.6171
G01 X16.8082 Y42.6204
G01 X16.7282 Y42.6204
G01 X16.7282 Y42.6171
G01 X16.6482 Y42.6171
G01 X16.6482 Y42.6204
G00 Z2.0000
G00 X16.6154 Y41.7300
G01 F60.00
G01 Z-0.0500
G01 F120.00
G01 X16.6246 Y41.7300
G01 X16.8247 Y41.6500
G01 X16.8339 Y41.6500
G01 X17.0339 Y41.5700
G01 X17.0432 Y41.5700
G01 X17.2432 Y41.4900
G01 X17.2524 Y41.4900
G01 X17.2553 Y41.4854
G01 X17.2636 Y41.4817
G01 X17.2720 Y41.4770
G01 X17.2800 Y41.4715
G01 X17.2873 Y41.4653
G01 X17.2941 Y41.4584
G01 X17.2994 Y41.4518
G01 X17.3035 Y41.4458
G01 X17.3077 Y41.4385
G01 X17.3117 Y41.4298
G01 X17.3149 Y41.4207
G01 X17.3172 Y41.4113
G01 X17.3185 Y41.4029
G01 X17.3191 Y41.3921
G01 X17.3187 Y41.3837
G01 X17.3174 Y41.3741
G01 X17.3158 Y41.3670
G01 X17.3121 Y41.3556
G01 X17.3076 Y41.3457
G01 X17.3020 Y41.3364
G01 X17.2947 Y41.3268
G01 X17.2872 Y41.3190
G01 X17.2788 Y41.3120
G01 X17.2688 Y41.3054
G01 X17.2585 Y41.3003
G01 X16.4166 Y40.9803
G01 X16.4136 Y40.9788
G01 X16.4134 Y40.9775
G01 X16.4141 Y40.9766
G01 X16.4151 Y40.9764
G01 X16.4177 Y40.9772
G01 X17.5028 Y41.3895
G01 X17.5054 Y41.3907
G01 X17.5061 Y41.3920
G01 X17.5054 Y41.3932
G01 X17.5028 Y41.3943
G01 X16.4177 Y41.8091
G01 X16.4151 Y41.8100
G01 X16.4142 Y41.8099
G01 X16.4134 Y41.8090
G01 X16.4135 Y41.8077
G01 X16.4166 Y41.8060
G01 X17.2553 Y41.4854
G01 X17.4617 Y41.4100
G01 X17.3175 Y41.4100
G01 X17.3463 Y41.3300
G01 X17.2974 Y41.3300
G00 Z2.0000
G00 X17.1357 Y41.2500
G01 F60.00
G01 Z-0.0500
G01 F120.00
G01 X17.1265 Y41.2500
G01 X16.9252 Y41.1700
G01 X16.9159 Y41.1700
G01 X16.7147 Y41.0900
G01 X16.7054 Y41.0900
G01 X16.5041 Y41.0100
G01 X16.4948 Y41.0100
G00 Z2.0000
G00 X17.0145 Y40.5566
G01 F60.00
G01 Z-0.0500
G01 F120.00
G01 X17.0098 Y40.5566
G00 Z2.0000
G00 X16.9378 Y40.4766
G01 F60.00
G01 Z-0.0500
G01 F120.00
G01 X16.9246 Y40.4766
G01 X16.9082 Y40.3966
G01 X16.8370 Y40.3966
G01 X16.8263 Y40.4766
G01 X16.8040 Y40.4766
G00 Z2.0000
G00 X16.8825 Y40.3166
G01 F60.00
G01 Z-0.0500
G01 F120.00
G01 X16.8566 Y40.3166
G01 X16.8769 Y40.2474
G01 X16.8849 Y40.2157
G01 X16.9276 Y40.0854
G01 X16.9323 Y40.0741
G01 X16.9375 Y40.0649
G01 X16.9443 Y40.0553
G01 X16.9509 Y40.0479
G01 X17.0275 Y39.9714
G01 X17.0378 Y39.9625
G01 X17.0431 Y39.9587
G01 X17.0504 Y39.9544
G01 X17.1207 Y39.9184
G01 X17.1322 Y39.9135
G01 X17.1424 Y39.9104
G01 X17.1528 Y39.9085
G01 X17.1652 Y39.9077
G01 X17.2760 Y39.9077
G01 X17.2837 Y39.9081
G01 X17.2931 Y39.9094
G01 X17.3068 Y39.9131
G01 X17.3183 Y39.9179
G01 X17.3885 Y39.9538
G01 X17.3958 Y39.9580
G01 X17.4012 Y39.9617
G01 X17.4116 Y39.9704
G01 X17.4382 Y39.9971
G01 X17.4424 Y40.0020
G01 X17.4473 Y40.0086
G01 X17.4544 Y40.0207
G01 X17.4595 Y40.0332
G01 X17.4979 Y40.1502
G01 X17.5006 Y40.1604
G01 X17.5021 Y40.1695
G01 X17.5028 Y40.1813
G01 X17.5028 Y40.3574
G01 X17.5018 Y40.3716
G01 X17.5004 Y40.3793
G01 X17.4980 Y40.3881
G01 X17.4595 Y40.5076
G01 X17.4549 Y40.5191
G01 X17.4516 Y40.5254
G01 X17.4472 Y40.5324
G01 X17.4423 Y40.5391
G01 X17.4381 Y40.5440
G01 X17.4107 Y40.5714
G01 X17.4053 Y40.5761
G01 X17.3980 Y40.5815
G01 X17.3885 Y40.5872
G01 X17.3161 Y40.6241
G01 X17.3101 Y40.6267
G01 X17.3023 Y40.6293
G01 X17.2942 Y40.6313
G01 X17.2872 Y40.6325
G01 X17.2748 Y40.6333
G01 X17.1640 Y40.6333
G01 X17.1528 Y40.6325
G01 X17.1424 Y40.6306
G01 X17.1333 Y40.6279
G01 X17.1229 Y40.6236
G01 X17.0515 Y40.5872
G01 X17.0442 Y40.5829
G01 X17.0388 Y40.5793
G01 X17.0293 Y40.5714
G01 X16.9485 Y40.4905
G01 X16.9443 Y40.4857
G01 X16.9394 Y40.4791
G01 X16.9351 Y40.4721
G01 X16.9318 Y40.4659
G01 X16.9270 Y40.4539
G01 X16.8850 Y40.3258
G01 X16.8830 Y40.3188
G01 X16.8763 Y40.2913
G01 X16.8746 Y40.2801
G01 X16.8742 Y40.2717
G01 X16.8743 Y40.2645
G01 X16.8752 Y40.2562
G01 X16.8769 Y40.2474
G00 Z2.0000
G00 X16.8795 Y40.2366
G01 F60.00
G01 Z-0.0500
G01 F120.00
G01 X16.8595 Y40.2366
G01 X16.8400 Y40.1566
G01 X16.9042 Y40.1566
G01 X16.8867 Y40.0766
G01 X16.9311 Y40.0766
G00 Z2.0000
G00 X16.8641 Y40.0766
G01 F60.00
G01 Z-0.0500
G01 F120.00
G01 X16.8103 Y40.0766
G00 Z2.0000
G00 X16.7541 Y39.9966
G01 F60.00
G01 Z-0.0500
G01 F120.00
G01 X16.7466 Y39.9966
G00 Z2.0000
G00 X16.4979 Y39.9966
G01 F60.00
G01 Z-0.0500
G01 F120.00
G01 X16.4896 Y39.9966
G00 Z2.0000
G00 X16.4456 Y40.0766
G01 F60.00
G01 Z-0.0500
G01 F120.00
G01 X16.4421 Y40.0766
G01 X16.4213 Y40.1508
G01 X16.4556 Y40.0465
G01 X16.4590 Y40.0388
G01 X16.4625 Y40.0322
G01 X16.4673 Y40.0248
G01 X16.4726 Y40.0179
G01 X16.4795 Y40.0106
G01 X16.4870 Y40.0041
G01 X16.4952 Y39.9983
G01 X16.5022 Y39.9942
G01 X16.5546 Y39.9688
G01 X16.5664 Y39.9647
G01 X16.5797 Y39.9619
G01 X16.5927 Y39.9610
G01 X16.6544 Y39.9611
G01 X16.6685 Y39.9626
G01 X16.6817 Y39.9660
G01 X16.6938 Y39.9709
G01 X16.7474 Y39.9970
G01 X16.7549 Y40.0012
G01 X16.7626 Y40.0063
G01 X16.7705 Y40.0129
G01 X16.7770 Y40.0194
G01 X16.7843 Y40.0283
G01 X16.7912 Y40.0395
G01 X16.8245 Y40.1044
G01 X16.8276 Y40.1110
G01 X16.8306 Y40.1193
G01 X16.8326 Y40.1263
G01 X16.8624 Y40.2485
G01 X16.8644 Y40.2609
G01 X16.8648 Y40.2741
G01 X16.8638 Y40.2848
G01 X16.8622 Y40.2936
G01 X16.8326 Y40.4147
G01 X16.8292 Y40.4259
G01 X16.8245 Y40.4366
G01 X16.7901 Y40.5035
G01 X16.7856 Y40.5108
G01 X16.7815 Y40.5163
G01 X16.7763 Y40.5225
G01 X16.7705 Y40.5281
G01 X16.7598 Y40.5367
G01 X16.7494 Y40.5429
G01 X16.6928 Y40.5706
G01 X16.6860 Y40.5735
G01 X16.6784 Y40.5760
G01 X16.6674 Y40.5785
G01 X16.6544 Y40.5799
G01 X16.5933 Y40.5800
G01 X16.5831 Y40.5795
G01 X16.5719 Y40.5777
G01 X16.5620 Y40.5750
G01 X16.5520 Y40.5711
G01 X16.4997 Y40.5454
G01 X16.4882 Y40.5378
G01 X16.4814 Y40.5321
G01 X16.4761 Y40.5268
G01 X16.4704 Y40.5201
G01 X16.4646 Y40.5119
G01 X16.4596 Y40.5031
G01 X16.4557 Y40.4942
G01 X16.4211 Y40.3875
G01 X16.4189 Y40.3793
G01 X16.4177 Y40.3729
G01 X16.4169 Y40.3665
G01 X16.4165 Y40.3574
G01 X16.4165 Y40.1793
G01 X16.4178 Y40.1656
G01 X16.4190 Y40.1591
G01 X16.4213 Y40.1508
G00 Z2.0000
G00 X16.4196 Y40.1566
G01 F60.00
G01 Z-0.0500
G01 F120.00
G01 X16.4159 Y40.1566
G01 X16.4139 Y40.1625
G01 X16.4133 Y40.1648
G01 X16.4132 Y40.1672
G01 X16.4133 Y40.3735
G01 X16.4633 Y40.5290
G01 X16.4645 Y40.5318
G01 X16.4672 Y40.5334
G01 X16.5695 Y40.5832
G01 X16.6745 Y40.5831
G01 X16.7790 Y40.5321
G01 X16.7907 Y40.5106
G01 X16.7942 Y40.5054
G01 X16.7995 Y40.4986
G01 X16.8046 Y40.4932
G01 X16.8109 Y40.4873
G01 X16.8188 Y40.4813
G01 X16.8262 Y40.4767
G01 X16.8328 Y40.4733
G01 X16.8408 Y40.4699
G01 X16.8538 Y40.4661
G01 X16.8599 Y40.4649
G01 X16.8685 Y40.4640
G01 X16.8759 Y40.4637
G01 X16.8834 Y40.4640
G01 X16.8895 Y40.4647
G01 X16.8980 Y40.4663
G01 X16.9052 Y40.4682
G01 X16.9122 Y40.4707
G01 X16.9234 Y40.4760
G01 X16.9298 Y40.4798
G01 X16.9359 Y40.4840
G01 X16.9457 Y40.4926
G01 X17.0363 Y40.5829
G01 X17.1407 Y40.6364
G01 X17.2991 Y40.6365
G01 X17.4037 Y40.5829
G01 X17.4549 Y40.5318
G01 X17.5060 Y40.3737
G01 X17.5060 Y40.1649
G01 X17.4551 Y40.0095
G01 X17.4037 Y39.9581
G01 X17.2991 Y39.9045
G01 X17.1407 Y39.9046
G01 X17.0363 Y39.9581
G01 X16.9457 Y40.0484
G01 X16.9359 Y40.0569
G01 X16.9308 Y40.0605
G01 X16.9234 Y40.0650
G01 X16.9122 Y40.0703
G01 X16.8992 Y40.0744
G01 X16.8907 Y40.0761
G01 X16.8834 Y40.0770
G01 X16.8759 Y40.0773
G01 X16.8685 Y40.0770
G01 X16.8611 Y40.0763
G01 X16.8538 Y40.0749
G01 X16.8408 Y40.0711
G01 X16.8328 Y40.0677
G01 X16.8262 Y40.0643
G01 X16.8188 Y40.0597
G01 X16.8109 Y40.0537
G01 X16.8046 Y40.0478
G01 X16.7995 Y40.0424
G01 X16.7942 Y40.0356
G01 X16.7907 Y40.0304
G01 X16.7790 Y40.0089
G01 X16.6745 Y39.9579
G01 X16.5694 Y39.9579
G01 X16.4672 Y40.0076
G01 X16.4644 Y40.0093
G01 X16.4633 Y40.0120
G01 X16.4139 Y40.1625
G00 Z2.0000
G00 X16.4132 Y40.2366
G01 F60.00
G01 Z-0.0500
G01 F120.00
G01 X16.4165 Y40.2366
G01 X16.4165 Y40.3166
G01 X16.4132 Y40.3166
G00 Z2.0000
G00 X16.4206 Y40.3966
G01 F60.00
G01 Z-0.0500
G01 F120.00
G01 X16.4241 Y40.3966
G01 X16.4464 Y40.4766
G01 X16.4499 Y40.4766
G00 Z2.0000
G00 X16.5148 Y40.5566
G01 F60.00
G01 Z-0.0500
G01 F120.00
G01 X16.5223 Y40.5566
G00 Z2.0000
G00 X16.7214 Y40.5566
G01 F60.00
G01 Z-0.0500
G01 F120.00
G01 X16.7289 Y40.5566
G00 Z2.0000
G00 X16.9975 Y39.9966
G01 F60.00
G01 Z-0.0500
G01 F120.00
G01 X17.0022 Y39.9966
G00 Z2.0000
G00 X17.1169 Y39.9166
G01 F60.00
G01 Z-0.0500
G01 F120.00
G01 X17.1244 Y39.9166
G00 Z2.0000
G00 X17.3157 Y39.9166
G01 F60.00
G01 Z-0.0500
G01 F120.00
G01 X17.3231 Y39.9166
G00 Z2.0000
G00 X17.4378 Y39.9966
G01 F60.00
G01 Z-0.0500
G01 F120.00
G01 X17.4425 Y39.9966
G00 Z2.0000
G00 X17.4738 Y40.0766
G01 F60.00
G01 Z-0.0500
G01 F120.00
G01 X17.4772 Y40.0766
G00 Z2.0000
G00 X17.4997 Y40.1566
G01 F60.00
G01 Z-0.0500
G01 F120.00
G01 X17.5035 Y40.1566
G01 X17.5028 Y40.2366
G01 X17.5062 Y40.2366
G01 X17.5062 Y40.3166
G01 X17.5028 Y40.3166
G00 Z2.0000
G00 X17.4987 Y40.3966
G01 F60.00
G01 Z-0.0500
G01 F120.00
G01 X17.4953 Y40.3966
G01 X17.4729 Y40.4766
G01 X17.4695 Y40.4766
G00 Z2.0000
G00 X17.4302 Y40.5566
G01 F60.00
G01 Z-0.0500
G01 F120.00
G01 X17.4256 Y40.5566
G00 Z2.0000
G00 X17.2439 Y39.5120
G01 F60.00
G01 Z-0.0500
G01 F120.00
G01 X17.2442 Y39.5132
G01 X17.2459 Y39.5150
G01 X17.2959 Y39.5626
G01 X17.2979 Y39.5644
G01 X17.2992 Y39.5646
G01 X17.3016 Y39.5626
G01 X17.3490 Y39.5152
G01 X17.3508 Y39.5132
G01 X17.3511 Y39.5123
G01 X17.3509 Y39.5115
G01 X17.3491 Y39.5094
G01 X17.3017 Y39.4596
G01 X17.2994 Y39.4576
G01 X17.2978 Y39.4578
G01 X17.2458 Y39.5096
G01 X17.2440 Y39.5119
G01 X17.2439 Y39.5120
G01 X17.3238 Y39.5404
G01 X17.3238 Y39.4829
G00 Z2.0000
G00 X16.5590 Y39.0377
G01 F60.00
G01 Z-0.0500
G01 F120.00
G01 X16.4909 Y39.0377
G00 Z2.0000
G00 X16.5694 Y38.9648
G01 F60.00
G01 Z-0.0500
G01 F120.00
G01 X16.5637 Y38.9766
G01 X16.5600 Y38.9872
G01 X16.5576 Y38.9981
G01 X16.5563 Y39.0118
G01 X16.5566 Y39.0230
G01 X16.5587 Y39.0366
G01 X16.5618 Y39.0473
G01 X16.5667 Y39.0588
G01 X16.5722 Y39.0686
G01 X16.5804 Y39.0796
G01 X16.5882 Y39.0877
G01 X16.5968 Y39.0948
G01 X16.6073 Y39.1016
G01 X16.6174 Y39.1065
G01 X16.6279 Y39.1103
G01 X16.6413 Y39.1133
G01 X16.6475 Y39.1140
G01 X16.6562 Y39.1144
G01 X17.5020 Y39.1144
G01 X17.5052 Y39.1147
G01 X17.5059 Y39.1155
G01 X17.5060 Y39.1165
G01 X17.5049 Y39.1175
G01 X17.5020 Y39.1177
G01 X16.4173 Y39.1177
G01 X16.4139 Y39.1172
G01 X16.4133 Y39.1164
G01 X16.4134 Y39.1155
G01 X16.4154 Y39.1132
G01 X16.5573 Y38.9713
G01 X16.5643 Y38.9635
G01 X16.5704 Y38.9551
G01 X16.5747 Y38.9479
G01 X16.6205 Y38.8584
G01 X16.6221 Y38.8558
G01 X16.6230 Y38.8555
G01 X16.6240 Y38.8557
G01 X16.6247 Y38.8571
G01 X16.6235 Y38.8599
G01 X16.5724 Y38.9596
G01 X16.5694 Y38.9648
G01 X16.5686 Y38.9577
G01 X16.5734 Y38.9577
G01 X16.6144 Y38.8777
G01 X16.6107 Y38.8777
G00 Z2.0000
G00 X15.7883 Y45.4746
G01 F60.00
G01 Z-0.0500
G01 F120.00
G01 X15.7884 Y46.1114
G01 X15.7887 Y46.1127
G01 X15.7896 Y46.1135
G01 X18.3275 Y46.1136
G01 X18.3310 Y46.1132
G01 X18.3315 Y46.1123
G01 X18.3317 Y46.1095
G01 X18.3317 Y43.5744
G01 X18.3312 Y43.5710
G01 X18.3303 Y43.5705
G01 X18.3275 Y43.5703
G01 X15.7925 Y43.5703
G01 X15.7890 Y43.5708
G01 X15.7885 Y43.5717
G01 X15.7883 Y43.5744
G01 X15.7883 Y45.4746
G00 Z2.0000
G00 X15.7916 Y46.0110
G01 F60.00
G01 Z-0.0500
G01 F120.00
G01 X15.7917 Y43.6718
G01 X15.7923 Y43.6626
G01 X15.7938 Y43.6529
G01 X15.7963 Y43.6434
G01 X15.7997 Y43.6342
G01 X15.8035 Y43.6265
G01 X15.8092 Y43.6171
G01 X15.8151 Y43.6093
G01 X15.8218 Y43.6021
G01 X15.8282 Y43.5963
G01 X15.8361 Y43.5905
G01 X15.8445 Y43.5854
G01 X15.8534 Y43.5813
G01 X15.8626 Y43.5779
G01 X15.8721 Y43.5756
G01 X15.8818 Y43.5741
G01 X15.8910 Y43.5736
G01 X18.2283 Y43.5736
G01 X18.2382 Y43.5741
G01 X18.2479 Y43.5756
G01 X18.2574 Y43.5779
G01 X18.2666 Y43.5813
G01 X18.2755 Y43.5854
G01 X18.2839 Y43.5905
G01 X18.2918 Y43.5963
G01 X18.2999 Y43.6038
G01 X18.3057 Y43.6102
G01 X18.3115 Y43.6181
G01 X18.3165 Y43.6265
G01 X18.3207 Y43.6354
G01 X18.3240 Y43.6446
G01 X18.3264 Y43.6541
G01 X18.3279 Y43.6638
G01 X18.3283 Y43.6730
G01 X18.3283 Y46.0103
G01 X18.3279 Y46.0201
G01 X18.3264 Y46.0298
G01 X18.3240 Y46.0394
G01 X18.3207 Y46.0486
G01 X18.3165 Y46.0575
G01 X18.3115 Y46.0659
G01 X18.3057 Y46.0738
G01 X18.2982 Y46.0819
G01 X18.2918 Y46.0876
G01 X18.2839 Y46.0935
G01 X18.2755 Y46.0985
G01 X18.2666 Y46.1027
G01 X18.2574 Y46.1060
G01 X18.2479 Y46.1084
G01 X18.2382 Y46.1099
G01 X18.2290 Y46.1103
G01 X15.8885 Y46.1103
G01 X15.8805 Y46.1097
G01 X15.8708 Y46.1082
G01 X15.8614 Y46.1057
G01 X15.8522 Y46.1022
G01 X15.8433 Y46.0979
G01 X15.8350 Y46.0928
G01 X15.8281 Y46.0876
G01 X15.8200 Y46.0802
G01 X15.8142 Y46.0738
G01 X15.8084 Y46.0659
G01 X15.8034 Y46.0575
G01 X15.7992 Y46.0486
G01 X15.7959 Y46.0394
G01 X15.7935 Y46.0298
G01 X15.7920 Y46.0201
G01 X15.7916 Y46.0110
G00 Z2.0000
G00 X15.8683 Y46.1076
G01 F60.00
G01 Z-0.0500
G01 F120.00
G01 X15.8683 Y46.1136
G00 Z2.0000
G00 X15.9483 Y46.1103
G01 F60.00
G01 Z-0.0500
G01 F120.00
G01 X15.9483 Y46.1136
G01 X16.0283 Y46.1136
G01 X16.0283 Y46.1103
G01 X16.1083 Y46.1103
G01 X16.1083 Y46.1136
G01 X16.1883 Y46.1136
G01 X16.1883 Y46.1103
G01 X16.2683 Y46.1103
G01 X16.2683 Y46.1136
G01 X16.3483 Y46.1136
G01 X16.3483 Y46.1103
G01 X16.4283 Y46.1103
G01 X16.4283 Y46.1136
G01 X16.5083 Y46.1136
G01 X16.5083 Y46.1103
G01 X16.5883 Y46.1103
G01 X16.5883 Y46.1136
G01 X16.6683 Y46.1136
G01 X16.6683 Y46.1103
G01 X16.7483 Y46.1103
G01 X16.7483 Y46.1136
G01 X16.8283 Y46.1136
G01 X16.8283 Y46.1103
G01 X16.9083 Y46.1103
G01 X16.9083 Y46.1136
G01 X16.9883 Y46.1136
G01 X16.9883 Y46.1103
G01 X17.0683 Y46.1103
G01 X17.0683 Y46.1136
G01 X17.1483 Y46.1136
G01 X17.1483 Y46.1103
G01 X17.2283 Y46.1103
G01 X17.2283 Y46.1136
G01 X17.3083 Y46.1136
G01 X17.3083 Y46.1103
G01 X17.3883 Y46.1103
G01 X17.3883 Y46.1136
G01 X17.4683 Y46.1136
G01 X17.4683 Y46.1103
G01 X17.5483 Y46.1103
G01 X17.5483 Y46.1136
G01 X17.6283 Y46.1136
G01 X17.6283 Y46.1103
G01 X17.7083 Y46.1103
G01 X17.7083 Y46.1136
G01 X17.7883 Y46.1136
G01 X17.7883 Y46.1103
G01 X17.8683 Y46.1103
G01 X17.8683 Y46.1136
G01 X17.9483 Y46.1136
G01 X17.9483 Y46.1103
G01 X18.0283 Y46.1103
G01 X18.0283 Y46.1136
G01 X18.1083 Y46.1136
G01 X18.1083 Y46.1103
G01 X18.1883 Y46.1103
G01 X18.1883 Y46.1136
G01 X18.2683 Y46.1136
G01 X18.2683 Y46.1020
G00 Z2.0000
G00 X26.7635 Y36.9840
G01 F60.00
G01 Z-0.0500
G01 F120.00
G01 X27.7662 Y37.3420
G01 X27.7662 Y36.6260
G01 X26.7635 Y36.9840
G01 X26.8226 Y36.9629
G01 X27.7662 Y36.9629
G01 X27.7662 Y37.0429
G01 X26.9286 Y37.0429
G01 X27.0466 Y36.8829
G01 X27.7662 Y36.8829
G01 X27.7662 Y36.8029
G01 X27.2707 Y36.8029
G01 X27.4948 Y36.7229
G01 X27.7662 Y36.7229
G01 X27.7662 Y36.6429
G01 X27.7188 Y36.6429
G01 X27.7662 Y37.1229
G01 X27.1526 Y37.1229
G01 X27.3767 Y37.2029
G01 X27.7662 Y37.2029
G01 X27.7662 Y37.2829
G01 X27.6008 Y37.2829
G00 Z2.0000
G00 X28.1389 Y35.5864
G01 F60.00
G01 Z-0.0500
G01 F120.00
G01 X28.1389 Y40.3815
G01 X28.1396 Y40.3892
G01 X28.1411 Y40.3943
G01 X28.1436 Y40.3989
G01 X28.1469 Y40.4030
G01 X28.1510 Y40.4064
G01 X28.1557 Y40.4089
G01 X28.1607 Y40.4104
G01 X28.1660 Y40.4109
G01 X28.1713 Y40.4104
G01 X28.1763 Y40.4089
G01 X28.1810 Y40.4064
G01 X28.1851 Y40.4030
G01 X28.1884 Y40.3989
G01 X28.1909 Y40.3943
G01 X28.1924 Y40.3892
G01 X28.1931 Y40.3815
G01 X28.1931 Y35.5864
G01 X28.1924 Y35.5787
G01 X28.1909 Y35.5737
G01 X28.1884 Y35.5690
G01 X28.1851 Y35.5649
G01 X28.1810 Y35.5616
G01 X28.1763 Y35.5591
G01 X28.1713 Y35.5576
G01 X28.1660 Y35.5570
G01 X28.1607 Y35.5576
G01 X28.1557 Y35.5591
G01 X28.1510 Y35.5616
G01 X28.1469 Y35.5649
G01 X28.1436 Y35.5690
G01 X28.1411 Y35.5737
G01 X28.1396 Y35.5787
G01 X28.1389 Y35.5864
G00 Z2.0000
G00 X62.3225 Y26.6016
G01 F60.00
G01 Z-0.0500
G01 F120.00
G01 X62.3225 Y26.5969
G00 Z2.0000
G00 X62.4025 Y26.6763
G01 F60.00
G01 Z-0.0500
G01 F120.00
G01 X62.4025 Y26.6812
G01 X62.4825 Y26.7166
G01 X62.4825 Y26.7203
G00 Z2.0000
G00 X62.5625 Y26.7268
G01 F60.00
G01 Z-0.0500
G01 F120.00
G01 X62.5625 Y26.7301
G01 X62.6425 Y26.7301
G01 X62.6425 Y26.7268
G00 Z2.0000
G00 X62.7225 Y26.7249
G01 F60.00
G01 Z-0.0500
G01 F120.00
G01 X62.7225 Y26.7207
G00 Z2.0000
G00 X62.8025 Y26.6859
G01 F60.00
G01 Z-0.0500
G01 F120.00
G01 X62.8025 Y26.6822
G00 Z2.0000
G00 X62.8825 Y26.6131
G01 F60.00
G01 Z-0.0500
G01 F120.00
G01 X62.8825 Y26.6084
G00 Z2.0000
G00 X62.9625 Y26.4896
G01 F60.00
G01 Z-0.0500
G01 F120.00
G01 X62.9625 Y26.4821
G00 Z2.0000
G00 X63.4452 Y26.5989
G01 F60.00
G01 Z-0.0500
G01 F120.00
G01 X63.4452 Y26.6035
G00 Z2.0000
G00 X63.5252 Y26.6764
G01 F60.00
G01 Z-0.0500
G01 F120.00
G01 X63.5252 Y26.6812
G01 X63.6052 Y26.7166
G01 X63.6052 Y26.7203
G00 Z2.0000
G00 X63.6852 Y26.7268
G01 F60.00
G01 Z-0.0500
G01 F120.00
G01 X63.6852 Y26.7301
G01 X63.7652 Y26.7301
G01 X63.7652 Y26.7268
G00 Z2.0000
G00 X63.8452 Y26.7249
G01 F60.00
G01 Z-0.0500
G01 F120.00
G01 X63.8452 Y26.7207
G00 Z2.0000
G00 X63.9252 Y26.6859
G01 F60.00
G01 Z-0.0500
G01 F120.00
G01 X63.9252 Y26.6822
G00 Z2.0000
G00 X64.0052 Y26.6131
G01 F60.00
G01 Z-0.0500
G01 F120.00
G01 X64.0052 Y26.6084
G00 Z2.0000
G00 X64.0852 Y26.4896
G01 F60.00
G01 Z-0.0500
G01 F120.00
G01 X64.0852 Y26.4820
G00 Z2.0000
G00 X64.0852 Y25.8853
G01 F60.00
G01 Z-0.0500
G01 F120.00
G01 X64.0852 Y25.8778
G00 Z2.0000
G00 X64.0052 Y25.7589
G01 F60.00
G01 Z-0.0500
G01 F120.00
G01 X64.0052 Y25.7543
G00 Z2.0000
G00 X63.9252 Y25.6852
G01 F60.00
G01 Z-0.0500
G01 F120.00
G01 X63.9252 Y25.6814
G00 Z2.0000
G00 X63.8452 Y25.6467
G01 F60.00
G01 Z-0.0500
G01 F120.00
G01 X63.8452 Y25.6424
G00 Z2.0000
G00 X63.7652 Y25.6405
G01 F60.00
G01 Z-0.0500
G01 F120.00
G01 X63.7652 Y25.6372
G01 X63.6852 Y25.6372
G01 X63.6852 Y25.6405
G00 Z2.0000
G00 X63.6052 Y25.6471
G01 F60.00
G01 Z-0.0500
G01 F120.00
G01 X63.6052 Y25.6507
G01 X63.5252 Y25.6861
G01 X63.5252 Y25.6909
G00 Z2.0000
G00 X63.4452 Y25.7638
G01 F60.00
G01 Z-0.0500
G01 F120.00
G01 X63.4452 Y25.7685
G01 X63.4148 Y25.7955
G01 X63.4164 Y25.7928
G01 X63.4183 Y25.7907
G01 X63.5186 Y25.6904
G01 X63.5207 Y25.6885
G01 X63.6254 Y25.6373
G01 X63.8342 Y25.6373
G01 X63.9392 Y25.6885
G01 X64.0416 Y25.7907
G01 X64.0436 Y25.7930
G01 X64.0451 Y25.7955
G01 X64.0933 Y25.8943
G01 X64.0958 Y25.9004
G01 X64.1480 Y26.0551
G01 X64.1480 Y26.3146
G01 X64.0957 Y26.4671
G01 X64.0933 Y26.4729
G01 X64.0436 Y26.5744
G01 X63.9390 Y26.6790
G01 X63.8344 Y26.7300
G01 X63.6253 Y26.7299
G01 X63.5207 Y26.6789
G01 X63.4183 Y26.5767
G01 X63.4163 Y26.5744
G01 X63.4148 Y26.5718
G01 X63.3663 Y26.4723
G01 X63.3652 Y26.4692
G01 X63.3661 Y26.4680
G01 X63.3674 Y26.4680
G01 X63.3693 Y26.4709
G01 X63.4125 Y26.5594
G01 X63.4170 Y26.5672
G01 X63.4209 Y26.5729
G01 X63.4260 Y26.5794
G01 X63.4302 Y26.5839
G01 X63.5108 Y26.6645
G01 X63.5159 Y26.6692
G01 X63.5223 Y26.6744
G01 X63.5280 Y26.6783
G01 X63.5346 Y26.6821
G01 X63.6060 Y26.7170
G01 X63.6180 Y26.7218
G01 X63.6257 Y26.7240
G01 X63.6323 Y26.7254
G01 X63.6402 Y26.7264
G01 X63.6476 Y26.7268
G01 X63.8112 Y26.7268
G01 X63.8197 Y26.7264
G01 X63.8287 Y26.7252
G01 X63.8408 Y26.7222
G01 X63.8509 Y26.7184
G01 X63.9228 Y26.6834
G01 X63.9307 Y26.6790
G01 X63.9365 Y26.6752
G01 X63.9419 Y26.6710
G01 X63.9486 Y26.6650
G01 X64.0316 Y26.5819
G01 X64.0399 Y26.5718
G01 X64.0461 Y26.5618
G01 X64.0890 Y26.4743
G01 X64.0923 Y26.4666
G01 X64.1401 Y26.3280
G01 X64.1424 Y26.3194
G01 X64.1443 Y26.3085
G01 X64.1449 Y26.2975
G01 X64.1449 Y26.0721
G01 X64.1443 Y26.0613
G01 X64.1428 Y26.0519
G01 X64.1396 Y26.0401
G01 X64.0918 Y25.8994
G01 X64.0889 Y25.8928
G01 X64.0451 Y25.8037
G01 X64.0374 Y25.7922
G01 X64.0297 Y25.7834
G01 X63.9486 Y25.7023
G01 X63.9419 Y25.6963
G01 X63.9365 Y25.6921
G01 X63.9307 Y25.6883
G01 X63.9228 Y25.6840
G01 X63.8493 Y25.6483
G01 X63.8419 Y25.6455
G01 X63.8320 Y25.6428
G01 X63.8231 Y25.6413
G01 X63.8123 Y25.6405
G01 X63.6487 Y25.6405
G01 X63.6402 Y25.6409
G01 X63.6323 Y25.6419
G01 X63.6213 Y25.6445
G01 X63.6090 Y25.6489
G01 X63.5325 Y25.6864
G01 X63.5223 Y25.6930
G01 X63.5123 Y25.7014
G01 X63.4307 Y25.7829
G01 X63.4234 Y25.7912
G01 X63.4177 Y25.7990
G01 X63.4131 Y25.8067
G01 X63.3693 Y25.8964
G01 X63.3678 Y25.8991
G01 X63.3669 Y25.8994
G01 X63.3661 Y25.8993
G01 X63.3654 Y25.8987
G01 X63.3652 Y25.8978
G01 X63.3663 Y25.8950
G01 X63.4148 Y25.7955
G00 Z2.0000
G00 X62.9625 Y25.8777
G01 F60.00
G01 Z-0.0500
G01 F120.00
G01 X62.9625 Y25.8852
G00 Z2.0000
G00 X62.8825 Y25.7589
G01 F60.00
G01 Z-0.0500
G01 F120.00
G01 X62.8825 Y25.7542
G00 Z2.0000
G00 X62.8025 Y25.6852
G01 F60.00
G01 Z-0.0500
G01 F120.00
G01 X62.8025 Y25.6814
G00 Z2.0000
G00 X62.7225 Y25.6467
G01 F60.00
G01 Z-0.0500
G01 F120.00
G01 X62.7225 Y25.6424
G00 Z2.0000
G00 X62.6425 Y25.6405
G01 F60.00
G01 Z-0.0500
G01 F120.00
G01 X62.6425 Y25.6372
G01 X62.5625 Y25.6372
G01 X62.5625 Y25.6405
G00 Z2.0000
G00 X62.4825 Y25.6471
G01 F60.00
G01 Z-0.0500
G01 F120.00
G01 X62.4825 Y25.6508
G01 X62.4025 Y25.6861
G01 X62.4025 Y25.6911
G00 Z2.0000
G00 X62.3225 Y25.7657
G01 F60.00
G01 Z-0.0500
G01 F120.00
G01 X62.3225 Y25.7704
G01 X62.2948 Y25.7953
G01 X62.2962 Y25.7928
G01 X62.2980 Y25.7908
G01 X62.3963 Y25.6900
G01 X62.3981 Y25.6884
G01 X62.5026 Y25.6374
G01 X62.7116 Y25.6373
G01 X62.8165 Y25.6885
G01 X62.9189 Y25.7907
G01 X62.9210 Y25.7930
G01 X62.9224 Y25.7955
G01 X62.9706 Y25.8943
G01 X62.9731 Y25.9004
G01 X63.0253 Y26.0551
G01 X63.0253 Y26.3146
G01 X62.9731 Y26.4671
G01 X62.9706 Y26.4729
G01 X62.9210 Y26.5744
G01 X62.8164 Y26.6790
G01 X62.7117 Y26.7300
G01 X62.5026 Y26.7299
G01 X62.4002 Y26.6801
G01 X62.3981 Y26.6790
G01 X62.3963 Y26.6773
G01 X62.2962 Y26.5745
G01 X62.2437 Y26.4724
G01 X62.2425 Y26.4692
G01 X62.2434 Y26.4681
G01 X62.2447 Y26.4680
G01 X62.2466 Y26.4709
G01 X62.2922 Y26.5597
G01 X62.2962 Y26.5667
G01 X62.3004 Y26.5729
G01 X62.3089 Y26.5829
G01 X62.3890 Y26.6651
G01 X62.3941 Y26.6698
G01 X62.4009 Y26.6751
G01 X62.4122 Y26.6822
G01 X62.4833 Y26.7170
G01 X62.4954 Y26.7218
G01 X62.5030 Y26.7240
G01 X62.5097 Y26.7254
G01 X62.5175 Y26.7264
G01 X62.5249 Y26.7268
G01 X62.6885 Y26.7268
G01 X62.6970 Y26.7264
G01 X62.7060 Y26.7252
G01 X62.7181 Y26.7222
G01 X62.7282 Y26.7184
G01 X62.8002 Y26.6834
G01 X62.8080 Y26.6790
G01 X62.8138 Y26.6752
G01 X62.8193 Y26.6710
G01 X62.8259 Y26.6650
G01 X62.9089 Y26.5819
G01 X62.9172 Y26.5718
G01 X62.9234 Y26.5618
G01 X62.9663 Y26.4743
G01 X62.9696 Y26.4666
G01 X63.0174 Y26.3280
G01 X63.0198 Y26.3194
G01 X63.0216 Y26.3085
G01 X63.0222 Y26.2975
G01 X63.0222 Y26.0721
G01 X63.0216 Y26.0613
G01 X63.0201 Y26.0519
G01 X63.0169 Y26.0401
G01 X62.9691 Y25.8994
G01 X62.9662 Y25.8928
G01 X62.9224 Y25.8037
G01 X62.9147 Y25.7922
G01 X62.9070 Y25.7834
G01 X62.8259 Y25.7023
G01 X62.8193 Y25.6963
G01 X62.8138 Y25.6921
G01 X62.8080 Y25.6883
G01 X62.8002 Y25.6840
G01 X62.7266 Y25.6483
G01 X62.7192 Y25.6455
G01 X62.7093 Y25.6428
G01 X62.7004 Y25.6413
G01 X62.6896 Y25.6405
G01 X62.5260 Y25.6405
G01 X62.5175 Y25.6409
G01 X62.5097 Y25.6419
G01 X62.4964 Y25.6452
G01 X62.4853 Y25.6494
G01 X62.4156 Y25.6834
G01 X62.4090 Y25.6869
G01 X62.3983 Y25.6941
G01 X62.3890 Y25.7023
G01 X62.3093 Y25.7839
G01 X62.3027 Y25.7914
G01 X62.2969 Y25.7995
G01 X62.2927 Y25.8065
G01 X62.2466 Y25.8965
G01 X62.2451 Y25.8991
G01 X62.2442 Y25.8994
G01 X62.2434 Y25.8993
G01 X62.2427 Y25.8987
G01 X62.2425 Y25.8978
G01 X62.2437 Y25.8950
G01 X62.2948 Y25.7953
G00 Z2.0000
G00 X64.5678 Y25.8499
G01 F60.00
G01 Z-0.0500
G01 F120.00
G01 X64.5678 Y25.8406
G01 X64.6478 Y26.0512
G01 X64.6478 Y26.0605
G01 X64.7278 Y26.2617
G01 X64.7278 Y26.2710
G01 X64.8078 Y26.4723
G01 X64.8078 Y26.4816
G00 Z2.0000
G00 X64.8878 Y26.5418
G01 F60.00
G01 Z-0.0500
G01 F120.00
G01 X64.8878 Y26.6921
G00 Z2.0000
G00 X64.9020 Y26.7292
G01 F60.00
G01 Z-0.0500
G01 F120.00
G01 X64.9031 Y26.7300
G01 X64.9042 Y26.7298
G01 X64.9058 Y26.7268
G01 X65.3207 Y25.6417
G01 X65.3215 Y25.6384
G01 X65.3205 Y25.6374
G01 X65.3192 Y25.6375
G01 X65.3176 Y25.6405
G01 X64.9948 Y26.4843
G01 X64.9885 Y26.4960
G01 X64.9800 Y26.5077
G01 X64.9699 Y26.5180
G01 X64.9584 Y26.5268
G01 X64.9457 Y26.5338
G01 X64.9322 Y26.5389
G01 X64.9180 Y26.5420
G01 X64.9036 Y26.5431
G01 X64.8892 Y26.5420
G01 X64.8751 Y26.5389
G01 X64.8615 Y26.5337
G01 X64.8489 Y26.5267
G01 X64.8374 Y26.5179
G01 X64.8273 Y26.5076
G01 X64.8188 Y26.4959
G01 X64.8126 Y26.4842
G01 X64.4918 Y25.6405
G01 X64.4905 Y25.6378
G01 X64.4898 Y25.6373
G01 X64.4887 Y25.6375
G01 X64.4879 Y25.6388
G01 X64.4887 Y25.6417
G01 X64.9020 Y26.7292
G01 X64.9678 Y26.5646
G01 X64.9678 Y26.5198
G00 Z2.0000
G00 X65.0478 Y26.3554
G01 F60.00
G01 Z-0.0500
G01 F120.00
G01 X65.0478 Y26.3461
G01 X65.1278 Y26.1461
G01 X65.1278 Y26.1369
G01 X65.2078 Y25.9368
G01 X65.2078 Y25.9276
G01 X65.2878 Y25.7276
G01 X65.2878 Y25.7183
G00 Z2.0000
G00 X65.6993 Y26.5516
G01 F60.00
G01 Z-0.0500
G01 F120.00
G01 X65.6993 Y24.6515
G01 X65.6995 Y24.6487
G01 X65.7000 Y24.6478
G01 X65.7035 Y24.6473
G01 X68.2414 Y24.6475
G01 X68.2425 Y24.6486
G01 X68.2427 Y24.6515
G01 X68.2425 Y27.1894
G01 X68.2414 Y27.1905
G01 X68.2385 Y27.1907
G01 X65.7035 Y27.1907
G01 X65.7007 Y27.1905
G01 X65.6999 Y27.1901
G01 X65.6994 Y27.1884
G01 X65.6993 Y26.5507
G01 X65.7027 Y26.5507
G01 X65.7027 Y26.4707
G01 X65.6993 Y26.4707
G01 X65.6993 Y26.3907
G01 X65.7027 Y26.3907
G01 X65.7027 Y26.3107
G01 X65.6993 Y26.3107
G01 X65.6993 Y26.2307
G01 X65.7027 Y26.2307
G01 X65.7027 Y26.1507
G01 X65.6993 Y26.1507
G01 X65.6993 Y26.0707
G01 X65.7027 Y26.0707
G01 X65.7027 Y25.9907
G01 X65.6993 Y25.9907
G01 X65.6993 Y25.9107
G01 X65.7027 Y25.9107
G01 X65.7027 Y25.8307
G01 X65.6993 Y25.8307
G01 X65.6993 Y25.7507
G01 X65.7027 Y25.7507
G01 X65.7027 Y25.6707
G01 X65.6993 Y25.6707
G01 X65.6993 Y25.5907
G01 X65.7027 Y25.5907
G01 X65.7027 Y25.5107
G01 X65.6993 Y25.5107
G01 X65.6993 Y25.4307
G01 X65.7027 Y25.4307
G01 X65.7027 Y25.3507
G01 X65.6993 Y25.3507
G01 X65.6993 Y25.2707
G01 X65.7027 Y25.2707
G01 X65.7027 Y25.1907
G01 X65.6993 Y25.1907
G01 X65.6993 Y25.1107
G01 X65.7027 Y25.1107
G01 X65.7027 Y25.0307
G01 X65.6993 Y25.0307
G01 X65.6993 Y24.9507
G01 X65.7027 Y24.9507
G01 X65.7027 Y24.8707
G01 X65.6993 Y24.8707
G01 X65.6993 Y24.7907
G01 X65.7027 Y24.7907
G00 Z2.0000
G00 X65.6994 Y26.6307
G01 F60.00
G01 Z-0.0500
G01 F120.00
G01 X65.7026 Y26.6307
G01 X65.7026 Y26.7107
G01 X65.6994 Y26.7107
G01 X65.6994 Y26.7907
G01 X65.7026 Y26.7907
G01 X65.7026 Y26.8707
G01 X65.6994 Y26.8707
G01 X65.6994 Y26.9507
G01 X65.7026 Y26.9507
G01 X65.7026 Y27.0307
G01 X65.6994 Y27.0307
G01 X65.7026 Y27.0880
G01 X65.7027 Y24.7488
G01 X65.7036 Y24.7372
G01 X65.7056 Y24.7264
G01 X65.7089 Y24.7158
G01 X65.7139 Y24.7046
G01 X65.7195 Y24.6951
G01 X65.7253 Y24.6872
G01 X65.7328 Y24.6791
G01 X65.7421 Y24.6711
G01 X65.7481 Y24.6668
G01 X65.7555 Y24.6625
G01 X65.7633 Y24.6587
G01 X65.7701 Y24.6561
G01 X65.7784 Y24.6536
G01 X65.7868 Y24.6519
G01 X65.7941 Y24.6510
G01 X65.8020 Y24.6507
G01 X68.1400 Y24.6507
G01 X68.1504 Y24.6513
G01 X68.1625 Y24.6534
G01 X68.1730 Y24.6565
G01 X68.1832 Y24.6608
G01 X68.1939 Y24.6668
G01 X68.2028 Y24.6733
G01 X68.2109 Y24.6808
G01 X68.2189 Y24.6901
G01 X68.2232 Y24.6961
G01 X68.2275 Y24.7035
G01 X68.2313 Y24.7113
G01 X68.2339 Y24.7181
G01 X68.2364 Y24.7264
G01 X68.2381 Y24.7348
G01 X68.2390 Y24.7421
G01 X68.2393 Y24.7500
G01 X68.2393 Y27.0873
G01 X68.2389 Y27.0972
G01 X68.2374 Y27.1069
G01 X68.2350 Y27.1164
G01 X68.2317 Y27.1256
G01 X68.2275 Y27.1345
G01 X68.2225 Y27.1429
G01 X68.2167 Y27.1508
G01 X68.2092 Y27.1589
G01 X68.2028 Y27.1646
G01 X68.1949 Y27.1705
G01 X68.1865 Y27.1755
G01 X68.1776 Y27.1797
G01 X68.1684 Y27.1830
G01 X68.1589 Y27.1854
G01 X68.1492 Y27.1869
G01 X68.1400 Y27.1873
G01 X65.7995 Y27.1873
G01 X65.7915 Y27.1867
G01 X65.7818 Y27.1852
G01 X65.7724 Y27.1827
G01 X65.7632 Y27.1793
G01 X65.7554 Y27.1755
G01 X65.7470 Y27.1705
G01 X65.7391 Y27.1646
G01 X65.7318 Y27.1581
G01 X65.7252 Y27.1508
G01 X65.7194 Y27.1429
G01 X65.7144 Y27.1345
G01 X65.7102 Y27.1256
G01 X65.7069 Y27.1164
G01 X65.7045 Y27.1069
G01 X65.7030 Y27.0972
G01 X65.7026 Y27.0880
G00 Z2.0000
G00 X65.7053 Y27.1107
G01 F60.00
G01 Z-0.0500
G01 F120.00
G01 X65.6994 Y27.1107
G00 Z2.0000
G00 X65.6993 Y24.7107
G01 F60.00
G01 Z-0.0500
G01 F120.00
G01 X65.7110 Y24.7107
G00 Z2.0000
G00 X68.2310 Y24.7107
G01 F60.00
G01 Z-0.0500
G01 F120.00
G01 X68.2427 Y24.7107
G01 X68.2393 Y24.7907
G01 X68.2427 Y24.7907
G01 X68.2427 Y24.8707
G01 X68.2393 Y24.8707
G01 X68.2393 Y24.9507
G01 X68.2427 Y24.9507
G01 X68.2427 Y25.0307
G01 X68.2393 Y25.0307
G01 X68.2393 Y25.1107
G01 X68.2427 Y25.1107
G01 X68.2427 Y25.1907
G01 X68.2393 Y25.1907
G01 X68.2393 Y25.2707
G01 X68.2427 Y25.2707
G01 X68.2427 Y25.3507
G01 X68.2393 Y25.3507
G01 X68.2393 Y25.4307
G01 X68.2427 Y25.4307
G01 X68.2427 Y25.5107
G01 X68.2393 Y25.5107
G01 X68.2393 Y25.5907
G01 X68.2427 Y25.5907
G01 X68.2427 Y25.6707
G01 X68.2393 Y25.6707
G01 X68.2393 Y25.7507
G01 X68.2427 Y25.7507
G01 X68.2427 Y25.8307
G01 X68.2393 Y25.8307
G01 X68.2393 Y25.9107
G01 X68.2427 Y25.9107
G01 X68.2427 Y25.9907
G01 X68.2393 Y25.9907
G01 X68.2393 Y26.0707
G01 X68.2427 Y26.0707
G01 X68.2427 Y26.1507
G01 X68.2393 Y26.1507
G01 X68.2393 Y26.2307
G01 X68.2427 Y26.2307
G01 X68.2427 Y26.3107
G01 X68.2393 Y26.3107
G01 X68.2393 Y26.3907
G01 X68.2427 Y26.3907
G01 X68.2427 Y26.4707
G01 X68.2393 Y26.4707
G01 X68.2393 Y26.5507
G01 X68.2427 Y26.5507
G01 X68.2427 Y26.6307
G01 X68.2393 Y26.6307
G01 X68.2393 Y26.7107
G01 X68.2427 Y26.7107
G01 X68.2427 Y26.7907
G01 X68.2393 Y26.7907
G01 X68.2393 Y26.8707
G01 X68.2427 Y26.8707
G01 X68.2427 Y26.9507
G01 X68.2393 Y26.9507
G01 X68.2393 Y27.0307
G01 X68.2427 Y27.0307
G01 X68.2427 Y27.1107
G01 X68.2366 Y27.1107
G00 Z2.0000
G00 X68.2310 Y43.7446
G01 F60.00
G01 Z-0.0500
G01 F120.00
G01 X68.2427 Y43.7446
G01 X68.2393 Y43.8246
G01 X68.2427 Y43.8246
G01 X68.2427 Y43.9046
G01 X68.2393 Y43.9046
G01 X68.2393 Y43.9846
G01 X68.2427 Y43.9846
G01 X68.2427 Y44.0646
G01 X68.2393 Y44.0646
G01 X68.2393 Y44.1446
G01 X68.2427 Y44.1446
G01 X68.2427 Y44.2246
G01 X68.2393 Y44.2246
G01 X68.2393 Y44.3046
G01 X68.2427 Y44.3046
G01 X68.2427 Y44.3846
G01 X68.2393 Y44.3846
G01 X68.2393 Y44.4646
G01 X68.2427 Y44.4646
G01 X68.2427 Y44.5446
G01 X68.2393 Y44.5446
G01 X68.2393 Y44.6246
G01 X68.2427 Y44.6246
G01 X68.2427 Y44.7046
G01 X68.2393 Y44.7046
G01 X68.2393 Y44.7846
G01 X68.2427 Y44.7846
G01 X68.2427 Y44.8646
G01 X68.2393 Y44.8646
G01 X68.2393 Y44.9446
G01 X68.2427 Y44.9446
G01 X68.2427 Y45.0246
G01 X68.2393 Y45.0246
G01 X68.2393 Y45.1046
G01 X68.2427 Y45.1046
G01 X68.2427 Y45.1846
G01 X68.2393 Y45.1846
G01 X68.2393 Y45.2646
G01 X68.2427 Y45.2646
G01 X68.2427 Y45.3446
G01 X68.2393 Y45.3446
G01 X68.2393 Y45.4246
G01 X68.2427 Y45.4246
G01 X68.2427 Y45.5046
G01 X68.2393 Y45.5046
G01 X68.2393 Y45.5846
G01 X68.2427 Y45.5846
G01 X68.2427 Y45.6646
G01 X68.2393 Y45.6646
G01 X68.2393 Y45.7446
G01 X68.2427 Y45.7446
G01 X68.2427 Y45.8246
G01 X68.2393 Y45.8246
G01 X68.2393 Y45.9046
G01 X68.2427 Y45.9046
G01 X68.2427 Y45.9846
G01 X68.2393 Y45.9846
G01 X68.2393 Y46.0646
G01 X68.2427 Y46.0646
G01 X68.2427 Y46.1446
G01 X68.2366 Y46.1446
G00 Z2.0000
G00 X65.7110 Y43.7446
G01 F60.00
G01 Z-0.0500
G01 F120.00
G01 X65.6993 Y43.7446
G00 Z2.0000
G00 X65.7027 Y43.8246
G01 F60.00
G01 Z-0.0500
G01 F120.00
G01 X65.6993 Y43.8246
G01 X65.6993 Y43.9046
G01 X65.7027 Y43.9046
G01 X65.7027 Y43.9846
G01 X65.6993 Y43.9846
G01 X65.6993 Y44.0646
G01 X65.7027 Y44.0646
G01 X65.7027 Y44.1446
G01 X65.6993 Y44.1446
G01 X65.6993 Y44.2246
G01 X65.7027 Y44.2246
G01 X65.7027 Y44.3046
G01 X65.6993 Y44.3046
G01 X65.6993 Y44.3846
G01 X65.7027 Y44.3846
G01 X65.7027 Y44.4646
G01 X65.6993 Y44.4646
G01 X65.6993 Y44.5446
G01 X65.7027 Y44.5446
G01 X65.7027 Y44.6246
G01 X65.6993 Y44.6246
G01 X65.6993 Y44.7046
G01 X65.7027 Y44.7046
G01 X65.7027 Y44.7846
G01 X65.6993 Y44.7846
G01 X65.6993 Y44.8646
G01 X65.7027 Y44.8646
G01 X65.7027 Y44.9446
G01 X65.6993 Y44.9446
G01 X65.6993 Y45.0246
G01 X65.7027 Y45.0246
G01 X65.7027 Y45.1046
G01 X65.6993 Y45.1046
G01 X65.6993 Y45.1846
G01 X65.7027 Y45.1846
G01 X65.7027 Y45.2646
G01 X65.6993 Y45.2646
G01 X65.6993 Y45.3446
G01 X65.7027 Y45.3446
G01 X65.7027 Y45.4246
G01 X65.6993 Y45.4246
G01 X65.6993 Y45.5046
G01 X65.7027 Y45.5046
G01 X65.7027 Y45.5846
G01 X65.6993 Y45.5846
G01 X65.6994 Y46.2224
G01 X65.6999 Y46.2241
G01 X65.7007 Y46.2245
G01 X65.7035 Y46.2246
G01 X68.2385 Y46.2246
G01 X68.2414 Y46.2245
G01 X68.2425 Y46.2234
G01 X68.2427 Y43.6854
G01 X68.2425 Y43.6825
G01 X68.2414 Y43.6815
G01 X65.7035 Y43.6813
G01 X65.7000 Y43.6818
G01 X65.6995 Y43.6827
G01 X65.6993 Y43.6854
G01 X65.6993 Y45.5856
G00 Z2.0000
G00 X65.6994 Y45.6646
G01 F60.00
G01 Z-0.0500
G01 F120.00
G01 X65.7026 Y45.6646
G01 X65.7026 Y45.7446
G01 X65.6994 Y45.7446
G01 X65.6994 Y45.8246
G01 X65.7026 Y45.8246
G01 X65.7026 Y45.9046
G01 X65.6994 Y45.9046
G01 X65.6994 Y45.9846
G01 X65.7026 Y45.9846
G01 X65.7026 Y46.0646
G01 X65.6994 Y46.0646
G01 X65.7026 Y46.1220
G01 X65.7027 Y43.7828
G01 X65.7036 Y43.7712
G01 X65.7056 Y43.7603
G01 X65.7089 Y43.7498
G01 X65.7139 Y43.7386
G01 X65.7195 Y43.7291
G01 X65.7253 Y43.7212
G01 X65.7328 Y43.7131
G01 X65.7421 Y43.7051
G01 X65.7481 Y43.7008
G01 X65.7555 Y43.6964
G01 X65.7633 Y43.6927
G01 X65.7701 Y43.6901
G01 X65.7784 Y43.6876
G01 X65.7868 Y43.6859
G01 X65.7941 Y43.6850
G01 X65.8020 Y43.6846
G01 X68.1400 Y43.6846
G01 X68.1504 Y43.6853
G01 X68.1625 Y43.6874
G01 X68.1730 Y43.6905
G01 X68.1832 Y43.6948
G01 X68.1939 Y43.7008
G01 X68.2028 Y43.7073
G01 X68.2109 Y43.7148
G01 X68.2189 Y43.7241
G01 X68.2232 Y43.7301
G01 X68.2275 Y43.7375
G01 X68.2313 Y43.7452
G01 X68.2339 Y43.7521
G01 X68.2364 Y43.7603
G01 X68.2381 Y43.7688
G01 X68.2390 Y43.7761
G01 X68.2393 Y43.7840
G01 X68.2393 Y46.1213
G01 X68.2389 Y46.1311
G01 X68.2374 Y46.1408
G01 X68.2350 Y46.1504
G01 X68.2317 Y46.1596
G01 X68.2275 Y46.1685
G01 X68.2225 Y46.1769
G01 X68.2167 Y46.1848
G01 X68.2092 Y46.1929
G01 X68.2028 Y46.1986
G01 X68.1949 Y46.2045
G01 X68.1865 Y46.2095
G01 X68.1776 Y46.2137
G01 X68.1684 Y46.2170
G01 X68.1589 Y46.2194
G01 X68.1492 Y46.2209
G01 X68.1400 Y46.2213
G01 X65.7995 Y46.2213
G01 X65.7915 Y46.2207
G01 X65.7818 Y46.2192
G01 X65.7735 Y46.2170
G01 X65.7632 Y46.2132
G01 X65.7554 Y46.2095
G01 X65.7470 Y46.2045
G01 X65.7391 Y46.1986
G01 X65.7310 Y46.1912
G01 X65.7252 Y46.1848
G01 X65.7194 Y46.1769
G01 X65.7144 Y46.1685
G01 X65.7102 Y46.1596
G01 X65.7069 Y46.1504
G01 X65.7045 Y46.1408
G01 X65.7030 Y46.1311
G01 X65.7026 Y46.1220
G00 Z2.0000
G00 X65.7053 Y46.1446
G01 F60.00
G01 Z-0.0500
G01 F120.00
G01 X65.6994 Y46.1446
G00 Z2.0000
G00 X65.2256 Y45.2279
G01 F60.00
G01 Z-0.0500
G01 F120.00
G01 X65.2256 Y45.2242
G00 Z2.0000
G00 X65.1456 Y45.2627
G01 F60.00
G01 Z-0.0500
G01 F120.00
G01 X65.1456 Y45.2670
G00 Z2.0000
G00 X65.0656 Y45.2688
G01 F60.00
G01 Z-0.0500
G01 F120.00
G01 X65.0656 Y45.2721
G01 X64.9856 Y45.2721
G01 X64.9856 Y45.2688
G00 Z2.0000
G00 X64.9056 Y45.2620
G01 F60.00
G01 Z-0.0500
G01 F120.00
G01 X64.9056 Y45.2583
G01 X64.8256 Y45.2219
G01 X64.8256 Y45.2166
G00 Z2.0000
G00 X64.7456 Y45.1429
G01 F60.00
G01 Z-0.0500
G01 F120.00
G01 X64.7456 Y45.1382
G00 Z2.0000
G00 X64.7456 Y44.8609
G01 F60.00
G01 Z-0.0500
G01 F120.00
G01 X64.7456 Y44.8548
G01 X64.8256 Y44.8548
G01 X64.8256 Y44.8581
G01 X64.9056 Y44.8581
G01 X64.9056 Y44.8548
G01 X64.6656 Y44.8589
G01 X64.6657 Y45.0116
G01 X64.7179 Y45.1140
G01 X64.7193 Y45.1164
G01 X64.7212 Y45.1186
G01 X64.8238 Y45.2209
G01 X64.9257 Y45.2719
G01 X65.1351 Y45.2719
G01 X65.2397 Y45.2209
G01 X65.3440 Y45.1165
G01 X65.3977 Y45.0120
G01 X65.4485 Y44.8568
G01 X65.4485 Y44.5972
G01 X65.3976 Y44.4393
G01 X65.3455 Y44.3373
G01 X65.3441 Y44.3349
G01 X65.3422 Y44.3328
G01 X65.2397 Y44.2305
G01 X65.1349 Y44.1793
G01 X64.9257 Y44.1794
G01 X64.8238 Y44.2305
G01 X64.7212 Y44.3328
G01 X64.7194 Y44.3348
G01 X64.7179 Y44.3373
G01 X64.6669 Y44.4370
G01 X64.6657 Y44.4401
G01 X64.6665 Y44.4413
G01 X64.6678 Y44.4413
G01 X64.6698 Y44.4385
G01 X64.7150 Y44.3502
G01 X64.7193 Y44.3429
G01 X64.7237 Y44.3364
G01 X64.7326 Y44.3261
G01 X64.8156 Y44.2431
G01 X64.8264 Y44.2340
G01 X64.8320 Y44.2303
G01 X64.8402 Y44.2257
G01 X64.9092 Y44.1913
G01 X64.9217 Y44.1867
G01 X64.9330 Y44.1840
G01 X64.9410 Y44.1829
G01 X64.9497 Y44.1825
G01 X65.1128 Y44.1825
G01 X65.1202 Y44.1829
G01 X65.1292 Y44.1841
G01 X65.1380 Y44.1862
G01 X65.1456 Y44.1886
G01 X65.1544 Y44.1924
G01 X65.2233 Y44.2260
G01 X65.2312 Y44.2303
G01 X65.2381 Y44.2349
G01 X65.2445 Y44.2401
G01 X65.2491 Y44.2443
G01 X65.3308 Y44.3261
G01 X65.3365 Y44.3324
G01 X65.3405 Y44.3375
G01 X65.3471 Y44.3479
G01 X65.3910 Y44.4333
G01 X65.3947 Y44.4416
G01 X65.4411 Y44.5845
G01 X65.4441 Y44.5978
G01 X65.4449 Y44.6043
G01 X65.4453 Y44.6134
G01 X65.4453 Y44.8409
G01 X65.4448 Y44.8508
G01 X65.4431 Y44.8612
G01 X65.4404 Y44.8714
G01 X65.3971 Y45.0033
G01 X65.3944 Y45.0107
G01 X65.3911 Y45.0178
G01 X65.3478 Y45.1023
G01 X65.3405 Y45.1138
G01 X65.3335 Y45.1224
G01 X65.2491 Y45.2070
G01 X65.2445 Y45.2112
G01 X65.2381 Y45.2164
G01 X65.2312 Y45.2210
G01 X65.2227 Y45.2257
G01 X65.1544 Y45.2590
G01 X65.1423 Y45.2638
G01 X65.1292 Y45.2672
G01 X65.1213 Y45.2683
G01 X65.1139 Y45.2688
G01 X64.9497 Y45.2688
G01 X64.9410 Y45.2684
G01 X64.9318 Y45.2671
G01 X64.9228 Y45.2650
G01 X64.9140 Y45.2620
G01 X64.9056 Y45.2583
G01 X64.8384 Y45.2247
G01 X64.8309 Y45.2203
G01 X64.8232 Y45.2148
G01 X64.8142 Y45.2069
G01 X64.7330 Y45.1257
G01 X64.7261 Y45.1180
G01 X64.7200 Y45.1096
G01 X64.7150 Y45.1011
G01 X64.6796 Y45.0320
G01 X64.6743 Y45.0194
G01 X64.6714 Y45.0092
G01 X64.6693 Y44.9963
G01 X64.6689 Y44.9875
G01 X64.6689 Y44.9550
G01 X64.6694 Y44.9483
G01 X64.6706 Y44.9398
G01 X64.6719 Y44.9338
G01 X64.6743 Y44.9256
G01 X64.6765 Y44.9198
G01 X64.6801 Y44.9121
G01 X64.6837 Y44.9057
G01 X64.6878 Y44.8995
G01 X64.6924 Y44.8937
G01 X64.6982 Y44.8874
G01 X64.7083 Y44.8785
G01 X64.7143 Y44.8743
G01 X64.7207 Y44.8705
G01 X64.7261 Y44.8677
G01 X64.7340 Y44.8644
G01 X64.7410 Y44.8621
G01 X64.7494 Y44.8600
G01 X64.7578 Y44.8587
G01 X64.7646 Y44.8582
G01 X64.9238 Y44.8581
G01 X64.9271 Y44.8577
G01 X64.9278 Y44.8568
G01 X64.9276 Y44.8556
G01 X64.9266 Y44.8550
G01 X64.9238 Y44.8548
G01 X64.6697 Y44.8548
G01 X64.6669 Y44.8550
G01 X64.6661 Y44.8554
G01 X64.6657 Y44.8562
G01 X64.6656 Y44.8589
G00 Z2.0000
G00 X64.3162 Y44.4813
G01 F60.00
G01 Z-0.0500
G01 F120.00
G01 X64.3162 Y44.1900
G01 X64.2362 Y44.3100
G01 X64.2362 Y44.4175
G00 Z2.0000
G00 X64.1562 Y44.4418
G01 F60.00
G01 Z-0.0500
G01 F120.00
G01 X64.1562 Y44.4300
G00 Z2.0000
G00 X64.0762 Y44.5500
G01 F60.00
G01 Z-0.0500
G01 F120.00
G01 X64.0762 Y44.5559
G01 X63.9962 Y44.6700
G01 X63.9962 Y44.6759
G01 X63.9162 Y44.7900
G01 X63.9162 Y44.7959
G01 X63.8362 Y44.9100
G01 X63.8362 Y44.9159
G00 Z2.0000
G00 X63.7562 Y45.0171
G01 F60.00
G01 Z-0.0500
G01 F120.00
G01 X63.7562 Y45.0359
G00 Z2.0000
G00 X63.6762 Y45.0320
G01 F60.00
G01 Z-0.0500
G01 F120.00
G01 X63.6762 Y45.1559
G00 Z2.0000
G00 X63.5964 Y45.2705
G01 F60.00
G01 Z-0.0500
G01 F120.00
G01 X63.5970 Y45.2718
G01 X63.5983 Y45.2720
G01 X63.6006 Y45.2694
G01 X64.1419 Y44.4576
G01 X64.1493 Y44.4486
G01 X64.1582 Y44.4401
G01 X64.1670 Y44.4335
G01 X64.1765 Y44.4278
G01 X64.1877 Y44.4229
G01 X64.1983 Y44.4196
G01 X64.2091 Y44.4175
G01 X64.2226 Y44.4166
G01 X64.2324 Y44.4170
G01 X64.2421 Y44.4185
G01 X64.2516 Y44.4209
G01 X64.2597 Y44.4237
G01 X64.2687 Y44.4278
G01 X64.2751 Y44.4314
G01 X64.2822 Y44.4362
G01 X64.2898 Y44.4424
G01 X64.2967 Y44.4494
G01 X64.3022 Y44.4560
G01 X64.3065 Y44.4620
G01 X64.3114 Y44.4705
G01 X64.3150 Y44.4783
G01 X64.3183 Y44.4875
G01 X64.3207 Y44.4970
G01 X64.3220 Y44.5055
G01 X64.3227 Y44.5166
G01 X64.3227 Y45.2680
G01 X64.3231 Y45.2715
G01 X64.3245 Y45.2720
G01 X64.3256 Y45.2713
G01 X64.3260 Y45.2680
G01 X64.3260 Y44.1832
G01 X64.3258 Y44.1805
G01 X64.3252 Y44.1796
G01 X64.3243 Y44.1793
G01 X64.3235 Y44.1796
G01 X64.3216 Y44.1820
G01 X63.7803 Y44.9937
G01 X63.7729 Y45.0027
G01 X63.7640 Y45.0112
G01 X63.7552 Y45.0179
G01 X63.7457 Y45.0235
G01 X63.7344 Y45.0285
G01 X63.7239 Y45.0317
G01 X63.7106 Y45.0341
G01 X63.6996 Y45.0348
G01 X63.6898 Y45.0343
G01 X63.6801 Y45.0328
G01 X63.6706 Y45.0305
G01 X63.6624 Y45.0276
G01 X63.6535 Y45.0235
G01 X63.6471 Y45.0199
G01 X63.6400 Y45.0151
G01 X63.6324 Y45.0089
G01 X63.6255 Y45.0019
G01 X63.6200 Y44.9953
G01 X63.6157 Y44.9893
G01 X63.6108 Y44.9808
G01 X63.6071 Y44.9730
G01 X63.6038 Y44.9638
G01 X63.6015 Y44.9543
G01 X63.6001 Y44.9458
G01 X63.5995 Y44.9348
G01 X63.5995 Y44.1833
G01 X63.5991 Y44.1799
G01 X63.5979 Y44.1793
G01 X63.5966 Y44.1800
G01 X63.5962 Y44.1833
G01 X63.5964 Y45.2705
G00 Z2.0000
G00 X63.2443 Y45.2102
G01 F60.00
G01 Z-0.0500
G01 F120.00
G01 X63.2443 Y45.2721
G01 X63.2525 Y45.2721
G01 X63.2553 Y45.2720
G01 X63.2564 Y45.2709
G01 X63.2566 Y45.2680
G01 X63.2566 Y44.1833
G01 X63.2563 Y44.1801
G01 X63.2553 Y44.1793
G01 X63.2525 Y44.1792
G01 X62.8916 Y44.1793
G01 X62.7335 Y44.2303
G01 X62.6289 Y44.3350
G01 X62.5793 Y44.4363
G01 X62.5768 Y44.4424
G01 X62.5245 Y44.5971
G01 X62.5245 Y44.8566
G01 X62.5768 Y45.0091
G01 X62.5792 Y45.0149
G01 X62.6290 Y45.1165
G01 X62.7337 Y45.2211
G01 X62.8916 Y45.2720
G01 X62.8944 Y45.2721
G01 X63.2525 Y45.2721
G01 X63.1643 Y45.2721
G01 X63.1643 Y45.2682
G00 Z2.0000
G00 X63.0843 Y45.2688
G01 F60.00
G01 Z-0.0500
G01 F120.00
G01 X63.0843 Y45.2721
G01 X63.0043 Y45.2721
G01 X63.0043 Y45.2688
G01 X62.9243 Y45.2688
G01 X62.9243 Y45.2721
G00 Z2.0000
G00 X62.8443 Y45.2569
G01 F60.00
G01 Z-0.0500
G01 F120.00
G01 X62.8443 Y45.2535
G01 X62.7643 Y45.2311
G01 X62.7643 Y45.2277
G00 Z2.0000
G00 X62.6843 Y45.1721
G01 F60.00
G01 Z-0.0500
G01 F120.00
G01 X62.6843 Y45.1674
G00 Z2.0000
G00 X62.6043 Y45.0665
G01 F60.00
G01 Z-0.0500
G01 F120.00
G01 X62.6043 Y45.0589
G00 Z2.0000
G00 X62.6043 Y44.3924
G01 F60.00
G01 Z-0.0500
G01 F120.00
G01 X62.6043 Y44.3849
G00 Z2.0000
G00 X62.6843 Y44.2839
G01 F60.00
G01 Z-0.0500
G01 F120.00
G01 X62.6843 Y44.2792
G00 Z2.0000
G00 X62.7643 Y44.2237
G01 F60.00
G01 Z-0.0500
G01 F120.00
G01 X62.7643 Y44.2202
G01 X62.8443 Y44.1979
G01 X62.8443 Y44.1944
G00 Z2.0000
G00 X62.9071 Y44.1825
G01 F60.00
G01 Z-0.0500
G01 F120.00
G01 X63.1539 Y44.1825
G01 X63.1631 Y44.1830
G01 X63.1740 Y44.1847
G01 X63.1870 Y44.1883
G01 X63.1950 Y44.1916
G01 X63.2005 Y44.1943
G01 X63.2058 Y44.1974
G01 X63.2129 Y44.2022
G01 X63.2232 Y44.2109
G01 X63.2314 Y44.2200
G01 X63.2358 Y44.2259
G01 X63.2397 Y44.2321
G01 X63.2457 Y44.2442
G01 X63.2479 Y44.2500
G01 X63.2503 Y44.2582
G01 X63.2527 Y44.2715
G01 X63.2533 Y44.2825
G01 X63.2531 Y45.1750
G01 X63.2524 Y45.1823
G01 X63.2511 Y45.1895
G01 X63.2490 Y45.1979
G01 X63.2462 Y45.2060
G01 X63.2432 Y45.2127
G01 X63.2391 Y45.2202
G01 X63.2358 Y45.2254
G01 X63.2306 Y45.2323
G01 X63.2249 Y45.2387
G01 X63.2205 Y45.2429
G01 X63.2139 Y45.2484
G01 X63.2078 Y45.2527
G01 X63.2005 Y45.2570
G01 X63.1927 Y45.2607
G01 X63.1858 Y45.2634
G01 X63.1776 Y45.2658
G01 X63.1668 Y45.2679
G01 X63.1539 Y45.2688
G01 X62.9077 Y45.2688
G01 X62.8974 Y45.2683
G01 X62.8871 Y45.2667
G01 X62.8789 Y45.2646
G01 X62.7581 Y45.2256
G01 X62.7460 Y45.2208
G01 X62.7367 Y45.2158
G01 X62.7279 Y45.2098
G01 X62.7194 Y45.2024
G01 X62.6433 Y45.1264
G01 X62.6351 Y45.1171
G01 X62.6274 Y45.1056
G01 X62.5808 Y45.0100
G01 X62.5331 Y44.8720
G01 X62.5304 Y44.8627
G01 X62.5283 Y44.8505
G01 X62.5277 Y44.8395
G01 X62.5277 Y44.6141
G01 X62.5281 Y44.6046
G01 X62.5292 Y44.5965
G01 X62.5310 Y44.5886
G01 X62.5329 Y44.5820
G01 X62.5802 Y44.4428
G01 X62.5837 Y44.4348
G01 X62.6269 Y44.3466
G01 X62.6303 Y44.3410
G01 X62.6351 Y44.3342
G01 X62.6433 Y44.3249
G01 X62.7194 Y44.2489
G01 X62.7288 Y44.2408
G01 X62.7377 Y44.2349
G01 X62.7460 Y44.2305
G01 X62.7564 Y44.2262
G01 X62.8777 Y44.1871
G01 X62.8858 Y44.1849
G01 X62.8922 Y44.1837
G01 X62.8987 Y44.1829
G01 X62.9071 Y44.1825
G00 Z2.0000
G00 X62.9243 Y44.1825
G01 F60.00
G01 Z-0.0500
G01 F120.00
G01 X62.9243 Y44.1792
G01 X63.0043 Y44.1792
G01 X63.0043 Y44.1825
G01 X63.0843 Y44.1825
G01 X63.0843 Y44.1792
G01 X63.1643 Y44.1792
G01 X63.1643 Y44.1831
G01 X63.2443 Y44.1792
G01 X63.2443 Y44.2411
G00 Z2.0000
G00 X64.7456 Y44.3084
G01 F60.00
G01 Z-0.0500
G01 F120.00
G01 X64.7456 Y44.3131
G00 Z2.0000
G00 X64.8256 Y44.2347
G01 F60.00
G01 Z-0.0500
G01 F120.00
G01 X64.8256 Y44.2294
G01 X64.9056 Y44.1930
G01 X64.9056 Y44.1893
G00 Z2.0000
G00 X64.9856 Y44.1825
G01 F60.00
G01 Z-0.0500
G01 F120.00
G01 X64.9856 Y44.1792
G01 X65.0656 Y44.1792
G01 X65.0656 Y44.1825
G00 Z2.0000
G00 X65.1456 Y44.1844
G01 F60.00
G01 Z-0.0500
G01 F120.00
G01 X65.1456 Y44.1886
G00 Z2.0000
G00 X65.2256 Y44.2234
G01 F60.00
G01 Z-0.0500
G01 F120.00
G01 X65.2256 Y44.2271
G00 Z2.0000
G00 X65.3056 Y44.2961
G01 F60.00
G01 Z-0.0500
G01 F120.00
G01 X65.3056 Y44.3008
G00 Z2.0000
G00 X65.3856 Y44.4155
G01 F60.00
G01 Z-0.0500
G01 F120.00
G01 X65.3856 Y44.4228
G00 Z2.0000
G00 X65.3856 Y45.0285
G01 F60.00
G01 Z-0.0500
G01 F120.00
G01 X65.3856 Y45.0358
G00 Z2.0000
G00 X65.3056 Y45.1505
G01 F60.00
G01 Z-0.0500
G01 F120.00
G01 X65.3056 Y45.1552
G00 Z2.0000
M05
G00 Z2.0000
G00 Z15.00


