(G-CODE GENERATED BY FLATCAM v8.994 - www.flatcam.org - Version Date: 2020/11/7)

(Name: Gerber_TopLayer.GTL_iso_combined_cnc)
(Type: G-code from Geometry)
(Units: MM)

(Created on Tuesday, 28 May 2024 at 20:04)

(This preprocessor is the default preprocessor used by FlatCAM.)
(It is made to work with MACH3 compatible motion controllers.)

(TOOL DIAMETER: 0.2155 mm)
(Feedrate_XY: 120.0 mm/min)
(Feedrate_Z: 60.0 mm/min)
(Feedrate rapids 1500.0 mm/min)

(Z_Cut: -0.1 mm)
(Z_Move: 2.0 mm)
(Z Start: None mm)
(Z End: 15.0 mm)
(X,Y End: None mm)
(Steps per circle: 64)
(Preprocessor Geometry: default)

(X range:   23.5403 ...   76.4607  mm)
(Y range:   23.9863 ...   45.8949  mm)

(Spindle Speed: 0.0 RPM)
G21
G90
G94

G01 F120.00

M5
G00 Z15.0000
G00 X0.0000 Y0.0000
T1
M6    
(MSG, Change to Tool Dia = 0.2155)
M0
G00 Z15.0000

M03
G01 F120.00
G00 X23.6480 Y23.9863
G01 F60.00
G01 Z-0.1000
G01 F120.00
G01 X39.5230 Y23.9863
G01 X39.5362 Y23.9871
G01 X39.5492 Y23.9895
G01 X39.5593 Y23.9925
G01 X39.5667 Y23.9955
G01 X39.5738 Y23.9990
G01 X39.5806 Y24.0030
G01 X39.5872 Y24.0075
G01 X39.5934 Y24.0124
G01 X39.5992 Y24.0178
G01 X39.6063 Y24.0256
G01 X39.6111 Y24.0320
G01 X39.6168 Y24.0409
G01 X39.6204 Y24.0479
G01 X39.6235 Y24.0552
G01 X39.6261 Y24.0627
G01 X39.6287 Y24.0730
G01 X39.6299 Y24.0808
G01 X39.6307 Y24.0914
G01 X39.6308 Y27.1613
G01 X47.9050 Y27.1613
G01 X47.9129 Y27.1615
G01 X47.9234 Y27.1628
G01 X47.9337 Y27.1652
G01 X47.9413 Y27.1675
G01 X47.9487 Y27.1705
G01 X47.9558 Y27.1740
G01 X47.9626 Y27.1780
G01 X47.9713 Y27.1841
G01 X47.9774 Y27.1892
G01 X47.9830 Y27.1947
G01 X47.9883 Y27.2006
G01 X47.9931 Y27.2070
G01 X47.9974 Y27.2136
G01 X48.0012 Y27.2206
G01 X48.0045 Y27.2278
G01 X48.0073 Y27.2352
G01 X48.0095 Y27.2428
G01 X48.0112 Y27.2506
G01 X48.0122 Y27.2584
G01 X48.0127 Y27.2664
G01 X48.0127 Y29.0470
G01 X48.0122 Y29.0576
G01 X48.0106 Y29.0682
G01 X48.0080 Y29.0785
G01 X48.0054 Y29.0861
G01 X48.0022 Y29.0934
G01 X47.9985 Y29.1005
G01 X47.9943 Y29.1073
G01 X47.9896 Y29.1137
G01 X47.9844 Y29.1198
G01 X47.9788 Y29.1255
G01 X47.4891 Y29.5637
G01 X47.8454 Y29.9201
G01 X48.7598 Y29.9200
G01 X48.7598 Y29.8618
G01 X48.7606 Y29.8486
G01 X48.7624 Y29.8382
G01 X48.7652 Y29.8280
G01 X48.7701 Y29.8157
G01 X48.7751 Y29.8064
G01 X48.7826 Y29.7955
G01 X48.7913 Y29.7856
G01 X48.8012 Y29.7769
G01 X48.8121 Y29.7694
G01 X48.8214 Y29.7644
G01 X48.8337 Y29.7595
G01 X48.8465 Y29.7561
G01 X48.8596 Y29.7543
G01 X48.8675 Y29.7541
G01 X50.2445 Y29.7541
G01 X50.2577 Y29.7549
G01 X50.2707 Y29.7573
G01 X50.2808 Y29.7603
G01 X50.2929 Y29.7656
G01 X50.2999 Y29.7694
G01 X50.3065 Y29.7737
G01 X50.3169 Y29.7820
G01 X50.3261 Y29.7914
G01 X50.3310 Y29.7976
G01 X50.3355 Y29.8042
G01 X50.3419 Y29.8157
G01 X50.3468 Y29.8280
G01 X50.3490 Y29.8356
G01 X50.3507 Y29.8434
G01 X50.3521 Y29.8565
G01 X50.3522 Y30.9943
G01 X50.3514 Y31.0075
G01 X50.3490 Y31.0205
G01 X50.3460 Y31.0306
G01 X50.3430 Y31.0380
G01 X50.3395 Y31.0451
G01 X50.3355 Y31.0519
G01 X50.3310 Y31.0585
G01 X50.3261 Y31.0647
G01 X50.3207 Y31.0705
G01 X50.3129 Y31.0776
G01 X50.3065 Y31.0824
G01 X50.2999 Y31.0867
G01 X50.2929 Y31.0905
G01 X50.2833 Y31.0948
G01 X50.2758 Y31.0974
G01 X50.2681 Y31.0994
G01 X50.2577 Y31.1012
G01 X50.2498 Y31.1019
G01 X48.8649 Y31.1020
G01 X48.8517 Y31.1009
G01 X48.8388 Y31.0981
G01 X48.8263 Y31.0938
G01 X48.8144 Y31.0881
G01 X48.8033 Y31.0808
G01 X48.7932 Y31.0723
G01 X48.7842 Y31.0627
G01 X48.7765 Y31.0519
G01 X48.7701 Y31.0404
G01 X48.7660 Y31.0306
G01 X48.7630 Y31.0205
G01 X48.7609 Y31.0101
G01 X48.7598 Y30.9969
G01 X48.7598 Y30.9359
G01 X47.6350 Y30.9359
G01 X47.5852 Y30.9335
G01 X47.5411 Y30.9271
G01 X47.5333 Y30.9256
G01 X47.4926 Y30.9155
G01 X47.4825 Y30.9124
G01 X47.4406 Y30.8973
G01 X47.4003 Y30.8783
G01 X47.3910 Y30.8734
G01 X47.3528 Y30.8503
G01 X47.3169 Y30.8239
G01 X47.3107 Y30.8189
G01 X47.2758 Y30.7872
G01 X46.7308 Y30.2422
G01 X45.5638 Y31.2863
G01 X44.5837 Y32.1439
G01 X44.5836 Y33.2433
G01 X44.5822 Y33.2564
G01 X44.5805 Y33.2642
G01 X44.5783 Y33.2718
G01 X44.5734 Y33.2841
G01 X44.5670 Y33.2956
G01 X44.5593 Y33.3064
G01 X44.5540 Y33.3123
G01 X44.5484 Y33.3178
G01 X44.5423 Y33.3229
G01 X44.5359 Y33.3276
G01 X44.5244 Y33.3342
G01 X44.5123 Y33.3395
G01 X44.4996 Y33.3431
G01 X44.4892 Y33.3449
G01 X44.4760 Y33.3457
G01 X40.6660 Y33.3457
G01 X40.6527 Y33.3449
G01 X40.6397 Y33.3425
G01 X40.6295 Y33.3394
G01 X40.6197 Y33.3353
G01 X40.6126 Y33.3316
G01 X40.6036 Y33.3259
G01 X32.7577 Y27.7577
G01 X23.6480 Y27.7577
G01 X23.6348 Y27.7569
G01 X23.6218 Y27.7545
G01 X23.6142 Y27.7523
G01 X23.6068 Y27.7495
G01 X23.5949 Y27.7438
G01 X23.5881 Y27.7396
G01 X23.5817 Y27.7349
G01 X23.5718 Y27.7262
G01 X23.5631 Y27.7163
G01 X23.5556 Y27.7054
G01 X23.5495 Y27.6937
G01 X23.5449 Y27.6813
G01 X23.5418 Y27.6684
G01 X23.5408 Y27.6606
G01 X23.5403 Y27.6526
G01 X23.5403 Y24.0914
G01 X23.5411 Y24.0808
G01 X23.5429 Y24.0704
G01 X23.5457 Y24.0602
G01 X23.5495 Y24.0503
G01 X23.5542 Y24.0409
G01 X23.5599 Y24.0320
G01 X23.5647 Y24.0256
G01 X23.5718 Y24.0178
G01 X23.5796 Y24.0107
G01 X23.5881 Y24.0044
G01 X23.5972 Y23.9990
G01 X23.6068 Y23.9945
G01 X23.6167 Y23.9909
G01 X23.6270 Y23.9883
G01 X23.6374 Y23.9868
G01 X23.6480 Y23.9863
G00 Z2.0000
G00 X28.4243 Y37.5038
G01 F60.00
G01 Z-0.1000
G01 F120.00
G01 X28.5162 Y37.5758
G01 X28.6143 Y37.6739
G01 X28.7002 Y37.7831
G01 X28.7721 Y37.9019
G01 X28.8234 Y38.0157
G01 X28.7774 Y38.0157
G01 X28.7742 Y38.0082
G01 X28.7322 Y37.9195
G01 X28.7272 Y37.9102
G01 X28.6740 Y37.8216
G01 X28.6109 Y37.7363
G01 X28.6057 Y37.7302
G01 X28.5398 Y37.6575
G01 X28.5343 Y37.6518
G01 X28.4577 Y37.5824
G01 X28.4243 Y37.5573
G01 X28.4243 Y37.5038
G00 Z2.0000
G00 X29.9083 Y38.0294
G01 F60.00
G01 Z-0.1000
G01 F120.00
G01 X29.9920 Y38.0336
G01 X30.0801 Y38.0467
G01 X30.1665 Y38.0683
G01 X30.2504 Y38.0983
G01 X30.3309 Y38.1364
G01 X30.4073 Y38.1822
G01 X30.4789 Y38.2353
G01 X30.5449 Y38.2951
G01 X30.6047 Y38.3611
G01 X30.6578 Y38.4327
G01 X30.7036 Y38.5091
G01 X30.7416 Y38.5896
G01 X30.7716 Y38.6735
G01 X30.7933 Y38.7599
G01 X30.8064 Y38.8480
G01 X30.8107 Y38.9370
G01 X30.8064 Y39.0260
G01 X30.7933 Y39.1141
G01 X30.7716 Y39.2005
G01 X30.7416 Y39.2844
G01 X30.7036 Y39.3649
G01 X30.6578 Y39.4413
G01 X30.6047 Y39.5129
G01 X30.5449 Y39.5789
G01 X30.4789 Y39.6387
G01 X30.4073 Y39.6918
G01 X30.3309 Y39.7376
G01 X30.2504 Y39.7756
G01 X30.1665 Y39.8057
G01 X30.0801 Y39.8273
G01 X29.9920 Y39.8404
G01 X29.9030 Y39.8447
G01 X29.8140 Y39.8404
G01 X29.7259 Y39.8273
G01 X29.6395 Y39.8057
G01 X29.5556 Y39.7756
G01 X29.4751 Y39.7376
G01 X29.3987 Y39.6918
G01 X29.3272 Y39.6387
G01 X29.2612 Y39.5789
G01 X29.2013 Y39.5129
G01 X29.1483 Y39.4413
G01 X29.1025 Y39.3649
G01 X29.0644 Y39.2844
G01 X29.0344 Y39.2005
G01 X29.0127 Y39.1141
G01 X28.9997 Y39.0260
G01 X28.9953 Y38.9370
G01 X28.9997 Y38.8480
G01 X29.0127 Y38.7599
G01 X29.0344 Y38.6735
G01 X29.0644 Y38.5896
G01 X29.1025 Y38.5091
G01 X29.1483 Y38.4327
G01 X29.2013 Y38.3611
G01 X29.2612 Y38.2951
G01 X29.3272 Y38.2353
G01 X29.3987 Y38.1822
G01 X29.4751 Y38.1364
G01 X29.5556 Y38.0983
G01 X29.6395 Y38.0683
G01 X29.7259 Y38.0467
G01 X29.8140 Y38.0336
G01 X29.8977 Y38.0294
G01 X29.9083 Y38.0294
G00 Z2.0000
G00 X31.0140 Y37.9563
G01 F60.00
G01 Z-0.1000
G01 F120.00
G01 X32.7946 Y37.9563
G01 X32.8052 Y37.9571
G01 X32.8156 Y37.9589
G01 X32.8258 Y37.9617
G01 X32.8357 Y37.9655
G01 X32.8451 Y37.9702
G01 X32.8540 Y37.9759
G01 X32.8624 Y37.9824
G01 X32.8682 Y37.9878
G01 X32.8753 Y37.9956
G01 X32.8801 Y38.0020
G01 X32.8858 Y38.0109
G01 X32.8905 Y38.0203
G01 X32.8943 Y38.0302
G01 X32.8971 Y38.0404
G01 X32.8989 Y38.0508
G01 X32.8997 Y38.0614
G01 X32.8997 Y39.5434
G01 X34.2652 Y40.9088
G01 X34.2723 Y40.9166
G01 X34.2771 Y40.9230
G01 X34.2814 Y40.9296
G01 X34.2852 Y40.9366
G01 X34.2885 Y40.9438
G01 X34.2921 Y40.9537
G01 X34.2941 Y40.9614
G01 X34.2956 Y40.9692
G01 X34.2965 Y40.9771
G01 X34.2967 Y40.9850
G01 X34.2967 Y41.2583
G01 X44.0504 Y41.2583
G01 X47.4163 Y37.8924
G01 X47.4163 Y36.5374
G01 X47.4171 Y36.5268
G01 X47.4189 Y36.5164
G01 X47.4217 Y36.5062
G01 X47.4255 Y36.4963
G01 X47.4302 Y36.4869
G01 X47.4359 Y36.4780
G01 X47.4424 Y36.4696
G01 X47.4497 Y36.4620
G01 X47.4577 Y36.4551
G01 X47.4664 Y36.4490
G01 X47.4732 Y36.4450
G01 X47.4828 Y36.4405
G01 X47.4927 Y36.4369
G01 X47.5004 Y36.4349
G01 X47.5108 Y36.4331
G01 X47.5214 Y36.4323
G01 X49.0444 Y36.4323
G01 X49.4252 Y36.0514
G01 X49.4252 Y35.2692
G01 X49.4262 Y35.2466
G01 X49.4301 Y35.2189
G01 X49.4355 Y35.1969
G01 X49.4438 Y35.1730
G01 X49.4532 Y35.1524
G01 X49.4569 Y35.1454
G01 X49.4672 Y35.1282
G01 X49.4804 Y35.1098
G01 X49.4872 Y35.1017
G01 X49.4988 Y35.0888
G01 X49.5060 Y35.0817
G01 X48.0776 Y33.6532
G01 X47.4817 Y33.6532
G01 X47.4738 Y33.6530
G01 X47.4607 Y33.6512
G01 X47.4530 Y33.6493
G01 X47.4454 Y33.6470
G01 X47.4333 Y33.6417
G01 X47.4218 Y33.6351
G01 X47.4113 Y33.6271
G01 X47.4055 Y33.6217
G01 X47.4001 Y33.6159
G01 X47.3921 Y33.6054
G01 X47.3855 Y33.5939
G01 X47.3812 Y33.5843
G01 X47.3772 Y33.5717
G01 X47.3748 Y33.5587
G01 X47.3740 Y33.5455
G01 X47.3740 Y32.1659
G01 X47.3748 Y32.1553
G01 X47.3766 Y32.1449
G01 X47.3803 Y32.1322
G01 X47.3843 Y32.1224
G01 X47.3893 Y32.1131
G01 X47.3952 Y32.1043
G01 X47.4019 Y32.0961
G01 X47.4093 Y32.0887
G01 X47.4175 Y32.0820
G01 X47.4241 Y32.0775
G01 X47.4333 Y32.0723
G01 X47.4429 Y32.0680
G01 X47.4530 Y32.0647
G01 X47.4607 Y32.0628
G01 X47.4711 Y32.0613
G01 X47.4791 Y32.0608
G01 X48.6142 Y32.0608
G01 X48.6274 Y32.0616
G01 X48.6378 Y32.0634
G01 X48.6480 Y32.0662
G01 X48.6579 Y32.0700
G01 X48.6673 Y32.0747
G01 X48.6763 Y32.0804
G01 X48.6846 Y32.0869
G01 X48.6922 Y32.0942
G01 X48.6992 Y32.1022
G01 X48.7052 Y32.1109
G01 X48.7105 Y32.1201
G01 X48.7138 Y32.1273
G01 X48.7173 Y32.1372
G01 X48.7199 Y32.1475
G01 X48.7211 Y32.1553
G01 X48.7219 Y32.1659
G01 X48.7220 Y33.5455
G01 X48.7214 Y33.5561
G01 X48.7199 Y33.5664
G01 X49.9770 Y34.8235
G01 X50.0614 Y34.8235
G01 X50.0615 Y34.8108
G01 X50.0625 Y34.8002
G01 X50.0646 Y34.7899
G01 X50.0676 Y34.7797
G01 X50.0717 Y34.7700
G01 X50.0767 Y34.7606
G01 X50.0826 Y34.7519
G01 X50.0893 Y34.7437
G01 X50.0987 Y34.7345
G01 X50.1071 Y34.7279
G01 X50.1160 Y34.7223
G01 X50.1254 Y34.7175
G01 X50.1353 Y34.7137
G01 X50.1455 Y34.7109
G01 X50.1559 Y34.7091
G01 X50.1665 Y34.7083
G01 X51.2411 Y34.7083
G01 X51.2490 Y34.7086
G01 X51.2569 Y34.7095
G01 X51.2673 Y34.7115
G01 X51.2749 Y34.7137
G01 X51.2848 Y34.7175
G01 X51.2942 Y34.7223
G01 X51.3010 Y34.7264
G01 X51.3095 Y34.7327
G01 X51.3154 Y34.7380
G01 X51.3209 Y34.7437
G01 X51.3276 Y34.7519
G01 X51.3321 Y34.7584
G01 X51.3373 Y34.7676
G01 X51.3406 Y34.7748
G01 X51.3442 Y34.7848
G01 X51.3462 Y34.7924
G01 X51.3477 Y34.8002
G01 X51.3486 Y34.8081
G01 X51.3488 Y34.8160
G01 X51.3488 Y35.3480
G01 X51.3483 Y35.3586
G01 X51.3473 Y35.3665
G01 X51.3456 Y35.3742
G01 X51.3416 Y35.3868
G01 X51.3361 Y35.3988
G01 X51.3321 Y35.4057
G01 X51.3276 Y35.4122
G01 X51.3191 Y35.4223
G01 X51.3135 Y35.4279
G01 X51.3074 Y35.4330
G01 X51.3010 Y35.4376
G01 X51.2942 Y35.4418
G01 X51.2823 Y35.4476
G01 X51.2724 Y35.4512
G01 X51.2621 Y35.4537
G01 X51.2517 Y35.4553
G01 X51.2411 Y35.4558
G01 X50.1638 Y35.4557
G01 X50.1533 Y35.4546
G01 X50.1429 Y35.4526
G01 X50.1303 Y35.4486
G01 X50.1207 Y35.4443
G01 X50.1115 Y35.4391
G01 X50.1028 Y35.4330
G01 X50.0948 Y35.4261
G01 X50.0875 Y35.4184
G01 X50.0810 Y35.4101
G01 X50.0753 Y35.4011
G01 X50.0706 Y35.3917
G01 X50.0668 Y35.3818
G01 X50.0640 Y35.3716
G01 X50.0622 Y35.3612
G01 X50.0614 Y35.3507
G01 X50.0614 Y35.3391
G01 X49.9778 Y35.3391
G01 X49.9408 Y35.3760
G01 X49.9408 Y36.1609
G01 X49.9396 Y36.1835
G01 X49.9368 Y36.2033
G01 X49.9353 Y36.2111
G01 X49.9297 Y36.2331
G01 X49.9212 Y36.2569
G01 X49.9104 Y36.2798
G01 X49.8974 Y36.3015
G01 X49.8840 Y36.3197
G01 X49.8788 Y36.3258
G01 X49.8653 Y36.3405
G01 X49.5367 Y36.6691
G01 X49.5368 Y39.4502
G01 X49.5452 Y39.4578
G01 X49.5539 Y39.4677
G01 X49.5614 Y39.4786
G01 X49.5664 Y39.4879
G01 X49.5713 Y39.5002
G01 X49.5741 Y39.5104
G01 X49.5762 Y39.5234
G01 X49.5767 Y39.5340
G01 X49.5767 Y40.9440
G01 X49.5765 Y40.9519
G01 X49.5756 Y40.9598
G01 X49.5741 Y40.9676
G01 X49.5721 Y40.9752
G01 X49.5675 Y40.9876
G01 X49.5640 Y40.9948
G01 X49.5600 Y41.0016
G01 X49.5539 Y41.0103
G01 X49.5470 Y41.0183
G01 X49.5414 Y41.0238
G01 X49.5353 Y41.0289
G01 X49.5234 Y41.0370
G01 X49.5171 Y41.0470
G01 X49.5106 Y41.0554
G01 X49.5014 Y41.0648
G01 X49.4932 Y41.0715
G01 X49.4866 Y41.0760
G01 X49.4798 Y41.0800
G01 X49.4727 Y41.0835
G01 X49.4653 Y41.0865
G01 X49.4577 Y41.0888
G01 X49.4500 Y41.0907
G01 X49.4422 Y41.0919
G01 X49.4343 Y41.0926
G01 X48.0741 Y41.0927
G01 X46.4541 Y42.5882
G01 X46.4480 Y42.5934
G01 X46.4415 Y42.5982
G01 X46.4347 Y42.6024
G01 X46.4276 Y42.6062
G01 X46.4202 Y42.6094
G01 X46.4127 Y42.6120
G01 X46.4049 Y42.6141
G01 X46.3970 Y42.6156
G01 X46.3890 Y42.6165
G01 X46.3810 Y42.6167
G01 X39.3767 Y42.6168
G01 X39.3767 Y43.2710
G01 X39.3762 Y43.2816
G01 X39.3752 Y43.2894
G01 X39.3735 Y43.2972
G01 X39.3713 Y43.3048
G01 X39.3685 Y43.3122
G01 X39.3652 Y43.3194
G01 X39.3614 Y43.3264
G01 X39.3571 Y43.3330
G01 X39.3523 Y43.3394
G01 X39.3470 Y43.3453
G01 X39.3414 Y43.3508
G01 X39.3353 Y43.3559
G01 X39.3289 Y43.3606
G01 X39.3221 Y43.3648
G01 X39.3151 Y43.3684
G01 X39.3078 Y43.3715
G01 X39.3003 Y43.3741
G01 X39.2926 Y43.3761
G01 X39.2848 Y43.3776
G01 X39.2769 Y43.3785
G01 X39.2690 Y43.3787
G01 X36.6052 Y43.3787
G01 X36.5963 Y43.3886
G01 X36.5906 Y43.3941
G01 X36.5470 Y43.4336
G01 X36.5388 Y43.4404
G01 X36.4872 Y43.4785
G01 X36.4322 Y43.5116
G01 X36.4229 Y43.5166
G01 X36.3648 Y43.5439
G01 X36.2994 Y43.5673
G01 X36.2321 Y43.5842
G01 X36.1686 Y43.5937
G01 X36.1581 Y43.5947
G01 X36.0940 Y43.5977
G01 X36.0299 Y43.5947
G01 X36.0194 Y43.5937
G01 X35.9611 Y43.5851
G01 X35.9508 Y43.5830
G01 X35.8886 Y43.5673
G01 X35.8256 Y43.5449
G01 X35.8183 Y43.5417
G01 X35.7604 Y43.5142
G01 X35.7008 Y43.4785
G01 X35.6492 Y43.4404
G01 X35.6430 Y43.4354
G01 X35.5954 Y43.3923
G01 X35.5828 Y43.3787
G01 X31.9030 Y43.3787
G01 X31.8951 Y43.3785
G01 X31.8872 Y43.3776
G01 X31.8794 Y43.3761
G01 X31.8717 Y43.3741
G01 X31.8593 Y43.3695
G01 X31.8476 Y43.3634
G01 X31.8367 Y43.3559
G01 X31.8268 Y43.3472
G01 X30.9378 Y42.4582
G01 X30.9324 Y42.4524
G01 X30.9275 Y42.4462
G01 X30.9230 Y42.4396
G01 X30.9178 Y42.4304
G01 X30.9135 Y42.4208
G01 X30.9109 Y42.4133
G01 X30.9089 Y42.4056
G01 X30.9074 Y42.3978
G01 X30.9065 Y42.3899
G01 X30.9063 Y42.3820
G01 X30.9063 Y38.0614
G01 X30.9071 Y38.0508
G01 X30.9089 Y38.0404
G01 X30.9109 Y38.0327
G01 X30.9145 Y38.0228
G01 X30.9190 Y38.0132
G01 X30.9244 Y38.0041
G01 X30.9307 Y37.9956
G01 X30.9378 Y37.9878
G01 X30.9456 Y37.9807
G01 X30.9541 Y37.9744
G01 X30.9632 Y37.9690
G01 X30.9728 Y37.9645
G01 X30.9827 Y37.9609
G01 X30.9930 Y37.9583
G01 X31.0034 Y37.9568
G01 X31.0140 Y37.9563
G00 Z2.0000
G00 X33.9083 Y38.0294
G01 F60.00
G01 Z-0.1000
G01 F120.00
G01 X33.9920 Y38.0336
G01 X34.0801 Y38.0467
G01 X34.1665 Y38.0683
G01 X34.2504 Y38.0983
G01 X34.3309 Y38.1364
G01 X34.4073 Y38.1822
G01 X34.4789 Y38.2353
G01 X34.5449 Y38.2951
G01 X34.6047 Y38.3611
G01 X34.6577 Y38.4327
G01 X34.7035 Y38.5091
G01 X34.7416 Y38.5896
G01 X34.7716 Y38.6735
G01 X34.7933 Y38.7599
G01 X34.8064 Y38.8480
G01 X34.8107 Y38.9370
G01 X34.8064 Y39.0260
G01 X34.7933 Y39.1141
G01 X34.7716 Y39.2005
G01 X34.7416 Y39.2844
G01 X34.7035 Y39.3649
G01 X34.6577 Y39.4413
G01 X34.6047 Y39.5129
G01 X34.5449 Y39.5789
G01 X34.4789 Y39.6387
G01 X34.4073 Y39.6918
G01 X34.3309 Y39.7376
G01 X34.2504 Y39.7756
G01 X34.1665 Y39.8057
G01 X34.0801 Y39.8273
G01 X33.9920 Y39.8404
G01 X33.9030 Y39.8447
G01 X33.8140 Y39.8404
G01 X33.7259 Y39.8273
G01 X33.6395 Y39.8057
G01 X33.5556 Y39.7756
G01 X33.4751 Y39.7376
G01 X33.3987 Y39.6918
G01 X33.3271 Y39.6387
G01 X33.2611 Y39.5789
G01 X33.2013 Y39.5129
G01 X33.1483 Y39.4413
G01 X33.1025 Y39.3649
G01 X33.0644 Y39.2844
G01 X33.0344 Y39.2005
G01 X33.0127 Y39.1141
G01 X32.9996 Y39.0260
G01 X32.9953 Y38.9370
G01 X32.9996 Y38.8480
G01 X33.0127 Y38.7599
G01 X33.0344 Y38.6735
G01 X33.0644 Y38.5896
G01 X33.1025 Y38.5091
G01 X33.1483 Y38.4327
G01 X33.2013 Y38.3611
G01 X33.2611 Y38.2951
G01 X33.3271 Y38.2353
G01 X33.3987 Y38.1822
G01 X33.4751 Y38.1364
G01 X33.5556 Y38.0983
G01 X33.6395 Y38.0683
G01 X33.7259 Y38.0467
G01 X33.8140 Y38.0336
G01 X33.8977 Y38.0294
G01 X33.9083 Y38.0294
G00 Z2.0000
G00 X34.9826 Y38.0157
G01 F60.00
G01 Z-0.1000
G01 F120.00
G01 X35.0339 Y37.9019
G01 X35.1058 Y37.7831
G01 X35.1917 Y37.6739
G01 X35.2898 Y37.5758
G01 X35.3817 Y37.5038
G01 X35.3817 Y37.5573
G01 X35.3483 Y37.5824
G01 X35.2717 Y37.6518
G01 X35.2662 Y37.6575
G01 X35.2003 Y37.7302
G01 X35.1952 Y37.7363
G01 X35.1321 Y37.8216
G01 X35.0788 Y37.9102
G01 X35.0738 Y37.9195
G01 X35.0318 Y38.0082
G01 X35.0286 Y38.0157
G01 X34.9826 Y38.0157
G00 Z2.0000
G00 X36.7245 Y37.5038
G01 F60.00
G01 Z-0.1000
G01 F120.00
G01 X36.8164 Y37.5758
G01 X36.9145 Y37.6739
G01 X37.0004 Y37.7831
G01 X37.0724 Y37.9019
G01 X37.1236 Y38.0157
G01 X37.0776 Y38.0157
G01 X37.0744 Y38.0082
G01 X37.0324 Y37.9195
G01 X37.0274 Y37.9102
G01 X36.9742 Y37.8216
G01 X36.9111 Y37.7363
G01 X36.9060 Y37.7302
G01 X36.8401 Y37.6575
G01 X36.8345 Y37.6518
G01 X36.7579 Y37.5824
G01 X36.7245 Y37.5573
G01 X36.7245 Y37.5038
G00 Z2.0000
G00 X36.7245 Y40.3702
G01 F60.00
G01 Z-0.1000
G01 F120.00
G01 X36.7245 Y40.3167
G01 X36.7579 Y40.2916
G01 X36.8345 Y40.2221
G01 X36.8401 Y40.2165
G01 X36.9060 Y40.1437
G01 X36.9111 Y40.1377
G01 X36.9742 Y40.0524
G01 X37.0274 Y39.9638
G01 X37.0324 Y39.9545
G01 X37.0744 Y39.8657
G01 X37.0776 Y39.8583
G01 X37.1236 Y39.8583
G01 X37.0724 Y39.9716
G01 X37.0004 Y40.0910
G01 X36.9145 Y40.2001
G01 X36.8164 Y40.2982
G01 X36.7245 Y40.3702
G00 Z2.0000
G00 X34.9826 Y39.8583
G01 F60.00
G01 Z-0.1000
G01 F120.00
G01 X35.0287 Y39.8583
G01 X35.0318 Y39.8657
G01 X35.0738 Y39.9545
G01 X35.0788 Y39.9638
G01 X35.1321 Y40.0524
G01 X35.1952 Y40.1377
G01 X35.2003 Y40.1437
G01 X35.2662 Y40.2165
G01 X35.2717 Y40.2221
G01 X35.3483 Y40.2916
G01 X35.3817 Y40.3167
G01 X35.3817 Y40.3702
G01 X35.2898 Y40.2982
G01 X35.1917 Y40.2001
G01 X35.1058 Y40.0910
G01 X35.0339 Y39.9716
G01 X34.9826 Y39.8583
G00 Z2.0000
G00 X33.4347 Y43.9340
G01 F60.00
G01 Z-0.1000
G01 F120.00
G01 X33.5957 Y43.9340
G01 X33.6409 Y43.9390
G01 X33.6720 Y43.9501
G01 X33.7013 Y43.9688
G01 X33.7250 Y43.9922
G01 X33.7427 Y44.0205
G01 X33.7536 Y44.0518
G01 X33.7587 Y44.0974
G01 X33.7587 Y44.1975
G01 X33.7152 Y44.1975
G01 X33.7152 Y44.0831
G01 X33.7147 Y44.0752
G01 X33.7132 Y44.0648
G01 X33.7113 Y44.0571
G01 X33.7080 Y44.0470
G01 X33.7037 Y44.0373
G01 X33.6999 Y44.0304
G01 X33.6956 Y44.0237
G01 X33.6891 Y44.0154
G01 X33.6837 Y44.0096
G01 X33.6759 Y44.0025
G01 X33.6695 Y43.9977
G01 X33.6629 Y43.9934
G01 X33.6559 Y43.9895
G01 X33.6487 Y43.9862
G01 X33.6413 Y43.9835
G01 X33.6337 Y43.9813
G01 X33.6259 Y43.9796
G01 X33.6181 Y43.9786
G01 X33.6075 Y43.9780
G01 X33.4347 Y43.9780
G01 X33.4347 Y43.9340
G00 Z2.0000
G00 X32.2423 Y43.9340
G01 F60.00
G01 Z-0.1000
G01 F120.00
G01 X32.4033 Y43.9340
G01 X32.4033 Y43.9780
G01 X32.2305 Y43.9780
G01 X32.2226 Y43.9783
G01 X32.2095 Y43.9801
G01 X32.2018 Y43.9819
G01 X32.1942 Y43.9843
G01 X32.1821 Y43.9895
G01 X32.1706 Y43.9962
G01 X32.1621 Y44.0025
G01 X32.1543 Y44.0096
G01 X32.1472 Y44.0174
G01 X32.1424 Y44.0237
G01 X32.1381 Y44.0304
G01 X32.1331 Y44.0397
G01 X32.1290 Y44.0495
G01 X32.1260 Y44.0596
G01 X32.1239 Y44.0700
G01 X32.1228 Y44.0831
G01 X32.1228 Y44.1975
G01 X32.0793 Y44.1975
G01 X32.0793 Y44.0974
G01 X32.0844 Y44.0518
G01 X32.0953 Y44.0205
G01 X32.1131 Y43.9922
G01 X32.1367 Y43.9688
G01 X32.1661 Y43.9501
G01 X32.1971 Y43.9390
G01 X32.2423 Y43.9340
G00 Z2.0000
G00 X32.0793 Y45.1059
G01 F60.00
G01 Z-0.1000
G01 F120.00
G01 X32.1228 Y45.1059
G01 X32.1228 Y45.2209
G01 X32.1236 Y45.2315
G01 X32.1248 Y45.2393
G01 X32.1267 Y45.2470
G01 X32.1300 Y45.2571
G01 X32.1331 Y45.2644
G01 X32.1381 Y45.2737
G01 X32.1440 Y45.2825
G01 X32.1489 Y45.2887
G01 X32.1562 Y45.2963
G01 X32.1621 Y45.3016
G01 X32.1685 Y45.3064
G01 X32.1751 Y45.3107
G01 X32.1821 Y45.3145
G01 X32.1893 Y45.3178
G01 X32.1967 Y45.3206
G01 X32.2043 Y45.3228
G01 X32.2121 Y45.3245
G01 X32.2199 Y45.3255
G01 X32.2305 Y45.3260
G01 X32.4033 Y45.3260
G01 X32.4033 Y45.3695
G01 X32.2418 Y45.3695
G01 X32.1967 Y45.3648
G01 X32.1657 Y45.3538
G01 X32.1370 Y45.3358
G01 X32.1132 Y45.3117
G01 X32.0952 Y45.2833
G01 X32.0844 Y45.2522
G01 X32.0793 Y45.2065
G01 X32.0793 Y45.1059
G00 Z2.0000
G00 X33.7152 Y45.1059
G01 F60.00
G01 Z-0.1000
G01 F120.00
G01 X33.7587 Y45.1059
G01 X33.7587 Y45.2065
G01 X33.7536 Y45.2522
G01 X33.7428 Y45.2833
G01 X33.7248 Y45.3117
G01 X33.7010 Y45.3358
G01 X33.6723 Y45.3538
G01 X33.6413 Y45.3648
G01 X33.5962 Y45.3695
G01 X33.4347 Y45.3695
G01 X33.4347 Y45.3260
G01 X33.6075 Y45.3260
G01 X33.6207 Y45.3252
G01 X33.6311 Y45.3234
G01 X33.6388 Y45.3214
G01 X33.6463 Y45.3188
G01 X33.6536 Y45.3157
G01 X33.6606 Y45.3120
G01 X33.6674 Y45.3079
G01 X33.6738 Y45.3032
G01 X33.6818 Y45.2963
G01 X33.6873 Y45.2907
G01 X33.6924 Y45.2846
G01 X33.6971 Y45.2782
G01 X33.7025 Y45.2691
G01 X33.7060 Y45.2620
G01 X33.7090 Y45.2546
G01 X33.7120 Y45.2445
G01 X33.7137 Y45.2367
G01 X33.7150 Y45.2262
G01 X33.7152 Y45.2183
G01 X33.7152 Y45.1059
G00 Z2.0000
G00 X28.4243 Y40.3702
G01 F60.00
G01 Z-0.1000
G01 F120.00
G01 X28.4243 Y40.3167
G01 X28.4577 Y40.2916
G01 X28.5343 Y40.2221
G01 X28.5398 Y40.2165
G01 X28.6057 Y40.1437
G01 X28.6109 Y40.1377
G01 X28.6740 Y40.0524
G01 X28.7272 Y39.9638
G01 X28.7322 Y39.9545
G01 X28.7742 Y39.8657
G01 X28.7774 Y39.8583
G01 X28.8234 Y39.8583
G01 X28.7721 Y39.9716
G01 X28.7002 Y40.0910
G01 X28.6143 Y40.2001
G01 X28.5162 Y40.2982
G01 X28.4243 Y40.3702
G00 Z2.0000
G00 X26.6824 Y39.8583
G01 F60.00
G01 Z-0.1000
G01 F120.00
G01 X26.7284 Y39.8583
G01 X26.7316 Y39.8657
G01 X26.7736 Y39.9545
G01 X26.7786 Y39.9638
G01 X26.8318 Y40.0524
G01 X26.8949 Y40.1377
G01 X26.9001 Y40.1437
G01 X26.9660 Y40.2165
G01 X26.9715 Y40.2221
G01 X27.0481 Y40.2916
G01 X27.0815 Y40.3167
G01 X27.0815 Y40.3702
G01 X26.9896 Y40.2982
G01 X26.8915 Y40.2001
G01 X26.8056 Y40.0910
G01 X26.7336 Y39.9716
G01 X26.6824 Y39.8583
G00 Z2.0000
G00 X26.6824 Y38.0157
G01 F60.00
G01 Z-0.1000
G01 F120.00
G01 X26.7336 Y37.9019
G01 X26.8056 Y37.7831
G01 X26.8915 Y37.6739
G01 X26.9896 Y37.5758
G01 X27.0815 Y37.5038
G01 X27.0815 Y37.5573
G01 X27.0481 Y37.5824
G01 X26.9715 Y37.6518
G01 X26.9660 Y37.6575
G01 X26.9001 Y37.7302
G01 X26.8949 Y37.7363
G01 X26.8318 Y37.8216
G01 X26.7786 Y37.9102
G01 X26.7736 Y37.9195
G01 X26.7316 Y38.0082
G01 X26.7284 Y38.0157
G01 X26.6824 Y38.0157
G00 Z2.0000
G00 X25.7161 Y43.3899
G01 F60.00
G01 Z-0.1000
G01 F120.00
G01 X26.0336 Y43.3899
G01 X26.0787 Y43.3946
G01 X26.1101 Y43.4058
G01 X26.1384 Y43.4232
G01 X26.1620 Y43.4475
G01 X26.1802 Y43.4761
G01 X26.1911 Y43.5076
G01 X26.1966 Y43.5533
G01 X26.1966 Y43.8694
G01 X26.1527 Y43.8694
G01 X26.1527 Y43.5410
G01 X26.1525 Y43.5331
G01 X26.1516 Y43.5252
G01 X26.1495 Y43.5148
G01 X26.1465 Y43.5047
G01 X26.1424 Y43.4949
G01 X26.1388 Y43.4879
G01 X26.1331 Y43.4790
G01 X26.1283 Y43.4726
G01 X26.1212 Y43.4648
G01 X26.1134 Y43.4577
G01 X26.1070 Y43.4529
G01 X26.0981 Y43.4472
G01 X26.0911 Y43.4436
G01 X26.0838 Y43.4405
G01 X26.0737 Y43.4372
G01 X26.0634 Y43.4348
G01 X26.0529 Y43.4335
G01 X26.0450 Y43.4333
G01 X25.7161 Y43.4333
G01 X25.7161 Y43.3899
G00 Z2.0000
G00 X40.9480 Y36.4561
G01 F60.00
G01 Z-0.1000
G01 F120.00
G01 X44.0956 Y36.4561
G01 X45.8307 Y34.7210
G01 X45.8658 Y34.6894
G01 X45.9015 Y34.6627
G01 X45.9103 Y34.6569
G01 X45.9486 Y34.6341
G01 X45.9936 Y34.6128
G01 X46.0355 Y34.5976
G01 X46.0457 Y34.5946
G01 X46.0889 Y34.5839
G01 X46.1382 Y34.5765
G01 X46.1880 Y34.5741
G01 X48.4069 Y34.5741
G01 X48.4541 Y34.5763
G01 X48.5008 Y34.5829
G01 X48.5112 Y34.5850
G01 X48.5544 Y34.5960
G01 X48.5964 Y34.6109
G01 X48.6037 Y34.6138
G01 X48.6464 Y34.6341
G01 X48.6869 Y34.6583
G01 X48.6934 Y34.6627
G01 X48.7271 Y34.6877
G01 X48.7502 Y34.7083
G01 X48.9456 Y34.7083
G01 X48.9561 Y34.7091
G01 X48.9639 Y34.7104
G01 X48.9716 Y34.7122
G01 X48.9792 Y34.7146
G01 X48.9914 Y34.7198
G01 X48.9983 Y34.7236
G01 X49.0050 Y34.7279
G01 X49.0153 Y34.7362
G01 X49.0245 Y34.7457
G01 X49.0295 Y34.7519
G01 X49.0339 Y34.7584
G01 X49.0403 Y34.7700
G01 X49.0452 Y34.7822
G01 X49.0486 Y34.7950
G01 X49.0501 Y34.8055
G01 X49.0507 Y34.8160
G01 X49.0507 Y35.3480
G01 X49.0498 Y35.3612
G01 X49.0486 Y35.3691
G01 X49.0468 Y35.3768
G01 X49.0444 Y35.3843
G01 X49.0414 Y35.3917
G01 X49.0379 Y35.3988
G01 X49.0339 Y35.4057
G01 X49.0295 Y35.4122
G01 X49.0245 Y35.4184
G01 X49.0191 Y35.4242
G01 X49.0133 Y35.4296
G01 X49.0071 Y35.4346
G01 X49.0006 Y35.4391
G01 X48.9937 Y35.4431
G01 X48.9866 Y35.4465
G01 X48.9742 Y35.4512
G01 X48.9665 Y35.4532
G01 X48.9587 Y35.4546
G01 X48.9456 Y35.4558
G01 X48.7502 Y35.4558
G01 X48.7271 Y35.4763
G01 X48.6934 Y35.5013
G01 X48.6869 Y35.5058
G01 X48.6464 Y35.5300
G01 X48.6037 Y35.5503
G01 X48.5964 Y35.5532
G01 X48.5544 Y35.5681
G01 X48.5112 Y35.5791
G01 X48.5008 Y35.5811
G01 X48.4619 Y35.5869
G01 X48.4514 Y35.5879
G01 X48.4069 Y35.5900
G01 X46.3984 Y35.5900
G01 X44.5557 Y37.4327
G01 X44.5556 Y38.9192
G01 X44.5549 Y38.9271
G01 X44.5537 Y38.9349
G01 X44.5518 Y38.9426
G01 X44.5485 Y38.9526
G01 X44.5454 Y38.9599
G01 X44.5404 Y38.9693
G01 X44.5345 Y38.9781
G01 X44.5296 Y38.9842
G01 X44.5242 Y38.9901
G01 X44.5164 Y38.9972
G01 X44.5100 Y39.0020
G01 X44.5011 Y39.0076
G01 X44.4941 Y39.0113
G01 X44.4868 Y39.0144
G01 X44.4793 Y39.0170
G01 X44.4690 Y39.0195
G01 X44.4586 Y39.0211
G01 X44.4480 Y39.0216
G01 X40.9480 Y39.0216
G01 X40.9374 Y39.0211
G01 X40.9296 Y39.0200
G01 X40.9218 Y39.0184
G01 X40.9142 Y39.0162
G01 X40.9068 Y39.0134
G01 X40.8996 Y39.0101
G01 X40.8904 Y39.0049
G01 X40.8838 Y39.0004
G01 X40.8737 Y38.9919
G01 X40.8647 Y38.9822
G01 X40.8584 Y38.9737
G01 X40.8518 Y38.9623
G01 X40.8465 Y38.9502
G01 X40.8435 Y38.9401
G01 X40.8411 Y38.9271
G01 X40.8403 Y38.9165
G01 X40.8403 Y36.5612
G01 X40.8411 Y36.5507
G01 X40.8429 Y36.5403
G01 X40.8457 Y36.5301
G01 X40.8495 Y36.5202
G01 X40.8530 Y36.5131
G01 X40.8584 Y36.5040
G01 X40.8647 Y36.4955
G01 X40.8718 Y36.4877
G01 X40.8796 Y36.4806
G01 X40.8881 Y36.4743
G01 X40.8972 Y36.4688
G01 X40.9068 Y36.4643
G01 X40.9167 Y36.4608
G01 X40.9270 Y36.4582
G01 X40.9374 Y36.4566
G01 X40.9480 Y36.4561
G00 Z2.0000
G00 X44.6550 Y43.9425
G01 F60.00
G01 Z-0.1000
G01 F120.00
G01 X44.6704 Y43.9219
G01 X44.7463 Y43.8464
G01 X44.7665 Y43.8313
G01 X44.7665 Y43.8871
G01 X44.7375 Y43.9135
G01 X44.7111 Y43.9425
G01 X44.6550 Y43.9425
G00 Z2.0000
G00 X44.6555 Y44.8855
G01 F60.00
G01 Z-0.1000
G01 F120.00
G01 X44.7111 Y44.8855
G01 X44.7375 Y44.9145
G01 X44.7665 Y44.9409
G01 X44.7665 Y44.9962
G01 X44.7463 Y44.9810
G01 X44.6705 Y44.9056
G01 X44.6555 Y44.8855
G00 Z2.0000
G00 X45.7095 Y44.9409
G01 F60.00
G01 Z-0.1000
G01 F120.00
G01 X45.7385 Y44.9145
G01 X45.7649 Y44.8855
G01 X45.8205 Y44.8855
G01 X45.8055 Y44.9056
G01 X45.7297 Y44.9810
G01 X45.7095 Y44.9962
G01 X45.7095 Y44.9409
G00 Z2.0000
G00 X45.7095 Y43.8313
G01 F60.00
G01 Z-0.1000
G01 F120.00
G01 X45.7297 Y43.8464
G01 X45.8056 Y43.9219
G01 X45.8210 Y43.9425
G01 X45.7649 Y43.9425
G01 X45.7385 Y43.9135
G01 X45.7095 Y43.8871
G01 X45.7095 Y43.8313
G00 Z2.0000
G00 X47.9675 Y42.7625
G01 F60.00
G01 Z-0.1000
G01 F120.00
G01 X48.0113 Y42.7625
G01 X48.0113 Y42.9440
G01 X48.0121 Y42.9572
G01 X48.0133 Y42.9650
G01 X48.0152 Y42.9727
G01 X48.0185 Y42.9828
G01 X48.0216 Y42.9901
G01 X48.0252 Y42.9971
G01 X48.0309 Y43.0060
G01 X48.0357 Y43.0123
G01 X48.0410 Y43.0183
G01 X48.0466 Y43.0238
G01 X48.0527 Y43.0289
G01 X48.0591 Y43.0336
G01 X48.0682 Y43.0390
G01 X48.0778 Y43.0435
G01 X48.0852 Y43.0463
G01 X48.0954 Y43.0491
G01 X48.1032 Y43.0506
G01 X48.1111 Y43.0514
G01 X48.1190 Y43.0517
G01 X48.2854 Y43.0517
G01 X48.2854 Y43.0952
G01 X48.1305 Y43.0952
G01 X48.0859 Y43.0901
G01 X48.0536 Y43.0787
G01 X48.0255 Y43.0616
G01 X48.0021 Y43.0376
G01 X47.9838 Y43.0087
G01 X47.9726 Y42.9770
G01 X47.9675 Y42.9322
G01 X47.9675 Y42.7625
G00 Z2.0000
G00 X49.5767 Y42.7625
G01 F60.00
G01 Z-0.1000
G01 F120.00
G01 X49.6205 Y42.7625
G01 X49.6205 Y42.9322
G01 X49.6154 Y42.9770
G01 X49.6042 Y43.0087
G01 X49.5859 Y43.0376
G01 X49.5625 Y43.0616
G01 X49.5344 Y43.0787
G01 X49.5022 Y43.0901
G01 X49.4575 Y43.0952
G01 X49.3026 Y43.0952
G01 X49.3026 Y43.0517
G01 X49.4690 Y43.0517
G01 X49.4769 Y43.0514
G01 X49.4848 Y43.0506
G01 X49.4926 Y43.0491
G01 X49.5028 Y43.0463
G01 X49.5127 Y43.0425
G01 X49.5221 Y43.0377
G01 X49.5310 Y43.0321
G01 X49.5394 Y43.0256
G01 X49.5452 Y43.0202
G01 X49.5523 Y43.0123
G01 X49.5571 Y43.0060
G01 X49.5614 Y42.9994
G01 X49.5652 Y42.9924
G01 X49.5685 Y42.9852
G01 X49.5713 Y42.9778
G01 X49.5735 Y42.9702
G01 X49.5752 Y42.9624
G01 X49.5762 Y42.9546
G01 X49.5767 Y42.9440
G01 X49.5767 Y42.7625
G00 Z2.0000
G00 X50.4943 Y42.5659
G01 F60.00
G01 Z-0.1000
G01 F120.00
G01 X50.5378 Y42.5659
G01 X50.5378 Y42.6809
G01 X50.5386 Y42.6914
G01 X50.5398 Y42.6993
G01 X50.5424 Y42.7095
G01 X50.5450 Y42.7170
G01 X50.5481 Y42.7243
G01 X50.5531 Y42.7336
G01 X50.5590 Y42.7424
G01 X50.5639 Y42.7486
G01 X50.5712 Y42.7563
G01 X50.5771 Y42.7615
G01 X50.5835 Y42.7663
G01 X50.5901 Y42.7707
G01 X50.5971 Y42.7745
G01 X50.6043 Y42.7778
G01 X50.6117 Y42.7806
G01 X50.6193 Y42.7828
G01 X50.6271 Y42.7844
G01 X50.6349 Y42.7855
G01 X50.6455 Y42.7860
G01 X50.8183 Y42.7860
G01 X50.8183 Y42.8295
G01 X50.6568 Y42.8295
G01 X50.6117 Y42.8248
G01 X50.5807 Y42.8138
G01 X50.5520 Y42.7958
G01 X50.5282 Y42.7717
G01 X50.5102 Y42.7433
G01 X50.4994 Y42.7122
G01 X50.4943 Y42.6665
G01 X50.4943 Y42.5659
G00 Z2.0000
G00 X50.6573 Y41.3940
G01 F60.00
G01 Z-0.1000
G01 F120.00
G01 X50.8183 Y41.3940
G01 X50.8183 Y41.4380
G01 X50.6455 Y41.4380
G01 X50.6376 Y41.4383
G01 X50.6245 Y41.4401
G01 X50.6117 Y41.4434
G01 X50.6043 Y41.4462
G01 X50.5971 Y41.4495
G01 X50.5856 Y41.4561
G01 X50.5792 Y41.4608
G01 X50.5712 Y41.4677
G01 X50.5639 Y41.4754
G01 X50.5574 Y41.4837
G01 X50.5517 Y41.4926
G01 X50.5470 Y41.5021
G01 X50.5432 Y41.5119
G01 X50.5410 Y41.5196
G01 X50.5386 Y41.5326
G01 X50.5378 Y41.5431
G01 X50.5378 Y41.6575
G01 X50.4943 Y41.6575
G01 X50.4943 Y41.5574
G01 X50.4994 Y41.5118
G01 X50.5103 Y41.4805
G01 X50.5281 Y41.4522
G01 X50.5517 Y41.4288
G01 X50.5811 Y41.4101
G01 X50.6121 Y41.3990
G01 X50.6573 Y41.3940
G00 Z2.0000
G00 X51.8497 Y41.3940
G01 F60.00
G01 Z-0.1000
G01 F120.00
G01 X52.0107 Y41.3940
G01 X52.0559 Y41.3990
G01 X52.0870 Y41.4101
G01 X52.1163 Y41.4288
G01 X52.1400 Y41.4522
G01 X52.1577 Y41.4805
G01 X52.1686 Y41.5118
G01 X52.1737 Y41.5574
G01 X52.1737 Y41.6575
G01 X52.1302 Y41.6575
G01 X52.1302 Y41.5431
G01 X52.1294 Y41.5326
G01 X52.1282 Y41.5247
G01 X52.1256 Y41.5145
G01 X52.1230 Y41.5070
G01 X52.1199 Y41.4997
G01 X52.1149 Y41.4903
G01 X52.1106 Y41.4837
G01 X52.1041 Y41.4754
G01 X52.0968 Y41.4677
G01 X52.0909 Y41.4624
G01 X52.0845 Y41.4576
G01 X52.0779 Y41.4533
G01 X52.0709 Y41.4495
G01 X52.0637 Y41.4462
G01 X52.0563 Y41.4434
G01 X52.0487 Y41.4412
G01 X52.0409 Y41.4396
G01 X52.0331 Y41.4385
G01 X52.0225 Y41.4380
G01 X51.8497 Y41.4380
G01 X51.8497 Y41.3940
G00 Z2.0000
G00 X52.1302 Y42.5659
G01 F60.00
G01 Z-0.1000
G01 F120.00
G01 X52.1737 Y42.5659
G01 X52.1737 Y42.6666
G01 X52.1686 Y42.7122
G01 X52.1578 Y42.7433
G01 X52.1398 Y42.7717
G01 X52.1160 Y42.7958
G01 X52.0873 Y42.8138
G01 X52.0563 Y42.8248
G01 X52.0112 Y42.8295
G01 X51.8497 Y42.8295
G01 X51.8497 Y42.7860
G01 X52.0225 Y42.7860
G01 X52.0357 Y42.7852
G01 X52.0461 Y42.7834
G01 X52.0538 Y42.7814
G01 X52.0613 Y42.7788
G01 X52.0686 Y42.7756
G01 X52.0756 Y42.7720
G01 X52.0824 Y42.7678
G01 X52.0909 Y42.7615
G01 X52.0968 Y42.7563
G01 X52.1041 Y42.7486
G01 X52.1090 Y42.7424
G01 X52.1135 Y42.7359
G01 X52.1175 Y42.7290
G01 X52.1210 Y42.7219
G01 X52.1240 Y42.7145
G01 X52.1263 Y42.7070
G01 X52.1287 Y42.6967
G01 X52.1300 Y42.6862
G01 X52.1302 Y42.6782
G01 X52.1302 Y42.5659
G00 Z2.0000
G00 X54.8365 Y40.1680
G01 F60.00
G01 Z-0.1000
G01 F120.00
G01 X56.2188 Y40.1682
G01 X56.2293 Y40.1692
G01 X56.2371 Y40.1707
G01 X56.2448 Y40.1727
G01 X56.2523 Y40.1753
G01 X56.2596 Y40.1784
G01 X56.2689 Y40.1834
G01 X56.2755 Y40.1877
G01 X56.2819 Y40.1925
G01 X56.2878 Y40.1978
G01 X56.2933 Y40.2034
G01 X56.3000 Y40.2116
G01 X56.3045 Y40.2181
G01 X56.3097 Y40.2273
G01 X56.3130 Y40.2346
G01 X56.3158 Y40.2420
G01 X56.3180 Y40.2496
G01 X56.3204 Y40.2626
G01 X56.3212 Y40.2758
G01 X56.3212 Y41.4083
G01 X56.3207 Y41.4189
G01 X56.3192 Y41.4293
G01 X56.3173 Y41.4370
G01 X56.3140 Y41.4471
G01 X56.3085 Y41.4591
G01 X56.3016 Y41.4703
G01 X56.2968 Y41.4766
G01 X56.2915 Y41.4826
G01 X56.2819 Y41.4916
G01 X56.2711 Y41.4993
G01 X56.2643 Y41.5033
G01 X56.2572 Y41.5068
G01 X56.2498 Y41.5097
G01 X56.2422 Y41.5121
G01 X56.2293 Y41.5149
G01 X56.2214 Y41.5157
G01 X56.2135 Y41.5160
G01 X55.8257 Y41.5160
G01 X55.8257 Y43.6814
G01 X56.0705 Y43.6814
G01 X56.0837 Y43.6825
G01 X56.0966 Y43.6853
G01 X56.1042 Y43.6876
G01 X56.1115 Y43.6906
G01 X56.1210 Y43.6953
G01 X56.1277 Y43.6995
G01 X56.1342 Y43.7042
G01 X56.1402 Y43.7093
G01 X56.1459 Y43.7148
G01 X56.1512 Y43.7207
G01 X56.1560 Y43.7271
G01 X56.1603 Y43.7337
G01 X56.1641 Y43.7407
G01 X56.1674 Y43.7479
G01 X56.1702 Y43.7553
G01 X56.1724 Y43.7629
G01 X56.1745 Y43.7733
G01 X56.1753 Y43.7812
G01 X56.1756 Y43.7891
G01 X56.1755 Y45.0444
G01 X56.1748 Y45.0523
G01 X56.1735 Y45.0601
G01 X56.1710 Y45.0704
G01 X56.1684 Y45.0779
G01 X56.1653 Y45.0852
G01 X56.1603 Y45.0945
G01 X56.1560 Y45.1011
G01 X56.1512 Y45.1075
G01 X56.1459 Y45.1134
G01 X56.1382 Y45.1207
G01 X56.1321 Y45.1256
G01 X56.1255 Y45.1301
G01 X56.1163 Y45.1353
G01 X56.1091 Y45.1386
G01 X56.1017 Y45.1414
G01 X56.0941 Y45.1436
G01 X56.0811 Y45.1460
G01 X56.0679 Y45.1468
G01 X55.0679 Y45.1468
G01 X55.0599 Y45.1466
G01 X55.0521 Y45.1457
G01 X55.0417 Y45.1436
G01 X55.0341 Y45.1414
G01 X55.0266 Y45.1386
G01 X55.0194 Y45.1353
G01 X55.0125 Y45.1315
G01 X55.0058 Y45.1272
G01 X54.9995 Y45.1224
G01 X54.9936 Y45.1171
G01 X54.9863 Y45.1095
G01 X54.9813 Y45.1033
G01 X54.9768 Y45.0967
G01 X54.9716 Y45.0875
G01 X54.9683 Y45.0803
G01 X54.9656 Y45.0729
G01 X54.9633 Y45.0653
G01 X54.9609 Y45.0523
G01 X54.9601 Y45.0391
G01 X54.9601 Y43.7891
G01 X54.9609 Y43.7759
G01 X54.9633 Y43.7629
G01 X54.9656 Y43.7553
G01 X54.9683 Y43.7479
G01 X54.9716 Y43.7407
G01 X54.9754 Y43.7337
G01 X54.9829 Y43.7228
G01 X54.9880 Y43.7167
G01 X54.9936 Y43.7111
G01 X55.0037 Y43.7026
G01 X55.0102 Y43.6981
G01 X55.0171 Y43.6941
G01 X55.0242 Y43.6906
G01 X55.0316 Y43.6876
G01 X55.0443 Y43.6840
G01 X55.0547 Y43.6822
G01 X55.0679 Y43.6814
G01 X55.3100 Y43.6814
G01 X55.3100 Y41.5160
G01 X54.8365 Y41.5160
G01 X54.8233 Y41.5152
G01 X54.8103 Y41.5128
G01 X54.8027 Y41.5106
G01 X54.7953 Y41.5078
G01 X54.7834 Y41.5020
G01 X54.7766 Y41.4979
G01 X54.7702 Y41.4932
G01 X54.7641 Y41.4881
G01 X54.7585 Y41.4826
G01 X54.7500 Y41.4725
G01 X54.7455 Y41.4659
G01 X54.7415 Y41.4591
G01 X54.7380 Y41.4520
G01 X54.7350 Y41.4446
G01 X54.7320 Y41.4345
G01 X54.7303 Y41.4267
G01 X54.7293 Y41.4189
G01 X54.7288 Y41.4083
G01 X54.7288 Y40.2758
G01 X54.7290 Y40.2679
G01 X54.7303 Y40.2574
G01 X54.7327 Y40.2471
G01 X54.7360 Y40.2370
G01 X54.7391 Y40.2297
G01 X54.7441 Y40.2204
G01 X54.7484 Y40.2137
G01 X54.7549 Y40.2054
G01 X54.7622 Y40.1978
G01 X54.7702 Y40.1908
G01 X54.7789 Y40.1848
G01 X54.7881 Y40.1795
G01 X54.7977 Y40.1753
G01 X54.8052 Y40.1727
G01 X54.8155 Y40.1701
G01 X54.8259 Y40.1686
G01 X54.8365 Y40.1680
G00 Z2.0000
G00 X54.8483 Y40.1240
G01 F60.00
G01 Z-0.1000
G01 F120.00
G01 X56.2017 Y40.1240
G01 X56.2469 Y40.1290
G01 X56.2779 Y40.1401
G01 X56.3073 Y40.1588
G01 X56.3309 Y40.1822
G01 X56.3487 Y40.2105
G01 X56.3596 Y40.2418
G01 X56.3647 Y40.2874
G01 X56.3647 Y41.3965
G01 X56.3596 Y41.4422
G01 X56.3488 Y41.4733
G01 X56.3308 Y41.5017
G01 X56.3070 Y41.5258
G01 X56.2783 Y41.5438
G01 X56.2473 Y41.5548
G01 X56.2022 Y41.5595
G01 X56.0787 Y41.5595
G01 X56.0677 Y41.5601
G01 X56.0595 Y41.5612
G01 X56.0151 Y41.5704
G01 X56.0074 Y41.5725
G01 X55.9999 Y41.5752
G01 X55.9927 Y41.5784
G01 X55.9834 Y41.5835
G01 X55.9481 Y41.6062
G01 X55.9417 Y41.6107
G01 X55.9356 Y41.6156
G01 X55.9299 Y41.6210
G01 X55.9229 Y41.6288
G01 X55.9167 Y41.6373
G01 X55.8949 Y41.6703
G01 X55.8883 Y41.6817
G01 X55.8831 Y41.6939
G01 X55.8795 Y41.7065
G01 X55.8709 Y41.7508
G01 X55.8695 Y41.7637
G01 X55.8694 Y43.4300
G01 X55.8697 Y43.4385
G01 X55.8707 Y43.4469
G01 X55.8788 Y43.4903
G01 X55.8825 Y43.5026
G01 X55.8866 Y43.5121
G01 X55.8915 Y43.5212
G01 X55.9150 Y43.5597
G01 X55.9196 Y43.5658
G01 X55.9247 Y43.5716
G01 X55.9302 Y43.5770
G01 X55.9361 Y43.5820
G01 X55.9671 Y43.6054
G01 X55.9737 Y43.6101
G01 X55.9855 Y43.6166
G01 X55.9955 Y43.6208
G01 X56.0357 Y43.6332
G01 X56.0461 Y43.6358
G01 X56.0540 Y43.6370
G01 X56.1008 Y43.6427
G01 X56.1337 Y43.6543
G01 X56.1619 Y43.6716
G01 X56.1854 Y43.6951
G01 X56.2029 Y43.7233
G01 X56.2143 Y43.7559
G01 X56.2194 Y43.8004
G01 X56.2194 Y45.0272
G01 X56.2143 Y45.0720
G01 X56.2030 Y45.1041
G01 X56.1852 Y45.1326
G01 X56.1616 Y45.1565
G01 X56.1337 Y45.1737
G01 X56.1012 Y45.1851
G01 X56.0564 Y45.1902
G01 X55.0799 Y45.1902
G01 X55.0347 Y45.1851
G01 X55.0026 Y45.1737
G01 X54.9744 Y45.1565
G01 X54.9511 Y45.1326
G01 X54.9327 Y45.1037
G01 X54.9215 Y45.0720
G01 X54.9165 Y45.0272
G01 X54.9165 Y43.8004
G01 X54.9215 Y43.7559
G01 X54.9328 Y43.7236
G01 X54.9509 Y43.6951
G01 X54.9741 Y43.6716
G01 X55.0026 Y43.6543
G01 X55.0352 Y43.6427
G01 X55.0818 Y43.6370
G01 X55.0924 Y43.6352
G01 X55.1352 Y43.6225
G01 X55.1454 Y43.6188
G01 X55.1551 Y43.6142
G01 X55.1644 Y43.6086
G01 X55.1977 Y43.5836
G01 X55.2056 Y43.5770
G01 X55.2146 Y43.5678
G01 X55.2223 Y43.5575
G01 X55.2444 Y43.5212
G01 X55.2504 Y43.5098
G01 X55.2541 Y43.5002
G01 X55.2570 Y43.4903
G01 X55.2647 Y43.4497
G01 X55.2659 Y43.4413
G01 X55.2665 Y43.4300
G01 X55.2664 Y41.7662
G01 X55.2660 Y41.7585
G01 X55.2650 Y41.7508
G01 X55.2557 Y41.7040
G01 X55.2536 Y41.6963
G01 X55.2498 Y41.6865
G01 X55.2464 Y41.6793
G01 X55.2424 Y41.6725
G01 X55.2161 Y41.6329
G01 X55.2113 Y41.6268
G01 X55.2041 Y41.6192
G01 X55.1962 Y41.6123
G01 X55.1899 Y41.6076
G01 X55.1502 Y41.5821
G01 X55.1384 Y41.5762
G01 X55.1309 Y41.5734
G01 X55.1233 Y41.5711
G01 X55.0791 Y41.5617
G01 X55.0654 Y41.5598
G01 X55.0571 Y41.5595
G01 X54.8478 Y41.5595
G01 X54.8027 Y41.5548
G01 X54.7717 Y41.5438
G01 X54.7430 Y41.5258
G01 X54.7192 Y41.5017
G01 X54.7012 Y41.4733
G01 X54.6904 Y41.4422
G01 X54.6853 Y41.3966
G01 X54.6853 Y40.2874
G01 X54.6904 Y40.2418
G01 X54.7013 Y40.2105
G01 X54.7190 Y40.1822
G01 X54.7427 Y40.1588
G01 X54.7720 Y40.1401
G01 X54.8031 Y40.1290
G01 X54.8483 Y40.1240
G00 Z2.0000
G00 X54.8365 Y38.1680
G01 F60.00
G01 Z-0.1000
G01 F120.00
G01 X56.2161 Y38.1680
G01 X56.2241 Y38.1685
G01 X56.2319 Y38.1696
G01 X56.2397 Y38.1712
G01 X56.2473 Y38.1734
G01 X56.2547 Y38.1762
G01 X56.2619 Y38.1795
G01 X56.2689 Y38.1833
G01 X56.2755 Y38.1877
G01 X56.2859 Y38.1959
G01 X56.2933 Y38.2034
G01 X56.3000 Y38.2116
G01 X56.3059 Y38.2204
G01 X56.3120 Y38.2321
G01 X56.3158 Y38.2420
G01 X56.3186 Y38.2521
G01 X56.3204 Y38.2626
G01 X56.3212 Y38.2758
G01 X56.3212 Y38.5842
G01 X56.4326 Y38.5842
G01 X56.4553 Y38.5854
G01 X56.4829 Y38.5897
G01 X56.5023 Y38.5945
G01 X56.5099 Y38.5969
G01 X56.5287 Y38.6038
G01 X56.5468 Y38.6122
G01 X56.5539 Y38.6159
G01 X56.5732 Y38.6276
G01 X56.5936 Y38.6427
G01 X56.6123 Y38.6597
G01 X57.6546 Y39.7019
G01 X57.6647 Y39.6972
G01 X57.6721 Y39.6942
G01 X57.7275 Y39.6744
G01 X57.7376 Y39.6713
G01 X57.7999 Y39.6558
G01 X57.8686 Y39.6457
G01 X57.9380 Y39.6423
G01 X58.0021 Y39.6453
G01 X58.0126 Y39.6463
G01 X58.0709 Y39.6549
G01 X58.0812 Y39.6570
G01 X58.1434 Y39.6727
G01 X58.2088 Y39.6961
G01 X58.2716 Y39.7258
G01 X58.3267 Y39.7587
G01 X58.3355 Y39.7646
G01 X58.3828 Y39.7996
G01 X58.3910 Y39.8064
G01 X58.4385 Y39.8495
G01 X58.4834 Y39.8990
G01 X58.4884 Y39.9052
G01 X58.5265 Y39.9568
G01 X58.5596 Y40.0118
G01 X58.5646 Y40.0211
G01 X58.5897 Y40.0743
G01 X58.5938 Y40.0841
G01 X58.6153 Y40.1446
G01 X58.6322 Y40.2119
G01 X58.6423 Y40.2806
G01 X58.6456 Y40.3447
G01 X58.6456 Y40.3553
G01 X58.6427 Y40.4141
G01 X58.6417 Y40.4246
G01 X58.6322 Y40.4881
G01 X58.6153 Y40.5554
G01 X58.5919 Y40.6208
G01 X58.5646 Y40.6789
G01 X58.5596 Y40.6882
G01 X58.5293 Y40.7387
G01 X58.5250 Y40.7454
G01 X58.4851 Y40.7990
G01 X58.4385 Y40.8505
G01 X58.3870 Y40.8971
G01 X58.3312 Y40.9385
G01 X58.2716 Y40.9742
G01 X58.2088 Y41.0039
G01 X58.1434 Y41.0273
G01 X58.0812 Y41.0430
G01 X58.0709 Y41.0451
G01 X58.0074 Y41.0543
G01 X57.9380 Y41.0577
G01 X57.8686 Y41.0543
G01 X57.8051 Y41.0451
G01 X57.7948 Y41.0430
G01 X57.7326 Y41.0273
G01 X57.6721 Y41.0058
G01 X57.6623 Y41.0017
G01 X57.6091 Y40.9766
G01 X57.5998 Y40.9716
G01 X57.5448 Y40.9385
G01 X57.4932 Y40.9004
G01 X57.4850 Y40.8936
G01 X57.4414 Y40.8541
G01 X57.4339 Y40.8466
G01 X57.3909 Y40.7990
G01 X57.3526 Y40.7475
G01 X57.3467 Y40.7387
G01 X57.3138 Y40.6836
G01 X57.2841 Y40.6208
G01 X57.2607 Y40.5554
G01 X57.2450 Y40.4932
G01 X57.2429 Y40.4829
G01 X57.2343 Y40.4246
G01 X57.2333 Y40.4141
G01 X57.2303 Y40.3500
G01 X57.2337 Y40.2806
G01 X57.2438 Y40.2119
G01 X57.2593 Y40.1496
G01 X57.2624 Y40.1395
G01 X57.2822 Y40.0841
G01 X57.2852 Y40.0767
G01 X57.2899 Y40.0666
G01 X56.3232 Y39.0998
G01 X56.3212 Y39.0998
G01 X56.3212 Y39.4082
G01 X56.3207 Y39.4188
G01 X56.3192 Y39.4293
G01 X56.3173 Y39.4370
G01 X56.3150 Y39.4445
G01 X56.3097 Y39.4567
G01 X56.3059 Y39.4636
G01 X56.3016 Y39.4703
G01 X56.2968 Y39.4766
G01 X56.2915 Y39.4825
G01 X56.2859 Y39.4881
G01 X56.2798 Y39.4932
G01 X56.2689 Y39.5007
G01 X56.2619 Y39.5045
G01 X56.2547 Y39.5078
G01 X56.2473 Y39.5106
G01 X56.2397 Y39.5128
G01 X56.2267 Y39.5152
G01 X56.2135 Y39.5160
G01 X54.8365 Y39.5160
G01 X54.8286 Y39.5157
G01 X54.8181 Y39.5144
G01 X54.8103 Y39.5128
G01 X54.8027 Y39.5106
G01 X54.7953 Y39.5078
G01 X54.7881 Y39.5045
G01 X54.7811 Y39.5007
G01 X54.7745 Y39.4963
G01 X54.7641 Y39.4881
G01 X54.7567 Y39.4806
G01 X54.7484 Y39.4703
G01 X54.7415 Y39.4590
G01 X54.7360 Y39.4470
G01 X54.7327 Y39.4370
G01 X54.7299 Y39.4241
G01 X54.7289 Y39.4135
G01 X54.7289 Y38.2705
G01 X54.7299 Y38.2599
G01 X54.7314 Y38.2521
G01 X54.7342 Y38.2420
G01 X54.7380 Y38.2321
G01 X54.7427 Y38.2226
G01 X54.7484 Y38.2137
G01 X54.7549 Y38.2054
G01 X54.7622 Y38.1977
G01 X54.7702 Y38.1908
G01 X54.7789 Y38.1847
G01 X54.7881 Y38.1795
G01 X54.7977 Y38.1752
G01 X54.8052 Y38.1726
G01 X54.8155 Y38.1701
G01 X54.8259 Y38.1685
G01 X54.8365 Y38.1680
G00 Z2.0000
G00 X54.8478 Y38.1245
G01 F60.00
G01 Z-0.1000
G01 F120.00
G01 X56.2022 Y38.1245
G01 X56.2473 Y38.1292
G01 X56.2787 Y38.1403
G01 X56.3070 Y38.1578
G01 X56.3306 Y38.1820
G01 X56.3488 Y38.2107
G01 X56.3596 Y38.2418
G01 X56.3647 Y38.2874
G01 X56.3647 Y38.3546
G01 X56.3652 Y38.3649
G01 X56.3672 Y38.3777
G01 X56.3776 Y38.4245
G01 X56.3799 Y38.4321
G01 X56.3829 Y38.4394
G01 X56.3863 Y38.4466
G01 X56.3903 Y38.4535
G01 X56.4202 Y38.4946
G01 X56.4269 Y38.5029
G01 X56.4364 Y38.5122
G01 X56.4470 Y38.5203
G01 X56.4538 Y38.5245
G01 X56.4938 Y38.5472
G01 X56.5013 Y38.5508
G01 X56.5090 Y38.5538
G01 X56.5453 Y38.5646
G01 X56.5967 Y38.5919
G01 X56.6504 Y38.6361
G01 X57.5778 Y39.5636
G01 X57.5832 Y39.5686
G01 X57.5890 Y39.5733
G01 X57.6226 Y39.5975
G01 X57.6314 Y39.6026
G01 X57.6383 Y39.6060
G01 X57.6479 Y39.6096
G01 X57.6849 Y39.6208
G01 X57.6926 Y39.6226
G01 X57.7030 Y39.6241
G01 X57.7109 Y39.6246
G01 X57.7188 Y39.6245
G01 X57.7629 Y39.6210
G01 X57.8308 Y39.6065
G01 X57.9380 Y39.5990
G01 X58.0449 Y39.6065
G01 X58.1492 Y39.6296
G01 X58.2499 Y39.6670
G01 X58.3439 Y39.7180
G01 X58.4297 Y39.7824
G01 X58.5056 Y39.8579
G01 X58.5695 Y39.9435
G01 X58.6210 Y40.0377
G01 X58.6583 Y40.1385
G01 X58.6810 Y40.2431
G01 X58.6890 Y40.3495
G01 X58.6810 Y40.4565
G01 X58.6583 Y40.5615
G01 X58.6211 Y40.6616
G01 X58.5695 Y40.7555
G01 X58.5055 Y40.8416
G01 X58.4297 Y40.9170
G01 X58.3439 Y40.9814
G01 X58.2497 Y41.0325
G01 X58.1492 Y41.0703
G01 X58.0451 Y41.0929
G01 X57.9380 Y41.1005
G01 X57.8309 Y41.0929
G01 X57.7267 Y41.0703
G01 X57.6262 Y41.0325
G01 X57.5320 Y40.9814
G01 X57.4463 Y40.9170
G01 X57.3705 Y40.8416
G01 X57.3065 Y40.7555
G01 X57.2549 Y40.6616
G01 X57.2177 Y40.5615
G01 X57.1950 Y40.4565
G01 X57.1870 Y40.3495
G01 X57.1950 Y40.2430
G01 X57.2095 Y40.1741
G01 X57.2105 Y40.1639
G01 X57.2120 Y40.1304
G01 X57.2120 Y40.1200
G01 X57.2109 Y40.1096
G01 X57.2089 Y40.0994
G01 X57.1979 Y40.0624
G01 X57.1934 Y40.0502
G01 X57.1901 Y40.0432
G01 X57.1862 Y40.0365
G01 X57.1624 Y40.0020
G01 X57.1572 Y39.9954
G01 X57.1516 Y39.9893
G01 X56.6446 Y39.4828
G01 X56.6370 Y39.4759
G01 X56.6309 Y39.4713
G01 X56.5935 Y39.4460
G01 X56.5817 Y39.4394
G01 X56.5691 Y39.4343
G01 X56.5587 Y39.4315
G01 X56.5142 Y39.4228
G01 X56.5062 Y39.4218
G01 X56.4955 Y39.4213
G01 X56.4874 Y39.4217
G01 X56.4767 Y39.4231
G01 X56.4329 Y39.4323
G01 X56.4226 Y39.4353
G01 X56.4102 Y39.4405
G01 X56.4008 Y39.4457
G01 X56.3611 Y39.4731
G01 X56.3505 Y39.4819
G01 X56.3069 Y39.5255
G01 X56.2785 Y39.5432
G01 X56.2465 Y39.5546
G01 X56.2013 Y39.5600
G01 X54.8487 Y39.5600
G01 X54.8035 Y39.5546
G01 X54.7717 Y39.5433
G01 X54.7427 Y39.5251
G01 X54.7192 Y39.5016
G01 X54.7013 Y39.4730
G01 X54.6904 Y39.4417
G01 X54.6853 Y39.3961
G01 X54.6853 Y38.2874
G01 X54.6904 Y38.2418
G01 X54.7012 Y38.2107
G01 X54.7194 Y38.1820
G01 X54.7430 Y38.1578
G01 X54.7713 Y38.1403
G01 X54.8027 Y38.1292
G01 X54.8478 Y38.1245
G00 Z2.0000
G00 X57.2253 Y37.2319
G01 F60.00
G01 Z-0.1000
G01 F120.00
G01 X57.2688 Y37.2319
G01 X57.2688 Y37.3469
G01 X57.2693 Y37.3548
G01 X57.2708 Y37.3653
G01 X57.2734 Y37.3755
G01 X57.2760 Y37.3830
G01 X57.2803 Y37.3927
G01 X57.2841 Y37.3996
G01 X57.2900 Y37.4084
G01 X57.2949 Y37.4146
G01 X57.3022 Y37.4223
G01 X57.3081 Y37.4275
G01 X57.3145 Y37.4323
G01 X57.3211 Y37.4367
G01 X57.3281 Y37.4405
G01 X57.3353 Y37.4438
G01 X57.3427 Y37.4466
G01 X57.3503 Y37.4488
G01 X57.3581 Y37.4504
G01 X57.3659 Y37.4515
G01 X57.3765 Y37.4520
G01 X57.5493 Y37.4520
G01 X57.5493 Y37.4955
G01 X57.3878 Y37.4955
G01 X57.3427 Y37.4908
G01 X57.3117 Y37.4798
G01 X57.2830 Y37.4618
G01 X57.2592 Y37.4377
G01 X57.2412 Y37.4093
G01 X57.2304 Y37.3782
G01 X57.2253 Y37.3326
G01 X57.2253 Y37.2319
G00 Z2.0000
G00 X57.3883 Y36.0600
G01 F60.00
G01 Z-0.1000
G01 F120.00
G01 X57.5493 Y36.0600
G01 X57.5493 Y36.1040
G01 X57.3765 Y36.1040
G01 X57.3686 Y36.1043
G01 X57.3555 Y36.1061
G01 X57.3478 Y36.1079
G01 X57.3402 Y36.1103
G01 X57.3281 Y36.1155
G01 X57.3166 Y36.1222
G01 X57.3102 Y36.1268
G01 X57.3022 Y36.1337
G01 X57.2949 Y36.1414
G01 X57.2884 Y36.1497
G01 X57.2841 Y36.1564
G01 X57.2791 Y36.1657
G01 X57.2750 Y36.1755
G01 X57.2720 Y36.1856
G01 X57.2696 Y36.1986
G01 X57.2688 Y36.2091
G01 X57.2688 Y36.3235
G01 X57.2253 Y36.3235
G01 X57.2253 Y36.2234
G01 X57.2304 Y36.1778
G01 X57.2413 Y36.1465
G01 X57.2590 Y36.1182
G01 X57.2827 Y36.0948
G01 X57.3120 Y36.0761
G01 X57.3431 Y36.0651
G01 X57.3883 Y36.0600
G00 Z2.0000
G00 X58.5807 Y36.0600
G01 F60.00
G01 Z-0.1000
G01 F120.00
G01 X58.7417 Y36.0600
G01 X58.7869 Y36.0651
G01 X58.8179 Y36.0761
G01 X58.8473 Y36.0948
G01 X58.8709 Y36.1182
G01 X58.8887 Y36.1465
G01 X58.8996 Y36.1778
G01 X58.9047 Y36.2234
G01 X58.9047 Y36.3235
G01 X58.8612 Y36.3235
G01 X58.8612 Y36.2091
G01 X58.8604 Y36.1986
G01 X58.8592 Y36.1907
G01 X58.8566 Y36.1805
G01 X58.8540 Y36.1730
G01 X58.8497 Y36.1633
G01 X58.8459 Y36.1564
G01 X58.8416 Y36.1497
G01 X58.8351 Y36.1414
G01 X58.8297 Y36.1356
G01 X58.8219 Y36.1285
G01 X58.8155 Y36.1237
G01 X58.8089 Y36.1193
G01 X58.8019 Y36.1155
G01 X58.7947 Y36.1122
G01 X58.7873 Y36.1094
G01 X58.7797 Y36.1072
G01 X58.7719 Y36.1056
G01 X58.7641 Y36.1045
G01 X58.7535 Y36.1040
G01 X58.5807 Y36.1040
G01 X58.5807 Y36.0600
G00 Z2.0000
G00 X58.8612 Y37.2319
G01 F60.00
G01 Z-0.1000
G01 F120.00
G01 X58.9047 Y37.2319
G01 X58.9047 Y37.3326
G01 X58.8996 Y37.3782
G01 X58.8888 Y37.4093
G01 X58.8708 Y37.4377
G01 X58.8470 Y37.4618
G01 X58.8183 Y37.4798
G01 X58.7873 Y37.4908
G01 X58.7422 Y37.4955
G01 X58.5807 Y37.4955
G01 X58.5807 Y37.4520
G01 X58.7535 Y37.4520
G01 X58.7667 Y37.4512
G01 X58.7745 Y37.4499
G01 X58.7822 Y37.4481
G01 X58.7898 Y37.4457
G01 X58.7996 Y37.4417
G01 X58.8089 Y37.4367
G01 X58.8155 Y37.4323
G01 X58.8219 Y37.4275
G01 X58.8278 Y37.4223
G01 X58.8333 Y37.4166
G01 X58.8384 Y37.4105
G01 X58.8431 Y37.4041
G01 X58.8485 Y37.3950
G01 X58.8520 Y37.3879
G01 X58.8550 Y37.3805
G01 X58.8573 Y37.3730
G01 X58.8597 Y37.3627
G01 X58.8610 Y37.3522
G01 X58.8612 Y37.3442
G01 X58.8612 Y37.2319
G00 Z2.0000
G00 X61.6293 Y36.1880
G01 F60.00
G01 Z-0.1000
G01 F120.00
G01 X61.6293 Y36.3743
G01 X61.5855 Y36.3743
G01 X61.5855 Y36.1854
G01 X61.5955 Y36.1871
G01 X61.6038 Y36.1879
G01 X61.6293 Y36.1880
G00 Z2.0000
G00 X61.3284 Y35.3767
G01 F60.00
G01 Z-0.1000
G01 F120.00
G01 X61.3721 Y35.3767
G01 X61.3723 Y35.4442
G01 X61.3735 Y35.4673
G01 X61.3768 Y35.4903
G01 X61.3789 Y35.5006
G01 X61.3854 Y35.5256
G01 X61.3932 Y35.5474
G01 X61.4000 Y35.5623
G01 X61.4000 Y35.6414
G01 X61.3794 Y35.6141
G01 X61.3521 Y35.5586
G01 X61.3351 Y35.4998
G01 X61.3284 Y35.4290
G01 X61.3284 Y35.3767
G00 Z2.0000
G00 X57.3765 Y34.1040
G01 F60.00
G01 Z-0.1000
G01 F120.00
G01 X58.7535 Y34.1040
G01 X58.7641 Y34.1045
G01 X58.7745 Y34.1060
G01 X58.7822 Y34.1079
G01 X58.7898 Y34.1103
G01 X58.7972 Y34.1132
G01 X58.8043 Y34.1167
G01 X58.8111 Y34.1207
G01 X58.8177 Y34.1252
G01 X58.8239 Y34.1301
G01 X58.8297 Y34.1355
G01 X58.8351 Y34.1413
G01 X58.8400 Y34.1475
G01 X58.8445 Y34.1541
G01 X58.8485 Y34.1609
G01 X58.8520 Y34.1680
G01 X58.8550 Y34.1754
G01 X58.8573 Y34.1830
G01 X58.8592 Y34.1907
G01 X58.8607 Y34.2011
G01 X58.8612 Y34.2117
G01 X58.8612 Y34.5212
G01 X59.5938 Y34.5212
G01 X61.0575 Y33.0551
G01 X61.0743 Y33.0398
G01 X61.0805 Y33.0348
G01 X61.0966 Y33.0230
G01 X61.1160 Y33.0112
G01 X61.1412 Y32.9991
G01 X61.1626 Y32.9913
G01 X61.1702 Y32.9891
G01 X61.1896 Y32.9844
G01 X61.2094 Y32.9813
G01 X61.2173 Y32.9804
G01 X61.2374 Y32.9794
G01 X62.2560 Y32.9794
G01 X62.2791 Y32.9805
G01 X62.2872 Y32.9814
G01 X62.3074 Y32.9846
G01 X62.3298 Y32.9902
G01 X62.3516 Y32.9979
G01 X62.3616 Y33.0021
G01 X62.3799 Y33.0111
G01 X62.4019 Y33.0247
G01 X62.4224 Y33.0403
G01 X62.4375 Y33.0542
G01 X62.4432 Y33.0600
G01 X62.4583 Y33.0774
G01 X62.4733 Y33.0985
G01 X62.4835 Y33.1162
G01 X62.4873 Y33.1234
G01 X62.4966 Y33.1446
G01 X62.5039 Y33.1665
G01 X62.5060 Y33.1743
G01 X62.5102 Y33.1943
G01 X62.5130 Y33.2173
G01 X62.5656 Y34.0007
G01 X62.5700 Y34.0091
G01 X62.5798 Y34.0301
G01 X62.5877 Y34.0518
G01 X62.5908 Y34.0619
G01 X62.5963 Y34.0844
G01 X62.5998 Y34.1073
G01 X62.6007 Y34.1152
G01 X62.6019 Y34.1383
G01 X62.6019 Y35.4389
G01 X62.6009 Y35.4621
G01 X62.5998 Y35.4726
G01 X62.5963 Y35.4955
G01 X62.5901 Y35.5205
G01 X62.5817 Y35.5449
G01 X62.5777 Y35.5547
G01 X62.5677 Y35.5755
G01 X62.5531 Y35.5999
G01 X62.5361 Y35.6228
G01 X62.5207 Y35.6400
G01 X62.5132 Y35.6475
G01 X62.4980 Y35.6612
G01 X62.4918 Y35.6662
G01 X62.4731 Y35.6799
G01 X62.4487 Y35.6945
G01 X62.4230 Y35.7066
G01 X62.4013 Y35.7146
G01 X62.3937 Y35.7169
G01 X62.3738 Y35.7220
G01 X62.3634 Y35.7240
G01 X62.3405 Y35.7273
G01 X62.3121 Y35.7287
G01 X62.2837 Y35.7273
G01 X62.2608 Y35.7240
G01 X62.2504 Y35.7220
G01 X62.2306 Y35.7169
G01 X62.2230 Y35.7146
G01 X62.2012 Y35.7066
G01 X62.1755 Y35.6945
G01 X62.1512 Y35.6799
G01 X62.1325 Y35.6662
G01 X62.1263 Y35.6612
G01 X62.1111 Y35.6475
G01 X62.1036 Y35.6400
G01 X62.0881 Y35.6228
G01 X62.0712 Y35.5999
G01 X62.0566 Y35.5755
G01 X62.0466 Y35.5547
G01 X62.0425 Y35.5449
G01 X62.0341 Y35.5205
G01 X62.0279 Y35.4955
G01 X62.0244 Y35.4726
G01 X62.0234 Y35.4621
G01 X62.0224 Y35.4389
G01 X62.0224 Y34.1409
G01 X62.0238 Y34.1125
G01 X62.0270 Y34.0896
G01 X62.0285 Y34.0818
G01 X62.0357 Y34.0543
G01 X62.0435 Y34.0325
G01 X62.0500 Y34.0181
G01 X62.0149 Y33.4951
G01 X61.3469 Y33.4951
G01 X59.8832 Y34.9612
G01 X59.8665 Y34.9765
G01 X59.8603 Y34.9815
G01 X59.8441 Y34.9933
G01 X59.8247 Y35.0051
G01 X59.8044 Y35.0150
G01 X59.7971 Y35.0182
G01 X59.7757 Y35.0257
G01 X59.7537 Y35.0313
G01 X59.7313 Y35.0350
G01 X59.7208 Y35.0360
G01 X59.7008 Y35.0368
G01 X58.8612 Y35.0368
G01 X58.8612 Y35.3442
G01 X58.8604 Y35.3574
G01 X58.8586 Y35.3678
G01 X58.8566 Y35.3755
G01 X58.8540 Y35.3830
G01 X58.8509 Y35.3903
G01 X58.8459 Y35.3996
G01 X58.8416 Y35.4063
G01 X58.8368 Y35.4126
G01 X58.8315 Y35.4185
G01 X58.8259 Y35.4240
G01 X58.8177 Y35.4308
G01 X58.8111 Y35.4352
G01 X58.8043 Y35.4392
G01 X58.7972 Y35.4427
G01 X58.7898 Y35.4457
G01 X58.7822 Y35.4481
G01 X58.7745 Y35.4499
G01 X58.7667 Y35.4511
G01 X58.7535 Y35.4520
G01 X57.3739 Y35.4519
G01 X57.3633 Y35.4511
G01 X57.3555 Y35.4499
G01 X57.3452 Y35.4473
G01 X57.3353 Y35.4438
G01 X57.3257 Y35.4392
G01 X57.3166 Y35.4338
G01 X57.3081 Y35.4275
G01 X57.3022 Y35.4222
G01 X57.2949 Y35.4146
G01 X57.2884 Y35.4063
G01 X57.2827 Y35.3973
G01 X57.2780 Y35.3879
G01 X57.2742 Y35.3780
G01 X57.2714 Y35.3678
G01 X57.2696 Y35.3574
G01 X57.2688 Y35.3469
G01 X57.2689 Y34.2064
G01 X57.2699 Y34.1959
G01 X57.2714 Y34.1881
G01 X57.2742 Y34.1779
G01 X57.2780 Y34.1680
G01 X57.2827 Y34.1586
G01 X57.2884 Y34.1497
G01 X57.2949 Y34.1413
G01 X57.3022 Y34.1337
G01 X57.3102 Y34.1268
G01 X57.3189 Y34.1207
G01 X57.3281 Y34.1155
G01 X57.3377 Y34.1112
G01 X57.3452 Y34.1086
G01 X57.3555 Y34.1060
G01 X57.3659 Y34.1045
G01 X57.3765 Y34.1040
G00 Z2.0000
G00 X56.9600 Y31.1132
G01 F60.00
G01 Z-0.1000
G01 F120.00
G01 X58.0600 Y31.1132
G01 X58.0732 Y31.1140
G01 X58.0862 Y31.1164
G01 X58.0963 Y31.1195
G01 X58.1084 Y31.1247
G01 X58.1176 Y31.1299
G01 X58.1284 Y31.1377
G01 X58.1362 Y31.1448
G01 X58.1449 Y31.1547
G01 X58.1510 Y31.1633
G01 X58.1562 Y31.1725
G01 X58.1605 Y31.1822
G01 X58.1638 Y31.1922
G01 X58.1662 Y31.2025
G01 X58.1672 Y31.2104
G01 X58.1677 Y31.2183
G01 X58.1677 Y31.2631
G01 X59.8282 Y31.2631
G01 X59.8283 Y31.2497
G01 X59.8290 Y31.2418
G01 X59.8308 Y31.2314
G01 X59.8336 Y31.2212
G01 X59.8374 Y31.2113
G01 X59.8421 Y31.2019
G01 X59.8478 Y31.1929
G01 X59.8543 Y31.1846
G01 X59.8616 Y31.1769
G01 X59.8696 Y31.1700
G01 X59.8760 Y31.1654
G01 X59.8851 Y31.1599
G01 X59.8947 Y31.1554
G01 X59.9046 Y31.1518
G01 X59.9149 Y31.1493
G01 X59.9253 Y31.1477
G01 X59.9359 Y31.1472
G01 X61.0079 Y31.1472
G01 X61.0185 Y31.1477
G01 X61.0263 Y31.1488
G01 X61.0341 Y31.1504
G01 X61.0417 Y31.1526
G01 X61.0491 Y31.1554
G01 X61.0587 Y31.1599
G01 X61.0655 Y31.1639
G01 X61.0742 Y31.1700
G01 X61.0803 Y31.1751
G01 X61.0859 Y31.1807
G01 X61.0912 Y31.1866
G01 X61.0975 Y31.1951
G01 X61.1017 Y31.2019
G01 X61.1053 Y31.2089
G01 X61.1084 Y31.2162
G01 X61.1110 Y31.2237
G01 X61.1130 Y31.2314
G01 X61.1148 Y31.2418
G01 X61.1156 Y31.2550
G01 X61.1156 Y31.7870
G01 X61.1154 Y31.7949
G01 X61.1141 Y31.8054
G01 X61.1124 Y31.8131
G01 X61.1094 Y31.8233
G01 X61.1053 Y31.8330
G01 X61.1017 Y31.8401
G01 X61.0975 Y31.8468
G01 X61.0928 Y31.8533
G01 X61.0859 Y31.8613
G01 X61.0803 Y31.8668
G01 X61.0721 Y31.8735
G01 X61.0655 Y31.8780
G01 X61.0587 Y31.8820
G01 X61.0516 Y31.8855
G01 X61.0442 Y31.8884
G01 X61.0341 Y31.8915
G01 X61.0263 Y31.8931
G01 X61.0158 Y31.8944
G01 X61.0079 Y31.8947
G01 X59.9359 Y31.8947
G01 X59.9253 Y31.8942
G01 X59.9149 Y31.8926
G01 X59.9046 Y31.8901
G01 X59.8947 Y31.8865
G01 X59.8851 Y31.8820
G01 X59.8760 Y31.8766
G01 X59.8655 Y31.8685
G01 X59.8579 Y31.8613
G01 X59.8510 Y31.8533
G01 X59.8435 Y31.8424
G01 X59.8385 Y31.8330
G01 X59.8344 Y31.8233
G01 X59.8314 Y31.8131
G01 X59.8293 Y31.8028
G01 X59.8283 Y31.7922
G01 X59.8282 Y31.7788
G01 X58.1677 Y31.7788
G01 X58.1677 Y31.8236
G01 X58.1672 Y31.8315
G01 X58.1662 Y31.8394
G01 X58.1638 Y31.8497
G01 X58.1605 Y31.8597
G01 X58.1562 Y31.8694
G01 X58.1510 Y31.8786
G01 X58.1433 Y31.8893
G01 X58.1362 Y31.8972
G01 X58.1263 Y31.9059
G01 X58.1176 Y31.9120
G01 X58.1084 Y31.9172
G01 X58.0963 Y31.9224
G01 X58.0836 Y31.9261
G01 X58.0732 Y31.9279
G01 X58.0600 Y31.9287
G01 X56.9600 Y31.9287
G01 X56.9521 Y31.9284
G01 X56.9416 Y31.9271
G01 X56.9313 Y31.9248
G01 X56.9237 Y31.9224
G01 X56.9163 Y31.9195
G01 X56.9092 Y31.9160
G01 X56.9024 Y31.9120
G01 X56.8937 Y31.9059
G01 X56.8876 Y31.9008
G01 X56.8820 Y31.8953
G01 X56.8767 Y31.8893
G01 X56.8704 Y31.8808
G01 X56.8662 Y31.8741
G01 X56.8626 Y31.8670
G01 X56.8585 Y31.8573
G01 X56.8562 Y31.8497
G01 X56.8543 Y31.8420
G01 X56.8531 Y31.8341
G01 X56.8523 Y31.8210
G01 X56.8523 Y31.2183
G01 X56.8531 Y31.2078
G01 X56.8549 Y31.1974
G01 X56.8577 Y31.1872
G01 X56.8615 Y31.1773
G01 X56.8662 Y31.1679
G01 X56.8719 Y31.1589
G01 X56.8784 Y31.1506
G01 X56.8857 Y31.1429
G01 X56.8937 Y31.1360
G01 X56.9024 Y31.1299
G01 X56.9116 Y31.1247
G01 X56.9212 Y31.1204
G01 X56.9313 Y31.1171
G01 X56.9390 Y31.1153
G01 X56.9494 Y31.1137
G01 X56.9600 Y31.1132
G00 Z2.0000
G00 X56.9600 Y30.1633
G01 F60.00
G01 Z-0.1000
G01 F120.00
G01 X58.0626 Y30.1633
G01 X58.0758 Y30.1644
G01 X58.0836 Y30.1659
G01 X58.0913 Y30.1679
G01 X58.1037 Y30.1725
G01 X58.1108 Y30.1760
G01 X58.1176 Y30.1800
G01 X58.1284 Y30.1877
G01 X58.1380 Y30.1967
G01 X58.1465 Y30.2068
G01 X58.1538 Y30.2179
G01 X58.1595 Y30.2298
G01 X58.1638 Y30.2423
G01 X58.1662 Y30.2526
G01 X58.1676 Y30.2657
G01 X58.1677 Y30.8736
G01 X58.1672 Y30.8816
G01 X58.1662 Y30.8894
G01 X58.1631 Y30.9023
G01 X58.1605 Y30.9098
G01 X58.1574 Y30.9171
G01 X58.1510 Y30.9286
G01 X58.1433 Y30.9394
G01 X58.1343 Y30.9490
G01 X58.1242 Y30.9575
G01 X58.1131 Y30.9648
G01 X58.1012 Y30.9705
G01 X58.0887 Y30.9748
G01 X58.0758 Y30.9776
G01 X58.0626 Y30.9787
G01 X56.9574 Y30.9787
G01 X56.9494 Y30.9782
G01 X56.9416 Y30.9772
G01 X56.9287 Y30.9741
G01 X56.9163 Y30.9695
G01 X56.9092 Y30.9660
G01 X56.9024 Y30.9620
G01 X56.8916 Y30.9543
G01 X56.8820 Y30.9453
G01 X56.8735 Y30.9352
G01 X56.8676 Y30.9264
G01 X56.8615 Y30.9147
G01 X56.8577 Y30.9048
G01 X56.8543 Y30.8920
G01 X56.8525 Y30.8789
G01 X56.8523 Y30.8710
G01 X56.8523 Y30.2710
G01 X56.8525 Y30.2631
G01 X56.8538 Y30.2526
G01 X56.8562 Y30.2423
G01 X56.8595 Y30.2322
G01 X56.8638 Y30.2226
G01 X56.8676 Y30.2156
G01 X56.8735 Y30.2068
G01 X56.8802 Y30.1986
G01 X56.8876 Y30.1912
G01 X56.8958 Y30.1845
G01 X56.9046 Y30.1786
G01 X56.9139 Y30.1736
G01 X56.9212 Y30.1705
G01 X56.9313 Y30.1672
G01 X56.9390 Y30.1653
G01 X56.9494 Y30.1638
G01 X56.9600 Y30.1633
G00 Z2.0000
G00 X56.9600 Y29.2133
G01 F60.00
G01 Z-0.1000
G01 F120.00
G01 X58.0600 Y29.2133
G01 X58.0732 Y29.2141
G01 X58.0862 Y29.2165
G01 X58.0963 Y29.2196
G01 X58.1084 Y29.2248
G01 X58.1176 Y29.2300
G01 X58.1284 Y29.2377
G01 X58.1362 Y29.2448
G01 X58.1449 Y29.2547
G01 X58.1510 Y29.2634
G01 X58.1562 Y29.2726
G01 X58.1605 Y29.2823
G01 X58.1638 Y29.2923
G01 X58.1662 Y29.3026
G01 X58.1672 Y29.3105
G01 X58.1677 Y29.3184
G01 X58.1677 Y29.3632
G01 X59.8282 Y29.3632
G01 X59.8283 Y29.3498
G01 X59.8290 Y29.3419
G01 X59.8308 Y29.3314
G01 X59.8336 Y29.3212
G01 X59.8374 Y29.3114
G01 X59.8421 Y29.3019
G01 X59.8478 Y29.2930
G01 X59.8543 Y29.2847
G01 X59.8616 Y29.2770
G01 X59.8696 Y29.2701
G01 X59.8760 Y29.2654
G01 X59.8851 Y29.2600
G01 X59.8947 Y29.2555
G01 X59.9046 Y29.2519
G01 X59.9149 Y29.2494
G01 X59.9253 Y29.2478
G01 X59.9359 Y29.2473
G01 X61.0079 Y29.2473
G01 X61.0185 Y29.2478
G01 X61.0263 Y29.2489
G01 X61.0341 Y29.2505
G01 X61.0417 Y29.2527
G01 X61.0491 Y29.2555
G01 X61.0587 Y29.2600
G01 X61.0655 Y29.2640
G01 X61.0742 Y29.2701
G01 X61.0803 Y29.2752
G01 X61.0859 Y29.2807
G01 X61.0912 Y29.2867
G01 X61.0975 Y29.2952
G01 X61.1017 Y29.3019
G01 X61.1053 Y29.3090
G01 X61.1084 Y29.3163
G01 X61.1110 Y29.3238
G01 X61.1130 Y29.3314
G01 X61.1148 Y29.3419
G01 X61.1156 Y29.3550
G01 X61.1156 Y29.8870
G01 X61.1154 Y29.8950
G01 X61.1141 Y29.9055
G01 X61.1124 Y29.9132
G01 X61.1094 Y29.9233
G01 X61.1053 Y29.9331
G01 X61.1017 Y29.9401
G01 X61.0975 Y29.9469
G01 X61.0928 Y29.9533
G01 X61.0859 Y29.9613
G01 X61.0803 Y29.9669
G01 X61.0721 Y29.9736
G01 X61.0655 Y29.9781
G01 X61.0587 Y29.9821
G01 X61.0516 Y29.9855
G01 X61.0442 Y29.9885
G01 X61.0341 Y29.9916
G01 X61.0263 Y29.9932
G01 X61.0158 Y29.9945
G01 X61.0079 Y29.9948
G01 X59.9359 Y29.9948
G01 X59.9253 Y29.9943
G01 X59.9149 Y29.9927
G01 X59.9046 Y29.9902
G01 X59.8947 Y29.9866
G01 X59.8851 Y29.9821
G01 X59.8760 Y29.9766
G01 X59.8655 Y29.9686
G01 X59.8579 Y29.9613
G01 X59.8510 Y29.9533
G01 X59.8435 Y29.9424
G01 X59.8385 Y29.9331
G01 X59.8344 Y29.9233
G01 X59.8314 Y29.9132
G01 X59.8293 Y29.9029
G01 X59.8283 Y29.8923
G01 X59.8282 Y29.8789
G01 X58.1677 Y29.8789
G01 X58.1677 Y29.9237
G01 X58.1672 Y29.9316
G01 X58.1662 Y29.9395
G01 X58.1638 Y29.9498
G01 X58.1605 Y29.9598
G01 X58.1562 Y29.9695
G01 X58.1510 Y29.9787
G01 X58.1433 Y29.9894
G01 X58.1362 Y29.9972
G01 X58.1263 Y30.0060
G01 X58.1176 Y30.0121
G01 X58.1084 Y30.0173
G01 X58.0963 Y30.0225
G01 X58.0836 Y30.0262
G01 X58.0732 Y30.0280
G01 X58.0600 Y30.0288
G01 X56.9600 Y30.0288
G01 X56.9521 Y30.0285
G01 X56.9416 Y30.0272
G01 X56.9313 Y30.0249
G01 X56.9237 Y30.0225
G01 X56.9163 Y30.0195
G01 X56.9092 Y30.0161
G01 X56.9024 Y30.0121
G01 X56.8937 Y30.0060
G01 X56.8876 Y30.0009
G01 X56.8820 Y29.9953
G01 X56.8767 Y29.9894
G01 X56.8704 Y29.9809
G01 X56.8662 Y29.9741
G01 X56.8626 Y29.9671
G01 X56.8585 Y29.9573
G01 X56.8562 Y29.9498
G01 X56.8543 Y29.9421
G01 X56.8531 Y29.9342
G01 X56.8523 Y29.9210
G01 X56.8523 Y29.3184
G01 X56.8531 Y29.3079
G01 X56.8549 Y29.2974
G01 X56.8577 Y29.2872
G01 X56.8615 Y29.2774
G01 X56.8662 Y29.2679
G01 X56.8719 Y29.2590
G01 X56.8784 Y29.2507
G01 X56.8857 Y29.2430
G01 X56.8937 Y29.2361
G01 X56.9024 Y29.2300
G01 X56.9116 Y29.2248
G01 X56.9212 Y29.2205
G01 X56.9313 Y29.2172
G01 X56.9390 Y29.2154
G01 X56.9494 Y29.2138
G01 X56.9600 Y29.2133
G00 Z2.0000
G00 X58.3911 Y29.9227
G01 F60.00
G01 Z-0.1000
G01 F120.00
G01 X59.6270 Y29.9229
G01 X59.6405 Y29.9244
G01 X59.6853 Y29.9336
G01 X59.6955 Y29.9362
G01 X59.7055 Y29.9398
G01 X59.7150 Y29.9444
G01 X59.7240 Y29.9499
G01 X59.7629 Y29.9788
G01 X59.7690 Y29.9838
G01 X59.7748 Y29.9892
G01 X59.7801 Y29.9950
G01 X59.7850 Y30.0012
G01 X59.7895 Y30.0078
G01 X59.8143 Y30.0517
G01 X59.8197 Y30.0637
G01 X59.8236 Y30.0763
G01 X59.8260 Y30.0893
G01 X59.8298 Y30.1431
G01 X59.8295 Y30.1540
G01 X59.8285 Y30.1620
G01 X59.8270 Y30.1700
G01 X59.8248 Y30.1778
G01 X59.7896 Y30.2727
G01 X59.7846 Y30.3165
G01 X59.7846 Y30.8255
G01 X59.7897 Y30.8700
G01 X59.8042 Y30.9116
G01 X59.8221 Y30.9560
G01 X59.8248 Y30.9637
G01 X59.8276 Y30.9741
G01 X59.8289 Y30.9822
G01 X59.8297 Y30.9903
G01 X59.8297 Y31.0011
G01 X59.8260 Y31.0522
G01 X59.8243 Y31.0624
G01 X59.8207 Y31.0750
G01 X59.8179 Y31.0822
G01 X59.8145 Y31.0893
G01 X59.7925 Y31.1292
G01 X59.7871 Y31.1380
G01 X59.7791 Y31.1481
G01 X59.7701 Y31.1573
G01 X59.7620 Y31.1638
G01 X59.7253 Y31.1907
G01 X59.7186 Y31.1951
G01 X59.7092 Y31.2000
G01 X59.6993 Y31.2040
G01 X59.6865 Y31.2077
G01 X59.6393 Y31.2178
G01 X59.6292 Y31.2190
G01 X59.6215 Y31.2193
G01 X58.3858 Y31.2191
G01 X58.3753 Y31.2181
G01 X58.3320 Y31.2106
G01 X58.3218 Y31.2080
G01 X58.3119 Y31.2045
G01 X58.3023 Y31.2000
G01 X58.2933 Y31.1946
G01 X58.2591 Y31.1718
G01 X58.2488 Y31.1636
G01 X58.2396 Y31.1542
G01 X58.2332 Y31.1459
G01 X58.2093 Y31.1122
G01 X58.2050 Y31.1053
G01 X58.2012 Y31.0980
G01 X58.1971 Y31.0880
G01 X58.1940 Y31.0776
G01 X58.1843 Y31.0375
G01 X58.1829 Y31.0298
G01 X58.1820 Y31.0221
G01 X58.1818 Y31.0143
G01 X58.1823 Y31.0040
G01 X58.1889 Y30.9582
G01 X58.1905 Y30.9508
G01 X58.1925 Y30.9434
G01 X58.2062 Y30.9041
G01 X58.2113 Y30.8595
G01 X58.2113 Y30.2824
G01 X58.2062 Y30.2374
G01 X58.1925 Y30.1981
G01 X58.1905 Y30.1907
G01 X58.1889 Y30.1833
G01 X58.1823 Y30.1375
G01 X58.1818 Y30.1244
G01 X58.1826 Y30.1140
G01 X58.1843 Y30.1037
G01 X58.1947 Y30.0616
G01 X58.1980 Y30.0515
G01 X58.2022 Y30.0419
G01 X58.2088 Y30.0304
G01 X58.2342 Y29.9941
G01 X58.2409 Y29.9859
G01 X58.2483 Y29.9784
G01 X58.2543 Y29.9733
G01 X58.2607 Y29.9686
G01 X58.2954 Y29.9464
G01 X58.3047 Y29.9411
G01 X58.3144 Y29.9367
G01 X58.3245 Y29.9333
G01 X58.3349 Y29.9310
G01 X58.3751 Y29.9239
G01 X58.3831 Y29.9230
G01 X58.3911 Y29.9227
G00 Z2.0000
G00 X55.2563 Y29.1695
G01 F60.00
G01 Z-0.1000
G01 F120.00
G01 X55.3482 Y29.1695
G01 X55.3926 Y29.1745
G01 X55.4252 Y29.1862
G01 X55.4537 Y29.2038
G01 X55.4772 Y29.2273
G01 X55.4948 Y29.2554
G01 X55.5061 Y29.2880
G01 X55.5074 Y29.2994
G01 X55.4655 Y29.2994
G01 X55.4638 Y29.2923
G01 X55.4614 Y29.2847
G01 X55.4562 Y29.2726
G01 X55.4496 Y29.2612
G01 X55.4449 Y29.2547
G01 X55.4398 Y29.2487
G01 X55.4304 Y29.2395
G01 X55.4199 Y29.2314
G01 X55.4131 Y29.2273
G01 X55.4061 Y29.2236
G01 X55.3938 Y29.2187
G01 X55.3810 Y29.2154
G01 X55.3732 Y29.2141
G01 X55.3653 Y29.2134
G01 X55.2563 Y29.2133
G01 X55.2563 Y29.1695
G00 Z2.0000
G00 X54.1544 Y29.2994
G01 F60.00
G01 Z-0.1000
G01 F120.00
G01 X54.1577 Y29.2872
G01 X54.1626 Y29.2750
G01 X54.1690 Y29.2634
G01 X54.1767 Y29.2527
G01 X54.1857 Y29.2430
G01 X54.1958 Y29.2345
G01 X54.2069 Y29.2273
G01 X54.2188 Y29.2215
G01 X54.2262 Y29.2187
G01 X54.2364 Y29.2159
G01 X54.2468 Y29.2141
G01 X54.2547 Y29.2134
G01 X54.3637 Y29.2133
G01 X54.3637 Y29.1695
G01 X54.2717 Y29.1695
G01 X54.2264 Y29.1746
G01 X54.1807 Y29.1907
G01 X54.1707 Y29.1938
G01 X54.1604 Y29.1958
G01 X54.1223 Y29.2014
G01 X54.1117 Y29.2024
G01 X54.0985 Y29.2022
G01 X54.0854 Y29.2004
G01 X54.0421 Y29.1895
G01 X54.0298 Y29.1857
G01 X54.0204 Y29.1815
G01 X54.0115 Y29.1765
G01 X53.9714 Y29.1487
G01 X53.9633 Y29.1418
G01 X53.9577 Y29.1361
G01 X53.9525 Y29.1300
G01 X53.9478 Y29.1236
G01 X53.9233 Y29.0833
G01 X53.9186 Y29.0741
G01 X53.9148 Y29.0645
G01 X53.9113 Y29.0520
G01 X53.9037 Y29.0114
G01 X53.9023 Y29.0008
G01 X53.9019 Y28.9928
G01 X53.9650 Y24.3061
G01 X53.9664 Y24.2921
G01 X53.9746 Y24.2512
G01 X53.9772 Y24.2408
G01 X53.9798 Y24.2332
G01 X53.9842 Y24.2234
G01 X53.9895 Y24.2141
G01 X54.0165 Y24.1745
G01 X54.0217 Y24.1682
G01 X54.0292 Y24.1604
G01 X54.0353 Y24.1551
G01 X54.0419 Y24.1503
G01 X54.0839 Y24.1234
G01 X54.0957 Y24.1179
G01 X54.1055 Y24.1145
G01 X54.1537 Y24.1040
G01 X54.1637 Y24.1026
G01 X54.1737 Y24.1021
G01 X59.6093 Y24.1021
G01 X59.6203 Y24.1026
G01 X59.6285 Y24.1038
G01 X59.6729 Y24.1130
G01 X59.6829 Y24.1159
G01 X59.6950 Y24.1208
G01 X59.7041 Y24.1257
G01 X59.7433 Y24.1519
G01 X59.7497 Y24.1568
G01 X59.7557 Y24.1622
G01 X59.7614 Y24.1681
G01 X59.7682 Y24.1765
G01 X59.7949 Y24.2156
G01 X59.7988 Y24.2224
G01 X59.8031 Y24.2318
G01 X59.8058 Y24.2391
G01 X59.8085 Y24.2492
G01 X59.8171 Y24.2934
G01 X59.8184 Y24.3037
G01 X59.8187 Y24.3114
G01 X59.8187 Y25.9733
G01 X59.8268 Y26.0249
G01 X59.8413 Y26.0571
G01 X59.8557 Y26.0770
G01 X59.8730 Y26.0937
G01 X59.9061 Y26.1167
G01 X59.9371 Y26.1284
G01 X59.9828 Y26.1341
G01 X63.1354 Y26.1341
G01 X63.1875 Y26.1263
G01 X63.2186 Y26.1123
G01 X63.2385 Y26.0974
G01 X63.2563 Y26.0794
G01 X63.2790 Y26.0466
G01 X63.2906 Y26.0156
G01 X63.2963 Y25.9704
G01 X63.2963 Y24.3114
G01 X63.2966 Y24.3037
G01 X63.2974 Y24.2960
G01 X63.3070 Y24.2467
G01 X63.3100 Y24.2367
G01 X63.3139 Y24.2270
G01 X63.3174 Y24.2201
G01 X63.3215 Y24.2134
G01 X63.3453 Y24.1787
G01 X63.3501 Y24.1722
G01 X63.3573 Y24.1642
G01 X63.3653 Y24.1568
G01 X63.3717 Y24.1519
G01 X63.4087 Y24.1271
G01 X63.4200 Y24.1208
G01 X63.4296 Y24.1167
G01 X63.4396 Y24.1136
G01 X63.4865 Y24.1038
G01 X63.4974 Y24.1024
G01 X63.5057 Y24.1021
G01 X71.5610 Y24.1021
G01 X71.5693 Y24.1024
G01 X71.5802 Y24.1038
G01 X71.6247 Y24.1131
G01 X71.6378 Y24.1170
G01 X71.6453 Y24.1201
G01 X71.6550 Y24.1252
G01 X71.6970 Y24.1530
G01 X71.7032 Y24.1579
G01 X71.7091 Y24.1633
G01 X71.7145 Y24.1692
G01 X71.7195 Y24.1754
G01 X71.7459 Y24.2145
G01 X71.7524 Y24.2262
G01 X71.7574 Y24.2387
G01 X71.7602 Y24.2491
G01 X71.7689 Y24.2934
G01 X71.7703 Y24.3063
G01 X71.7703 Y24.3166
G01 X71.7689 Y24.3295
G01 X71.7602 Y24.3737
G01 X71.7582 Y24.3814
G01 X71.7557 Y24.3889
G01 X71.7515 Y24.3986
G01 X71.7463 Y24.4078
G01 X71.7215 Y24.4452
G01 X71.7149 Y24.4538
G01 X71.7094 Y24.4598
G01 X69.2654 Y26.9032
G01 X69.2524 Y26.9181
G01 X69.2324 Y26.9496
G01 X69.2213 Y26.9811
G01 X69.2167 Y27.0234
G01 X69.2167 Y28.0086
G01 X69.2162 Y28.0189
G01 X69.2147 Y28.0290
G01 X69.2065 Y28.0713
G01 X69.2034 Y28.0817
G01 X69.1993 Y28.0917
G01 X69.1928 Y28.1035
G01 X69.1682 Y28.1417
G01 X69.1602 Y28.1513
G01 X69.1236 Y28.1905
G01 X69.1055 Y28.2193
G01 X69.0942 Y28.2514
G01 X69.0904 Y28.2846
G01 X69.0942 Y28.3181
G01 X69.1054 Y28.3499
G01 X69.1238 Y28.3788
G01 X69.1474 Y28.4030
G01 X69.1751 Y28.4202
G01 X69.2072 Y28.4312
G01 X69.2499 Y28.4358
G01 X76.1248 Y28.4360
G01 X76.1385 Y28.4376
G01 X76.1803 Y28.4462
G01 X76.1904 Y28.4488
G01 X76.1978 Y28.4514
G01 X76.2050 Y28.4545
G01 X76.2141 Y28.4595
G01 X76.2532 Y28.4856
G01 X76.2593 Y28.4903
G01 X76.2670 Y28.4972
G01 X76.2723 Y28.5029
G01 X76.2772 Y28.5089
G01 X76.3054 Y28.5507
G01 X76.3106 Y28.5602
G01 X76.3138 Y28.5676
G01 X76.3164 Y28.5752
G01 X76.3185 Y28.5831
G01 X76.3266 Y28.6243
G01 X76.3282 Y28.6347
G01 X76.3287 Y28.6452
G01 X76.3287 Y28.6889
G01 X76.3284 Y28.6964
G01 X76.3276 Y28.7039
G01 X76.3171 Y28.7545
G01 X76.3142 Y28.7645
G01 X76.3114 Y28.7718
G01 X76.3068 Y28.7812
G01 X76.3028 Y28.7879
G01 X76.2755 Y28.8263
G01 X76.2690 Y28.8344
G01 X76.2637 Y28.8401
G01 X76.2559 Y28.8471
G01 X76.2497 Y28.8518
G01 X76.2066 Y28.8779
G01 X76.1948 Y28.8840
G01 X76.1825 Y28.8885
G01 X76.1696 Y28.8916
G01 X76.1227 Y28.8974
G01 X76.1124 Y28.8982
G01 X76.1020 Y28.8979
G01 X76.0829 Y28.8958
G01 X69.5039 Y29.0220
G01 X69.4586 Y29.0282
G01 X69.4274 Y29.0396
G01 X69.3993 Y29.0586
G01 X69.3756 Y29.0828
G01 X69.3586 Y29.1110
G01 X69.3480 Y29.1445
G01 X69.3437 Y29.1848
G01 X69.3437 Y34.9088
G01 X69.3434 Y34.9166
G01 X69.3421 Y34.9269
G01 X69.3341 Y34.9685
G01 X69.3315 Y34.9791
G01 X69.3278 Y34.9893
G01 X69.3244 Y34.9967
G01 X69.3190 Y35.0061
G01 X69.2936 Y35.0436
G01 X69.2852 Y35.0540
G01 X69.2775 Y35.0615
G01 X69.2670 Y35.0697
G01 X69.2322 Y35.0936
G01 X69.2254 Y35.0977
G01 X69.2157 Y35.1024
G01 X69.2057 Y35.1061
G01 X69.1954 Y35.1088
G01 X69.1509 Y35.1169
G01 X69.1371 Y35.1181
G01 X64.8920 Y35.1182
G01 X64.8843 Y35.1179
G01 X64.8553 Y35.1151
G01 X64.8423 Y35.1131
G01 X64.8347 Y35.1111
G01 X64.8248 Y35.1076
G01 X64.7954 Y35.0947
G01 X64.7877 Y35.0908
G01 X64.1616 Y34.7328
G01 X64.1505 Y34.7251
G01 X64.1170 Y34.6971
G01 X64.1079 Y34.6876
G01 X64.1031 Y34.6814
G01 X64.0986 Y34.6749
G01 X64.0782 Y34.6405
G01 X64.0735 Y34.6311
G01 X64.0706 Y34.6237
G01 X64.0682 Y34.6162
G01 X64.0660 Y34.6059
G01 X64.0595 Y34.5678
G01 X64.0585 Y34.5574
G01 X64.0583 Y33.8846
G01 X64.0533 Y33.8394
G01 X64.0420 Y33.8076
G01 X64.0243 Y33.7791
G01 X64.0008 Y33.7559
G01 X63.9726 Y33.7383
G01 X63.9398 Y33.7270
G01 X63.8945 Y33.7212
G01 X63.4115 Y33.7212
G01 X63.3662 Y33.7270
G01 X63.3334 Y33.7383
G01 X63.3055 Y33.7557
G01 X63.2823 Y33.7788
G01 X63.2721 Y33.7874
G01 X63.2357 Y33.8118
G01 X63.2243 Y33.8184
G01 X63.2243 Y34.0181
G01 X63.2308 Y34.0325
G01 X63.2386 Y34.0543
G01 X63.2457 Y34.0818
G01 X63.2472 Y34.0896
G01 X63.2505 Y34.1125
G01 X63.2519 Y34.1409
G01 X63.2518 Y35.4416
G01 X63.2505 Y35.4673
G01 X63.2472 Y35.4903
G01 X63.2457 Y35.4981
G01 X63.2386 Y35.5256
G01 X63.2308 Y35.5474
G01 X63.2243 Y35.5618
G01 X63.2243 Y35.6991
G01 X63.2314 Y35.7091
G01 X63.2355 Y35.7158
G01 X63.2402 Y35.7253
G01 X63.2439 Y35.7351
G01 X63.2467 Y35.7453
G01 X63.2558 Y35.7869
G01 X63.2578 Y35.7997
G01 X63.2583 Y35.8100
G01 X63.2583 Y36.0633
G01 X63.5370 Y36.0633
G01 X63.5449 Y36.0635
G01 X63.5528 Y36.0644
G01 X63.5606 Y36.0659
G01 X63.5683 Y36.0679
G01 X63.5758 Y36.0705
G01 X63.5854 Y36.0748
G01 X63.5924 Y36.0786
G01 X63.5990 Y36.0829
G01 X63.6054 Y36.0877
G01 X63.6113 Y36.0930
G01 X63.6186 Y36.1006
G01 X63.6251 Y36.1090
G01 X63.6308 Y36.1179
G01 X63.6355 Y36.1273
G01 X63.6393 Y36.1372
G01 X63.6415 Y36.1448
G01 X63.6436 Y36.1552
G01 X63.6445 Y36.1631
G01 X63.6447 Y36.1710
G01 X63.6447 Y36.3743
G01 X63.6885 Y36.3743
G01 X63.6885 Y36.3459
G01 X63.6890 Y36.3380
G01 X63.6901 Y36.3302
G01 X63.7013 Y36.2793
G01 X63.7044 Y36.2692
G01 X63.7073 Y36.2619
G01 X63.7119 Y36.2526
G01 X63.7175 Y36.2437
G01 X63.7496 Y36.2019
G01 X63.7547 Y36.1961
G01 X63.7602 Y36.1906
G01 X63.7702 Y36.1824
G01 X63.7766 Y36.1781
G01 X63.7833 Y36.1743
G01 X63.8282 Y36.1522
G01 X63.8407 Y36.1473
G01 X63.8536 Y36.1440
G01 X63.8616 Y36.1429
G01 X63.8696 Y36.1423
G01 X63.9223 Y36.1418
G01 X63.9303 Y36.1424
G01 X63.9383 Y36.1436
G01 X63.9462 Y36.1454
G01 X63.9539 Y36.1478
G01 X63.9614 Y36.1507
G01 X64.0045 Y36.1696
G01 X64.0143 Y36.1748
G01 X64.0212 Y36.1794
G01 X64.8230 Y36.7810
G01 X64.8618 Y36.8040
G01 X64.8949 Y36.8143
G01 X64.9331 Y36.8178
G01 X70.2850 Y36.8179
G01 X70.2954 Y36.8186
G01 X70.3032 Y36.8199
G01 X70.3393 Y36.8270
G01 X70.3493 Y36.8297
G01 X70.3566 Y36.8324
G01 X70.3637 Y36.8356
G01 X70.4028 Y36.8565
G01 X70.4135 Y36.8641
G01 X70.4195 Y36.8692
G01 X70.4250 Y36.8748
G01 X70.4526 Y36.9063
G01 X70.4574 Y36.9128
G01 X70.4665 Y36.9269
G01 X70.4905 Y36.9512
G01 X70.5188 Y36.9690
G01 X70.5501 Y36.9799
G01 X70.5958 Y36.9850
G01 X71.0165 Y36.9850
G01 X71.0269 Y36.9855
G01 X71.0373 Y36.9870
G01 X71.0785 Y36.9952
G01 X71.0860 Y36.9971
G01 X71.0958 Y37.0006
G01 X71.1053 Y37.0050
G01 X71.1142 Y37.0103
G01 X71.1536 Y37.0377
G01 X71.1597 Y37.0426
G01 X71.1671 Y37.0499
G01 X71.1722 Y37.0559
G01 X71.1769 Y37.0621
G01 X71.2034 Y37.1012
G01 X71.2092 Y37.1127
G01 X71.2137 Y37.1248
G01 X71.2161 Y37.1348
G01 X71.2238 Y37.1734
G01 X71.2255 Y37.1864
G01 X71.2258 Y37.1943
G01 X71.2258 Y37.2918
G01 X71.2324 Y37.3606
G01 X71.2496 Y37.4166
G01 X71.2772 Y37.4689
G01 X71.3213 Y37.5220
G01 X71.7160 Y37.9172
G01 X71.7227 Y37.9246
G01 X71.7288 Y37.9326
G01 X71.7535 Y37.9690
G01 X71.7596 Y37.9806
G01 X71.7635 Y37.9903
G01 X71.7670 Y38.0029
G01 X71.7765 Y38.0489
G01 X71.7774 Y38.0595
G01 X71.7774 Y38.0674
G01 X71.7768 Y38.0754
G01 X71.7756 Y38.0836
G01 X71.7852 Y38.0822
G01 X71.7929 Y38.0818
G01 X71.8006 Y38.0818
G01 X71.8109 Y38.0828
G01 X71.8561 Y38.0923
G01 X71.8688 Y38.0959
G01 X71.8786 Y38.0998
G01 X71.8902 Y38.1061
G01 X71.9272 Y38.1304
G01 X71.9380 Y38.1389
G01 X72.5631 Y38.7639
G01 X72.5684 Y38.7699
G01 X72.5732 Y38.7762
G01 X72.5999 Y38.8165
G01 X72.6038 Y38.8235
G01 X72.6071 Y38.8307
G01 X72.6098 Y38.8382
G01 X72.6120 Y38.8459
G01 X72.6213 Y38.8928
G01 X72.6225 Y38.9031
G01 X72.6228 Y38.9108
G01 X72.6228 Y42.8052
G01 X72.6223 Y42.8155
G01 X72.6208 Y42.8258
G01 X72.6126 Y42.8675
G01 X72.6106 Y42.8752
G01 X72.6081 Y42.8828
G01 X72.6038 Y42.8925
G01 X72.5985 Y42.9018
G01 X72.5717 Y42.9419
G01 X72.5667 Y42.9482
G01 X72.5613 Y42.9540
G01 X70.3205 Y45.1943
G01 X70.3125 Y45.2015
G01 X70.3038 Y45.2079
G01 X70.2685 Y45.2313
G01 X70.2566 Y45.2377
G01 X70.2440 Y45.2426
G01 X70.2335 Y45.2454
G01 X70.1921 Y45.2540
G01 X70.1810 Y45.2555
G01 X70.1727 Y45.2558
G01 X67.8501 Y45.2558
G01 X67.8418 Y45.2555
G01 X67.8309 Y45.2541
G01 X67.7864 Y45.2448
G01 X67.7733 Y45.2409
G01 X67.7633 Y45.2366
G01 X67.7538 Y45.2313
G01 X67.7185 Y45.2079
G01 X67.7120 Y45.2033
G01 X67.7040 Y45.1964
G01 X67.6984 Y45.1907
G01 X67.6916 Y45.1825
G01 X67.6667 Y45.1457
G01 X67.6624 Y45.1388
G01 X67.6587 Y45.1317
G01 X67.6546 Y45.1217
G01 X67.6522 Y45.1140
G01 X67.6503 Y45.1062
G01 X67.6427 Y45.0671
G01 X67.6410 Y45.0542
G01 X67.6407 Y45.0465
G01 X67.6408 Y44.0004
G01 X67.6412 Y43.9927
G01 X67.6423 Y43.9850
G01 X67.6509 Y43.9407
G01 X67.6529 Y43.9331
G01 X67.6554 Y43.9256
G01 X67.6609 Y43.9135
G01 X67.6663 Y43.9044
G01 X67.6896 Y43.8692
G01 X67.6945 Y43.8627
G01 X67.6999 Y43.8566
G01 X68.2738 Y43.2827
G01 X68.2818 Y43.2754
G01 X68.2905 Y43.2690
G01 X68.3258 Y43.2457
G01 X68.3326 Y43.2418
G01 X68.3422 Y43.2373
G01 X68.3521 Y43.2338
G01 X68.3624 Y43.2313
G01 X68.4040 Y43.2232
G01 X68.4118 Y43.2222
G01 X68.4195 Y43.2217
G01 X69.3035 Y43.2217
G01 X69.3483 Y43.2166
G01 X69.3808 Y43.2052
G01 X69.4087 Y43.1880
G01 X69.4323 Y43.1641
G01 X69.4501 Y43.1356
G01 X69.4614 Y43.1035
G01 X69.4665 Y43.0587
G01 X69.4665 Y42.0310
G01 X69.4668 Y42.0232
G01 X69.4680 Y42.0129
G01 X69.4766 Y41.9687
G01 X69.4793 Y41.9587
G01 X69.4830 Y41.9490
G01 X69.4864 Y41.9419
G01 X69.4916 Y41.9329
G01 X69.5154 Y41.8983
G01 X69.5219 Y41.8898
G01 X69.5293 Y41.8819
G01 X69.5353 Y41.8766
G01 X69.5416 Y41.8716
G01 X69.5835 Y41.8436
G01 X69.5904 Y41.8399
G01 X69.6001 Y41.8359
G01 X69.6075 Y41.8334
G01 X69.6177 Y41.8310
G01 X69.6615 Y41.8231
G01 X69.6718 Y41.8222
G01 X69.6822 Y41.8223
G01 X69.6925 Y41.8234
G01 X69.7368 Y41.8315
G01 X69.7470 Y41.8341
G01 X69.7593 Y41.8388
G01 X69.7664 Y41.8423
G01 X69.7732 Y41.8463
G01 X69.8084 Y41.8701
G01 X69.8167 Y41.8763
G01 X69.8243 Y41.8833
G01 X69.9739 Y42.0336
G01 X69.9810 Y42.0423
G01 X70.0064 Y42.0793
G01 X70.0116 Y42.0882
G01 X70.0150 Y42.0953
G01 X70.0186 Y42.1050
G01 X70.0214 Y42.1150
G01 X70.0300 Y42.1592
G01 X70.0310 Y42.1669
G01 X70.0315 Y42.1747
G01 X70.0315 Y43.0587
G01 X70.0366 Y43.1035
G01 X70.0478 Y43.1356
G01 X70.0657 Y43.1641
G01 X70.0893 Y43.1880
G01 X70.1172 Y43.2052
G01 X70.1497 Y43.2166
G01 X70.1945 Y43.2217
G01 X71.3035 Y43.2217
G01 X71.3487 Y43.2166
G01 X71.3807 Y43.2053
G01 X71.4087 Y43.1880
G01 X71.4326 Y43.1639
G01 X71.4505 Y43.1356
G01 X71.4614 Y43.1040
G01 X71.4665 Y43.0587
G01 X71.4665 Y41.7049
G01 X71.4614 Y41.6599
G01 X71.4505 Y41.6278
G01 X71.4328 Y41.5999
G01 X71.4090 Y41.5761
G01 X71.3807 Y41.5587
G01 X71.3483 Y41.5472
G01 X71.3031 Y41.5418
G01 X70.4193 Y41.5418
G01 X70.4056 Y41.5405
G01 X70.3611 Y41.5325
G01 X70.3484 Y41.5290
G01 X70.3362 Y41.5240
G01 X70.3248 Y41.5176
G01 X70.2895 Y41.4938
G01 X70.2813 Y41.4877
G01 X70.2738 Y41.4808
G01 X69.4455 Y40.6526
G01 X69.3914 Y40.6084
G01 X69.3395 Y40.5800
G01 X69.2838 Y40.5634
G01 X69.2150 Y40.5568
G01 X66.2032 Y40.5558
G01 X66.1343 Y40.5624
G01 X66.0782 Y40.5795
G01 X66.0265 Y40.6074
G01 X65.9730 Y40.6517
G01 X65.2339 Y41.3909
G01 X65.2262 Y41.3979
G01 X65.2157 Y41.4055
G01 X65.1745 Y41.4317
G01 X65.1624 Y41.4376
G01 X65.1496 Y41.4420
G01 X65.1363 Y41.4447
G01 X65.0858 Y41.4516
G01 X65.0754 Y41.4519
G01 X65.0675 Y41.4513
G01 X65.0572 Y41.4498
G01 X65.0495 Y41.4479
G01 X65.0028 Y41.4337
G01 X64.9928 Y41.4298
G01 X64.9856 Y41.4263
G01 X64.9787 Y41.4222
G01 X64.9700 Y41.4160
G01 X64.9313 Y41.3823
G01 X64.9256 Y41.3766
G01 X64.9203 Y41.3705
G01 X64.9140 Y41.3618
G01 X64.9098 Y41.3548
G01 X64.9062 Y41.3476
G01 X64.8884 Y41.3085
G01 X64.8844 Y41.2984
G01 X64.8821 Y41.2907
G01 X64.8804 Y41.2827
G01 X64.8789 Y41.2693
G01 X64.8788 Y41.2212
G01 X64.8792 Y41.2112
G01 X64.8811 Y41.1987
G01 X64.9040 Y41.0916
G01 X64.9120 Y40.9845
G01 X64.9040 Y40.8781
G01 X64.8813 Y40.7735
G01 X64.8440 Y40.6727
G01 X64.7925 Y40.5785
G01 X64.7286 Y40.4929
G01 X64.6527 Y40.4174
G01 X64.5669 Y40.3530
G01 X64.4729 Y40.3020
G01 X64.3722 Y40.2646
G01 X64.2679 Y40.2415
G01 X64.1610 Y40.2340
G01 X64.0533 Y40.2416
G01 X64.0430 Y40.2418
G01 X64.0328 Y40.2411
G01 X63.9947 Y40.2365
G01 X63.9868 Y40.2352
G01 X63.9790 Y40.2334
G01 X63.9688 Y40.2300
G01 X63.9590 Y40.2257
G01 X63.9202 Y40.2049
G01 X63.9134 Y40.2007
G01 X63.9070 Y40.1960
G01 X63.8990 Y40.1890
G01 X63.8916 Y40.1813
G01 X63.8639 Y40.1471
G01 X63.8592 Y40.1406
G01 X63.8550 Y40.1337
G01 X63.8503 Y40.1241
G01 X63.8465 Y40.1140
G01 X63.8341 Y40.0750
G01 X63.8321 Y40.0674
G01 X63.8308 Y40.0597
G01 X63.8298 Y40.0493
G01 X63.8299 Y40.0388
G01 X63.8331 Y39.9976
G01 X63.8345 Y39.9870
G01 X63.8377 Y39.9740
G01 X63.8414 Y39.9639
G01 X63.8616 Y39.9221
G01 X63.8655 Y39.9150
G01 X63.8700 Y39.9083
G01 X63.8947 Y39.8759
G01 X63.9219 Y39.8208
G01 X63.9388 Y39.7615
G01 X63.9456 Y39.6911
G01 X63.9456 Y39.5905
G01 X63.9458 Y39.5828
G01 X63.9471 Y39.5725
G01 X63.9552 Y39.5308
G01 X63.9570 Y39.5231
G01 X63.9593 Y39.5156
G01 X63.9633 Y39.5058
G01 X63.9682 Y39.4965
G01 X63.9959 Y39.4547
G01 X64.0007 Y39.4485
G01 X64.0079 Y39.4409
G01 X64.0137 Y39.4357
G01 X64.0200 Y39.4308
G01 X64.0595 Y39.4052
G01 X64.0688 Y39.4001
G01 X64.0761 Y39.3969
G01 X64.0862 Y39.3935
G01 X64.0939 Y39.3916
G01 X64.1357 Y39.3829
G01 X64.1466 Y39.3815
G01 X64.1549 Y39.3812
G01 X65.6342 Y39.3812
G01 X65.6472 Y39.3820
G01 X65.6906 Y39.3893
G01 X65.6985 Y39.3912
G01 X65.7087 Y39.3946
G01 X65.7186 Y39.3990
G01 X65.7257 Y39.4029
G01 X65.7589 Y39.4232
G01 X65.7699 Y39.4312
G01 X65.7779 Y39.4386
G01 X65.7851 Y39.4468
G01 X65.8792 Y39.5713
G01 X65.9553 Y39.6470
G01 X66.0410 Y39.7114
G01 X66.1352 Y39.7625
G01 X66.2357 Y39.8003
G01 X66.3399 Y39.8229
G01 X66.4470 Y39.8305
G01 X66.5541 Y39.8229
G01 X66.6582 Y39.8003
G01 X66.7587 Y39.7625
G01 X66.8529 Y39.7114
G01 X66.9387 Y39.6470
G01 X67.0148 Y39.5713
G01 X67.1073 Y39.4489
G01 X67.1142 Y39.4406
G01 X67.1200 Y39.4348
G01 X67.1284 Y39.4278
G01 X67.1374 Y39.4217
G01 X67.1707 Y39.4015
G01 X67.1803 Y39.3966
G01 X67.1878 Y39.3936
G01 X67.1955 Y39.3912
G01 X67.2061 Y39.3888
G01 X67.2442 Y39.3823
G01 X67.2572 Y39.3812
G01 X67.6891 Y39.3813
G01 X67.7029 Y39.3830
G01 X67.7519 Y39.3935
G01 X67.7594 Y39.3960
G01 X67.7667 Y39.3990
G01 X67.7738 Y39.4025
G01 X67.7806 Y39.4066
G01 X67.8179 Y39.4308
G01 X67.8261 Y39.4374
G01 X67.8318 Y39.4427
G01 X67.8388 Y39.4505
G01 X67.8435 Y39.4568
G01 X67.8683 Y39.4943
G01 X67.8748 Y39.5062
G01 X67.8779 Y39.5138
G01 X67.8805 Y39.5216
G01 X67.8824 Y39.5295
G01 X67.8906 Y39.5686
G01 X67.8919 Y39.5768
G01 X67.8928 Y39.5905
G01 X67.8928 Y39.7430
G01 X67.8979 Y39.7882
G01 X67.9088 Y39.8199
G01 X67.9267 Y39.8481
G01 X67.9505 Y39.8722
G01 X67.9788 Y39.8900
G01 X68.0101 Y39.9008
G01 X68.0558 Y39.9060
G01 X69.4422 Y39.9060
G01 X69.4875 Y39.9008
G01 X69.5191 Y39.8900
G01 X69.5471 Y39.8722
G01 X69.5773 Y39.8420
G01 X69.6099 Y39.8046
G01 X69.6173 Y39.7970
G01 X69.6233 Y39.7917
G01 X69.6319 Y39.7855
G01 X69.6388 Y39.7813
G01 X69.6459 Y39.7777
G01 X69.6883 Y39.7594
G01 X69.6956 Y39.7567
G01 X69.7056 Y39.7540
G01 X69.7158 Y39.7523
G01 X69.7235 Y39.7516
G01 X69.7693 Y39.7515
G01 X69.7771 Y39.7518
G01 X69.7873 Y39.7530
G01 X69.7949 Y39.7546
G01 X69.8048 Y39.7575
G01 X69.8521 Y39.7777
G01 X69.8638 Y39.7840
G01 X69.8747 Y39.7917
G01 X69.8845 Y39.8007
G01 X69.9207 Y39.8420
G01 X69.9509 Y39.8722
G01 X69.9789 Y39.8900
G01 X70.0105 Y39.9008
G01 X70.0558 Y39.9060
G01 X70.2255 Y39.9060
G01 X70.2255 Y39.8627
G01 X70.0440 Y39.8627
G01 X70.0335 Y39.8622
G01 X70.0256 Y39.8612
G01 X70.0178 Y39.8595
G01 X70.0102 Y39.8573
G01 X70.0028 Y39.8545
G01 X69.9956 Y39.8512
G01 X69.9886 Y39.8474
G01 X69.9798 Y39.8415
G01 X69.9736 Y39.8366
G01 X69.9660 Y39.8293
G01 X69.9607 Y39.8233
G01 X69.9544 Y39.8149
G01 X69.9503 Y39.8081
G01 X69.9455 Y39.7987
G01 X69.9426 Y39.7913
G01 X69.9395 Y39.7812
G01 X69.9374 Y39.7708
G01 X69.9366 Y39.7629
G01 X69.9363 Y39.7550
G01 X69.9363 Y39.5886
G01 X69.8145 Y39.5886
G01 X69.8014 Y39.5878
G01 X69.7551 Y39.5789
G01 X69.7472 Y39.5770
G01 X69.7395 Y39.5746
G01 X69.7320 Y39.5716
G01 X69.7247 Y39.5680
G01 X69.7178 Y39.5639
G01 X69.6804 Y39.5386
G01 X69.6743 Y39.5339
G01 X69.6667 Y39.5270
G01 X69.6598 Y39.5194
G01 X69.6551 Y39.5133
G01 X69.6284 Y39.4737
G01 X69.6245 Y39.4667
G01 X69.6211 Y39.4594
G01 X69.6183 Y39.4519
G01 X69.6161 Y39.4442
G01 X69.6068 Y39.3982
G01 X69.6055 Y39.3877
G01 X69.6052 Y39.3797
G01 X69.6052 Y38.7777
G01 X69.6057 Y38.7698
G01 X69.6067 Y38.7620
G01 X69.6154 Y38.7182
G01 X69.6191 Y38.7052
G01 X69.6222 Y38.6977
G01 X69.6257 Y38.6905
G01 X69.6313 Y38.6813
G01 X69.6552 Y38.6461
G01 X69.6617 Y38.6378
G01 X69.6690 Y38.6302
G01 X69.6749 Y38.6250
G01 X69.6813 Y38.6203
G01 X69.7187 Y38.5955
G01 X69.7282 Y38.5902
G01 X69.7381 Y38.5859
G01 X69.7459 Y38.5833
G01 X69.7537 Y38.5814
G01 X69.7951 Y38.5727
G01 X69.8062 Y38.5713
G01 X69.8145 Y38.5709
G01 X69.9363 Y38.5709
G01 X69.9363 Y38.4050
G01 X69.9366 Y38.3971
G01 X69.9379 Y38.3866
G01 X69.9402 Y38.3763
G01 X69.9426 Y38.3687
G01 X69.9466 Y38.3589
G01 X69.9516 Y38.3496
G01 X69.9575 Y38.3408
G01 X69.9642 Y38.3326
G01 X69.9717 Y38.3252
G01 X69.9798 Y38.3184
G01 X69.9909 Y38.3112
G01 X69.9980 Y38.3076
G01 X70.0052 Y38.3045
G01 X70.0127 Y38.3019
G01 X70.0204 Y38.2999
G01 X70.0335 Y38.2978
G01 X70.0440 Y38.2972
G01 X70.2255 Y38.2972
G01 X70.2255 Y38.2535
G01 X70.0562 Y38.2535
G01 X70.0105 Y38.2591
G01 X69.9789 Y38.2696
G01 X69.9509 Y38.2877
G01 X69.9205 Y38.3177
G01 X69.8846 Y38.3587
G01 X69.8750 Y38.3675
G01 X69.8667 Y38.3736
G01 X69.8600 Y38.3777
G01 X69.8531 Y38.3813
G01 X69.8132 Y38.3991
G01 X69.8058 Y38.4021
G01 X69.7956 Y38.4052
G01 X69.7878 Y38.4069
G01 X69.7799 Y38.4079
G01 X69.7693 Y38.4085
G01 X69.7234 Y38.4083
G01 X69.7128 Y38.4073
G01 X69.7050 Y38.4058
G01 X69.6973 Y38.4038
G01 X69.6873 Y38.4002
G01 X69.6449 Y38.3813
G01 X69.6379 Y38.3777
G01 X69.6313 Y38.3736
G01 X69.6230 Y38.3675
G01 X69.6171 Y38.3623
G01 X69.6099 Y38.3548
G01 X69.5775 Y38.3177
G01 X69.5471 Y38.2877
G01 X69.5191 Y38.2696
G01 X69.4875 Y38.2591
G01 X69.4418 Y38.2535
G01 X68.0562 Y38.2535
G01 X68.0101 Y38.2591
G01 X67.9788 Y38.2696
G01 X67.9505 Y38.2877
G01 X67.9265 Y38.3116
G01 X67.9088 Y38.3396
G01 X67.8979 Y38.3712
G01 X67.8928 Y38.4165
G01 X67.8928 Y38.5695
G01 X67.8919 Y38.5832
G01 X67.8906 Y38.5914
G01 X67.8806 Y38.6381
G01 X67.8763 Y38.6504
G01 X67.8730 Y38.6574
G01 X67.8692 Y38.6643
G01 X67.8430 Y38.7034
G01 X67.8365 Y38.7117
G01 X67.8310 Y38.7175
G01 X67.8231 Y38.7246
G01 X67.8168 Y38.7294
G01 X67.7815 Y38.7528
G01 X67.7746 Y38.7570
G01 X67.7674 Y38.7607
G01 X67.7599 Y38.7638
G01 X67.7522 Y38.7664
G01 X67.7443 Y38.7684
G01 X67.7057 Y38.7765
G01 X67.6918 Y38.7785
G01 X67.6835 Y38.7788
G01 X67.2570 Y38.7788
G01 X67.2429 Y38.7775
G01 X67.2045 Y38.7704
G01 X67.1970 Y38.7687
G01 X67.1871 Y38.7656
G01 X67.1798 Y38.7626
G01 X67.1706 Y38.7579
G01 X67.1374 Y38.7378
G01 X67.1266 Y38.7303
G01 X67.1186 Y38.7234
G01 X67.1114 Y38.7157
G01 X67.0858 Y38.6843
G01 X67.0144 Y38.5878
G01 X66.9387 Y38.5124
G01 X66.8529 Y38.4480
G01 X66.7589 Y38.3970
G01 X66.6582 Y38.3596
G01 X66.5539 Y38.3365
G01 X66.4470 Y38.3290
G01 X66.3401 Y38.3365
G01 X66.2357 Y38.3596
G01 X66.1351 Y38.3970
G01 X66.0410 Y38.4480
G01 X65.9553 Y38.5124
G01 X65.8792 Y38.5882
G01 X65.7867 Y38.7106
G01 X65.7816 Y38.7169
G01 X65.7740 Y38.7247
G01 X65.7656 Y38.7317
G01 X65.7589 Y38.7363
G01 X65.7211 Y38.7592
G01 X65.7142 Y38.7626
G01 X65.7070 Y38.7656
G01 X65.6971 Y38.7687
G01 X65.6895 Y38.7704
G01 X65.6511 Y38.7775
G01 X65.6427 Y38.7785
G01 X65.6342 Y38.7788
G01 X64.1549 Y38.7788
G01 X64.1439 Y38.7782
G01 X64.1330 Y38.7766
G01 X64.0912 Y38.7678
G01 X64.0833 Y38.7657
G01 X64.0756 Y38.7629
G01 X64.0657 Y38.7583
G01 X64.0586 Y38.7543
G01 X64.0211 Y38.7294
G01 X64.0147 Y38.7246
G01 X64.0087 Y38.7194
G01 X64.0032 Y38.7137
G01 X63.9964 Y38.7055
G01 X63.9700 Y38.6664
G01 X63.9659 Y38.6594
G01 X63.9624 Y38.6522
G01 X63.9585 Y38.6422
G01 X63.9557 Y38.6318
G01 X63.9471 Y38.5875
G01 X63.9458 Y38.5772
G01 X63.9456 Y38.5695
G01 X63.9456 Y38.4130
G01 X63.9388 Y38.3416
G01 X63.9219 Y38.2824
G01 X63.8947 Y38.2277
G01 X63.8578 Y38.1789
G01 X63.8123 Y38.1380
G01 X63.7600 Y38.1050
G01 X63.7331 Y38.0946
G01 X63.7212 Y38.0885
G01 X63.6837 Y38.0648
G01 X63.6772 Y38.0601
G01 X63.6711 Y38.0550
G01 X63.6636 Y38.0475
G01 X63.6584 Y38.0413
G01 X63.6309 Y38.0024
G01 X63.6244 Y37.9912
G01 X63.6211 Y37.9841
G01 X63.6184 Y37.9767
G01 X63.6155 Y37.9667
G01 X63.6064 Y37.9266
G01 X63.6048 Y37.9164
G01 X63.6042 Y37.9087
G01 X63.6044 Y37.8984
G01 X63.6051 Y37.8907
G01 X63.6116 Y37.8496
G01 X63.6131 Y37.8416
G01 X63.6170 Y37.8288
G01 X63.6201 Y37.8213
G01 X63.6238 Y37.8141
G01 X63.6722 Y37.7360
G01 X63.6835 Y37.7043
G01 X63.6885 Y37.6597
G01 X63.6885 Y37.4672
G01 X63.6447 Y37.4672
G01 X63.6447 Y37.6710
G01 X63.6445 Y37.6789
G01 X63.6436 Y37.6868
G01 X63.6408 Y37.6997
G01 X63.6375 Y37.7098
G01 X63.6332 Y37.7194
G01 X63.6280 Y37.7286
G01 X63.6219 Y37.7373
G01 X63.6150 Y37.7453
G01 X63.6074 Y37.7526
G01 X63.5990 Y37.7591
G01 X63.5924 Y37.7634
G01 X63.5854 Y37.7672
G01 X63.5782 Y37.7705
G01 X63.5708 Y37.7733
G01 X63.5632 Y37.7755
G01 X63.5554 Y37.7772
G01 X63.5423 Y37.7786
G01 X63.2583 Y37.7787
G01 X63.2583 Y37.8694
G01 X63.2578 Y37.8799
G01 X63.2557 Y37.8929
G01 X63.2461 Y37.9361
G01 X63.2432 Y37.9466
G01 X63.2381 Y37.9591
G01 X63.2315 Y37.9710
G01 X63.2268 Y37.9776
G01 X63.1999 Y38.0132
G01 X63.1932 Y38.0212
G01 X63.1877 Y38.0267
G01 X63.1819 Y38.0319
G01 X63.1735 Y38.0380
G01 X63.1622 Y38.0445
G01 X63.1178 Y38.0666
G01 X63.1054 Y38.0712
G01 X63.0978 Y38.0732
G01 X63.0900 Y38.0746
G01 X63.0769 Y38.0757
G01 X63.0271 Y38.0767
G01 X63.0133 Y38.0754
G01 X62.9929 Y38.0717
G01 X62.9316 Y38.0717
G01 X62.8707 Y38.0832
G01 X62.8136 Y38.1051
G01 X62.7472 Y38.1464
G01 X62.7405 Y38.1502
G01 X62.7336 Y38.1535
G01 X62.6943 Y38.1687
G01 X62.6843 Y38.1720
G01 X62.6766 Y38.1738
G01 X62.6689 Y38.1750
G01 X62.6558 Y38.1758
G01 X62.6103 Y38.1755
G01 X62.6025 Y38.1747
G01 X62.5948 Y38.1732
G01 X62.5822 Y38.1696
G01 X62.5428 Y38.1545
G01 X62.5335 Y38.1502
G01 X62.5268 Y38.1464
G01 X62.4603 Y38.1051
G01 X62.4032 Y38.0832
G01 X62.3424 Y38.0717
G01 X62.2811 Y38.0717
G01 X62.2607 Y38.0754
G01 X62.2469 Y38.0767
G01 X62.1971 Y38.0757
G01 X62.1840 Y38.0746
G01 X62.1762 Y38.0732
G01 X62.1686 Y38.0712
G01 X62.1562 Y38.0666
G01 X62.1118 Y38.0445
G01 X62.1027 Y38.0394
G01 X62.0942 Y38.0335
G01 X62.0862 Y38.0267
G01 X62.0808 Y38.0212
G01 X62.0741 Y38.0132
G01 X62.0472 Y37.9776
G01 X62.0425 Y37.9710
G01 X62.0359 Y37.9591
G01 X62.0308 Y37.9466
G01 X62.0279 Y37.9361
G01 X62.0183 Y37.8929
G01 X62.0162 Y37.8799
G01 X62.0157 Y37.8694
G01 X62.0157 Y37.7787
G01 X61.7317 Y37.7786
G01 X61.7238 Y37.7779
G01 X61.7160 Y37.7767
G01 X61.7032 Y37.7733
G01 X61.6958 Y37.7705
G01 X61.6886 Y37.7672
G01 X61.6771 Y37.7606
G01 X61.6686 Y37.7543
G01 X61.6608 Y37.7472
G01 X61.6537 Y37.7394
G01 X61.6474 Y37.7309
G01 X61.6420 Y37.7218
G01 X61.6375 Y37.7122
G01 X61.6339 Y37.7023
G01 X61.6308 Y37.6894
G01 X61.6298 Y37.6816
G01 X61.6293 Y37.6710
G01 X61.6293 Y37.4672
G01 X61.5855 Y37.4672
G01 X61.5855 Y37.6597
G01 X61.5905 Y37.7043
G01 X61.6018 Y37.7360
G01 X61.6489 Y37.8118
G01 X61.6538 Y37.8213
G01 X61.6579 Y37.8313
G01 X61.6602 Y37.8390
G01 X61.6619 Y37.8469
G01 X61.6692 Y37.8933
G01 X61.6698 Y37.9036
G01 X61.6696 Y37.9113
G01 X61.6689 Y37.9190
G01 X61.6676 Y37.9266
G01 X61.6572 Y37.9718
G01 X61.6548 Y37.9792
G01 X61.6508 Y37.9888
G01 X61.6458 Y37.9980
G01 X61.6416 Y38.0046
G01 X61.6172 Y38.0392
G01 X61.6104 Y38.0475
G01 X61.6029 Y38.0550
G01 X61.5925 Y38.0633
G01 X61.5528 Y38.0885
G01 X61.5409 Y38.0946
G01 X61.5140 Y38.1050
G01 X61.4617 Y38.1380
G01 X61.4162 Y38.1789
G01 X61.3792 Y38.2277
G01 X61.3521 Y38.2824
G01 X61.3352 Y38.3416
G01 X61.3284 Y38.4130
G01 X61.3284 Y38.8788
G01 X61.3280 Y38.8888
G01 X61.3270 Y38.8963
G01 X61.3198 Y38.9383
G01 X61.3158 Y38.9513
G01 X61.3114 Y38.9612
G01 X61.2916 Y38.9965
G01 X61.2873 Y39.0034
G01 X61.2824 Y39.0101
G01 X61.2604 Y39.0366
G01 X61.2328 Y39.0888
G01 X61.2157 Y39.1448
G01 X61.2091 Y39.2142
G01 X61.2091 Y41.6784
G01 X61.2082 Y41.6919
G01 X61.2051 Y41.7087
G01 X61.2083 Y41.7263
G01 X61.2091 Y41.7394
G01 X61.2091 Y42.2626
G01 X61.2082 Y42.2759
G01 X61.2051 Y42.2929
G01 X61.2078 Y42.3069
G01 X61.2090 Y42.3204
G01 X61.2090 Y42.5091
G01 X61.2086 Y42.5168
G01 X61.2075 Y42.5245
G01 X61.1995 Y42.5662
G01 X61.1970 Y42.5763
G01 X61.1945 Y42.5836
G01 X61.1904 Y42.5932
G01 X61.1853 Y42.6023
G01 X61.1586 Y42.6412
G01 X61.1539 Y42.6474
G01 X61.1487 Y42.6531
G01 X61.1431 Y42.6585
G01 X61.1371 Y42.6634
G01 X61.0978 Y42.6898
G01 X61.0885 Y42.6953
G01 X61.0786 Y42.6999
G01 X61.0658 Y42.7041
G01 X61.0192 Y42.7140
G01 X61.0109 Y42.7152
G01 X61.0025 Y42.7158
G01 X60.9053 Y42.7155
G01 X60.8978 Y42.7148
G01 X60.8904 Y42.7135
G01 X60.8498 Y42.7048
G01 X60.8397 Y42.7021
G01 X60.8323 Y42.6995
G01 X60.8251 Y42.6964
G01 X60.8138 Y42.6899
G01 X60.7754 Y42.6626
G01 X60.7652 Y42.6543
G01 X60.7561 Y42.6449
G01 X60.7497 Y42.6365
G01 X60.7241 Y42.5938
G01 X60.7192 Y42.5846
G01 X60.7152 Y42.5749
G01 X60.7122 Y42.5649
G01 X60.7102 Y42.5546
G01 X60.7041 Y42.5026
G01 X60.7040 Y42.4949
G01 X60.7045 Y42.4871
G01 X60.7055 Y42.4794
G01 X60.7069 Y42.4725
G01 X60.6239 Y42.4725
G01 X60.5975 Y42.5015
G01 X60.5658 Y42.5303
G01 X60.5569 Y42.5726
G01 X60.5538 Y42.5825
G01 X60.5509 Y42.5897
G01 X60.5474 Y42.5968
G01 X60.5420 Y42.6057
G01 X60.5187 Y42.6404
G01 X60.5121 Y42.6487
G01 X60.5028 Y42.6582
G01 X60.4946 Y42.6649
G01 X60.4572 Y42.6898
G01 X60.4503 Y42.6940
G01 X60.4430 Y42.6977
G01 X60.4355 Y42.7008
G01 X60.4278 Y42.7034
G01 X60.4199 Y42.7054
G01 X60.3786 Y42.7140
G01 X60.3703 Y42.7152
G01 X60.3619 Y42.7158
G01 X59.8349 Y42.7158
G01 X59.8237 Y42.7152
G01 X59.8127 Y42.7135
G01 X59.7714 Y42.7048
G01 X59.7610 Y42.7018
G01 X59.7534 Y42.6988
G01 X59.7461 Y42.6953
G01 X59.7368 Y42.6898
G01 X59.7016 Y42.6664
G01 X59.6952 Y42.6616
G01 X59.6892 Y42.6564
G01 X59.6819 Y42.6487
G01 X59.6753 Y42.6404
G01 X59.6505 Y42.6035
G01 X59.6442 Y42.5921
G01 X59.6402 Y42.5825
G01 X59.6371 Y42.5726
G01 X59.6282 Y42.5303
G01 X59.5965 Y42.5015
G01 X59.5701 Y42.4725
G01 X59.4871 Y42.4725
G01 X59.4889 Y42.4820
G01 X59.4897 Y42.4897
G01 X59.4900 Y42.4975
G01 X59.4897 Y42.5052
G01 X59.4838 Y42.5546
G01 X59.4817 Y42.5649
G01 X59.4796 Y42.5724
G01 X59.4759 Y42.5822
G01 X59.4725 Y42.5893
G01 X59.4472 Y42.6322
G01 X59.4428 Y42.6387
G01 X59.4379 Y42.6449
G01 X59.4307 Y42.6525
G01 X59.4248 Y42.6578
G01 X59.4186 Y42.6626
G01 X59.3780 Y42.6913
G01 X59.3712 Y42.6952
G01 X59.3641 Y42.6985
G01 X59.3568 Y42.7013
G01 X59.3493 Y42.7036
G01 X59.3011 Y42.7139
G01 X59.2887 Y42.7155
G01 X59.1751 Y42.7158
G01 X59.1063 Y42.7224
G01 X59.0506 Y42.7390
G01 X58.9987 Y42.7674
G01 X58.9445 Y42.8116
G01 X58.1780 Y43.5781
G01 X58.1722 Y43.5832
G01 X58.1661 Y43.5879
G01 X58.1310 Y43.6117
G01 X58.1220 Y43.6171
G01 X58.1149 Y43.6207
G01 X58.1076 Y43.6236
G01 X58.0950 Y43.6274
G01 X58.0480 Y43.6360
G01 X58.0342 Y43.6373
G01 X57.2800 Y43.6373
G01 X57.2352 Y43.6427
G01 X57.2023 Y43.6543
G01 X57.1741 Y43.6716
G01 X57.1506 Y43.6951
G01 X57.1331 Y43.7232
G01 X57.1217 Y43.7559
G01 X57.1166 Y43.8004
G01 X57.1166 Y45.0272
G01 X57.1217 Y45.0720
G01 X57.1330 Y45.1041
G01 X57.1508 Y45.1326
G01 X57.1744 Y45.1565
G01 X57.2023 Y45.1737
G01 X57.2348 Y45.1851
G01 X57.2796 Y45.1902
G01 X58.2561 Y45.1902
G01 X58.3013 Y45.1851
G01 X58.3334 Y45.1737
G01 X58.3616 Y45.1565
G01 X58.3849 Y45.1326
G01 X58.4031 Y45.1041
G01 X58.4141 Y45.0720
G01 X58.4195 Y45.0268
G01 X58.4195 Y44.2753
G01 X58.4198 Y44.2674
G01 X58.4211 Y44.2570
G01 X58.4297 Y44.2133
G01 X58.4317 Y44.2057
G01 X58.4352 Y44.1958
G01 X58.4397 Y44.1863
G01 X58.4436 Y44.1795
G01 X58.4684 Y44.1420
G01 X58.4750 Y44.1334
G01 X58.4805 Y44.1275
G01 X59.2288 Y43.3792
G01 X59.2349 Y43.3736
G01 X59.2436 Y43.3669
G01 X59.2784 Y43.3440
G01 X59.2854 Y43.3398
G01 X59.2976 Y43.3340
G01 X59.3104 Y43.3298
G01 X59.3575 Y43.3199
G01 X59.3711 Y43.3183
G01 X59.7612 Y43.3183
G01 X59.7687 Y43.3189
G01 X59.7786 Y43.3206
G01 X59.8192 Y43.3292
G01 X59.8316 Y43.3330
G01 X59.8411 Y43.3370
G01 X59.8502 Y43.3420
G01 X59.8893 Y43.3672
G01 X59.8957 Y43.3721
G01 X59.9017 Y43.3775
G01 X59.9073 Y43.3833
G01 X59.9124 Y43.3895
G01 X59.9394 Y43.4286
G01 X59.9460 Y43.4404
G01 X59.9512 Y43.4529
G01 X59.9541 Y43.4633
G01 X59.9638 Y43.5061
G01 X59.9649 Y43.5141
G01 X59.9655 Y43.5248
G01 X59.9652 Y43.5328
G01 X59.9639 Y43.5435
G01 X59.9523 Y43.5954
G01 X59.9457 Y43.6485
G01 X59.9456 Y45.5992
G01 X59.9452 Y45.6070
G01 X59.9441 Y45.6147
G01 X59.9361 Y45.6563
G01 X59.9336 Y45.6664
G01 X59.9301 Y45.6762
G01 X59.9258 Y45.6857
G01 X59.9205 Y45.6946
G01 X59.8951 Y45.7315
G01 X59.8864 Y45.7421
G01 X59.8785 Y45.7497
G01 X59.8721 Y45.7548
G01 X59.8374 Y45.7793
G01 X59.8287 Y45.7848
G01 X59.8170 Y45.7905
G01 X59.8073 Y45.7940
G01 X59.7947 Y45.7971
G01 X59.7529 Y45.8047
G01 X59.7446 Y45.8057
G01 X59.7363 Y45.8060
G01 X53.8887 Y45.8060
G01 X53.8804 Y45.8057
G01 X53.8722 Y45.8047
G01 X53.8303 Y45.7971
G01 X53.8202 Y45.7948
G01 X53.8103 Y45.7914
G01 X53.8008 Y45.7872
G01 X53.7917 Y45.7820
G01 X53.7522 Y45.7541
G01 X53.7460 Y45.7491
G01 X53.7401 Y45.7437
G01 X53.7347 Y45.7378
G01 X53.7298 Y45.7315
G01 X53.7034 Y45.6919
G01 X53.6971 Y45.6803
G01 X53.6922 Y45.6679
G01 X53.6889 Y45.6551
G01 X53.6808 Y45.6128
G01 X53.6798 Y45.6046
G01 X53.6794 Y45.5937
G01 X53.8602 Y32.1215
G01 X53.8610 Y32.1105
G01 X53.8628 Y32.0996
G01 X53.8725 Y32.0559
G01 X53.8755 Y32.0460
G01 X53.8783 Y32.0388
G01 X53.8842 Y32.0273
G01 X53.8898 Y32.0186
G01 X53.9190 Y31.9804
G01 X53.9262 Y31.9722
G01 X53.9363 Y31.9632
G01 X53.9475 Y31.9554
G01 X53.9897 Y31.9315
G01 X53.9990 Y31.9270
G01 X54.0063 Y31.9243
G01 X54.0188 Y31.9209
G01 X54.0316 Y31.9190
G01 X54.0795 Y31.9162
G01 X54.0899 Y31.9163
G01 X54.1003 Y31.9175
G01 X54.1130 Y31.9203
G01 X54.1606 Y31.9375
G01 X54.1677 Y31.9404
G01 X54.1747 Y31.9438
G01 X54.1945 Y31.9557
G01 X54.2265 Y31.9674
G01 X54.2712 Y31.9720
G01 X54.3333 Y31.9720
G01 X54.3410 Y31.9725
G01 X54.3487 Y31.9735
G01 X54.3955 Y31.9837
G01 X54.4057 Y31.9864
G01 X54.4131 Y31.9892
G01 X54.4204 Y31.9925
G01 X54.4273 Y31.9963
G01 X54.4340 Y32.0006
G01 X54.4768 Y32.0323
G01 X54.4861 Y32.0412
G01 X54.4942 Y32.0512
G01 X54.4999 Y32.0598
G01 X54.5233 Y32.1021
G01 X54.5289 Y32.1149
G01 X54.5338 Y32.1302
G01 X54.5613 Y32.1820
G01 X54.6055 Y32.2352
G01 X55.3051 Y32.9353
G01 X55.3580 Y32.9792
G01 X55.4096 Y33.0063
G01 X55.4663 Y33.0236
G01 X55.5352 Y33.0302
G01 X60.5182 Y33.0302
G01 X60.5259 Y33.0307
G01 X60.5336 Y33.0317
G01 X60.5780 Y33.0403
G01 X60.5910 Y33.0441
G01 X60.6010 Y33.0482
G01 X60.6128 Y33.0548
G01 X60.6525 Y33.0818
G01 X60.6587 Y33.0869
G01 X60.6646 Y33.0924
G01 X60.6700 Y33.0983
G01 X60.6750 Y33.1047
G01 X60.7026 Y33.1470
G01 X60.7073 Y33.1561
G01 X60.7112 Y33.1657
G01 X60.7148 Y33.1780
G01 X60.7234 Y33.2217
G01 X60.7246 Y33.2321
G01 X60.7249 Y33.2425
G01 X60.7244 Y33.2503
G01 X60.7234 Y33.2581
G01 X60.7153 Y33.2998
G01 X60.7135 Y33.3076
G01 X60.7101 Y33.3178
G01 X60.7058 Y33.3277
G01 X60.7005 Y33.3370
G01 X60.6771 Y33.3718
G01 X60.6709 Y33.3801
G01 X60.6640 Y33.3878
G01 X59.6354 Y34.4179
G01 X59.6293 Y34.4233
G01 X59.6227 Y34.4282
G01 X59.5852 Y34.4530
G01 X59.5781 Y34.4571
G01 X59.5707 Y34.4606
G01 X59.5579 Y34.4652
G01 X59.5500 Y34.4672
G01 X59.5081 Y34.4759
G01 X59.4999 Y34.4770
G01 X59.4917 Y34.4775
G01 X59.1112 Y34.4775
G01 X59.1029 Y34.4770
G01 X59.0946 Y34.4758
G01 X59.0506 Y34.4665
G01 X59.0376 Y34.4626
G01 X59.0253 Y34.4571
G01 X59.0160 Y34.4516
G01 X58.9807 Y34.4282
G01 X58.9722 Y34.4216
G01 X58.9643 Y34.4141
G01 X58.9589 Y34.4080
G01 X58.9541 Y34.4016
G01 X58.9307 Y34.3663
G01 X58.9265 Y34.3594
G01 X58.9217 Y34.3496
G01 X58.9179 Y34.3395
G01 X58.9157 Y34.3317
G01 X58.9070 Y34.2904
G01 X58.9056 Y34.2822
G01 X58.9047 Y34.2710
G01 X58.9047 Y34.2235
G01 X58.8996 Y34.1778
G01 X58.8888 Y34.1467
G01 X58.8706 Y34.1180
G01 X58.8470 Y34.0938
G01 X58.8187 Y34.0764
G01 X58.7873 Y34.0652
G01 X58.7422 Y34.0605
G01 X57.3878 Y34.0605
G01 X57.3427 Y34.0652
G01 X57.3113 Y34.0764
G01 X57.2830 Y34.0938
G01 X57.2594 Y34.1180
G01 X57.2412 Y34.1467
G01 X57.2304 Y34.1778
G01 X57.2253 Y34.2234
G01 X57.2253 Y35.3321
G01 X57.2304 Y35.3777
G01 X57.2413 Y35.4090
G01 X57.2592 Y35.4376
G01 X57.2827 Y35.4611
G01 X57.3117 Y35.4793
G01 X57.3435 Y35.4906
G01 X57.3887 Y35.4960
G01 X58.7413 Y35.4960
G01 X58.7865 Y35.4906
G01 X58.8183 Y35.4793
G01 X58.8473 Y35.4611
G01 X58.8708 Y35.4376
G01 X58.8887 Y35.4090
G01 X58.8996 Y35.3777
G01 X58.9047 Y35.3321
G01 X58.9047 Y35.2865
G01 X58.9060 Y35.2726
G01 X58.9163 Y35.2235
G01 X58.9194 Y35.2136
G01 X58.9234 Y35.2041
G01 X58.9297 Y35.1928
G01 X58.9545 Y35.1559
G01 X58.9611 Y35.1474
G01 X58.9666 Y35.1416
G01 X58.9726 Y35.1361
G01 X58.9789 Y35.1312
G01 X59.0141 Y35.1067
G01 X59.0229 Y35.1012
G01 X59.0346 Y35.0956
G01 X59.0444 Y35.0921
G01 X59.0545 Y35.0896
G01 X59.0957 Y35.0815
G01 X59.1035 Y35.0805
G01 X59.1114 Y35.0800
G01 X59.6910 Y35.0800
G01 X59.7599 Y35.0734
G01 X59.8154 Y35.0563
G01 X59.8677 Y35.0281
G01 X59.9215 Y34.9842
G01 X60.9773 Y33.9264
G01 X60.9848 Y33.9196
G01 X60.9929 Y33.9135
G01 X61.0296 Y33.8897
G01 X61.0365 Y33.8856
G01 X61.0488 Y33.8799
G01 X61.0616 Y33.8757
G01 X61.0695 Y33.8741
G01 X61.1102 Y33.8669
G01 X61.1205 Y33.8656
G01 X61.1310 Y33.8654
G01 X61.1414 Y33.8661
G01 X61.1491 Y33.8673
G01 X61.1965 Y33.8787
G01 X61.2066 Y33.8820
G01 X61.2164 Y33.8863
G01 X61.2258 Y33.8915
G01 X61.2324 Y33.8961
G01 X61.2675 Y33.9220
G01 X61.2754 Y33.9288
G01 X61.2843 Y33.9383
G01 X61.2920 Y33.9488
G01 X61.3168 Y33.9916
G01 X61.3203 Y33.9986
G01 X61.3233 Y34.0058
G01 X61.3257 Y34.0132
G01 X61.3281 Y34.0234
G01 X61.3339 Y34.0718
G01 X61.3345 Y34.0844
G01 X61.3340 Y34.0945
G01 X61.3284 Y34.1506
G01 X61.3284 Y34.2032
G01 X61.3721 Y34.2032
G01 X61.3723 Y34.1357
G01 X61.3735 Y34.1125
G01 X61.3768 Y34.0896
G01 X61.3789 Y34.0793
G01 X61.3854 Y34.0543
G01 X61.3932 Y34.0325
G01 X61.4000 Y34.0176
G01 X61.4000 Y33.7480
G01 X61.4008 Y33.7350
G01 X61.4101 Y33.6860
G01 X61.4121 Y33.6786
G01 X61.4146 Y33.6712
G01 X61.4176 Y33.6641
G01 X61.4223 Y33.6550
G01 X61.4469 Y33.6171
G01 X61.4532 Y33.6084
G01 X61.4585 Y33.6023
G01 X61.4642 Y33.5967
G01 X61.4703 Y33.5914
G01 X61.5098 Y33.5643
G01 X61.5191 Y33.5587
G01 X61.5314 Y33.5530
G01 X61.5417 Y33.5496
G01 X61.5496 Y33.5478
G01 X61.5913 Y33.5397
G01 X61.6015 Y33.5385
G01 X61.6093 Y33.5382
G01 X61.7150 Y33.5382
G01 X61.7228 Y33.5385
G01 X61.7358 Y33.5402
G01 X61.7797 Y33.5490
G01 X61.7900 Y33.5521
G01 X61.8024 Y33.5575
G01 X61.8117 Y33.5628
G01 X61.8491 Y33.5882
G01 X61.8593 Y33.5964
G01 X61.8684 Y33.6057
G01 X61.8762 Y33.6161
G01 X61.9028 Y33.6564
G01 X61.9075 Y33.6659
G01 X61.9105 Y33.6733
G01 X61.9128 Y33.6808
G01 X61.9147 Y33.6886
G01 X61.9228 Y33.7298
G01 X61.9238 Y33.7376
G01 X61.9243 Y33.7454
G01 X61.9243 Y34.0186
G01 X61.9306 Y34.0325
G01 X61.9399 Y34.0594
G01 X61.9461 Y34.0844
G01 X61.9502 Y34.1125
G01 X61.9516 Y34.1409
G01 X61.9516 Y34.3125
G01 X61.9581 Y34.3234
G01 X61.9617 Y34.3303
G01 X61.9657 Y34.3399
G01 X61.9680 Y34.3472
G01 X61.9704 Y34.3573
G01 X61.9770 Y34.3939
G01 X61.9785 Y34.4075
G01 X61.9785 Y35.1730
G01 X61.9769 Y35.1868
G01 X61.9703 Y35.2229
G01 X61.9679 Y35.2330
G01 X61.9646 Y35.2430
