
(start: flatcam/step9-small-holes.nc:T6)

(Machine)
(  vendor: Makera)
(  model: Carvera 3-axis)
(  description: Makera Carvera 3-axis)
G01 F3000
G90 G94
G17
G21

T6 M6
G00 X32.1227 Y38.9615 Z5.0000 F900
M3 S12000
G00 X61.5100 Y34.1580
G01 Z-0.7000
G01 Z0
G00 Z2.0000
G01 Z-1.4000
G01 Z0
G00 Z2.0000
G01 Z-1.8000
G01 Z0
G00 Z2.0000
G00 X60.6210 Y36.6980
G01 Z-0.7000
G01 Z0
G00 Z2.0000
G01 Z-1.4000
G01 Z0
G00 Z2.0000
G01 Z-1.8000
G01 Z0
G00 Z2.0000
G00 X63.1610 Y42.9210
G01 Z-0.7000
G01 Z0
G00 Z2.0000
G01 Z-1.4000
G01 Z0
G00 Z2.0000
G01 Z-1.8000
G01 Z0
G00 Z2.0000
G00 X47.1590 Y38.9840
G01 Z-0.7000
G01 Z0
G00 Z2.0000
G01 Z-1.4000
G01 Z0
G00 Z2.0000
G01 Z-1.8000
G01 Z0
G00 Z2.0000
G00 X29.8870 Y36.0630
G01 Z-0.7000
G01 Z0
G00 Z2.0000
G01 Z-1.4000
G01 Z0
G00 Z2.0000
G01 Z-1.8000
G01 Z0
G00 Z2.0000
G00 X30.9030 Y38.0950
G01 Z-0.7000
G01 Z0
G00 Z2.0000
G01 Z-1.4000
G01 Z0
G00 Z2.0000
G01 Z-1.8000
G01 Z0
G00 Z2.0000
G00 X43.9840 Y35.0470
G01 Z-0.7000
G01 Z0
G00 Z2.0000
G01 Z-1.4000
G01 Z0
G00 Z2.0000
G01 Z-1.8000
G01 Z0
G00 Z2.0000
G00 X45.6350 Y33.3960
G01 Z-0.7000
G01 Z0
G00 Z2.0000
G01 Z-1.4000
G01 Z0
G00 Z2.0000
G01 Z-1.8000
G01 Z0
G00 Z2.0000
G00 X45.8890 Y36.0630
G01 Z-0.7000
G01 Z0
G00 Z2.0000
G01 Z-1.4000
G01 Z0
G00 Z2.0000
G01 Z-1.8000
G01 Z0
G00 Z2.0000
M5
G00 Z2.0000 F3000

(end: flatcam/step9-small-holes.nc:T6)

(start: flatcam/step8-oval-cutout.nc:T1)

T1 M6
M3 S16000
G01 F120.00
G00 X19.9757 Y30.9813
G01 F60.00
G01 Z-1.7000
G01 F120.00
G01 X19.9746 Y31.0038
G01 X19.9713 Y31.0260
G01 X19.9658 Y31.0478
G01 X19.9582 Y31.0690
G01 X19.9486 Y31.0893
G01 X19.9370 Y31.1086
G01 X19.9237 Y31.1266
G01 X19.9086 Y31.1433
G01 X19.8919 Y31.1584
G01 X19.8738 Y31.1718
G01 X19.8546 Y31.1833
G01 X19.8342 Y31.1929
G01 X19.8131 Y31.2005
G01 X19.7913 Y31.2060
G01 X19.7690 Y31.2093
G01 X19.7466 Y31.2104
G01 X19.7241 Y31.2093
G01 X19.7019 Y31.2060
G01 X19.6801 Y31.2005
G01 X19.6589 Y31.1929
G01 X19.6386 Y31.1833
G01 X19.6193 Y31.1718
G01 X19.6012 Y31.1584
G01 X19.5846 Y31.1433
G01 X19.5695 Y31.1266
G01 X19.5561 Y31.1086
G01 X19.5445 Y31.0893
G01 X19.5349 Y31.0690
G01 X19.5274 Y31.0478
G01 X19.5219 Y31.0260
G01 X19.5186 Y31.0038
G01 X19.5175 Y30.9813
G01 X19.5186 Y30.9588
G01 X19.5219 Y30.9366
G01 X19.5274 Y30.9148
G01 X19.5349 Y30.8936
G01 X19.5445 Y30.8733
G01 X19.5561 Y30.8540
G01 X19.5695 Y30.8360
G01 X19.5846 Y30.8193
G01 X19.6012 Y30.8042
G01 X19.6193 Y30.7908
G01 X19.6386 Y30.7793
G01 X19.6589 Y30.7697
G01 X19.6801 Y30.7621
G01 X19.7019 Y30.7566
G01 X19.7241 Y30.7533
G01 X19.7466 Y30.7522
G01 X19.7690 Y30.7533
G01 X19.7913 Y30.7566
G01 X19.8131 Y30.7621
G01 X19.8342 Y30.7697
G01 X19.8546 Y30.7793
G01 X19.8738 Y30.7908
G01 X19.8919 Y30.8042
G01 X19.9086 Y30.8193
G01 X19.9237 Y30.8360
G01 X19.9370 Y30.8540
G01 X19.9486 Y30.8733
G01 X19.9582 Y30.8936
G01 X19.9658 Y30.9148
G01 X19.9713 Y30.9366
G01 X19.9746 Y30.9588
G01 X19.9757 Y30.9813
G00 Z2.0000
G00 X19.9730 Y31.7951
G01 F60.00
G01 Z-1.7000
G01 F120.00
G01 X19.9719 Y31.8177
G01 X19.9686 Y31.8401
G01 X19.9631 Y31.8620
G01 X19.9555 Y31.8833
G01 X19.9458 Y31.9038
G01 X19.9342 Y31.9232
G01 X19.9207 Y31.9414
G01 X19.9055 Y31.9581
G01 X19.8887 Y31.9733
G01 X19.8706 Y31.9868
G01 X19.8512 Y31.9984
G01 X19.8307 Y32.0081
G01 X19.8094 Y32.0157
G01 X19.7875 Y32.0212
G01 X19.7651 Y32.0245
G01 X19.7425 Y32.0256
G01 X19.7200 Y32.0245
G01 X19.6976 Y32.0212
G01 X19.6756 Y32.0157
G01 X19.6543 Y32.0081
G01 X19.6339 Y31.9984
G01 X19.6145 Y31.9868
G01 X19.5963 Y31.9733
G01 X19.5796 Y31.9581
G01 X19.5644 Y31.9414
G01 X19.5509 Y31.9232
G01 X19.5393 Y31.9038
G01 X19.5296 Y31.8833
G01 X19.5220 Y31.8620
G01 X19.5165 Y31.8401
G01 X19.5132 Y31.8177
G01 X19.5121 Y31.7951
G01 X19.5132 Y31.7726
G01 X19.5165 Y31.7502
G01 X19.5220 Y31.7282
G01 X19.5296 Y31.7070
G01 X19.5393 Y31.6865
G01 X19.5509 Y31.6671
G01 X19.5644 Y31.6489
G01 X19.5796 Y31.6322
G01 X19.5963 Y31.6170
G01 X19.6145 Y31.6035
G01 X19.6339 Y31.5919
G01 X19.6543 Y31.5822
G01 X19.6756 Y31.5746
G01 X19.6976 Y31.5691
G01 X19.7200 Y31.5658
G01 X19.7425 Y31.5647
G01 X19.7651 Y31.5658
G01 X19.7875 Y31.5691
G01 X19.8094 Y31.5746
G01 X19.8307 Y31.5822
G01 X19.8512 Y31.5919
G01 X19.8706 Y31.6035
G01 X19.8887 Y31.6170
G01 X19.9055 Y31.6322
G01 X19.9207 Y31.6489
G01 X19.9342 Y31.6671
G01 X19.9458 Y31.6865
G01 X19.9555 Y31.7070
G01 X19.9631 Y31.7282
G01 X19.9686 Y31.7502
G01 X19.9719 Y31.7726
G01 X19.9730 Y31.7951
G00 Z2.0000
G00 X19.5089 Y31.7911
G01 F60.00
G01 Z-1.7000
G01 F120.00
G01 X19.5089 Y30.9894
G01 X19.9843 Y30.9894
G01 X19.9843 Y31.7911
G01 X19.5089 Y31.7911
G00 Z2.0000
G00 X27.8077 Y31.8019
G01 F60.00
G01 Z-1.7000
G01 F120.00
G01 X27.8077 Y31.0002
G01 X28.2831 Y31.0002
G01 X28.2831 Y31.8019
G01 X27.8077 Y31.8019
G00 Z2.0000
G00 X28.2718 Y31.8059
G01 F60.00
G01 Z-1.7000
G01 F120.00
G01 X28.2707 Y31.8285
G01 X28.2674 Y31.8509
G01 X28.2619 Y31.8728
G01 X28.2543 Y31.8941
G01 X28.2446 Y31.9146
G01 X28.2330 Y31.9340
G01 X28.2195 Y31.9521
G01 X28.2043 Y31.9689
G01 X28.1876 Y31.9841
G01 X28.1694 Y31.9976
G01 X28.1500 Y32.0092
G01 X28.1296 Y32.0189
G01 X28.1083 Y32.0265
G01 X28.0863 Y32.0320
G01 X28.0640 Y32.0353
G01 X28.0414 Y32.0364
G01 X28.0188 Y32.0353
G01 X27.9964 Y32.0320
G01 X27.9745 Y32.0265
G01 X27.9532 Y32.0189
G01 X27.9327 Y32.0092
G01 X27.9134 Y31.9976
G01 X27.8952 Y31.9841
G01 X27.8784 Y31.9689
G01 X27.8632 Y31.9521
G01 X27.8498 Y31.9340
G01 X27.8381 Y31.9146
G01 X27.8285 Y31.8941
G01 X27.8209 Y31.8728
G01 X27.8154 Y31.8509
G01 X27.8120 Y31.8285
G01 X27.8109 Y31.8059
G01 X27.8120 Y31.7833
G01 X27.8154 Y31.7610
G01 X27.8209 Y31.7390
G01 X27.8285 Y31.7177
G01 X27.8381 Y31.6973
G01 X27.8498 Y31.6779
G01 X27.8632 Y31.6597
G01 X27.8784 Y31.6430
G01 X27.8952 Y31.6278
G01 X27.9134 Y31.6143
G01 X27.9327 Y31.6027
G01 X27.9532 Y31.5930
G01 X27.9745 Y31.5854
G01 X27.9964 Y31.5799
G01 X28.0188 Y31.5766
G01 X28.0414 Y31.5755
G01 X28.0640 Y31.5766
G01 X28.0863 Y31.5799
G01 X28.1083 Y31.5854
G01 X28.1296 Y31.5930
G01 X28.1500 Y31.6027
G01 X28.1694 Y31.6143
G01 X28.1876 Y31.6278
G01 X28.2043 Y31.6430
G01 X28.2195 Y31.6597
G01 X28.2330 Y31.6779
G01 X28.2446 Y31.6973
G01 X28.2543 Y31.7177
G01 X28.2619 Y31.7390
G01 X28.2674 Y31.7610
G01 X28.2707 Y31.7833
G01 X28.2718 Y31.8059
G00 Z2.0000
G00 X28.2745 Y30.9921
G01 F60.00
G01 Z-1.7000
G01 F120.00
G01 X28.2734 Y31.0145
G01 X28.2701 Y31.0368
G01 X28.2646 Y31.0586
G01 X28.2571 Y31.0798
G01 X28.2474 Y31.1001
G01 X28.2359 Y31.1194
G01 X28.2225 Y31.1374
G01 X28.2074 Y31.1541
G01 X28.1907 Y31.1692
G01 X28.1727 Y31.1826
G01 X28.1534 Y31.1941
G01 X28.1331 Y31.2037
G01 X28.1119 Y31.2113
G01 X28.0901 Y31.2168
G01 X28.0679 Y31.2201
G01 X28.0454 Y31.2212
G01 X28.0230 Y31.2201
G01 X28.0007 Y31.2168
G01 X27.9789 Y31.2113
G01 X27.9578 Y31.2037
G01 X27.9374 Y31.1941
G01 X27.9181 Y31.1826
G01 X27.9001 Y31.1692
G01 X27.8834 Y31.1541
G01 X27.8683 Y31.1374
G01 X27.8549 Y31.1194
G01 X27.8434 Y31.1001
G01 X27.8338 Y31.0798
G01 X27.8262 Y31.0586
G01 X27.8207 Y31.0368
G01 X27.8174 Y31.0145
G01 X27.8163 Y30.9921
G01 X27.8174 Y30.9696
G01 X27.8207 Y30.9474
G01 X27.8262 Y30.9256
G01 X27.8338 Y30.9044
G01 X27.8434 Y30.8841
G01 X27.8549 Y30.8648
G01 X27.8683 Y30.8468
G01 X27.8834 Y30.8301
G01 X27.9001 Y30.8150
G01 X27.9181 Y30.8016
G01 X27.9374 Y30.7901
G01 X27.9578 Y30.7804
G01 X27.9789 Y30.7729
G01 X28.0007 Y30.7674
G01 X28.0230 Y30.7641
G01 X28.0454 Y30.7630
G01 X28.0679 Y30.7641
G01 X28.0901 Y30.7674
G01 X28.1119 Y30.7729
G01 X28.1331 Y30.7804
G01 X28.1534 Y30.7901
G01 X28.1727 Y30.8016
G01 X28.1907 Y30.8150
G01 X28.2074 Y30.8301
G01 X28.2225 Y30.8468
G01 X28.2359 Y30.8648
G01 X28.2474 Y30.8841
G01 X28.2571 Y30.9044
G01 X28.2646 Y30.9256
G01 X28.2701 Y30.9474
G01 X28.2734 Y30.9696
G01 X28.2745 Y30.9921
G00 Z2.0000
M5
G00 Z2.0000 F3000

(end: flatcam/step8-oval-cutout.nc:T1)

(start: flatcam/step10-big-holes.nc:T1)

T1 M6
M3 S16000
G00 X66.9710 Y44.9530
G01 Z-0.7000
G01 Z0
G00 Z2.0000
G01 Z-1.4000
G01 Z0
G00 Z2.0000
G01 Z-1.7000
G01 Z0
G00 Z2.0000
G00 X66.9710 Y25.9190
G01 Z-0.7000
G01 Z0
G00 Z2.0000
G01 Z-1.4000
G01 Z0
G00 Z2.0000
G01 Z-1.7000
G01 Z0
G00 Z2.0000
G00 X28.0680 Y31.3800
G01 Z-0.7000
G01 Z0
G00 Z2.0000
G01 Z-1.4000
G01 Z0
G00 Z2.0000
G01 Z-1.7000
G01 Z0
G00 Z2.0000
G00 X25.9180 Y31.3800
G01 Z-0.7000
G01 Z0
G00 Z2.0000
G01 Z-1.4000
G01 Z0
G00 Z2.0000
G01 Z-1.7000
G01 Z0
G00 Z2.0000
G00 X23.9180 Y31.3800
G01 Z-0.7000
G01 Z0
G00 Z2.0000
G01 Z-1.4000
G01 Z0
G00 Z2.0000
G01 Z-1.7000
G01 Z0
G00 Z2.0000
G00 X21.9180 Y31.3800
G01 Z-0.7000
G01 Z0
G00 Z2.0000
G01 Z-1.4000
G01 Z0
G00 Z2.0000
G01 Z-1.7000
G01 Z0
G00 Z2.0000
G00 X17.0600 Y25.7760
G01 Z-0.7000
G01 Z0
G00 Z2.0000
G01 Z-1.4000
G01 Z0
G00 Z2.0000
G01 Z-1.7000
G01 Z0
G00 Z2.0000
G00 X19.7680 Y31.3800
G01 Z-0.7000
G01 Z0
G00 Z2.0000
G01 Z-1.4000
G01 Z0
G00 Z2.0000
G01 Z-1.7000
G01 Z0
G00 Z2.0000
G00 X17.0600 Y44.8420
G01 Z-0.7000
G01 Z0
G00 Z2.0000
G01 Z-1.4000
G01 Z0
G00 Z2.0000
G01 Z-1.7000
G01 Z0
G00 Z2.0000
M5
G00 Z2.0000 F3000

(end: flatcam/step10-big-holes.nc:T1)

(start: flatcam/step11-cutout.nc:T1)

T1 M6
M3 S16000
G01 F120.00
G00 X14.9089 Y34.5170
G01 F60.00
G01 Z-0.6000
G01 F120.00
G01 X14.9089 Y24.2680
G01 X14.9095 Y24.2435
G01 X14.9102 Y24.2310
G01 X14.9150 Y24.1822
G01 X14.9168 Y24.1698
G01 X14.9264 Y24.1217
G01 X14.9294 Y24.1096
G01 X14.9436 Y24.0627
G01 X14.9478 Y24.0509
G01 X14.9666 Y24.0056
G01 X14.9719 Y23.9943
G01 X14.9951 Y23.9511
G01 X15.0015 Y23.9404
G01 X15.0287 Y23.8996
G01 X15.0362 Y23.8895
G01 X15.0673 Y23.8516
G01 X15.0757 Y23.8424
G01 X15.1104 Y23.8077
G01 X15.1196 Y23.7993
G01 X15.1575 Y23.7682
G01 X15.1676 Y23.7607
G01 X15.2084 Y23.7335
G01 X15.2191 Y23.7271
G01 X15.2623 Y23.7039
G01 X15.2736 Y23.6986
G01 X15.3189 Y23.6798
G01 X15.3307 Y23.6756
G01 X15.3776 Y23.6614
G01 X15.3897 Y23.6584
G01 X15.4378 Y23.6488
G01 X15.4502 Y23.6470
G01 X15.4990 Y23.6422
G01 X15.5360 Y23.6409
G01 X31.6650 Y23.6409
G01 X31.7020 Y23.6422
G01 X31.7508 Y23.6470
G01 X31.7632 Y23.6488
G01 X31.8113 Y23.6584
G01 X31.8234 Y23.6614
G01 X31.8703 Y23.6756
G01 X31.8821 Y23.6798
G01 X31.9274 Y23.6986
G01 X31.9387 Y23.7039
G01 X31.9819 Y23.7271
G01 X31.9926 Y23.7335
G01 X32.0334 Y23.7607
G01 X32.0435 Y23.7682
G01 X32.0814 Y23.7993
G01 X32.0906 Y23.8077
G01 X32.1253 Y23.8424
G01 X32.1337 Y23.8516
G01 X32.1648 Y23.8895
G01 X32.1723 Y23.8996
G01 X32.1995 Y23.9404
G01 X32.2059 Y23.9511
G01 X32.2291 Y23.9943
G01 X32.2344 Y24.0056
G01 X32.2532 Y24.0509
G01 X32.2574 Y24.0627
G01 X32.2716 Y24.1096
G01 X32.2746 Y24.1217
G01 X32.2842 Y24.1698
G01 X32.2860 Y24.1822
G01 X32.2908 Y24.2310
G01 X32.2921 Y24.2680
G01 X32.2921 Y26.9429
G01 X33.7049 Y26.9429
G01 X33.7049 Y24.2680
G01 X33.7062 Y24.2310
G01 X33.7110 Y24.1822
G01 X33.7128 Y24.1698
G01 X33.7224 Y24.1217
G01 X33.7254 Y24.1096
G01 X33.7396 Y24.0627
G01 X33.7438 Y24.0509
G01 X33.7626 Y24.0056
G01 X33.7679 Y23.9943
G01 X33.7911 Y23.9511
G01 X33.7975 Y23.9404
G01 X33.8247 Y23.8996
G01 X33.8322 Y23.8895
G01 X33.8633 Y23.8516
G01 X33.8717 Y23.8424
G01 X33.9064 Y23.8077
G01 X33.9156 Y23.7993
G01 X33.9535 Y23.7682
G01 X33.9636 Y23.7607
G01 X34.0044 Y23.7335
G01 X34.0151 Y23.7271
G01 X34.0583 Y23.7039
G01 X34.0696 Y23.6986
G01 X34.1149 Y23.6798
G01 X34.1267 Y23.6756
G01 X34.1736 Y23.6614
G01 X34.1857 Y23.6584
G01 X34.2338 Y23.6488
G01 X34.2462 Y23.6470
G01 X34.2950 Y23.6422
G01 X34.3320 Y23.6409
G01 X41.2155 Y23.6409
G00 X41.2155 Y23.6409
G01 F60.00
G01 Z-1.2000
G01 F120.00
G01 X34.3320 Y23.6409
G01 X34.2950 Y23.6422
G01 X34.2462 Y23.6470
G01 X34.2338 Y23.6488
G01 X34.1857 Y23.6584
G01 X34.1736 Y23.6614
G01 X34.1267 Y23.6756
G01 X34.1149 Y23.6798
G01 X34.0696 Y23.6986
G01 X34.0583 Y23.7039
G01 X34.0151 Y23.7271
G01 X34.0044 Y23.7335
G01 X33.9636 Y23.7607
G01 X33.9535 Y23.7682
G01 X33.9156 Y23.7993
G01 X33.9064 Y23.8077
G01 X33.8717 Y23.8424
G01 X33.8633 Y23.8516
G01 X33.8322 Y23.8895
G01 X33.8247 Y23.8996
G01 X33.7975 Y23.9404
G01 X33.7911 Y23.9511
G01 X33.7679 Y23.9943
G01 X33.7626 Y24.0056
G01 X33.7438 Y24.0509
G01 X33.7396 Y24.0627
G01 X33.7254 Y24.1096
G01 X33.7224 Y24.1217
G01 X33.7128 Y24.1698
G01 X33.7110 Y24.1822
G01 X33.7062 Y24.2310
G01 X33.7049 Y24.2680
G01 X33.7049 Y26.9429
G01 X32.2921 Y26.9429
G01 X32.2921 Y24.2680
G01 X32.2908 Y24.2310
G01 X32.2860 Y24.1822
G01 X32.2842 Y24.1698
G01 X32.2746 Y24.1217
G01 X32.2716 Y24.1096
G01 X32.2574 Y24.0627
G01 X32.2532 Y24.0509
G01 X32.2344 Y24.0056
G01 X32.2291 Y23.9943
G01 X32.2059 Y23.9511
G01 X32.1995 Y23.9404
G01 X32.1723 Y23.8996
G01 X32.1648 Y23.8895
G01 X32.1337 Y23.8516
G01 X32.1253 Y23.8424
G01 X32.0906 Y23.8077
G01 X32.0814 Y23.7993
G01 X32.0435 Y23.7682
G01 X32.0334 Y23.7607
G01 X31.9926 Y23.7335
G01 X31.9819 Y23.7271
G01 X31.9387 Y23.7039
G01 X31.9274 Y23.6986
G01 X31.8821 Y23.6798
G01 X31.8703 Y23.6756
G01 X31.8234 Y23.6614
G01 X31.8113 Y23.6584
G01 X31.7632 Y23.6488
G01 X31.7508 Y23.6470
G01 X31.7020 Y23.6422
G01 X31.6650 Y23.6409
G01 X15.5360 Y23.6409
G01 X15.4990 Y23.6422
G01 X15.4502 Y23.6470
G01 X15.4378 Y23.6488
G01 X15.3897 Y23.6584
G01 X15.3776 Y23.6614
G01 X15.3307 Y23.6756
G01 X15.3189 Y23.6798
G01 X15.2736 Y23.6986
G01 X15.2623 Y23.7039
G01 X15.2191 Y23.7271
G01 X15.2084 Y23.7335
G01 X15.1676 Y23.7607
G01 X15.1575 Y23.7682
G01 X15.1196 Y23.7993
G01 X15.1104 Y23.8077
G01 X15.0757 Y23.8424
G01 X15.0673 Y23.8516
G01 X15.0362 Y23.8895
G01 X15.0287 Y23.8996
G01 X15.0015 Y23.9404
G01 X14.9951 Y23.9511
G01 X14.9719 Y23.9943
G01 X14.9666 Y24.0056
G01 X14.9478 Y24.0509
G01 X14.9436 Y24.0627
G01 X14.9294 Y24.1096
G01 X14.9264 Y24.1217
G01 X14.9168 Y24.1698
G01 X14.9150 Y24.1822
G01 X14.9102 Y24.2310
G01 X14.9095 Y24.2435
G01 X14.9089 Y24.2680
G01 X14.9089 Y34.5170
G00 X14.9089 Y34.5170
G01 F60.00
G01 Z-1.7000
G01 F120.00
G01 X14.9089 Y24.2680
G01 X14.9095 Y24.2435
G01 X14.9102 Y24.2310
G01 X14.9150 Y24.1822
G01 X14.9168 Y24.1698
G01 X14.9264 Y24.1217
G01 X14.9294 Y24.1096
G01 X14.9436 Y24.0627
G01 X14.9478 Y24.0509
G01 X14.9666 Y24.0056
G01 X14.9719 Y23.9943
G01 X14.9951 Y23.9511
G01 X15.0015 Y23.9404
G01 X15.0287 Y23.8996
G01 X15.0362 Y23.8895
G01 X15.0673 Y23.8516
G01 X15.0757 Y23.8424
G01 X15.1104 Y23.8077
G01 X15.1196 Y23.7993
G01 X15.1575 Y23.7682
G01 X15.1676 Y23.7607
G01 X15.2084 Y23.7335
G01 X15.2191 Y23.7271
G01 X15.2623 Y23.7039
G01 X15.2736 Y23.6986
G01 X15.3189 Y23.6798
G01 X15.3307 Y23.6756
G01 X15.3776 Y23.6614
G01 X15.3897 Y23.6584
G01 X15.4378 Y23.6488
G01 X15.4502 Y23.6470
G01 X15.4990 Y23.6422
G01 X15.5360 Y23.6409
G01 X31.6650 Y23.6409
G01 X31.7020 Y23.6422
G01 X31.7508 Y23.6470
G01 X31.7632 Y23.6488
G01 X31.8113 Y23.6584
G01 X31.8234 Y23.6614
G01 X31.8703 Y23.6756
G01 X31.8821 Y23.6798
G01 X31.9274 Y23.6986
G01 X31.9387 Y23.7039
G01 X31.9819 Y23.7271
G01 X31.9926 Y23.7335
G01 X32.0334 Y23.7607
G01 X32.0435 Y23.7682
G01 X32.0814 Y23.7993
G01 X32.0906 Y23.8077
G01 X32.1253 Y23.8424
G01 X32.1337 Y23.8516
G01 X32.1648 Y23.8895
G01 X32.1723 Y23.8996
G01 X32.1995 Y23.9404
G01 X32.2059 Y23.9511
G01 X32.2291 Y23.9943
G01 X32.2344 Y24.0056
G01 X32.2532 Y24.0509
G01 X32.2574 Y24.0627
G01 X32.2716 Y24.1096
G01 X32.2746 Y24.1217
G01 X32.2842 Y24.1698
G01 X32.2860 Y24.1822
G01 X32.2908 Y24.2310
G01 X32.2921 Y24.2680
G01 X32.2921 Y26.9429
G01 X33.7049 Y26.9429
G01 X33.7049 Y24.2680
G01 X33.7062 Y24.2310
G01 X33.7110 Y24.1822
G01 X33.7128 Y24.1698
G01 X33.7224 Y24.1217
G01 X33.7254 Y24.1096
G01 X33.7396 Y24.0627
G01 X33.7438 Y24.0509
G01 X33.7626 Y24.0056
G01 X33.7679 Y23.9943
G01 X33.7911 Y23.9511
G01 X33.7975 Y23.9404
G01 X33.8247 Y23.8996
G01 X33.8322 Y23.8895
G01 X33.8633 Y23.8516
G01 X33.8717 Y23.8424
G01 X33.9064 Y23.8077
G01 X33.9156 Y23.7993
G01 X33.9535 Y23.7682
G01 X33.9636 Y23.7607
G01 X34.0044 Y23.7335
G01 X34.0151 Y23.7271
G01 X34.0583 Y23.7039
G01 X34.0696 Y23.6986
G01 X34.1149 Y23.6798
G01 X34.1267 Y23.6756
G01 X34.1736 Y23.6614
G01 X34.1857 Y23.6584
G01 X34.2338 Y23.6488
G01 X34.2462 Y23.6470
G01 X34.2950 Y23.6422
G01 X34.3320 Y23.6409
G01 X41.2155 Y23.6409
G00 Z2.0000
G00 X14.9089 Y36.3170
G01 F60.00
G01 Z-0.6000
G01 F120.00
G01 X14.9089 Y46.3660
G01 X14.9095 Y46.3906
G01 X14.9102 Y46.4030
G01 X14.9150 Y46.4519
G01 X14.9168 Y46.4643
G01 X14.9264 Y46.5125
G01 X14.9295 Y46.5246
G01 X14.9437 Y46.5716
G01 X14.9480 Y46.5834
G01 X14.9668 Y46.6288
G01 X14.9721 Y46.6401
G01 X14.9953 Y46.6834
G01 X15.0018 Y46.6941
G01 X15.0291 Y46.7349
G01 X15.0366 Y46.7449
G01 X15.0678 Y46.7829
G01 X15.0762 Y46.7921
G01 X15.1110 Y46.8268
G01 X15.1202 Y46.8352
G01 X15.1582 Y46.8663
G01 X15.1683 Y46.8738
G01 X15.2092 Y46.9010
G01 X15.2199 Y46.9074
G01 X15.2633 Y46.9305
G01 X15.2746 Y46.9358
G01 X15.3200 Y46.9546
G01 X15.3318 Y46.9587
G01 X15.3788 Y46.9729
G01 X15.3910 Y46.9759
G01 X15.4392 Y46.9854
G01 X15.4515 Y46.9872
G01 X15.5005 Y46.9919
G01 X15.5375 Y46.9931
G01 X31.3846 Y46.9550
G01 X31.4213 Y46.9537
G01 X31.4698 Y46.9488
G01 X31.4820 Y46.9470
G01 X31.5298 Y46.9374
G01 X31.5418 Y46.9344
G01 X31.5885 Y46.9202
G01 X31.6001 Y46.9161
G01 X31.6452 Y46.8974
G01 X31.6564 Y46.8921
G01 X31.6994 Y46.8692
G01 X31.7100 Y46.8628
G01 X31.7506 Y46.8358
G01 X31.7605 Y46.8285
G01 X31.7983 Y46.7976
G01 X31.8075 Y46.7893
G01 X31.8420 Y46.7550
G01 X31.8504 Y46.7458
G01 X31.8814 Y46.7083
G01 X31.8888 Y46.6984
G01 X31.9161 Y46.6579
G01 X31.9225 Y46.6474
G01 X31.9457 Y46.6045
G01 X31.9510 Y46.5933
G01 X31.9699 Y46.5484
G01 X31.9742 Y46.5368
G01 X31.9886 Y46.4902
G01 X31.9917 Y46.4782
G01 X32.0016 Y46.4305
G01 X32.0035 Y46.4182
G01 X32.0086 Y46.3698
G01 X32.0101 Y46.3331
G01 X32.0329 Y43.5641
G01 X33.4509 Y43.5641
G01 X33.4509 Y46.2746
G01 X33.4522 Y46.3115
G01 X33.4570 Y46.3604
G01 X33.4588 Y46.3727
G01 X33.4684 Y46.4208
G01 X33.4714 Y46.4329
G01 X33.4856 Y46.4799
G01 X33.4898 Y46.4916
G01 X33.5086 Y46.5370
G01 X33.5139 Y46.5482
G01 X33.5371 Y46.5915
G01 X33.5435 Y46.6022
G01 X33.5707 Y46.6430
G01 X33.5782 Y46.6530
G01 X33.6093 Y46.6909
G01 X33.6177 Y46.7002
G01 X33.6524 Y46.7349
G01 X33.6616 Y46.7432
G01 X33.6995 Y46.7744
G01 X33.7096 Y46.7818
G01 X33.7504 Y46.8091
G01 X33.7611 Y46.8155
G01 X33.8043 Y46.8386
G01 X33.8156 Y46.8439
G01 X33.8609 Y46.8627
G01 X33.8727 Y46.8669
G01 X33.9196 Y46.8812
G01 X33.9317 Y46.8842
G01 X33.9798 Y46.8938
G01 X33.9922 Y46.8956
G01 X34.0410 Y46.9004
G01 X34.0780 Y46.9016
G01 X41.2155 Y46.9016
G00 X41.2155 Y46.9016
G01 F60.00
G01 Z-1.2000
G01 F120.00
G01 X34.0780 Y46.9016
G01 X34.0410 Y46.9004
G01 X33.9922 Y46.8956
G01 X33.9798 Y46.8938
G01 X33.9317 Y46.8842
G01 X33.9196 Y46.8812
G01 X33.8727 Y46.8669
G01 X33.8609 Y46.8627
G01 X33.8156 Y46.8439
G01 X33.8043 Y46.8386
G01 X33.7611 Y46.8155
G01 X33.7504 Y46.8091
G01 X33.7096 Y46.7818
G01 X33.6995 Y46.7744
G01 X33.6616 Y46.7432
G01 X33.6524 Y46.7349
G01 X33.6177 Y46.7002
G01 X33.6093 Y46.6909
G01 X33.5782 Y46.6530
G01 X33.5707 Y46.6430
G01 X33.5435 Y46.6022
G01 X33.5371 Y46.5915
G01 X33.5139 Y46.5482
G01 X33.5086 Y46.5370
G01 X33.4898 Y46.4916
G01 X33.4856 Y46.4799
G01 X33.4714 Y46.4329
G01 X33.4684 Y46.4208
G01 X33.4588 Y46.3727
G01 X33.4570 Y46.3604
G01 X33.4522 Y46.3115
G01 X33.4509 Y46.2746
G01 X33.4509 Y43.5641
G01 X32.0329 Y43.5641
G01 X32.0101 Y46.3331
G01 X32.0086 Y46.3698
G01 X32.0035 Y46.4182
G01 X32.0016 Y46.4305
G01 X31.9917 Y46.4782
G01 X31.9886 Y46.4902
G01 X31.9742 Y46.5368
G01 X31.9699 Y46.5484
G01 X31.9510 Y46.5933
G01 X31.9457 Y46.6045
G01 X31.9225 Y46.6474
G01 X31.9161 Y46.6579
G01 X31.8888 Y46.6984
G01 X31.8814 Y46.7083
G01 X31.8504 Y46.7458
G01 X31.8420 Y46.7550
G01 X31.8075 Y46.7893
G01 X31.7983 Y46.7976
G01 X31.7605 Y46.8285
G01 X31.7506 Y46.8358
G01 X31.7100 Y46.8628
G01 X31.6994 Y46.8692
G01 X31.6564 Y46.8921
G01 X31.6452 Y46.8974
G01 X31.6001 Y46.9161
G01 X31.5885 Y46.9202
G01 X31.5418 Y46.9344
G01 X31.5298 Y46.9374
G01 X31.4820 Y46.9470
G01 X31.4698 Y46.9488
G01 X31.4213 Y46.9537
G01 X31.3846 Y46.9550
G01 X15.5375 Y46.9931
G01 X15.5005 Y46.9919
G01 X15.4515 Y46.9872
G01 X15.4392 Y46.9854
G01 X15.3910 Y46.9759
G01 X15.3788 Y46.9729
G01 X15.3318 Y46.9587
G01 X15.3200 Y46.9546
G01 X15.2746 Y46.9358
G01 X15.2633 Y46.9305
G01 X15.2199 Y46.9074
G01 X15.2092 Y46.9010
G01 X15.1683 Y46.8738
G01 X15.1582 Y46.8663
G01 X15.1202 Y46.8352
G01 X15.1110 Y46.8268
G01 X15.0762 Y46.7921
G01 X15.0678 Y46.7829
G01 X15.0366 Y46.7449
G01 X15.0291 Y46.7349
G01 X15.0018 Y46.6941
G01 X14.9953 Y46.6834
G01 X14.9721 Y46.6401
G01 X14.9668 Y46.6288
G01 X14.9480 Y46.5834
G01 X14.9437 Y46.5716
G01 X14.9295 Y46.5246
G01 X14.9264 Y46.5125
G01 X14.9168 Y46.4643
G01 X14.9150 Y46.4519
G01 X14.9102 Y46.4030
G01 X14.9095 Y46.3906
G01 X14.9089 Y46.3660
G01 X14.9089 Y36.3170
G00 X14.9089 Y36.3170
G01 F60.00
G01 Z-1.7000
G01 F120.00
G01 X14.9089 Y46.3660
G01 X14.9095 Y46.3906
G01 X14.9102 Y46.4030
G01 X14.9150 Y46.4519
G01 X14.9168 Y46.4643
G01 X14.9264 Y46.5125
G01 X14.9295 Y46.5246
G01 X14.9437 Y46.5716
G01 X14.9480 Y46.5834
G01 X14.9668 Y46.6288
G01 X14.9721 Y46.6401
G01 X14.9953 Y46.6834
G01 X15.0018 Y46.6941
G01 X15.0291 Y46.7349
G01 X15.0366 Y46.7449
G01 X15.0678 Y46.7829
G01 X15.0762 Y46.7921
G01 X15.1110 Y46.8268
G01 X15.1202 Y46.8352
G01 X15.1582 Y46.8663
G01 X15.1683 Y46.8738
G01 X15.2092 Y46.9010
G01 X15.2199 Y46.9074
G01 X15.2633 Y46.9305
G01 X15.2746 Y46.9358
G01 X15.3200 Y46.9546
G01 X15.3318 Y46.9587
G01 X15.3788 Y46.9729
G01 X15.3910 Y46.9759
G01 X15.4392 Y46.9854
G01 X15.4515 Y46.9872
G01 X15.5005 Y46.9919
G01 X15.5375 Y46.9931
G01 X31.3846 Y46.9550
G01 X31.4213 Y46.9537
G01 X31.4698 Y46.9488
G01 X31.4820 Y46.9470
G01 X31.5298 Y46.9374
G01 X31.5418 Y46.9344
G01 X31.5885 Y46.9202
G01 X31.6001 Y46.9161
G01 X31.6452 Y46.8974
G01 X31.6564 Y46.8921
G01 X31.6994 Y46.8692
G01 X31.7100 Y46.8628
G01 X31.7506 Y46.8358
G01 X31.7605 Y46.8285
G01 X31.7983 Y46.7976
G01 X31.8075 Y46.7893
G01 X31.8420 Y46.7550
G01 X31.8504 Y46.7458
G01 X31.8814 Y46.7083
G01 X31.8888 Y46.6984
G01 X31.9161 Y46.6579
G01 X31.9225 Y46.6474
G01 X31.9457 Y46.6045
G01 X31.9510 Y46.5933
G01 X31.9699 Y46.5484
G01 X31.9742 Y46.5368
G01 X31.9886 Y46.4902
G01 X31.9917 Y46.4782
G01 X32.0016 Y46.4305
G01 X32.0035 Y46.4182
G01 X32.0086 Y46.3698
G01 X32.0101 Y46.3331
G01 X32.0329 Y43.5641
G01 X33.4509 Y43.5641
G01 X33.4509 Y46.2746
G01 X33.4522 Y46.3115
G01 X33.4570 Y46.3604
G01 X33.4588 Y46.3727
G01 X33.4684 Y46.4208
G01 X33.4714 Y46.4329
G01 X33.4856 Y46.4799
G01 X33.4898 Y46.4916
G01 X33.5086 Y46.5370
G01 X33.5139 Y46.5482
G01 X33.5371 Y46.5915
G01 X33.5435 Y46.6022
G01 X33.5707 Y46.6430
G01 X33.5782 Y46.6530
G01 X33.6093 Y46.6909
G01 X33.6177 Y46.7002
G01 X33.6524 Y46.7349
G01 X33.6616 Y46.7432
G01 X33.6995 Y46.7744
G01 X33.7096 Y46.7818
G01 X33.7504 Y46.8091
G01 X33.7611 Y46.8155
G01 X33.8043 Y46.8386
G01 X33.8156 Y46.8439
G01 X33.8609 Y46.8627
G01 X33.8727 Y46.8669
G01 X33.9196 Y46.8812
G01 X33.9317 Y46.8842
G01 X33.9798 Y46.8938
G01 X33.9922 Y46.8956
G01 X34.0410 Y46.9004
G01 X34.0780 Y46.9016
G01 X41.2155 Y46.9016
G00 Z2.0000
G00 X43.0155 Y46.9016
G01 F60.00
G01 Z-0.6000
G01 F120.00
G01 X52.1120 Y46.9016
G01 X52.1490 Y46.9004
G01 X52.1978 Y46.8956
G01 X52.2102 Y46.8938
G01 X52.2583 Y46.8842
G01 X52.2704 Y46.8812
G01 X52.3173 Y46.8669
G01 X52.3291 Y46.8627
G01 X52.3744 Y46.8439
G01 X52.3857 Y46.8386
G01 X52.4289 Y46.8155
G01 X52.4396 Y46.8091
G01 X52.4804 Y46.7818
G01 X52.4905 Y46.7744
G01 X52.5284 Y46.7432
G01 X52.5376 Y46.7349
G01 X52.5723 Y46.7002
G01 X52.5807 Y46.6909
G01 X52.6118 Y46.6530
G01 X52.6193 Y46.6430
G01 X52.6465 Y46.6022
G01 X52.6529 Y46.5915
G01 X52.6761 Y46.5482
G01 X52.6814 Y46.5370
G01 X52.7002 Y46.4916
G01 X52.7044 Y46.4799
G01 X52.7186 Y46.4329
G01 X52.7216 Y46.4208
G01 X52.7312 Y46.3727
G01 X52.7330 Y46.3604
G01 X52.7378 Y46.3115
G01 X52.7391 Y46.2745
G01 X52.7391 Y44.5801
G01 X54.5329 Y44.5801
G01 X54.5329 Y46.2390
G01 X54.5342 Y46.2760
G01 X54.5390 Y46.3248
G01 X54.5408 Y46.3371
G01 X54.5504 Y46.3853
G01 X54.5534 Y46.3974
G01 X54.5676 Y46.4443
G01 X54.5718 Y46.4561
G01 X54.5906 Y46.5014
G01 X54.5959 Y46.5127
G01 X54.6191 Y46.5559
G01 X54.6255 Y46.5666
G01 X54.6527 Y46.6074
G01 X54.6602 Y46.6174
G01 X54.6913 Y46.6554
G01 X54.6997 Y46.6646
G01 X54.7344 Y46.6993
G01 X54.7436 Y46.7077
G01 X54.7815 Y46.7388
G01 X54.7916 Y46.7462
G01 X54.8324 Y46.7735
G01 X54.8431 Y46.7799
G01 X54.8863 Y46.8030
G01 X54.8976 Y46.8084
G01 X54.9429 Y46.8272
G01 X54.9547 Y46.8314
G01 X55.0016 Y46.8456
G01 X55.0137 Y46.8486
G01 X55.0618 Y46.8582
G01 X55.0742 Y46.8600
G01 X55.1230 Y46.8648
G01 X55.1600 Y46.8661
G01 X68.3680 Y46.8661
G01 X68.4050 Y46.8648
G01 X68.4315 Y46.8622
G01 X68.4580 Y46.8648
G01 X68.4705 Y46.8655
G01 X68.5195 Y46.8655
G01 X68.5320 Y46.8648
G01 X68.5808 Y46.8600
G01 X68.5932 Y46.8582
G01 X68.6413 Y46.8486
G01 X68.6534 Y46.8456
G01 X68.7003 Y46.8314
G01 X68.7121 Y46.8272
G01 X68.7574 Y46.8084
G01 X68.7687 Y46.8030
G01 X68.8119 Y46.7799
G01 X68.8226 Y46.7735
G01 X68.8634 Y46.7462
G01 X68.8735 Y46.7388
G01 X68.9114 Y46.7077
G01 X68.9206 Y46.6993
G01 X68.9553 Y46.6646
G01 X68.9637 Y46.6554
G01 X68.9948 Y46.6174
G01 X69.0023 Y46.6074
G01 X69.0295 Y46.5666
G01 X69.0359 Y46.5559
G01 X69.0591 Y46.5127
G01 X69.0644 Y46.5014
G01 X69.0832 Y46.4561
G01 X69.0874 Y46.4443
G01 X69.1016 Y46.3974
G01 X69.1046 Y46.3853
G01 X69.1142 Y46.3371
G01 X69.1160 Y46.3248
G01 X69.1208 Y46.2760
G01 X69.1215 Y46.2635
G01 X69.1221 Y46.2390
G01 X69.1221 Y36.3170
G00 X69.1221 Y36.3170
G01 F60.00
G01 Z-1.2000
G01 F120.00
G01 X69.1221 Y46.2390
G01 X69.1215 Y46.2635
G01 X69.1208 Y46.2760
G01 X69.1160 Y46.3248
G01 X69.1142 Y46.3371
G01 X69.1046 Y46.3853
G01 X69.1016 Y46.3974
G01 X69.0874 Y46.4443
G01 X69.0832 Y46.4561
G01 X69.0644 Y46.5014
G01 X69.0591 Y46.5127
G01 X69.0359 Y46.5559
G01 X69.0295 Y46.5666
G01 X69.0023 Y46.6074
G01 X68.9948 Y46.6174
G01 X68.9637 Y46.6554
G01 X68.9553 Y46.6646
G01 X68.9206 Y46.6993
G01 X68.9114 Y46.7077
G01 X68.8735 Y46.7388
G01 X68.8634 Y46.7462
G01 X68.8226 Y46.7735
G01 X68.8119 Y46.7799
G01 X68.7687 Y46.8030
G01 X68.7574 Y46.8084
G01 X68.7121 Y46.8272
G01 X68.7003 Y46.8314
G01 X68.6534 Y46.8456
G01 X68.6413 Y46.8486
G01 X68.5932 Y46.8582
G01 X68.5808 Y46.8600
G01 X68.5320 Y46.8648
G01 X68.5195 Y46.8655
G01 X68.4705 Y46.8655
G01 X68.4580 Y46.8648
G01 X68.4315 Y46.8622
G01 X68.4050 Y46.8648
G01 X68.3680 Y46.8661
G01 X55.1600 Y46.8661
G01 X55.1230 Y46.8648
G01 X55.0742 Y46.8600
G01 X55.0618 Y46.8582
G01 X55.0137 Y46.8486
G01 X55.0016 Y46.8456
G01 X54.9547 Y46.8314
G01 X54.9429 Y46.8272
G01 X54.8976 Y46.8084
G01 X54.8863 Y46.8030
G01 X54.8431 Y46.7799
G01 X54.8324 Y46.7735
G01 X54.7916 Y46.7462
G01 X54.7815 Y46.7388
G01 X54.7436 Y46.7077
G01 X54.7344 Y46.6993
G01 X54.6997 Y46.6646
G01 X54.6913 Y46.6554
G01 X54.6602 Y46.6174
G01 X54.6527 Y46.6074
G01 X54.6255 Y46.5666
G01 X54.6191 Y46.5559
G01 X54.5959 Y46.5127
G01 X54.5906 Y46.5014
G01 X54.5718 Y46.4561
G01 X54.5676 Y46.4443
G01 X54.5534 Y46.3974
G01 X54.5504 Y46.3853
G01 X54.5408 Y46.3371
G01 X54.5390 Y46.3248
G01 X54.5342 Y46.2760
G01 X54.5329 Y46.2390
G01 X54.5329 Y44.5801
G01 X52.7391 Y44.5801
G01 X52.7391 Y46.2745
G01 X52.7378 Y46.3115
G01 X52.7330 Y46.3604
G01 X52.7312 Y46.3727
G01 X52.7216 Y46.4208
G01 X52.7186 Y46.4329
G01 X52.7044 Y46.4799
G01 X52.7002 Y46.4916
G01 X52.6814 Y46.5370
G01 X52.6761 Y46.5482
G01 X52.6529 Y46.5915
G01 X52.6465 Y46.6022
G01 X52.6193 Y46.6430
G01 X52.6118 Y46.6530
G01 X52.5807 Y46.6909
G01 X52.5723 Y46.7002
G01 X52.5376 Y46.7349
G01 X52.5284 Y46.7432
G01 X52.4905 Y46.7744
G01 X52.4804 Y46.7818
G01 X52.4396 Y46.8091
G01 X52.4289 Y46.8155
G01 X52.3857 Y46.8386
G01 X52.3744 Y46.8439
G01 X52.3291 Y46.8627
G01 X52.3173 Y46.8669
G01 X52.2704 Y46.8812
G01 X52.2583 Y46.8842
G01 X52.2102 Y46.8938
G01 X52.1978 Y46.8956
G01 X52.1490 Y46.9004
G01 X52.1120 Y46.9016
G01 X43.0155 Y46.9016
G00 X43.0155 Y46.9016
G01 F60.00
G01 Z-1.7000
G01 F120.00
G01 X52.1120 Y46.9016
G01 X52.1490 Y46.9004
G01 X52.1978 Y46.8956
G01 X52.2102 Y46.8938
G01 X52.2583 Y46.8842
G01 X52.2704 Y46.8812
G01 X52.3173 Y46.8669
G01 X52.3291 Y46.8627
G01 X52.3744 Y46.8439
G01 X52.3857 Y46.8386
G01 X52.4289 Y46.8155
G01 X52.4396 Y46.8091
G01 X52.4804 Y46.7818
G01 X52.4905 Y46.7744
G01 X52.5284 Y46.7432
G01 X52.5376 Y46.7349
G01 X52.5723 Y46.7002
G01 X52.5807 Y46.6909
G01 X52.6118 Y46.6530
G01 X52.6193 Y46.6430
G01 X52.6465 Y46.6022
G01 X52.6529 Y46.5915
G01 X52.6761 Y46.5482
G01 X52.6814 Y46.5370
G01 X52.7002 Y46.4916
G01 X52.7044 Y46.4799
G01 X52.7186 Y46.4329
G01 X52.7216 Y46.4208
G01 X52.7312 Y46.3727
G01 X52.7330 Y46.3604
G01 X52.7378 Y46.3115
G01 X52.7391 Y46.2745
G01 X52.7391 Y44.5801
G01 X54.5329 Y44.5801
G01 X54.5329 Y46.2390
G01 X54.5342 Y46.2760
G01 X54.5390 Y46.3248
G01 X54.5408 Y46.3371
G01 X54.5504 Y46.3853
G01 X54.5534 Y46.3974
G01 X54.5676 Y46.4443
G01 X54.5718 Y46.4561
G01 X54.5906 Y46.5014
G01 X54.5959 Y46.5127
G01 X54.6191 Y46.5559
G01 X54.6255 Y46.5666
G01 X54.6527 Y46.6074
G01 X54.6602 Y46.6174
G01 X54.6913 Y46.6554
G01 X54.6997 Y46.6646
G01 X54.7344 Y46.6993
G01 X54.7436 Y46.7077
G01 X54.7815 Y46.7388
G01 X54.7916 Y46.7462
G01 X54.8324 Y46.7735
G01 X54.8431 Y46.7799
G01 X54.8863 Y46.8030
G01 X54.8976 Y46.8084
G01 X54.9429 Y46.8272
G01 X54.9547 Y46.8314
G01 X55.0016 Y46.8456
G01 X55.0137 Y46.8486
G01 X55.0618 Y46.8582
G01 X55.0742 Y46.8600
G01 X55.1230 Y46.8648
G01 X55.1600 Y46.8661
G01 X68.3680 Y46.8661
G01 X68.4050 Y46.8648
G01 X68.4315 Y46.8622
G01 X68.4580 Y46.8648
G01 X68.4705 Y46.8655
G01 X68.5195 Y46.8655
G01 X68.5320 Y46.8648
G01 X68.5808 Y46.8600
G01 X68.5932 Y46.8582
G01 X68.6413 Y46.8486
G01 X68.6534 Y46.8456
G01 X68.7003 Y46.8314
G01 X68.7121 Y46.8272
G01 X68.7574 Y46.8084
G01 X68.7687 Y46.8030
G01 X68.8119 Y46.7799
G01 X68.8226 Y46.7735
G01 X68.8634 Y46.7462
G01 X68.8735 Y46.7388
G01 X68.9114 Y46.7077
G01 X68.9206 Y46.6993
G01 X68.9553 Y46.6646
G01 X68.9637 Y46.6554
G01 X68.9948 Y46.6174
G01 X69.0023 Y46.6074
G01 X69.0295 Y46.5666
G01 X69.0359 Y46.5559
G01 X69.0591 Y46.5127
G01 X69.0644 Y46.5014
G01 X69.0832 Y46.4561
G01 X69.0874 Y46.4443
G01 X69.1016 Y46.3974
G01 X69.1046 Y46.3853
G01 X69.1142 Y46.3371
G01 X69.1160 Y46.3248
G01 X69.1208 Y46.2760
G01 X69.1215 Y46.2635
G01 X69.1221 Y46.2390
G01 X69.1221 Y36.3170
G00 Z2.0000
G00 X69.1221 Y34.5170
G01 F60.00
G01 Z-0.6000
G01 F120.00
G01 X69.1221 Y24.2680
G01 X69.1215 Y24.2435
G01 X69.1208 Y24.2310
G01 X69.1160 Y24.1822
G01 X69.1142 Y24.1698
G01 X69.1046 Y24.1217
G01 X69.1016 Y24.1096
G01 X69.0874 Y24.0627
G01 X69.0832 Y24.0509
G01 X69.0644 Y24.0056
G01 X69.0591 Y23.9943
G01 X69.0359 Y23.9511
G01 X69.0295 Y23.9404
G01 X69.0023 Y23.8996
G01 X68.9948 Y23.8895
G01 X68.9637 Y23.8516
G01 X68.9553 Y23.8424
G01 X68.9206 Y23.8077
G01 X68.9114 Y23.7993
G01 X68.8735 Y23.7682
G01 X68.8634 Y23.7607
G01 X68.8226 Y23.7335
G01 X68.8119 Y23.7271
G01 X68.7687 Y23.7039
G01 X68.7574 Y23.6986
G01 X68.7121 Y23.6798
G01 X68.7003 Y23.6756
G01 X68.6534 Y23.6614
G01 X68.6413 Y23.6584
G01 X68.5932 Y23.6488
G01 X68.5808 Y23.6470
G01 X68.5320 Y23.6422
G01 X68.4950 Y23.6409
G01 X55.1600 Y23.6409
G01 X55.1230 Y23.6422
G01 X55.0742 Y23.6470
G01 X55.0618 Y23.6488
G01 X55.0137 Y23.6584
G01 X55.0016 Y23.6614
G01 X54.9547 Y23.6756
G01 X54.9429 Y23.6798
G01 X54.8976 Y23.6986
G01 X54.8863 Y23.7039
G01 X54.8431 Y23.7271
G01 X54.8324 Y23.7335
G01 X54.7916 Y23.7607
G01 X54.7815 Y23.7682
G01 X54.7436 Y23.7993
G01 X54.7344 Y23.8077
G01 X54.6997 Y23.8424
G01 X54.6913 Y23.8516
G01 X54.6602 Y23.8895
G01 X54.6527 Y23.8996
G01 X54.6255 Y23.9404
G01 X54.6191 Y23.9511
G01 X54.5959 Y23.9943
G01 X54.5906 Y24.0056
G01 X54.5718 Y24.0509
G01 X54.5676 Y24.0627
G01 X54.5534 Y24.1096
G01 X54.5504 Y24.1217
G01 X54.5408 Y24.1698
G01 X54.5390 Y24.1822
G01 X54.5342 Y24.2310
G01 X54.5329 Y24.2680
G01 X54.5329 Y25.6729
G01 X52.6121 Y25.6729
G01 X52.6121 Y24.2680
G01 X52.6108 Y24.2310
G01 X52.6060 Y24.1822
G01 X52.6042 Y24.1698
G01 X52.5946 Y24.1217
G01 X52.5916 Y24.1096
G01 X52.5774 Y24.0627
G01 X52.5732 Y24.0509
G01 X52.5544 Y24.0056
G01 X52.5491 Y23.9943
G01 X52.5259 Y23.9511
G01 X52.5195 Y23.9404
G01 X52.4923 Y23.8996
G01 X52.4848 Y23.8895
G01 X52.4537 Y23.8516
G01 X52.4453 Y23.8424
G01 X52.4106 Y23.8077
G01 X52.4014 Y23.7993
G01 X52.3635 Y23.7682
G01 X52.3534 Y23.7607
G01 X52.3126 Y23.7335
G01 X52.3019 Y23.7271
G01 X52.2587 Y23.7039
G01 X52.2474 Y23.6986
G01 X52.2021 Y23.6798
G01 X52.1903 Y23.6756
G01 X52.1434 Y23.6614
G01 X52.1313 Y23.6584
G01 X52.0832 Y23.6488
G01 X52.0708 Y23.6470
G01 X52.0220 Y23.6422
G01 X51.9850 Y23.6409
G01 X43.0155 Y23.6409
G00 X43.0155 Y23.6409
G01 F60.00
G01 Z-1.2000
G01 F120.00
G01 X51.9850 Y23.6409
G01 X52.0220 Y23.6422
G01 X52.0708 Y23.6470
G01 X52.0832 Y23.6488
G01 X52.1313 Y23.6584
G01 X52.1434 Y23.6614
G01 X52.1903 Y23.6756
G01 X52.2021 Y23.6798
G01 X52.2474 Y23.6986
G01 X52.2587 Y23.7039
G01 X52.3019 Y23.7271
G01 X52.3126 Y23.7335
G01 X52.3534 Y23.7607
G01 X52.3635 Y23.7682
G01 X52.4014 Y23.7993
G01 X52.4106 Y23.8077
G01 X52.4453 Y23.8424
G01 X52.4537 Y23.8516
G01 X52.4848 Y23.8895
G01 X52.4923 Y23.8996
G01 X52.5195 Y23.9404
G01 X52.5259 Y23.9511
G01 X52.5491 Y23.9943
G01 X52.5544 Y24.0056
G01 X52.5732 Y24.0509
G01 X52.5774 Y24.0627
G01 X52.5916 Y24.1096
G01 X52.5946 Y24.1217
G01 X52.6042 Y24.1698
G01 X52.6060 Y24.1822
G01 X52.6108 Y24.2310
G01 X52.6121 Y24.2680
G01 X52.6121 Y25.6729
G01 X54.5329 Y25.6729
G01 X54.5329 Y24.2680
G01 X54.5342 Y24.2310
G01 X54.5390 Y24.1822
G01 X54.5408 Y24.1698
G01 X54.5504 Y24.1217
G01 X54.5534 Y24.1096
G01 X54.5676 Y24.0627
G01 X54.5718 Y24.0509
G01 X54.5906 Y24.0056
G01 X54.5959 Y23.9943
G01 X54.6191 Y23.9511
G01 X54.6255 Y23.9404
G01 X54.6527 Y23.8996
G01 X54.6602 Y23.8895
G01 X54.6913 Y23.8516
G01 X54.6997 Y23.8424
G01 X54.7344 Y23.8077
G01 X54.7436 Y23.7993
G01 X54.7815 Y23.7682
G01 X54.7916 Y23.7607
G01 X54.8324 Y23.7335
G01 X54.8431 Y23.7271
G01 X54.8863 Y23.7039
G01 X54.8976 Y23.6986
G01 X54.9429 Y23.6798
G01 X54.9547 Y23.6756
G01 X55.0016 Y23.6614
G01 X55.0137 Y23.6584
G01 X55.0618 Y23.6488
G01 X55.0742 Y23.6470
G01 X55.1230 Y23.6422
G01 X55.1600 Y23.6409
G01 X68.4950 Y23.6409
G01 X68.5320 Y23.6422
G01 X68.5808 Y23.6470
G01 X68.5932 Y23.6488
G01 X68.6413 Y23.6584
G01 X68.6534 Y23.6614
G01 X68.7003 Y23.6756
G01 X68.7121 Y23.6798
G01 X68.7574 Y23.6986
G01 X68.7687 Y23.7039
G01 X68.8119 Y23.7271
G01 X68.8226 Y23.7335
G01 X68.8634 Y23.7607
G01 X68.8735 Y23.7682
G01 X68.9114 Y23.7993
G01 X68.9206 Y23.8077
G01 X68.9553 Y23.8424
G01 X68.9637 Y23.8516
G01 X68.9948 Y23.8895
G01 X69.0023 Y23.8996
G01 X69.0295 Y23.9404
G01 X69.0359 Y23.9511
G01 X69.0591 Y23.9943
G01 X69.0644 Y24.0056
G01 X69.0832 Y24.0509
G01 X69.0874 Y24.0627
G01 X69.1016 Y24.1096
G01 X69.1046 Y24.1217
G01 X69.1142 Y24.1698
G01 X69.1160 Y24.1822
G01 X69.1208 Y24.2310
G01 X69.1215 Y24.2435
G01 X69.1221 Y24.2680
G01 X69.1221 Y34.5170
G00 X69.1221 Y34.5170
G01 F60.00
G01 Z-1.7000
G01 F120.00
G01 X69.1221 Y24.2680
G01 X69.1215 Y24.2435
G01 X69.1208 Y24.2310
G01 X69.1160 Y24.1822
G01 X69.1142 Y24.1698
G01 X69.1046 Y24.1217
G01 X69.1016 Y24.1096
G01 X69.0874 Y24.0627
G01 X69.0832 Y24.0509
G01 X69.0644 Y24.0056
G01 X69.0591 Y23.9943
G01 X69.0359 Y23.9511
G01 X69.0295 Y23.9404
G01 X69.0023 Y23.8996
G01 X68.9948 Y23.8895
G01 X68.9637 Y23.8516
G01 X68.9553 Y23.8424
G01 X68.9206 Y23.8077
G01 X68.9114 Y23.7993
G01 X68.8735 Y23.7682
G01 X68.8634 Y23.7607
G01 X68.8226 Y23.7335
G01 X68.8119 Y23.7271
G01 X68.7687 Y23.7039
G01 X68.7574 Y23.6986
G01 X68.7121 Y23.6798
G01 X68.7003 Y23.6756
G01 X68.6534 Y23.6614
G01 X68.6413 Y23.6584
G01 X68.5932 Y23.6488
G01 X68.5808 Y23.6470
G01 X68.5320 Y23.6422
G01 X68.4950 Y23.6409
G01 X55.1600 Y23.6409
G01 X55.1230 Y23.6422
G01 X55.0742 Y23.6470
G01 X55.0618 Y23.6488
G01 X55.0137 Y23.6584
G01 X55.0016 Y23.6614
G01 X54.9547 Y23.6756
G01 X54.9429 Y23.6798
G01 X54.8976 Y23.6986
G01 X54.8863 Y23.7039
G01 X54.8431 Y23.7271
G01 X54.8324 Y23.7335
G01 X54.7916 Y23.7607
G01 X54.7815 Y23.7682
G01 X54.7436 Y23.7993
G01 X54.7344 Y23.8077
G01 X54.6997 Y23.8424
G01 X54.6913 Y23.8516
G01 X54.6602 Y23.8895
G01 X54.6527 Y23.8996
G01 X54.6255 Y23.9404
G01 X54.6191 Y23.9511
G01 X54.5959 Y23.9943
G01 X54.5906 Y24.0056
G01 X54.5718 Y24.0509
G01 X54.5676 Y24.0627
G01 X54.5534 Y24.1096
G01 X54.5504 Y24.1217
G01 X54.5408 Y24.1698
G01 X54.5390 Y24.1822
G01 X54.5342 Y24.2310
G01 X54.5329 Y24.2680
G01 X54.5329 Y25.6729
G01 X52.6121 Y25.6729
G01 X52.6121 Y24.2680
G01 X52.6108 Y24.2310
G01 X52.6060 Y24.1822
G01 X52.6042 Y24.1698
G01 X52.5946 Y24.1217
G01 X52.5916 Y24.1096
G01 X52.5774 Y24.0627
G01 X52.5732 Y24.0509
G01 X52.5544 Y24.0056
G01 X52.5491 Y23.9943
G01 X52.5259 Y23.9511
G01 X52.5195 Y23.9404
G01 X52.4923 Y23.8996
G01 X52.4848 Y23.8895
G01 X52.4537 Y23.8516
G01 X52.4453 Y23.8424
G01 X52.4106 Y23.8077
G01 X52.4014 Y23.7993
G01 X52.3635 Y23.7682
G01 X52.3534 Y23.7607
G01 X52.3126 Y23.7335
G01 X52.3019 Y23.7271
G01 X52.2587 Y23.7039
G01 X52.2474 Y23.6986
G01 X52.2021 Y23.6798
G01 X52.1903 Y23.6756
G01 X52.1434 Y23.6614
G01 X52.1313 Y23.6584
G01 X52.0832 Y23.6488
G01 X52.0708 Y23.6470
G01 X52.0220 Y23.6422
G01 X51.9850 Y23.6409
G01 X43.0155 Y23.6409
G00 Z2.0000
M5
G00 Z2.0000 F3000

(end: flatcam/step11-cutout.nc:T1)
G0 Z15 F3000
M5
G28
M30