
(Machine)
(  vendor: Makera)
(  model: Carvera 3-axis)
(  description: Makera Carvera 3-axis)
G01 F3000
G90 G94
G17
G21

T5 M6
G00 X32.1227 Y38.9615 Z5.0000 F900
M3 S12000
G01 F120.00
G00 X17.1507 Y25.8379
G01 F60.00
G01 Z0.0120
G01 F120.00
G01 X17.1503 Y25.8290
G01 X17.1490 Y25.8202
G01 X17.1468 Y25.8116
G01 X17.1438 Y25.8032
G01 X17.1400 Y25.7952
G01 X17.1354 Y25.7875
G01 X17.1301 Y25.7804
G01 X17.1241 Y25.7738
G01 X17.1176 Y25.7678
G01 X17.1104 Y25.7625
G01 X17.1028 Y25.7579
G01 X17.0947 Y25.7541
G01 X17.0863 Y25.7511
G01 X17.0777 Y25.7490
G01 X17.0689 Y25.7477
G01 X17.0600 Y25.7472
G01 X17.0511 Y25.7477
G01 X17.0423 Y25.7490
G01 X17.0337 Y25.7511
G01 X17.0253 Y25.7541
G01 X17.0172 Y25.7579
G01 X17.0096 Y25.7625
G01 X17.0024 Y25.7678
G01 X16.9959 Y25.7738
G01 X16.9899 Y25.7804
G01 X16.9846 Y25.7875
G01 X16.9800 Y25.7952
G01 X16.9762 Y25.8032
G01 X16.9732 Y25.8116
G01 X16.9710 Y25.8202
G01 X16.9697 Y25.8290
G01 X16.9693 Y25.8379
G01 X16.9700 Y25.8490
G01 X16.9720 Y25.8600
G01 X16.9746 Y25.8685
G01 X16.9790 Y25.8787
G01 X16.9834 Y25.8865
G01 X16.9899 Y25.8955
G01 X16.9974 Y25.9036
G01 X17.0042 Y25.9095
G01 X17.0115 Y25.9146
G01 X17.0212 Y25.9199
G01 X17.0315 Y25.9241
G01 X17.0423 Y25.9269
G01 X17.0533 Y25.9284
G01 X17.0622 Y25.9286
G01 X17.0733 Y25.9277
G01 X17.0820 Y25.9259
G01 X17.0947 Y25.9217
G01 X17.1028 Y25.9179
G01 X17.1085 Y25.9146
G01 X17.1158 Y25.9095
G01 X17.1209 Y25.9052
G01 X17.1257 Y25.9005
G01 X17.1315 Y25.8937
G01 X17.1354 Y25.8883
G01 X17.1400 Y25.8807
G01 X17.1438 Y25.8727
G01 X17.1461 Y25.8664
G01 X17.1485 Y25.8578
G01 X17.1497 Y25.8512
G01 X17.1507 Y25.8379
G01 X17.3322 Y25.8379
G01 X17.3314 Y25.8179
G01 X17.3301 Y25.8046
G01 X17.3282 Y25.7914
G01 X17.3240 Y25.7718
G01 X17.3184 Y25.7526
G01 X17.3114 Y25.7338
G01 X17.3031 Y25.7156
G01 X17.2934 Y25.6980
G01 X17.2863 Y25.6867
G01 X17.2786 Y25.6758
G01 X17.2661 Y25.6602
G01 X17.2524 Y25.6455
G01 X17.2378 Y25.6319
G01 X17.2274 Y25.6234
G01 X17.2167 Y25.6154
G01 X17.1999 Y25.6045
G01 X17.1824 Y25.5948
G01 X17.1642 Y25.5865
G01 X17.1517 Y25.5817
G01 X17.1390 Y25.5775
G01 X17.1196 Y25.5724
G01 X17.0999 Y25.5687
G01 X17.0800 Y25.5665
G01 X17.0600 Y25.5658
G01 X17.0466 Y25.5661
G01 X17.0333 Y25.5671
G01 X17.0201 Y25.5687
G01 X17.0069 Y25.5710
G01 X16.9939 Y25.5739
G01 X16.9810 Y25.5775
G01 X16.9683 Y25.5817
G01 X16.9558 Y25.5865
G01 X16.9436 Y25.5919
G01 X16.9317 Y25.5979
G01 X16.9201 Y25.6045
G01 X16.9088 Y25.6116
G01 X16.8979 Y25.6193
G01 X16.8873 Y25.6276
G01 X16.8772 Y25.6363
G01 X16.8676 Y25.6455
G01 X16.8583 Y25.6552
G01 X16.8496 Y25.6653
G01 X16.8414 Y25.6758
G01 X16.8337 Y25.6867
G01 X16.8266 Y25.6980
G01 X16.8200 Y25.7096
G01 X16.8140 Y25.7216
G01 X16.8086 Y25.7338
G01 X16.8037 Y25.7462
G01 X16.7996 Y25.7589
G01 X16.7960 Y25.7718
G01 X16.7931 Y25.7848
G01 X16.7908 Y25.7980
G01 X16.7892 Y25.8113
G01 X16.7882 Y25.8246
G01 X16.7878 Y25.8379
G01 X16.7886 Y25.8580
G01 X16.7899 Y25.8712
G01 X16.7918 Y25.8845
G01 X16.7945 Y25.8976
G01 X16.7977 Y25.9105
G01 X16.8016 Y25.9233
G01 X16.8061 Y25.9359
G01 X16.8112 Y25.9482
G01 X16.8169 Y25.9603
G01 X16.8232 Y25.9721
G01 X16.8337 Y25.9891
G01 X16.8414 Y26.0001
G01 X16.8496 Y26.0106
G01 X16.8583 Y26.0207
G01 X16.8676 Y26.0304
G01 X16.8772 Y26.0396
G01 X16.8873 Y26.0483
G01 X16.9033 Y26.0604
G01 X16.9144 Y26.0679
G01 X16.9259 Y26.0747
G01 X16.9376 Y26.0810
G01 X16.9497 Y26.0867
G01 X16.9621 Y26.0919
G01 X16.9746 Y26.0964
G01 X16.9939 Y26.1019
G01 X17.0069 Y26.1049
G01 X17.0201 Y26.1071
G01 X17.0333 Y26.1088
G01 X17.0533 Y26.1100
G01 X17.0667 Y26.1100
G01 X17.0800 Y26.1094
G01 X17.0933 Y26.1080
G01 X17.1065 Y26.1061
G01 X17.1196 Y26.1035
G01 X17.1390 Y26.0984
G01 X17.1517 Y26.0942
G01 X17.1642 Y26.0894
G01 X17.1764 Y26.0840
G01 X17.1883 Y26.0780
G01 X17.2056 Y26.0679
G01 X17.2167 Y26.0604
G01 X17.2274 Y26.0525
G01 X17.2378 Y26.0440
G01 X17.2477 Y26.0350
G01 X17.2617 Y26.0207
G01 X17.2704 Y26.0106
G01 X17.2786 Y26.0001
G01 X17.2863 Y25.9891
G01 X17.2934 Y25.9779
G01 X17.3031 Y25.9603
G01 X17.3088 Y25.9482
G01 X17.3139 Y25.9359
G01 X17.3184 Y25.9233
G01 X17.3223 Y25.9105
G01 X17.3269 Y25.8910
G01 X17.3292 Y25.8779
G01 X17.3308 Y25.8646
G01 X17.3318 Y25.8513
G01 X17.3322 Y25.8379
G01 X17.5136 Y25.8379
G01 X17.5131 Y25.8157
G01 X17.5114 Y25.7935
G01 X17.5087 Y25.7714
G01 X17.5049 Y25.7494
G01 X17.5000 Y25.7277
G01 X17.4941 Y25.7063
G01 X17.4907 Y25.6956
G01 X17.4832 Y25.6747
G01 X17.4747 Y25.6541
G01 X17.4700 Y25.6440
G01 X17.4600 Y25.6241
G01 X17.4491 Y25.6047
G01 X17.4372 Y25.5859
G01 X17.4243 Y25.5677
G01 X17.4176 Y25.5589
G01 X17.4035 Y25.5417
G01 X17.3885 Y25.5252
G01 X17.3728 Y25.5094
G01 X17.3563 Y25.4945
G01 X17.3478 Y25.4873
G01 X17.3302 Y25.4736
G01 X17.3212 Y25.4671
G01 X17.3027 Y25.4547
G01 X17.2836 Y25.4433
G01 X17.2738 Y25.4379
G01 X17.2539 Y25.4279
G01 X17.2336 Y25.4189
G01 X17.2128 Y25.4108
G01 X17.1917 Y25.4039
G01 X17.1702 Y25.3979
G01 X17.1485 Y25.3930
G01 X17.1375 Y25.3910
G01 X17.1155 Y25.3877
G01 X17.0934 Y25.3856
G01 X17.0823 Y25.3849
G01 X17.0600 Y25.3843
G01 X17.0377 Y25.3849
G01 X17.0155 Y25.3865
G01 X16.9934 Y25.3892
G01 X16.9715 Y25.3930
G01 X16.9498 Y25.3979
G01 X16.9283 Y25.4039
G01 X16.9072 Y25.4108
G01 X16.8864 Y25.4189
G01 X16.8661 Y25.4279
G01 X16.8462 Y25.4379
G01 X16.8268 Y25.4489
G01 X16.8080 Y25.4608
G01 X16.7898 Y25.4736
G01 X16.7722 Y25.4873
G01 X16.7554 Y25.5018
G01 X16.7393 Y25.5172
G01 X16.7239 Y25.5333
G01 X16.7094 Y25.5502
G01 X16.6957 Y25.5677
G01 X16.6828 Y25.5859
G01 X16.6709 Y25.6047
G01 X16.6600 Y25.6241
G01 X16.6500 Y25.6440
G01 X16.6409 Y25.6643
G01 X16.6329 Y25.6851
G01 X16.6259 Y25.7063
G01 X16.6200 Y25.7277
G01 X16.6151 Y25.7494
G01 X16.6113 Y25.7714
G01 X16.6086 Y25.7935
G01 X16.6069 Y25.8157
G01 X16.6064 Y25.8379
G01 X16.6069 Y25.8602
G01 X16.6076 Y25.8713
G01 X16.6098 Y25.8935
G01 X16.6131 Y25.9155
G01 X16.6174 Y25.9373
G01 X16.6228 Y25.9589
G01 X16.6293 Y25.9802
G01 X16.6368 Y26.0012
G01 X16.6453 Y26.0218
G01 X16.6548 Y26.0419
G01 X16.6653 Y26.0615
G01 X16.6709 Y26.0711
G01 X16.6828 Y26.0899
G01 X16.6957 Y26.1081
G01 X16.7094 Y26.1257
G01 X16.7239 Y26.1426
G01 X16.7393 Y26.1587
G01 X16.7554 Y26.1740
G01 X16.7722 Y26.1886
G01 X16.7898 Y26.2023
G01 X16.8080 Y26.2151
G01 X16.8268 Y26.2270
G01 X16.8462 Y26.2380
G01 X16.8661 Y26.2480
G01 X16.8864 Y26.2570
G01 X16.9072 Y26.2650
G01 X16.9177 Y26.2686
G01 X16.9390 Y26.2751
G01 X16.9606 Y26.2805
G01 X16.9715 Y26.2828
G01 X16.9934 Y26.2866
G01 X17.0155 Y26.2893
G01 X17.0377 Y26.2910
G01 X17.0600 Y26.2915
G01 X17.0823 Y26.2910
G01 X17.1045 Y26.2893
G01 X17.1266 Y26.2866
G01 X17.1375 Y26.2849
G01 X17.1594 Y26.2805
G01 X17.1810 Y26.2751
G01 X17.2023 Y26.2686
G01 X17.2128 Y26.2650
G01 X17.2336 Y26.2570
G01 X17.2539 Y26.2480
G01 X17.2639 Y26.2431
G01 X17.2836 Y26.2326
G01 X17.3027 Y26.2212
G01 X17.3212 Y26.2088
G01 X17.3391 Y26.1955
G01 X17.3478 Y26.1886
G01 X17.3646 Y26.1740
G01 X17.3728 Y26.1665
G01 X17.3885 Y26.1507
G01 X17.4035 Y26.1342
G01 X17.4176 Y26.1170
G01 X17.4309 Y26.0991
G01 X17.4432 Y26.0806
G01 X17.4547 Y26.0615
G01 X17.4652 Y26.0419
G01 X17.4747 Y26.0218
G01 X17.4832 Y26.0012
G01 X17.4907 Y25.9802
G01 X17.4972 Y25.9589
G01 X17.5026 Y25.9373
G01 X17.5069 Y25.9155
G01 X17.5087 Y25.9045
G01 X17.5114 Y25.8824
G01 X17.5131 Y25.8602
G01 X17.5136 Y25.8379
G01 X17.6950 Y25.8379
G01 X17.6948 Y25.8223
G01 X17.6933 Y25.7912
G01 X17.6920 Y25.7757
G01 X17.6882 Y25.7448
G01 X17.6828 Y25.7140
G01 X17.6760 Y25.6836
G01 X17.6677 Y25.6536
G01 X17.6579 Y25.6240
G01 X17.6467 Y25.5949
G01 X17.6406 Y25.5806
G01 X17.6272 Y25.5524
G01 X17.6125 Y25.5249
G01 X17.5965 Y25.4982
G01 X17.5880 Y25.4851
G01 X17.5701 Y25.4596
G01 X17.5509 Y25.4351
G01 X17.5305 Y25.4115
G01 X17.5090 Y25.3889
G01 X17.4865 Y25.3674
G01 X17.4748 Y25.3571
G01 X17.4507 Y25.3373
G01 X17.4257 Y25.3187
G01 X17.3997 Y25.3014
G01 X17.3730 Y25.2854
G01 X17.3455 Y25.2707
G01 X17.3173 Y25.2574
G01 X17.3030 Y25.2512
G01 X17.2739 Y25.2400
G01 X17.2443 Y25.2302
G01 X17.2143 Y25.2219
G01 X17.1991 Y25.2183
G01 X17.1686 Y25.2122
G01 X17.1377 Y25.2077
G01 X17.1067 Y25.2046
G01 X17.0912 Y25.2037
G01 X17.0600 Y25.2029
G01 X17.0288 Y25.2037
G01 X16.9978 Y25.2060
G01 X16.9668 Y25.2098
G01 X16.9361 Y25.2151
G01 X16.9057 Y25.2219
G01 X16.8757 Y25.2302
G01 X16.8461 Y25.2400
G01 X16.8170 Y25.2512
G01 X16.7885 Y25.2639
G01 X16.7606 Y25.2779
G01 X16.7335 Y25.2932
G01 X16.7072 Y25.3099
G01 X16.6817 Y25.3279
G01 X16.6571 Y25.3470
G01 X16.6335 Y25.3674
G01 X16.6110 Y25.3889
G01 X16.5895 Y25.4115
G01 X16.5691 Y25.4351
G01 X16.5499 Y25.4596
G01 X16.5320 Y25.4851
G01 X16.5153 Y25.5115
G01 X16.4999 Y25.5386
G01 X16.4859 Y25.5664
G01 X16.4733 Y25.5949
G01 X16.4621 Y25.6240
G01 X16.4523 Y25.6536
G01 X16.4440 Y25.6836
G01 X16.4372 Y25.7140
G01 X16.4318 Y25.7448
G01 X16.4280 Y25.7757
G01 X16.4257 Y25.8068
G01 X16.4250 Y25.8379
G01 X16.4257 Y25.8691
G01 X16.4280 Y25.9002
G01 X16.4318 Y25.9311
G01 X16.4372 Y25.9618
G01 X16.4440 Y25.9922
G01 X16.4523 Y26.0223
G01 X16.4621 Y26.0519
G01 X16.4733 Y26.0810
G01 X16.4859 Y26.1094
G01 X16.4999 Y26.1373
G01 X16.5153 Y26.1644
G01 X16.5320 Y26.1907
G01 X16.5499 Y26.2162
G01 X16.5594 Y26.2286
G01 X16.5791 Y26.2527
G01 X16.6001 Y26.2758
G01 X16.6221 Y26.2979
G01 X16.6452 Y26.3188
G01 X16.6693 Y26.3386
G01 X16.6943 Y26.3571
G01 X16.7203 Y26.3744
G01 X16.7470 Y26.3905
G01 X16.7745 Y26.4052
G01 X16.7885 Y26.4120
G01 X16.8170 Y26.4246
G01 X16.8461 Y26.4359
G01 X16.8757 Y26.4456
G01 X16.9057 Y26.4539
G01 X16.9361 Y26.4608
G01 X16.9668 Y26.4661
G01 X16.9978 Y26.4699
G01 X17.0288 Y26.4722
G01 X17.0600 Y26.4730
G01 X17.0756 Y26.4728
G01 X17.1067 Y26.4713
G01 X17.1377 Y26.4682
G01 X17.1532 Y26.4661
G01 X17.1839 Y26.4608
G01 X17.2143 Y26.4539
G01 X17.2443 Y26.4456
G01 X17.2739 Y26.4359
G01 X17.3030 Y26.4246
G01 X17.3173 Y26.4185
G01 X17.3455 Y26.4052
G01 X17.3730 Y26.3905
G01 X17.3997 Y26.3744
G01 X17.4128 Y26.3660
G01 X17.4383 Y26.3480
G01 X17.4629 Y26.3288
G01 X17.4865 Y26.3085
G01 X17.4979 Y26.2979
G01 X17.5199 Y26.2758
G01 X17.5409 Y26.2527
G01 X17.5606 Y26.2286
G01 X17.5701 Y26.2162
G01 X17.5880 Y26.1907
G01 X17.6047 Y26.1644
G01 X17.6201 Y26.1373
G01 X17.6341 Y26.1094
G01 X17.6467 Y26.0810
G01 X17.6579 Y26.0519
G01 X17.6677 Y26.0223
G01 X17.6760 Y25.9922
G01 X17.6828 Y25.9618
G01 X17.6882 Y25.9311
G01 X17.6920 Y25.9002
G01 X17.6943 Y25.8691
G01 X17.6950 Y25.8379
G01 X17.8765 Y25.8379
G01 X17.8762 Y25.8179
G01 X17.8743 Y25.7779
G01 X17.8703 Y25.7380
G01 X17.8645 Y25.6983
G01 X17.8608 Y25.6786
G01 X17.8520 Y25.6395
G01 X17.8413 Y25.6009
G01 X17.8288 Y25.5629
G01 X17.8143 Y25.5255
G01 X17.7981 Y25.4888
G01 X17.7801 Y25.4530
G01 X17.7603 Y25.4182
G01 X17.7389 Y25.3843
G01 X17.7158 Y25.3516
G01 X17.6911 Y25.3200
G01 X17.6650 Y25.2896
G01 X17.6373 Y25.2606
G01 X17.6230 Y25.2466
G01 X17.5933 Y25.2197
G01 X17.5623 Y25.1943
G01 X17.5301 Y25.1704
G01 X17.4968 Y25.1481
G01 X17.4798 Y25.1376
G01 X17.4624 Y25.1275
G01 X17.4271 Y25.1086
G01 X17.3909 Y25.0915
G01 X17.3538 Y25.0762
G01 X17.3161 Y25.0627
G01 X17.2778 Y25.0510
G01 X17.2389 Y25.0413
G01 X17.1996 Y25.0335
G01 X17.1599 Y25.0276
G01 X17.1201 Y25.0237
G01 X17.0800 Y25.0217
G01 X17.0600 Y25.0215
G01 X17.0199 Y25.0224
G01 X16.9800 Y25.0254
G01 X16.9402 Y25.0303
G01 X16.9007 Y25.0371
G01 X16.8616 Y25.0459
G01 X16.8230 Y25.0566
G01 X16.7849 Y25.0692
G01 X16.7475 Y25.0836
G01 X16.7109 Y25.0998
G01 X16.6751 Y25.1179
G01 X16.6402 Y25.1376
G01 X16.6064 Y25.1591
G01 X16.5736 Y25.1821
G01 X16.5420 Y25.2068
G01 X16.5117 Y25.2330
G01 X16.4827 Y25.2606
G01 X16.4550 Y25.2896
G01 X16.4289 Y25.3200
G01 X16.4042 Y25.3516
G01 X16.3811 Y25.3843
G01 X16.3597 Y25.4182
G01 X16.3399 Y25.4530
G01 X16.3219 Y25.4888
G01 X16.3057 Y25.5255
G01 X16.2912 Y25.5629
G01 X16.2787 Y25.6009
G01 X16.2680 Y25.6395
G01 X16.2592 Y25.6786
G01 X16.2524 Y25.7181
G01 X16.2475 Y25.7579
G01 X16.2445 Y25.7979
G01 X16.2435 Y25.8379
G01 X16.2445 Y25.8780
G01 X16.2457 Y25.8980
G01 X16.2475 Y25.9180
G01 X16.2524 Y25.9577
G01 X16.2555 Y25.9775
G01 X16.2634 Y26.0168
G01 X16.2731 Y26.0557
G01 X16.2787 Y26.0749
G01 X16.2912 Y26.1130
G01 X16.2982 Y26.1318
G01 X16.3136 Y26.1688
G01 X16.3307 Y26.2050
G01 X16.3496 Y26.2404
G01 X16.3597 Y26.2577
G01 X16.3811 Y26.2915
G01 X16.3925 Y26.3081
G01 X16.4163 Y26.3403
G01 X16.4289 Y26.3559
G01 X16.4550 Y26.3862
G01 X16.4687 Y26.4009
G01 X16.4970 Y26.4293
G01 X16.5267 Y26.4562
G01 X16.5420 Y26.4691
G01 X16.5577 Y26.4816
G01 X16.5899 Y26.5055
G01 X16.6232 Y26.5277
G01 X16.6402 Y26.5383
G01 X16.6576 Y26.5483
G01 X16.6929 Y26.5672
G01 X16.7109 Y26.5760
G01 X16.7475 Y26.5923
G01 X16.7662 Y26.5997
G01 X16.8039 Y26.6132
G01 X16.8230 Y26.6193
G01 X16.8616 Y26.6299
G01 X16.9007 Y26.6387
G01 X16.9402 Y26.6456
G01 X16.9601 Y26.6483
G01 X16.9999 Y26.6522
G01 X17.0400 Y26.6542
G01 X17.0600 Y26.6544
G01 X17.1001 Y26.6534
G01 X17.1201 Y26.6522
G01 X17.1400 Y26.6505
G01 X17.1798 Y26.6456
G01 X17.2193 Y26.6387
G01 X17.2389 Y26.6346
G01 X17.2778 Y26.6248
G01 X17.2970 Y26.6193
G01 X17.3351 Y26.6067
G01 X17.3538 Y26.5997
G01 X17.3909 Y26.5844
G01 X17.4091 Y26.5760
G01 X17.4449 Y26.5580
G01 X17.4624 Y26.5483
G01 X17.4968 Y26.5277
G01 X17.5301 Y26.5055
G01 X17.5464 Y26.4937
G01 X17.5780 Y26.4691
G01 X17.6083 Y26.4429
G01 X17.6373 Y26.4153
G01 X17.6650 Y26.3862
G01 X17.6782 Y26.3712
G01 X17.7037 Y26.3403
G01 X17.7275 Y26.3081
G01 X17.7498 Y26.2747
G01 X17.7603 Y26.2577
G01 X17.7801 Y26.2228
G01 X17.7981 Y26.1870
G01 X17.8064 Y26.1688
G01 X17.8218 Y26.1318
G01 X17.8353 Y26.0940
G01 X17.8469 Y26.0557
G01 X17.8520 Y26.0363
G01 X17.8608 Y25.9972
G01 X17.8676 Y25.9577
G01 X17.8703 Y25.9379
G01 X17.8743 Y25.8980
G01 X17.8755 Y25.8780
G01 X17.8765 Y25.8379
G01 X17.9973 Y25.7920
G01 X17.9927 Y25.7001
G01 X17.9793 Y25.6091
G01 X17.9569 Y25.5199
G01 X17.9259 Y25.4333
G01 X17.8866 Y25.3502
G01 X17.8393 Y25.2713
G01 X17.7845 Y25.1974
G01 X17.7227 Y25.1293
G01 X17.6546 Y25.0675
G01 X17.5807 Y25.0127
G01 X17.5018 Y24.9654
G01 X17.4187 Y24.9261
G01 X17.3321 Y24.8951
G01 X17.2429 Y24.8727
G01 X17.1519 Y24.8593
G01 X17.0600 Y24.8547
G01 X16.9681 Y24.8593
G01 X16.8771 Y24.8727
G01 X16.7879 Y24.8951
G01 X16.7013 Y24.9261
G01 X16.6182 Y24.9654
G01 X16.5393 Y25.0127
G01 X16.4654 Y25.0675
G01 X16.3973 Y25.1293
G01 X16.3355 Y25.1974
G01 X16.2807 Y25.2713
G01 X16.2334 Y25.3502
G01 X16.1941 Y25.4333
G01 X16.1631 Y25.5199
G01 X16.1407 Y25.6091
G01 X16.1273 Y25.7001
G01 X16.1227 Y25.7920
G01 X16.1273 Y25.8839
G01 X16.1407 Y25.9749
G01 X16.1631 Y26.0641
G01 X16.1941 Y26.1507
G01 X16.2334 Y26.2338
G01 X16.2807 Y26.3127
G01 X16.3355 Y26.3866
G01 X16.3973 Y26.4547
G01 X16.4654 Y26.5165
G01 X16.5393 Y26.5713
G01 X16.6182 Y26.6186
G01 X16.7013 Y26.6579
G01 X16.7879 Y26.6889
G01 X16.8771 Y26.7113
G01 X16.9681 Y26.7247
G01 X17.0600 Y26.7293
G01 X17.1519 Y26.7247
G01 X17.2429 Y26.7113
G01 X17.3321 Y26.6889
G01 X17.4187 Y26.6579
G01 X17.5018 Y26.6186
G01 X17.5807 Y26.5713
G01 X17.6546 Y26.5165
G01 X17.7227 Y26.4547
G01 X17.7845 Y26.3866
G01 X17.8393 Y26.3127
G01 X17.8866 Y26.2338
G01 X17.9259 Y26.1507
G01 X17.9569 Y26.0641
G01 X17.9793 Y25.9749
G01 X17.9927 Y25.8839
G01 X17.9973 Y25.7920
G00 Z2.0000
G00 X23.8136 Y29.3726
G01 F60.00
G01 Z0.0120
G01 F120.00
G01 X23.8136 Y30.6574
G01 X25.0384 Y30.6574
G01 X25.0384 Y29.3726
G01 X23.8136 Y29.3726
G01 X23.8136 Y29.4751
G01 X23.8210 Y29.4667
G01 X23.8347 Y29.4520
G01 X23.8630 Y29.4237
G01 X23.8927 Y29.3968
G01 X23.9221 Y29.3726
G01 X23.8136 Y29.8470
G01 X23.8140 Y29.8456
G01 X23.8183 Y29.8307
G01 X23.8281 Y29.8011
G01 X23.8393 Y29.7720
G01 X23.8454 Y29.7577
G01 X23.8519 Y29.7435
G01 X23.8659 Y29.7157
G01 X23.8813 Y29.6885
G01 X23.8980 Y29.6622
G01 X23.9159 Y29.6367
G01 X23.9351 Y29.6121
G01 X23.9555 Y29.5885
G01 X23.9661 Y29.5771
G01 X23.9881 Y29.5551
G01 X23.9995 Y29.5445
G01 X24.0231 Y29.5241
G01 X24.0353 Y29.5144
G01 X24.0603 Y29.4958
G01 X24.0732 Y29.4870
G01 X24.0995 Y29.4703
G01 X24.1266 Y29.4550
G01 X24.1545 Y29.4409
G01 X24.1830 Y29.4283
G01 X24.2121 Y29.4171
G01 X24.2268 Y29.4120
G01 X24.2566 Y29.4030
G01 X24.2717 Y29.3990
G01 X24.2869 Y29.3954
G01 X24.3174 Y29.3893
G01 X24.3483 Y29.3847
G01 X24.3793 Y29.3817
G01 X24.4104 Y29.3802
G01 X24.4260 Y29.3800
G01 X24.4416 Y29.3802
G01 X24.4727 Y29.3817
G01 X24.5037 Y29.3847
G01 X24.5346 Y29.3893
G01 X24.5651 Y29.3954
G01 X24.5803 Y29.3990
G01 X24.6103 Y29.4073
G01 X24.6399 Y29.4171
G01 X24.6690 Y29.4283
G01 X24.6833 Y29.4345
G01 X24.7115 Y29.4478
G01 X24.7390 Y29.4625
G01 X24.7657 Y29.4785
G01 X24.7788 Y29.4870
G01 X24.7917 Y29.4958
G01 X24.8167 Y29.5144
G01 X24.8408 Y29.5342
G01 X24.8525 Y29.5445
G01 X24.8750 Y29.5660
G01 X24.8965 Y29.5885
G01 X24.9069 Y29.6002
G01 X24.9266 Y29.6243
G01 X24.9452 Y29.6493
G01 X24.9540 Y29.6622
G01 X24.9625 Y29.6753
G01 X24.9785 Y29.7020
G01 X24.9932 Y29.7295
G01 X25.0066 Y29.7577
G01 X25.0127 Y29.7720
G01 X25.0239 Y29.8011
G01 X25.0337 Y29.8307
G01 X25.0384 Y29.8470
G01 X24.8796 Y30.0150
G01 X24.8791 Y29.9928
G01 X24.8784 Y29.9816
G01 X24.8762 Y29.9595
G01 X24.8729 Y29.9375
G01 X24.8709 Y29.9265
G01 X24.8660 Y29.9048
G01 X24.8632 Y29.8940
G01 X24.8601 Y29.8833
G01 X24.8531 Y29.8622
G01 X24.8492 Y29.8518
G01 X24.8407 Y29.8312
G01 X24.8360 Y29.8211
G01 X24.8260 Y29.8012
G01 X24.8151 Y29.7818
G01 X24.8032 Y29.7630
G01 X24.7969 Y29.7538
G01 X24.7836 Y29.7359
G01 X24.7695 Y29.7187
G01 X24.7621 Y29.7104
G01 X24.7545 Y29.7022
G01 X24.7388 Y29.6865
G01 X24.7223 Y29.6715
G01 X24.7138 Y29.6644
G01 X24.6962 Y29.6507
G01 X24.6872 Y29.6442
G01 X24.6780 Y29.6379
G01 X24.6592 Y29.6259
G01 X24.6398 Y29.6150
G01 X24.6299 Y29.6098
G01 X24.6098 Y29.6003
G01 X24.5892 Y29.5918
G01 X24.5788 Y29.5879
G01 X24.5577 Y29.5809
G01 X24.5470 Y29.5778
G01 X24.5362 Y29.5750
G01 X24.5145 Y29.5701
G01 X24.5035 Y29.5681
G01 X24.4815 Y29.5648
G01 X24.4594 Y29.5626
G01 X24.4483 Y29.5620
G01 X24.4260 Y29.5614
G01 X24.4037 Y29.5620
G01 X24.3926 Y29.5626
G01 X24.3705 Y29.5648
G01 X24.3594 Y29.5663
G01 X24.3485 Y29.5681
G01 X24.3266 Y29.5724
G01 X24.3158 Y29.5750
G01 X24.2943 Y29.5809
G01 X24.2837 Y29.5843
G01 X24.2628 Y29.5918
G01 X24.2422 Y29.6003
G01 X24.2321 Y29.6050
G01 X24.2122 Y29.6150
G01 X24.1928 Y29.6259
G01 X24.1833 Y29.6318
G01 X24.1648 Y29.6442
G01 X24.1558 Y29.6507
G01 X24.1469 Y29.6574
G01 X24.1297 Y29.6715
G01 X24.1132 Y29.6865
G01 X24.1053 Y29.6943
G01 X24.0899 Y29.7104
G01 X24.0754 Y29.7272
G01 X24.0684 Y29.7359
G01 X24.0551 Y29.7538
G01 X24.0428 Y29.7723
G01 X24.0313 Y29.7914
G01 X24.0208 Y29.8111
G01 X24.0160 Y29.8211
G01 X24.0069 Y29.8414
G01 X23.9989 Y29.8622
G01 X23.9953 Y29.8727
G01 X23.9919 Y29.8833
G01 X23.9860 Y29.9048
G01 X23.9811 Y29.9265
G01 X23.9773 Y29.9485
G01 X23.9758 Y29.9595
G01 X23.9736 Y29.9816
G01 X23.9729 Y29.9928
G01 X23.9724 Y30.0150
G01 X23.9729 Y30.0373
G01 X23.9736 Y30.0484
G01 X23.9758 Y30.0705
G01 X23.9791 Y30.0926
G01 X23.9834 Y30.1144
G01 X23.9860 Y30.1252
G01 X23.9919 Y30.1467
G01 X23.9989 Y30.1678
G01 X24.0069 Y30.1886
G01 X24.0113 Y30.1988
G01 X24.0160 Y30.2089
G01 X24.0260 Y30.2288
G01 X24.0369 Y30.2482
G01 X24.0488 Y30.2670
G01 X24.0617 Y30.2852
G01 X24.0684 Y30.2941
G01 X24.0825 Y30.3113
G01 X24.0975 Y30.3278
G01 X24.1053 Y30.3358
G01 X24.1132 Y30.3435
G01 X24.1297 Y30.3585
G01 X24.1469 Y30.3726
G01 X24.1648 Y30.3859
G01 X24.1833 Y30.3982
G01 X24.1928 Y30.4041
G01 X24.2122 Y30.4150
G01 X24.2321 Y30.4251
G01 X24.2524 Y30.4341
G01 X24.2732 Y30.4421
G01 X24.2837 Y30.4457
G01 X24.3050 Y30.4522
G01 X24.3266 Y30.4576
G01 X24.3375 Y30.4599
G01 X24.3594 Y30.4637
G01 X24.3705 Y30.4652
G01 X24.3926 Y30.4674
G01 X24.4149 Y30.4685
G01 X24.4371 Y30.4685
G01 X24.4594 Y30.4674
G01 X24.4815 Y30.4652
G01 X24.4926 Y30.4637
G01 X24.5035 Y30.4619
G01 X24.5254 Y30.4576
G01 X24.5470 Y30.4522
G01 X24.5683 Y30.4457
G01 X24.5788 Y30.4421
G01 X24.5996 Y30.4341
G01 X24.6199 Y30.4251
G01 X24.6299 Y30.4202
G01 X24.6496 Y30.4097
G01 X24.6687 Y30.3982
G01 X24.6872 Y30.3859
G01 X24.7051 Y30.3726
G01 X24.7223 Y30.3585
G01 X24.7306 Y30.3511
G01 X24.7467 Y30.3358
G01 X24.7545 Y30.3278
G01 X24.7695 Y30.3113
G01 X24.7836 Y30.2941
G01 X24.7969 Y30.2762
G01 X24.8032 Y30.2670
G01 X24.8151 Y30.2482
G01 X24.8260 Y30.2288
G01 X24.8360 Y30.2089
G01 X24.8407 Y30.1988
G01 X24.8492 Y30.1783
G01 X24.8531 Y30.1678
G01 X24.8601 Y30.1467
G01 X24.8632 Y30.1360
G01 X24.8660 Y30.1252
G01 X24.8686 Y30.1144
G01 X24.8729 Y30.0926
G01 X24.8762 Y30.0705
G01 X24.8784 Y30.0484
G01 X24.8795 Y30.0261
G01 X24.8796 Y30.0150
G01 X24.6982 Y30.0150
G01 X24.6974 Y29.9950
G01 X24.6961 Y29.9817
G01 X24.6942 Y29.9685
G01 X24.6915 Y29.9554
G01 X24.6864 Y29.9360
G01 X24.6823 Y29.9233
G01 X24.6774 Y29.9109
G01 X24.6691 Y29.8926
G01 X24.6628 Y29.8809
G01 X24.6523 Y29.8638
G01 X24.6406 Y29.8476
G01 X24.6321 Y29.8372
G01 X24.6231 Y29.8273
G01 X24.6137 Y29.8179
G01 X24.6038 Y29.8089
G01 X24.5881 Y29.7964
G01 X24.5772 Y29.7887
G01 X24.5601 Y29.7782
G01 X24.5484 Y29.7719
G01 X24.5363 Y29.7662
G01 X24.5177 Y29.7588
G01 X24.5050 Y29.7546
G01 X24.4921 Y29.7510
G01 X24.4791 Y29.7481
G01 X24.4593 Y29.7449
G01 X24.4460 Y29.7436
G01 X24.4327 Y29.7429
G01 X24.4193 Y29.7429
G01 X24.4060 Y29.7436
G01 X24.3927 Y29.7449
G01 X24.3795 Y29.7469
G01 X24.3599 Y29.7510
G01 X24.3406 Y29.7566
G01 X24.3218 Y29.7636
G01 X24.3036 Y29.7719
G01 X24.2861 Y29.7816
G01 X24.2693 Y29.7925
G01 X24.2586 Y29.8005
G01 X24.2432 Y29.8134
G01 X24.2289 Y29.8273
G01 X24.2156 Y29.8424
G01 X24.2035 Y29.8583
G01 X24.1926 Y29.8751
G01 X24.1829 Y29.8926
G01 X24.1746 Y29.9109
G01 X24.1676 Y29.9296
G01 X24.1620 Y29.9489
G01 X24.1578 Y29.9685
G01 X24.1552 Y29.9883
G01 X24.1539 Y30.0083
G01 X24.1542 Y30.0284
G01 X24.1559 Y30.0483
G01 X24.1591 Y30.0681
G01 X24.1637 Y30.0876
G01 X24.1697 Y30.1067
G01 X24.1772 Y30.1253
G01 X24.1860 Y30.1433
G01 X24.1961 Y30.1606
G01 X24.2074 Y30.1771
G01 X24.2199 Y30.1928
G01 X24.2336 Y30.2075
G01 X24.2482 Y30.2211
G01 X24.2639 Y30.2336
G01 X24.2804 Y30.2449
G01 X24.2919 Y30.2518
G01 X24.3036 Y30.2581
G01 X24.3218 Y30.2665
G01 X24.3343 Y30.2713
G01 X24.3470 Y30.2755
G01 X24.3599 Y30.2790
G01 X24.3729 Y30.2819
G01 X24.3927 Y30.2851
G01 X24.4060 Y30.2864
G01 X24.4193 Y30.2871
G01 X24.4327 Y30.2871
G01 X24.4460 Y30.2864
G01 X24.4659 Y30.2842
G01 X24.4791 Y30.2819
G01 X24.4921 Y30.2790
G01 X24.5050 Y30.2755
G01 X24.5177 Y30.2713
G01 X24.5363 Y30.2638
G01 X24.5484 Y30.2581
G01 X24.5601 Y30.2518
G01 X24.5716 Y30.2449
G01 X24.5827 Y30.2375
G01 X24.5934 Y30.2296
G01 X24.6038 Y30.2211
G01 X24.6184 Y30.2075
G01 X24.6277 Y30.1978
G01 X24.6364 Y30.1877
G01 X24.6446 Y30.1771
G01 X24.6523 Y30.1662
G01 X24.6628 Y30.1492
G01 X24.6691 Y30.1374
G01 X24.6748 Y30.1253
G01 X24.6799 Y30.1130
G01 X24.6864 Y30.0940
G01 X24.6900 Y30.0811
G01 X24.6915 Y30.0746
G01 X24.6929 Y30.0681
G01 X24.6952 Y30.0549
G01 X24.6968 Y30.0417
G01 X24.6978 Y30.0284
G01 X24.6982 Y30.0150
G01 X24.5167 Y30.0150
G01 X24.5163 Y30.0061
G01 X24.5150 Y29.9973
G01 X24.5128 Y29.9887
G01 X24.5098 Y29.9803
G01 X24.5060 Y29.9722
G01 X24.5002 Y29.9628
G01 X24.4947 Y29.9558
G01 X24.4886 Y29.9493
G01 X24.4818 Y29.9435
G01 X24.4745 Y29.9384
G01 X24.4648 Y29.9330
G01 X24.4566 Y29.9296
G01 X24.4459 Y29.9265
G01 X24.4371 Y29.9250
G01 X24.4282 Y29.9243
G01 X24.4193 Y29.9245
G01 X24.4105 Y29.9256
G01 X24.4040 Y29.9270
G01 X24.3975 Y29.9289
G01 X24.3892 Y29.9321
G01 X24.3832 Y29.9350
G01 X24.3756 Y29.9396
G01 X24.3684 Y29.9449
G01 X24.3634 Y29.9493
G01 X24.3545 Y29.9592
G01 X24.3494 Y29.9665
G01 X24.3460 Y29.9722
G01 X24.3422 Y29.9803
G01 X24.3399 Y29.9866
G01 X24.3375 Y29.9951
G01 X24.3363 Y30.0017
G01 X24.3353 Y30.0150
G01 X24.3355 Y30.0217
G01 X24.3366 Y30.0305
G01 X24.3386 Y30.0392
G01 X24.3406 Y30.0456
G01 X24.3440 Y30.0538
G01 X24.3471 Y30.0597
G01 X24.3518 Y30.0672
G01 X24.3559 Y30.0726
G01 X24.3603 Y30.0776
G01 X24.3667 Y30.0837
G01 X24.3775 Y30.0917
G01 X24.3832 Y30.0950
G01 X24.3913 Y30.0988
G01 X24.4018 Y30.1024
G01 X24.4127 Y30.1047
G01 X24.4238 Y30.1057
G01 X24.4349 Y30.1053
G01 X24.4459 Y30.1035
G01 X24.4566 Y30.1004
G01 X24.4668 Y30.0960
G01 X24.4764 Y30.0904
G01 X24.4853 Y30.0837
G01 X24.4932 Y30.0759
G01 X24.5002 Y30.0672
G01 X24.5060 Y30.0578
G01 X24.5106 Y30.0477
G01 X24.5140 Y30.0371
G01 X24.5160 Y30.0261
G01 X24.5167 Y30.0150
G01 X25.0384 Y30.1830
G01 X25.0380 Y30.1844
G01 X25.0337 Y30.1994
G01 X25.0239 Y30.2289
G01 X25.0127 Y30.2580
G01 X25.0066 Y30.2724
G01 X24.9932 Y30.3005
G01 X24.9861 Y30.3144
G01 X24.9707 Y30.3415
G01 X24.9540 Y30.3678
G01 X24.9361 Y30.3933
G01 X24.9266 Y30.4057
G01 X24.9069 Y30.4298
G01 X24.8859 Y30.4529
G01 X24.8750 Y30.4641
G01 X24.8525 Y30.4855
G01 X24.8408 Y30.4959
G01 X24.8167 Y30.5156
G01 X24.8043 Y30.5251
G01 X24.7788 Y30.5430
G01 X24.7657 Y30.5515
G01 X24.7390 Y30.5676
G01 X24.7115 Y30.5822
G01 X24.6975 Y30.5891
G01 X24.6690 Y30.6017
G01 X24.6399 Y30.6129
G01 X24.6103 Y30.6227
G01 X24.5954 Y30.6270
G01 X24.5651 Y30.6346
G01 X24.5346 Y30.6407
G01 X24.5037 Y30.6453
G01 X24.4727 Y30.6483
G01 X24.4416 Y30.6499
G01 X24.4260 Y30.6500
G01 X24.3948 Y30.6493
G01 X24.3793 Y30.6483
G01 X24.3638 Y30.6470
G01 X24.3328 Y30.6432
G01 X24.3021 Y30.6378
G01 X24.2869 Y30.6346
G01 X24.2566 Y30.6270
G01 X24.2268 Y30.6180
G01 X24.1975 Y30.6075
G01 X24.1830 Y30.6017
G01 X24.1545 Y30.5891
G01 X24.1266 Y30.5751
G01 X24.1130 Y30.5676
G01 X24.0863 Y30.5515
G01 X24.0603 Y30.5342
G01 X24.0353 Y30.5156
G01 X24.0112 Y30.4959
G01 X23.9881 Y30.4749
G01 X23.9661 Y30.4529
G01 X23.9555 Y30.4415
G01 X23.9451 Y30.4298
G01 X23.9254 Y30.4057
G01 X23.9159 Y30.3933
G01 X23.8980 Y30.3678
G01 X23.8895 Y30.3548
G01 X23.8735 Y30.3280
G01 X23.8588 Y30.3005
G01 X23.8454 Y30.2724
G01 X23.8393 Y30.2580
G01 X23.8281 Y30.2289
G01 X23.8183 Y30.1994
G01 X23.8140 Y30.1844
G01 X23.8136 Y30.1830
G01 X23.8136 Y30.5549
G01 X23.8210 Y30.5633
G01 X23.8347 Y30.5780
G01 X23.8630 Y30.6063
G01 X23.8927 Y30.6333
G01 X23.9080 Y30.6462
G01 X23.9221 Y30.6574
G00 Z2.0000
G00 X23.8136 Y31.3726
G01 F60.00
G01 Z0.0120
G01 F120.00
G01 X23.8136 Y32.6574
G01 X25.0384 Y32.6574
G01 X25.0384 Y31.3726
G01 X23.8136 Y31.3726
G00 Z2.0000
G00 X23.8136 Y31.4751
G01 F60.00
G01 Z0.0120
G01 F120.00
G01 X23.8347 Y31.4520
G01 X23.8630 Y31.4237
G01 X23.8927 Y31.3968
G01 X23.9221 Y31.3726
G01 X23.8136 Y31.8470
G01 X23.8183 Y31.8307
G01 X23.8281 Y31.8011
G01 X23.8393 Y31.7720
G01 X23.8454 Y31.7577
G01 X23.8519 Y31.7435
G01 X23.8659 Y31.7156
G01 X23.8813 Y31.6885
G01 X23.8980 Y31.6622
G01 X23.9159 Y31.6367
G01 X23.9351 Y31.6121
G01 X23.9555 Y31.5885
G01 X23.9661 Y31.5771
G01 X23.9881 Y31.5551
G01 X23.9995 Y31.5445
G01 X24.0231 Y31.5241
G01 X24.0353 Y31.5144
G01 X24.0603 Y31.4958
G01 X24.0732 Y31.4870
G01 X24.0995 Y31.4703
G01 X24.1266 Y31.4549
G01 X24.1545 Y31.4409
G01 X24.1830 Y31.4283
G01 X24.2121 Y31.4171
G01 X24.2268 Y31.4120
G01 X24.2566 Y31.4030
G01 X24.2717 Y31.3990
G01 X24.2869 Y31.3954
G01 X24.3174 Y31.3893
G01 X24.3483 Y31.3847
G01 X24.3793 Y31.3817
G01 X24.4104 Y31.3802
G01 X24.4260 Y31.3800
G01 X24.4416 Y31.3802
G01 X24.4727 Y31.3817
G01 X24.5037 Y31.3847
G01 X24.5346 Y31.3893
G01 X24.5651 Y31.3954
G01 X24.5803 Y31.3990
G01 X24.6103 Y31.4073
G01 X24.6399 Y31.4171
G01 X24.6690 Y31.4283
G01 X24.6833 Y31.4344
G01 X24.7115 Y31.4478
G01 X24.7390 Y31.4625
G01 X24.7657 Y31.4785
G01 X24.7788 Y31.4870
G01 X24.7917 Y31.4958
G01 X24.8167 Y31.5144
G01 X24.8408 Y31.5341
G01 X24.8525 Y31.5445
G01 X24.8750 Y31.5660
G01 X24.8965 Y31.5885
G01 X24.9069 Y31.6002
G01 X24.9266 Y31.6243
G01 X24.9452 Y31.6493
G01 X24.9540 Y31.6622
G01 X24.9625 Y31.6753
G01 X24.9785 Y31.7020
G01 X24.9932 Y31.7295
G01 X25.0066 Y31.7577
G01 X25.0127 Y31.7720
G01 X25.0239 Y31.8011
G01 X25.0337 Y31.8307
G01 X25.0384 Y31.8470
G01 X24.8796 Y32.0150
G01 X24.8791 Y31.9927
G01 X24.8784 Y31.9816
G01 X24.8762 Y31.9595
G01 X24.8729 Y31.9375
G01 X24.8709 Y31.9265
G01 X24.8660 Y31.9048
G01 X24.8632 Y31.8940
G01 X24.8601 Y31.8833
G01 X24.8531 Y31.8622
G01 X24.8492 Y31.8518
G01 X24.8407 Y31.8312
G01 X24.8360 Y31.8211
G01 X24.8260 Y31.8012
G01 X24.8151 Y31.7818
G01 X24.8032 Y31.7630
G01 X24.7969 Y31.7538
G01 X24.7836 Y31.7359
G01 X24.7695 Y31.7187
G01 X24.7621 Y31.7104
G01 X24.7545 Y31.7022
G01 X24.7388 Y31.6865
G01 X24.7223 Y31.6715
G01 X24.7138 Y31.6644
G01 X24.6962 Y31.6507
G01 X24.6872 Y31.6441
G01 X24.6780 Y31.6378
G01 X24.6592 Y31.6259
G01 X24.6398 Y31.6150
G01 X24.6299 Y31.6098
G01 X24.6098 Y31.6003
G01 X24.5892 Y31.5918
G01 X24.5788 Y31.5879
G01 X24.5577 Y31.5809
G01 X24.5470 Y31.5778
G01 X24.5362 Y31.5750
G01 X24.5145 Y31.5701
G01 X24.5035 Y31.5681
G01 X24.4815 Y31.5648
G01 X24.4594 Y31.5626
G01 X24.4483 Y31.5619
G01 X24.4260 Y31.5614
G01 X24.4037 Y31.5619
G01 X24.3926 Y31.5626
G01 X24.3705 Y31.5648
G01 X24.3594 Y31.5663
G01 X24.3485 Y31.5681
G01 X24.3266 Y31.5724
G01 X24.3158 Y31.5750
G01 X24.2943 Y31.5809
G01 X24.2837 Y31.5843
G01 X24.2628 Y31.5918
G01 X24.2422 Y31.6003
G01 X24.2321 Y31.6050
G01 X24.2122 Y31.6150
G01 X24.1928 Y31.6259
G01 X24.1833 Y31.6318
G01 X24.1648 Y31.6441
G01 X24.1558 Y31.6507
G01 X24.1469 Y31.6574
G01 X24.1297 Y31.6715
G01 X24.1132 Y31.6865
G01 X24.1053 Y31.6943
G01 X24.0899 Y31.7104
G01 X24.0754 Y31.7272
G01 X24.0684 Y31.7359
G01 X24.0551 Y31.7538
G01 X24.0428 Y31.7723
G01 X24.0313 Y31.7914
G01 X24.0208 Y31.8111
G01 X24.0160 Y31.8211
G01 X24.0069 Y31.8414
G01 X23.9989 Y31.8622
G01 X23.9953 Y31.8727
G01 X23.9919 Y31.8833
G01 X23.9860 Y31.9048
G01 X23.9811 Y31.9265
G01 X23.9773 Y31.9484
G01 X23.9758 Y31.9595
G01 X23.9736 Y31.9816
G01 X23.9729 Y31.9927
G01 X23.9724 Y32.0150
G01 X23.9729 Y32.0373
G01 X23.9736 Y32.0484
G01 X23.9758 Y32.0705
G01 X23.9791 Y32.0925
G01 X23.9834 Y32.1144
G01 X23.9888 Y32.1360
G01 X23.9919 Y32.1467
G01 X23.9989 Y32.1678
G01 X24.0069 Y32.1886
G01 X24.0113 Y32.1988
G01 X24.0208 Y32.2189
G01 X24.0260 Y32.2288
G01 X24.0369 Y32.2482
G01 X24.0488 Y32.2670
G01 X24.0617 Y32.2852
G01 X24.0684 Y32.2941
G01 X24.0754 Y32.3028
G01 X24.0899 Y32.3196
G01 X24.1053 Y32.3357
G01 X24.1214 Y32.3511
G01 X24.1382 Y32.3656
G01 X24.1469 Y32.3726
G01 X24.1558 Y32.3793
G01 X24.1740 Y32.3922
G01 X24.1928 Y32.4041
G01 X24.2122 Y32.4150
G01 X24.2321 Y32.4250
G01 X24.2422 Y32.4297
G01 X24.2628 Y32.4382
G01 X24.2837 Y32.4457
G01 X24.3050 Y32.4522
G01 X24.3158 Y32.4550
G01 X24.3375 Y32.4599
G01 X24.3594 Y32.4637
G01 X24.3705 Y32.4652
G01 X24.3926 Y32.4674
G01 X24.4149 Y32.4685
G01 X24.4371 Y32.4685
G01 X24.4594 Y32.4674
G01 X24.4815 Y32.4652
G01 X24.4926 Y32.4637
G01 X24.5145 Y32.4599
G01 X24.5362 Y32.4550
G01 X24.5470 Y32.4522
G01 X24.5577 Y32.4491
G01 X24.5788 Y32.4421
G01 X24.5996 Y32.4341
G01 X24.6199 Y32.4250
G01 X24.6299 Y32.4202
G01 X24.6496 Y32.4097
G01 X24.6687 Y32.3982
G01 X24.6872 Y32.3859
G01 X24.6962 Y32.3793
G01 X24.7138 Y32.3656
G01 X24.7306 Y32.3511
G01 X24.7467 Y32.3357
G01 X24.7545 Y32.3278
G01 X24.7695 Y32.3113
G01 X24.7766 Y32.3028
G01 X24.7903 Y32.2852
G01 X24.8032 Y32.2670
G01 X24.8151 Y32.2482
G01 X24.8260 Y32.2288
G01 X24.8360 Y32.2089
G01 X24.8407 Y32.1988
G01 X24.8492 Y32.1782
G01 X24.8567 Y32.1573
G01 X24.8632 Y32.1360
G01 X24.8660 Y32.1252
G01 X24.8686 Y32.1144
G01 X24.8729 Y32.0925
G01 X24.8762 Y32.0705
G01 X24.8784 Y32.0484
G01 X24.8795 Y32.0261
G01 X24.8796 Y32.0150
G01 X24.6982 Y32.0150
G01 X24.6974 Y31.9950
G01 X24.6961 Y31.9817
G01 X24.6942 Y31.9685
G01 X24.6915 Y31.9554
G01 X24.6864 Y31.9360
G01 X24.6823 Y31.9233
G01 X24.6774 Y31.9108
G01 X24.6691 Y31.8926
G01 X24.6628 Y31.8809
G01 X24.6523 Y31.8638
G01 X24.6406 Y31.8476
G01 X24.6321 Y31.8372
G01 X24.6231 Y31.8273
G01 X24.6137 Y31.8179
G01 X24.6038 Y31.8089
G01 X24.5881 Y31.7964
G01 X24.5772 Y31.7887
G01 X24.5601 Y31.7782
G01 X24.5484 Y31.7719
G01 X24.5363 Y31.7662
G01 X24.5177 Y31.7587
G01 X24.5050 Y31.7546
G01 X24.4921 Y31.7510
G01 X24.4791 Y31.7481
G01 X24.4593 Y31.7449
G01 X24.4460 Y31.7436
G01 X24.4327 Y31.7429
G01 X24.4193 Y31.7429
G01 X24.4060 Y31.7436
G01 X24.3927 Y31.7449
G01 X24.3795 Y31.7468
G01 X24.3599 Y31.7510
G01 X24.3406 Y31.7566
G01 X24.3218 Y31.7636
G01 X24.3036 Y31.7719
G01 X24.2861 Y31.7816
G01 X24.2693 Y31.7925
G01 X24.2586 Y31.8004
G01 X24.2432 Y31.8133
G01 X24.2289 Y31.8273
G01 X24.2156 Y31.8423
G01 X24.2035 Y31.8583
G01 X24.1926 Y31.8751
G01 X24.1829 Y31.8926
G01 X24.1746 Y31.9108
G01 X24.1676 Y31.9296
G01 X24.1620 Y31.9489
G01 X24.1578 Y31.9685
G01 X24.1552 Y31.9883
G01 X24.1539 Y32.0083
G01 X24.1542 Y32.0284
G01 X24.1559 Y32.0483
G01 X24.1591 Y32.0681
G01 X24.1637 Y32.0876
G01 X24.1697 Y32.1067
G01 X24.1772 Y32.1253
G01 X24.1860 Y32.1433
G01 X24.1961 Y32.1606
G01 X24.2074 Y32.1771
G01 X24.2199 Y32.1928
G01 X24.2336 Y32.2074
G01 X24.2482 Y32.2211
G01 X24.2639 Y32.2336
G01 X24.2804 Y32.2449
G01 X24.2977 Y32.2550
G01 X24.3096 Y32.2610
G01 X24.3218 Y32.2664
G01 X24.3343 Y32.2713
G01 X24.3470 Y32.2754
G01 X24.3599 Y32.2790
G01 X24.3729 Y32.2819
G01 X24.3861 Y32.2842
G01 X24.3993 Y32.2858
G01 X24.4193 Y32.2871
G01 X24.4327 Y32.2871
G01 X24.4460 Y32.2864
G01 X24.4593 Y32.2851
G01 X24.4791 Y32.2819
G01 X24.4921 Y32.2790
G01 X24.5050 Y32.2754
G01 X24.5177 Y32.2713
G01 X24.5302 Y32.2664
G01 X24.5484 Y32.2581
G01 X24.5601 Y32.2518
G01 X24.5772 Y32.2413
G01 X24.5881 Y32.2336
G01 X24.5987 Y32.2254
G01 X24.6088 Y32.2167
G01 X24.6184 Y32.2074
G01 X24.6277 Y32.1978
G01 X24.6364 Y32.1877
G01 X24.6446 Y32.1771
G01 X24.6523 Y32.1662
G01 X24.6628 Y32.1491
G01 X24.6691 Y32.1374
G01 X24.6748 Y32.1253
G01 X24.6799 Y32.1129
G01 X24.6864 Y32.0940
G01 X24.6900 Y32.0811
G01 X24.6915 Y32.0746
G01 X24.6929 Y32.0681
G01 X24.6952 Y32.0549
G01 X24.6968 Y32.0417
G01 X24.6978 Y32.0284
G01 X24.6982 Y32.0150
G01 X24.5167 Y32.0150
G01 X24.5163 Y32.0061
G01 X24.5150 Y31.9973
G01 X24.5128 Y31.9887
G01 X24.5098 Y31.9803
G01 X24.5060 Y31.9722
G01 X24.5002 Y31.9628
G01 X24.4947 Y31.9557
G01 X24.4886 Y31.9493
G01 X24.4818 Y31.9435
G01 X24.4745 Y31.9384
G01 X24.4648 Y31.9330
G01 X24.4566 Y31.9296
G01 X24.4459 Y31.9265
G01 X24.4371 Y31.9250
G01 X24.4282 Y31.9243
G01 X24.4193 Y31.9245
G01 X24.4105 Y31.9256
G01 X24.4040 Y31.9270
G01 X24.3975 Y31.9289
G01 X24.3892 Y31.9321
G01 X24.3832 Y31.9350
G01 X24.3756 Y31.9396
G01 X24.3684 Y31.9449
G01 X24.3634 Y31.9493
G01 X24.3545 Y31.9592
G01 X24.3494 Y31.9665
G01 X24.3460 Y31.9722
G01 X24.3422 Y31.9803
G01 X24.3399 Y31.9865
G01 X24.3375 Y31.9951
G01 X24.3363 Y32.0017
G01 X24.3353 Y32.0150
G01 X24.3355 Y32.0217
G01 X24.3366 Y32.0305
G01 X24.3386 Y32.0392
G01 X24.3406 Y32.0456
G01 X24.3440 Y32.0538
G01 X24.3471 Y32.0597
G01 X24.3506 Y32.0654
G01 X24.3559 Y32.0726
G01 X24.3603 Y32.0776
G01 X24.3667 Y32.0837
G01 X24.3738 Y32.0892
G01 X24.3794 Y32.0928
G01 X24.3913 Y32.0988
G01 X24.4018 Y32.1024
G01 X24.4127 Y32.1047
G01 X24.4238 Y32.1057
G01 X24.4349 Y32.1053
G01 X24.4459 Y32.1035
G01 X24.4566 Y32.1004
G01 X24.4668 Y32.0960
G01 X24.4764 Y32.0904
G01 X24.4853 Y32.0837
G01 X24.4932 Y32.0759
G01 X24.5002 Y32.0672
G01 X24.5060 Y32.0578
G01 X24.5106 Y32.0476
G01 X24.5140 Y32.0370
G01 X24.5160 Y32.0261
G01 X24.5167 Y32.0150
G01 X25.0384 Y32.1830
G01 X25.0337 Y32.1993
G01 X25.0239 Y32.2289
G01 X25.0127 Y32.2580
G01 X25.0066 Y32.2723
G01 X24.9932 Y32.3005
G01 X24.9861 Y32.3144
G01 X24.9707 Y32.3415
G01 X24.9540 Y32.3678
G01 X24.9361 Y32.3933
G01 X24.9266 Y32.4057
G01 X24.9069 Y32.4298
G01 X24.8859 Y32.4529
G01 X24.8639 Y32.4749
G01 X24.8525 Y32.4855
G01 X24.8408 Y32.4959
G01 X24.8167 Y32.5156
G01 X24.7917 Y32.5342
G01 X24.7657 Y32.5515
G01 X24.7390 Y32.5675
G01 X24.7254 Y32.5751
G01 X24.6975 Y32.5891
G01 X24.6690 Y32.6017
G01 X24.6545 Y32.6075
G01 X24.6252 Y32.6180
G01 X24.5954 Y32.6270
G01 X24.5803 Y32.6310
G01 X24.5651 Y32.6346
G01 X24.5346 Y32.6407
G01 X24.5192 Y32.6432
G01 X24.4882 Y32.6470
G01 X24.4572 Y32.6493
G01 X24.4260 Y32.6500
G01 X24.4104 Y32.6498
G01 X24.3793 Y32.6483
G01 X24.3483 Y32.6453
G01 X24.3174 Y32.6407
G01 X24.2869 Y32.6346
G01 X24.2717 Y32.6310
G01 X24.2417 Y32.6227
G01 X24.2121 Y32.6129
G01 X24.1975 Y32.6075
G01 X24.1687 Y32.5956
G01 X24.1545 Y32.5891
G01 X24.1266 Y32.5751
G01 X24.0995 Y32.5597
G01 X24.0732 Y32.5430
G01 X24.0477 Y32.5251
G01 X24.0353 Y32.5156
G01 X24.0231 Y32.5059
G01 X23.9995 Y32.4855
G01 X23.9881 Y32.4749
G01 X23.9661 Y32.4529
G01 X23.9451 Y32.4298
G01 X23.9351 Y32.4179
G01 X23.9159 Y32.3933
G01 X23.8980 Y32.3678
G01 X23.8895 Y32.3547
G01 X23.8735 Y32.3280
G01 X23.8588 Y32.3005
G01 X23.8454 Y32.2723
G01 X23.8393 Y32.2580
G01 X23.8281 Y32.2289
G01 X23.8183 Y32.1993
G01 X23.8136 Y32.1830
G01 X23.8136 Y32.5549
G01 X23.8347 Y32.5780
G01 X23.8630 Y32.6063
G01 X23.8927 Y32.6332
G01 X23.9221 Y32.6574
G00 Z2.0000
G00 X24.9299 Y32.6574
G01 F60.00
G01 Z0.0120
G01 F120.00
G01 X24.9593 Y32.6332
G01 X24.9890 Y32.6063
G01 X25.0173 Y32.5780
G01 X25.0384 Y32.5549
G00 Z2.0000
G00 X25.0384 Y31.4751
G01 F60.00
G01 Z0.0120
G01 F120.00
G01 X25.0173 Y31.4520
G01 X24.9890 Y31.4237
G01 X24.9593 Y31.3968
G01 X24.9299 Y31.3726
G00 Z2.0000
G00 X24.9299 Y30.6574
G01 F60.00
G01 Z0.0120
G01 F120.00
G01 X24.9593 Y30.6333
G01 X24.9890 Y30.6063
G01 X25.0173 Y30.5780
G01 X25.0384 Y30.5549
G00 Z2.0000
G00 X25.0384 Y29.4751
G01 F60.00
G01 Z0.0120
G01 F120.00
G01 X25.0173 Y29.4520
G01 X24.9890 Y29.4237
G01 X24.9593 Y29.3968
G01 X24.9299 Y29.3726
G00 Z2.0000
G00 X26.9646 Y28.9655
G01 F60.00
G01 Z0.0120
G01 F120.00
G01 X26.9646 Y30.4753
G01 X28.9994 Y30.4753
G01 X28.9994 Y28.9655
G01 X26.9646 Y28.9655
G00 Z2.0000
G00 X27.0760 Y28.9655
G01 F60.00
G01 Z0.0120
G01 F120.00
G01 X27.0523 Y28.9948
G01 X27.0347 Y29.0178
G01 X27.0178 Y29.0413
G01 X27.0014 Y29.0652
G01 X26.9856 Y29.0894
G01 X26.9646 Y29.1241
G01 X27.3294 Y28.9655
G01 X27.3118 Y28.9810
G01 X27.2939 Y28.9976
G01 X27.2764 Y29.0147
G01 X27.2593 Y29.0323
G01 X27.2426 Y29.0502
G01 X27.2264 Y29.0686
G01 X27.2106 Y29.0873
G01 X27.1953 Y29.1064
G01 X27.1805 Y29.1259
G01 X27.1661 Y29.1458
G01 X27.1523 Y29.1660
G01 X27.1389 Y29.1865
G01 X27.1261 Y29.2073
G01 X27.1137 Y29.2285
G01 X27.1019 Y29.2500
G01 X27.0906 Y29.2717
G01 X27.0799 Y29.2937
G01 X27.0697 Y29.3160
G01 X27.0600 Y29.3385
G01 X27.0509 Y29.3612
G01 X27.0424 Y29.3842
G01 X27.0344 Y29.4073
G01 X27.0271 Y29.4307
G01 X27.0202 Y29.4542
G01 X27.0140 Y29.4779
G01 X27.0083 Y29.5017
G01 X27.0033 Y29.5257
G01 X26.9988 Y29.5498
G01 X26.9949 Y29.5739
G01 X26.9916 Y29.5982
G01 X26.9889 Y29.6226
G01 X26.9868 Y29.6470
G01 X26.9853 Y29.6714
G01 X26.9844 Y29.6959
G01 X26.9841 Y29.7204
G01 X26.9844 Y29.7449
G01 X26.9853 Y29.7693
G01 X26.9868 Y29.7938
G01 X26.9889 Y29.8182
G01 X26.9916 Y29.8425
G01 X26.9949 Y29.8668
G01 X26.9988 Y29.8910
G01 X27.0033 Y29.9151
G01 X27.0083 Y29.9390
G01 X27.0140 Y29.9628
G01 X27.0202 Y29.9865
G01 X27.0271 Y30.0101
G01 X27.0344 Y30.0334
G01 X27.0424 Y30.0566
G01 X27.0509 Y30.0795
G01 X27.0600 Y30.1023
G01 X27.0697 Y30.1248
G01 X27.0799 Y30.1470
G01 X27.0906 Y30.1690
G01 X27.1019 Y30.1908
G01 X27.1137 Y30.2122
G01 X27.1261 Y30.2334
G01 X27.1389 Y30.2543
G01 X27.1523 Y30.2748
G01 X27.1661 Y30.2950
G01 X27.1805 Y30.3148
G01 X27.1953 Y30.3343
G01 X27.2106 Y30.3534
G01 X27.2264 Y30.3722
G01 X27.2426 Y30.3905
G01 X27.2593 Y30.4085
G01 X27.2764 Y30.4260
G01 X27.2939 Y30.4431
G01 X27.3118 Y30.4598
G01 X27.3294 Y30.4753
G01 X27.0760 Y30.4753
G01 X27.0523 Y30.4459
G01 X27.0347 Y30.4229
G01 X27.0178 Y30.3995
G01 X27.0014 Y30.3756
G01 X26.9856 Y30.3513
G01 X26.9646 Y30.3167
G01 X27.6710 Y30.4753
G01 X27.6511 Y30.4668
G01 X27.6149 Y30.4497
G01 X27.5796 Y30.4308
G01 X27.5622 Y30.4207
G01 X27.5452 Y30.4102
G01 X27.5119 Y30.3879
G01 X27.4956 Y30.3762
G01 X27.4640 Y30.3515
G01 X27.4487 Y30.3386
G01 X27.4190 Y30.3117
G01 X27.3907 Y30.2834
G01 X27.3770 Y30.2687
G01 X27.3509 Y30.2383
G01 X27.3383 Y30.2227
G01 X27.3145 Y30.1905
G01 X27.3031 Y30.1740
G01 X27.2817 Y30.1401
G01 X27.2716 Y30.1228
G01 X27.2527 Y30.0875
G01 X27.2439 Y30.0695
G01 X27.2356 Y30.0512
G01 X27.2202 Y30.0142
G01 X27.2132 Y29.9954
G01 X27.2007 Y29.9574
G01 X27.1900 Y29.9188
G01 X27.1854 Y29.8993
G01 X27.1775 Y29.8600
G01 X27.1744 Y29.8402
G01 X27.1695 Y29.8004
G01 X27.1677 Y29.7804
G01 X27.1665 Y29.7604
G01 X27.1655 Y29.7204
G01 X27.1658 Y29.7003
G01 X27.1677 Y29.6603
G01 X27.1695 Y29.6403
G01 X27.1744 Y29.6006
G01 X27.1812 Y29.5611
G01 X27.1854 Y29.5415
G01 X27.1951 Y29.5026
G01 X27.2007 Y29.4834
G01 X27.2132 Y29.4453
G01 X27.2202 Y29.4265
G01 X27.2277 Y29.4079
G01 X27.2439 Y29.3713
G01 X27.2619 Y29.3355
G01 X27.2716 Y29.3179
G01 X27.2922 Y29.2836
G01 X27.3031 Y29.2668
G01 X27.3145 Y29.2502
G01 X27.3383 Y29.2180
G01 X27.3509 Y29.2024
G01 X27.3770 Y29.1721
G01 X27.3907 Y29.1574
G01 X27.4190 Y29.1290
G01 X27.4337 Y29.1154
G01 X27.4640 Y29.0892
G01 X27.4956 Y29.0646
G01 X27.5119 Y29.0528
G01 X27.5452 Y29.0306
G01 X27.5622 Y29.0201
G01 X27.5971 Y29.0003
G01 X27.6149 Y28.9911
G01 X27.6511 Y28.9739
G01 X27.6710 Y28.9655
G00 Z2.0000
G00 X28.2930 Y28.9655
G01 F60.00
G01 Z0.0120
G01 F120.00
G01 X28.3129 Y28.9739
G01 X28.3491 Y28.9911
G01 X28.3844 Y29.0100
G01 X28.4018 Y29.0201
G01 X28.4188 Y29.0306
G01 X28.4521 Y29.0528
G01 X28.4843 Y29.0767
G01 X28.5000 Y29.0892
G01 X28.5153 Y29.1021
G01 X28.5450 Y29.1290
G01 X28.5593 Y29.1430
G01 X28.5870 Y29.1721
G01 X28.6131 Y29.2024
G01 X28.6257 Y29.2180
G01 X28.6495 Y29.2502
G01 X28.6609 Y29.2668
G01 X28.6823 Y29.3006
G01 X28.6924 Y29.3179
G01 X28.7113 Y29.3533
G01 X28.7201 Y29.3713
G01 X28.7363 Y29.4079
G01 X28.7438 Y29.4265
G01 X28.7573 Y29.4643
G01 X28.7633 Y29.4834
G01 X28.7740 Y29.5220
G01 X28.7786 Y29.5415
G01 X28.7865 Y29.5808
G01 X28.7896 Y29.6006
G01 X28.7945 Y29.6403
G01 X28.7963 Y29.6603
G01 X28.7982 Y29.7003
G01 X28.7985 Y29.7204
G01 X28.7982 Y29.7404
G01 X28.7963 Y29.7804
G01 X28.7923 Y29.8203
G01 X28.7896 Y29.8402
G01 X28.7828 Y29.8797
G01 X28.7786 Y29.8993
G01 X28.7740 Y29.9188
G01 X28.7633 Y29.9574
G01 X28.7573 Y29.9765
G01 X28.7438 Y30.0142
G01 X28.7284 Y30.0512
G01 X28.7201 Y30.0695
G01 X28.7021 Y30.1053
G01 X28.6924 Y30.1228
G01 X28.6823 Y30.1401
G01 X28.6609 Y30.1740
G01 X28.6495 Y30.1905
G01 X28.6257 Y30.2227
G01 X28.6002 Y30.2537
G01 X28.5870 Y30.2687
G01 X28.5593 Y30.2977
G01 X28.5450 Y30.3117
G01 X28.5303 Y30.3253
G01 X28.5000 Y30.3515
G01 X28.4684 Y30.3762
G01 X28.4521 Y30.3879
G01 X28.4188 Y30.4102
G01 X28.4018 Y30.4207
G01 X28.3844 Y30.4308
G01 X28.3491 Y30.4497
G01 X28.3129 Y30.4668
G01 X28.2930 Y30.4753
G00 Z2.0000
G00 X28.6346 Y30.4753
G01 F60.00
G01 Z0.0120
G01 F120.00
G01 X28.6522 Y30.4598
G01 X28.6701 Y30.4431
G01 X28.6876 Y30.4260
G01 X28.7047 Y30.4085
G01 X28.7214 Y30.3905
G01 X28.7376 Y30.3722
G01 X28.7534 Y30.3534
G01 X28.7687 Y30.3343
G01 X28.7835 Y30.3148
G01 X28.7979 Y30.2950
G01 X28.8117 Y30.2748
G01 X28.8251 Y30.2543
G01 X28.8379 Y30.2334
G01 X28.8503 Y30.2122
G01 X28.8621 Y30.1908
G01 X28.8734 Y30.1690
G01 X28.8841 Y30.1470
G01 X28.8943 Y30.1248
G01 X28.9040 Y30.1023
G01 X28.9131 Y30.0795
G01 X28.9216 Y30.0566
G01 X28.9296 Y30.0334
G01 X28.9369 Y30.0101
G01 X28.9438 Y29.9865
G01 X28.9500 Y29.9628
G01 X28.9557 Y29.9390
G01 X28.9607 Y29.9151
G01 X28.9652 Y29.8910
G01 X28.9691 Y29.8668
G01 X28.9724 Y29.8425
G01 X28.9751 Y29.8182
G01 X28.9772 Y29.7938
G01 X28.9787 Y29.7693
G01 X28.9796 Y29.7449
G01 X28.9799 Y29.7204
G01 X28.9796 Y29.6959
G01 X28.9787 Y29.6714
G01 X28.9772 Y29.6470
G01 X28.9751 Y29.6226
G01 X28.9724 Y29.5982
G01 X28.9691 Y29.5739
G01 X28.9652 Y29.5498
G01 X28.9607 Y29.5257
G01 X28.9557 Y29.5017
G01 X28.9500 Y29.4779
G01 X28.9438 Y29.4542
G01 X28.9369 Y29.4307
G01 X28.9296 Y29.4073
G01 X28.9216 Y29.3842
G01 X28.9131 Y29.3612
G01 X28.9040 Y29.3385
G01 X28.8943 Y29.3160
G01 X28.8841 Y29.2937
G01 X28.8734 Y29.2717
G01 X28.8621 Y29.2500
G01 X28.8503 Y29.2285
G01 X28.8379 Y29.2073
G01 X28.8251 Y29.1865
G01 X28.8117 Y29.1660
G01 X28.7979 Y29.1458
G01 X28.7835 Y29.1259
G01 X28.7687 Y29.1064
G01 X28.7534 Y29.0873
G01 X28.7376 Y29.0686
G01 X28.7214 Y29.0502
G01 X28.7047 Y29.0323
G01 X28.6876 Y29.0147
G01 X28.6701 Y28.9976
G01 X28.6522 Y28.9810
G01 X28.6346 Y28.9655
G01 X28.8880 Y28.9655
G01 X28.9117 Y28.9948
G01 X28.9293 Y29.0178
G01 X28.9462 Y29.0413
G01 X28.9626 Y29.0652
G01 X28.9784 Y29.0894
G01 X28.9994 Y29.1241
G01 X28.6170 Y29.7204
G01 X28.6168 Y29.7048
G01 X28.6153 Y29.6737
G01 X28.6123 Y29.6426
G01 X28.6077 Y29.6118
G01 X28.6048 Y29.5965
G01 X28.5980 Y29.5661
G01 X28.5940 Y29.5510
G01 X28.5850 Y29.5212
G01 X28.5799 Y29.5064
G01 X28.5687 Y29.4774
G01 X28.5626 Y29.4630
G01 X28.5492 Y29.4348
G01 X28.5421 Y29.4210
G01 X28.5345 Y29.4074
G01 X28.5185 Y29.3806
G01 X28.5012 Y29.3547
G01 X28.4921 Y29.3421
G01 X28.4729 Y29.3175
G01 X28.4629 Y29.3056
G01 X28.4525 Y29.2939
G01 X28.4310 Y29.2713
G01 X28.4085 Y29.2498
G01 X28.3968 Y29.2395
G01 X28.3849 Y29.2295
G01 X28.3603 Y29.2103
G01 X28.3477 Y29.2012
G01 X28.3217 Y29.1839
G01 X28.2950 Y29.1678
G01 X28.2814 Y29.1603
G01 X28.2675 Y29.1531
G01 X28.2393 Y29.1398
G01 X28.2250 Y29.1337
G01 X28.1959 Y29.1225
G01 X28.1663 Y29.1127
G01 X28.1363 Y29.1044
G01 X28.1211 Y29.1008
G01 X28.0906 Y29.0947
G01 X28.0752 Y29.0922
G01 X28.0442 Y29.0884
G01 X28.0287 Y29.0871
G01 X27.9976 Y29.0855
G01 X27.9820 Y29.0853
G01 X27.9664 Y29.0855
G01 X27.9353 Y29.0871
G01 X27.9198 Y29.0884
G01 X27.8888 Y29.0922
G01 X27.8734 Y29.0947
G01 X27.8429 Y29.1008
G01 X27.8277 Y29.1044
G01 X27.7977 Y29.1127
G01 X27.7828 Y29.1174
G01 X27.7535 Y29.1279
G01 X27.7390 Y29.1337
G01 X27.7105 Y29.1463
G01 X27.6826 Y29.1603
G01 X27.6690 Y29.1678
G01 X27.6555 Y29.1757
G01 X27.6292 Y29.1924
G01 X27.6163 Y29.2012
G01 X27.5913 Y29.2197
G01 X27.5672 Y29.2395
G01 X27.5441 Y29.2604
G01 X27.5221 Y29.2825
G01 X27.5115 Y29.2939
G01 X27.4911 Y29.3175
G01 X27.4719 Y29.3421
G01 X27.4540 Y29.3676
G01 X27.4373 Y29.3939
G01 X27.4219 Y29.4210
G01 X27.4079 Y29.4489
G01 X27.3953 Y29.4774
G01 X27.3841 Y29.5064
G01 X27.3743 Y29.5360
G01 X27.3700 Y29.5510
G01 X27.3624 Y29.5812
G01 X27.3563 Y29.6118
G01 X27.3517 Y29.6426
G01 X27.3487 Y29.6737
G01 X27.3472 Y29.7048
G01 X27.3472 Y29.7360
G01 X27.3487 Y29.7671
G01 X27.3517 Y29.7981
G01 X27.3563 Y29.8289
G01 X27.3592 Y29.8443
G01 X27.3660 Y29.8747
G01 X27.3743 Y29.9047
G01 X27.3841 Y29.9343
G01 X27.3953 Y29.9634
G01 X27.4079 Y29.9919
G01 X27.4219 Y30.0197
G01 X27.4373 Y30.0468
G01 X27.4540 Y30.0732
G01 X27.4719 Y30.0987
G01 X27.4911 Y30.1232
G01 X27.5011 Y30.1352
G01 X27.5221 Y30.1583
G01 X27.5441 Y30.1803
G01 X27.5672 Y30.2012
G01 X27.5913 Y30.2210
G01 X27.6163 Y30.2396
G01 X27.6292 Y30.2484
G01 X27.6555 Y30.2651
G01 X27.6826 Y30.2804
G01 X27.7105 Y30.2944
G01 X27.7247 Y30.3009
G01 X27.7535 Y30.3129
G01 X27.7828 Y30.3234
G01 X27.8126 Y30.3324
G01 X27.8429 Y30.3400
G01 X27.8581 Y30.3432
G01 X27.8888 Y30.3485
G01 X27.9198 Y30.3524
G01 X27.9508 Y30.3546
G01 X27.9820 Y30.3554
G01 X27.9976 Y30.3552
G01 X28.0287 Y30.3537
G01 X28.0597 Y30.3506
G01 X28.0906 Y30.3461
G01 X28.1211 Y30.3400
G01 X28.1514 Y30.3324
G01 X28.1663 Y30.3281
G01 X28.1959 Y30.3183
G01 X28.2250 Y30.3071
G01 X28.2535 Y30.2944
G01 X28.2675 Y30.2876
G01 X28.2950 Y30.2729
G01 X28.3217 Y30.2569
G01 X28.3348 Y30.2484
G01 X28.3603 Y30.2304
G01 X28.3849 Y30.2113
G01 X28.3968 Y30.2012
G01 X28.4199 Y30.1803
G01 X28.4419 Y30.1583
G01 X28.4629 Y30.1352
G01 X28.4826 Y30.1111
G01 X28.4921 Y30.0987
G01 X28.5100 Y30.0732
G01 X28.5267 Y30.0468
G01 X28.5345 Y30.0334
G01 X28.5421 Y30.0197
G01 X28.5492 Y30.0059
G01 X28.5626 Y29.9777
G01 X28.5687 Y29.9634
G01 X28.5799 Y29.9343
G01 X28.5850 Y29.9196
G01 X28.5940 Y29.8897
G01 X28.6016 Y29.8595
G01 X28.6048 Y29.8443
G01 X28.6102 Y29.8135
G01 X28.6140 Y29.7826
G01 X28.6153 Y29.7671
G01 X28.6163 Y29.7515
G01 X28.6170 Y29.7204
G01 X28.4356 Y29.7204
G01 X28.4351 Y29.6981
G01 X28.4344 Y29.6870
G01 X28.4322 Y29.6648
G01 X28.4289 Y29.6428
G01 X28.4269 Y29.6319
G01 X28.4220 Y29.6102
G01 X28.4161 Y29.5887
G01 X28.4091 Y29.5676
G01 X28.4052 Y29.5571
G01 X28.3967 Y29.5366
G01 X28.3920 Y29.5264
G01 X28.3820 Y29.5065
G01 X28.3711 Y29.4872
G01 X28.3592 Y29.4684
G01 X28.3463 Y29.4502
G01 X28.3396 Y29.4413
G01 X28.3255 Y29.4241
G01 X28.3105 Y29.4076
G01 X28.2948 Y29.3919
G01 X28.2866 Y29.3843
G01 X28.2698 Y29.3697
G01 X28.2522 Y29.3560
G01 X28.2340 Y29.3432
G01 X28.2247 Y29.3371
G01 X28.2056 Y29.3257
G01 X28.1958 Y29.3203
G01 X28.1759 Y29.3103
G01 X28.1556 Y29.3013
G01 X28.1348 Y29.2933
G01 X28.1137 Y29.2863
G01 X28.0922 Y29.2804
G01 X28.0814 Y29.2778
G01 X28.0595 Y29.2734
G01 X28.0486 Y29.2717
G01 X28.0375 Y29.2702
G01 X28.0154 Y29.2680
G01 X28.0043 Y29.2673
G01 X27.9820 Y29.2668
G01 X27.9597 Y29.2673
G01 X27.9486 Y29.2680
G01 X27.9265 Y29.2702
G01 X27.9154 Y29.2717
G01 X27.9045 Y29.2734
G01 X27.8826 Y29.2778
G01 X27.8718 Y29.2804
G01 X27.8503 Y29.2863
G01 X27.8397 Y29.2897
G01 X27.8188 Y29.2972
G01 X27.7982 Y29.3057
G01 X27.7881 Y29.3103
G01 X27.7682 Y29.3203
G01 X27.7584 Y29.3257
G01 X27.7488 Y29.3313
G01 X27.7300 Y29.3432
G01 X27.7208 Y29.3495
G01 X27.7029 Y29.3628
G01 X27.6857 Y29.3769
G01 X27.6774 Y29.3843
G01 X27.6613 Y29.3996
G01 X27.6459 Y29.4158
G01 X27.6314 Y29.4326
G01 X27.6244 Y29.4413
G01 X27.6111 Y29.4592
G01 X27.6048 Y29.4684
G01 X27.5929 Y29.4872
G01 X27.5873 Y29.4968
G01 X27.5768 Y29.5164
G01 X27.5720 Y29.5264
G01 X27.5629 Y29.5468
G01 X27.5588 Y29.5571
G01 X27.5513 Y29.5781
G01 X27.5479 Y29.5887
G01 X27.5420 Y29.6102
G01 X27.5394 Y29.6210
G01 X27.5371 Y29.6319
G01 X27.5333 Y29.6538
G01 X27.5318 Y29.6648
G01 X27.5296 Y29.6870
G01 X27.5289 Y29.6981
G01 X27.5284 Y29.7204
G01 X27.5289 Y29.7426
G01 X27.5296 Y29.7537
G01 X27.5318 Y29.7759
G01 X27.5333 Y29.7869
G01 X27.5351 Y29.7979
G01 X27.5394 Y29.8198
G01 X27.5420 Y29.8306
G01 X27.5479 Y29.8520
G01 X27.5549 Y29.8732
G01 X27.5588 Y29.8836
G01 X27.5629 Y29.8940
G01 X27.5720 Y29.9143
G01 X27.5820 Y29.9342
G01 X27.5873 Y29.9439
G01 X27.5929 Y29.9536
G01 X27.6048 Y29.9724
G01 X27.6177 Y29.9906
G01 X27.6314 Y30.0081
G01 X27.6385 Y30.0166
G01 X27.6535 Y30.0331
G01 X27.6692 Y30.0489
G01 X27.6857 Y30.0638
G01 X27.7029 Y30.0780
G01 X27.7118 Y30.0847
G01 X27.7300 Y30.0975
G01 X27.7488 Y30.1094
G01 X27.7682 Y30.1204
G01 X27.7881 Y30.1304
G01 X27.8084 Y30.1394
G01 X27.8292 Y30.1475
G01 X27.8397 Y30.1511
G01 X27.8610 Y30.1575
G01 X27.8826 Y30.1629
G01 X27.8935 Y30.1653
G01 X27.9154 Y30.1691
G01 X27.9265 Y30.1706
G01 X27.9486 Y30.1727
G01 X27.9709 Y30.1738
G01 X27.9931 Y30.1738
G01 X28.0154 Y30.1727
G01 X28.0375 Y30.1706
G01 X28.0486 Y30.1691
G01 X28.0595 Y30.1673
G01 X28.0814 Y30.1629
G01 X28.1030 Y30.1575
G01 X28.1243 Y30.1511
G01 X28.1452 Y30.1436
G01 X28.1658 Y30.1351
G01 X28.1859 Y30.1255
G01 X28.2056 Y30.1150
G01 X28.2247 Y30.1036
G01 X28.2340 Y30.0975
G01 X28.2432 Y30.0912
G01 X28.2611 Y30.0780
G01 X28.2783 Y30.0638
G01 X28.2948 Y30.0489
G01 X28.3105 Y30.0331
G01 X28.3255 Y30.0166
G01 X28.3396 Y29.9994
G01 X28.3529 Y29.9816
G01 X28.3652 Y29.9630
G01 X28.3767 Y29.9439
G01 X28.3872 Y29.9243
G01 X28.3920 Y29.9143
G01 X28.3967 Y29.9042
G01 X28.4052 Y29.8836
G01 X28.4127 Y29.8627
G01 X28.4192 Y29.8414
G01 X28.4246 Y29.8198
G01 X28.4289 Y29.7979
G01 X28.4322 Y29.7759
G01 X28.4344 Y29.7537
G01 X28.4355 Y29.7315
G01 X28.4356 Y29.7204
G01 X28.2542 Y29.7204
G01 X28.2534 Y29.7003
G01 X28.2512 Y29.6804
G01 X28.2475 Y29.6607
G01 X28.2424 Y29.6414
G01 X28.2383 Y29.6287
G01 X28.2334 Y29.6162
G01 X28.2251 Y29.5980
G01 X28.2154 Y29.5805
G01 X28.2045 Y29.5637
G01 X28.1924 Y29.5477
G01 X28.1791 Y29.5327
G01 X28.1648 Y29.5187
G01 X28.1494 Y29.5058
G01 X28.1332 Y29.4941
G01 X28.1161 Y29.4836
G01 X28.0984 Y29.4743
G01 X28.0799 Y29.4664
G01 X28.0610 Y29.4599
G01 X28.0481 Y29.4564
G01 X28.0351 Y29.4534
G01 X28.0153 Y29.4503
G01 X28.0020 Y29.4489
G01 X27.9887 Y29.4483
G01 X27.9686 Y29.4485
G01 X27.9487 Y29.4503
G01 X27.9355 Y29.4522
G01 X27.9224 Y29.4548
G01 X27.9030 Y29.4599
G01 X27.8841 Y29.4664
G01 X27.8656 Y29.4743
G01 X27.8537 Y29.4803
G01 X27.8421 Y29.4869
G01 X27.8253 Y29.4979
G01 X27.8146 Y29.5058
G01 X27.8042 Y29.5143
G01 X27.7896 Y29.5279
G01 X27.7803 Y29.5376
G01 X27.7716 Y29.5477
G01 X27.7595 Y29.5637
G01 X27.7486 Y29.5805
G01 X27.7420 Y29.5921
G01 X27.7360 Y29.6040
G01 X27.7281 Y29.6224
G01 X27.7216 Y29.6414
G01 X27.7165 Y29.6607
G01 X27.7138 Y29.6738
G01 X27.7119 Y29.6871
G01 X27.7102 Y29.7070
G01 X27.7099 Y29.7270
G01 X27.7112 Y29.7470
G01 X27.7138 Y29.7669
G01 X27.7165 Y29.7800
G01 X27.7197 Y29.7930
G01 X27.7257 Y29.8121
G01 X27.7332 Y29.8307
G01 X27.7389 Y29.8427
G01 X27.7452 Y29.8545
G01 X27.7557 Y29.8716
G01 X27.7634 Y29.8825
G01 X27.7716 Y29.8930
G01 X27.7849 Y29.9080
G01 X27.7992 Y29.9220
G01 X27.8093 Y29.9308
G01 X27.8199 Y29.9390
G01 X27.8364 Y29.9503
G01 X27.8537 Y29.9604
G01 X27.8717 Y29.9692
G01 X27.8903 Y29.9766
G01 X27.9094 Y29.9827
G01 X27.9289 Y29.9873
G01 X27.9487 Y29.9905
G01 X27.9686 Y29.9922
G01 X27.9887 Y29.9924
G01 X28.0020 Y29.9918
G01 X28.0153 Y29.9905
G01 X28.0351 Y29.9873
G01 X28.0546 Y29.9827
G01 X28.0737 Y29.9766
G01 X28.0923 Y29.9692
G01 X28.1044 Y29.9635
G01 X28.1161 Y29.9572
G01 X28.1332 Y29.9467
G01 X28.1494 Y29.9349
G01 X28.1648 Y29.9220
G01 X28.1791 Y29.9080
G01 X28.1924 Y29.8930
G01 X28.2045 Y29.8771
G01 X28.2154 Y29.8603
G01 X28.2251 Y29.8427
G01 X28.2308 Y29.8307
G01 X28.2334 Y29.8245
G01 X28.2359 Y29.8183
G01 X28.2424 Y29.7994
G01 X28.2475 Y29.7800
G01 X28.2512 Y29.7603
G01 X28.2534 Y29.7404
G01 X28.2542 Y29.7204
G01 X28.0727 Y29.7204
G01 X28.0723 Y29.7115
G01 X28.0710 Y29.7027
G01 X28.0688 Y29.6940
G01 X28.0658 Y29.6857
G01 X28.0620 Y29.6776
G01 X28.0574 Y29.6700
G01 X28.0521 Y29.6628
G01 X28.0461 Y29.6562
G01 X28.0396 Y29.6502
G01 X28.0324 Y29.6449
G01 X28.0248 Y29.6404
G01 X28.0167 Y29.6366
G01 X28.0083 Y29.6336
G01 X27.9997 Y29.6314
G01 X27.9909 Y29.6301
G01 X27.9820 Y29.6296
G01 X27.9731 Y29.6301
G01 X27.9643 Y29.6314
G01 X27.9557 Y29.6336
G01 X27.9473 Y29.6366
G01 X27.9392 Y29.6404
G01 X27.9316 Y29.6449
G01 X27.9244 Y29.6502
G01 X27.9179 Y29.6562
G01 X27.9119 Y29.6628
G01 X27.9066 Y29.6700
G01 X27.9020 Y29.6776
G01 X27.8982 Y29.6857
G01 X27.8952 Y29.6940
G01 X27.8930 Y29.7027
G01 X27.8917 Y29.7115
G01 X27.8913 Y29.7204
G01 X27.8917 Y29.7293
G01 X27.8930 Y29.7381
G01 X27.8952 Y29.7467
G01 X27.8982 Y29.7551
G01 X27.9020 Y29.7631
G01 X27.9066 Y29.7708
G01 X27.9119 Y29.7779
G01 X27.9179 Y29.7845
G01 X27.9244 Y29.7905
G01 X27.9316 Y29.7958
G01 X27.9392 Y29.8004
G01 X27.9473 Y29.8042
G01 X27.9557 Y29.8072
G01 X27.9643 Y29.8093
G01 X27.9731 Y29.8107
G01 X27.9820 Y29.8111
G01 X27.9909 Y29.8107
G01 X27.9997 Y29.8093
G01 X28.0083 Y29.8072
G01 X28.0167 Y29.8042
G01 X28.0248 Y29.8004
G01 X28.0324 Y29.7958
G01 X28.0396 Y29.7905
G01 X28.0461 Y29.7845
G01 X28.0521 Y29.7779
G01 X28.0574 Y29.7708
G01 X28.0620 Y29.7631
G01 X28.0658 Y29.7551
G01 X28.0688 Y29.7467
G01 X28.0710 Y29.7381
G01 X28.0723 Y29.7293
G01 X28.0727 Y29.7204
G01 X28.9994 Y30.3167
G01 X28.9784 Y30.3513
G01 X28.9626 Y30.3756
G01 X28.9462 Y30.3995
G01 X28.9293 Y30.4229
G01 X28.9117 Y30.4459
G01 X28.8880 Y30.4753
G00 Z2.0000
G00 X28.2930 Y31.3005
G01 F60.00
G01 Z0.0120
G01 F120.00
G01 X28.3129 Y31.3090
G01 X28.3491 Y31.3261
G01 X28.3844 Y31.3450
G01 X28.4018 Y31.3551
G01 X28.4188 Y31.3656
G01 X28.4521 Y31.3878
G01 X28.4843 Y31.4117
G01 X28.5000 Y31.4242
G01 X28.5153 Y31.4371
G01 X28.5450 Y31.4641
G01 X28.5593 Y31.4781
G01 X28.5870 Y31.5071
G01 X28.6131 Y31.5374
G01 X28.6257 Y31.5531
G01 X28.6495 Y31.5853
G01 X28.6609 Y31.6018
G01 X28.6823 Y31.6356
G01 X28.6924 Y31.6529
G01 X28.7113 Y31.6883
G01 X28.7201 Y31.7063
G01 X28.7363 Y31.7429
G01 X28.7438 Y31.7615
G01 X28.7573 Y31.7993
G01 X28.7633 Y31.8184
G01 X28.7740 Y31.8570
G01 X28.7786 Y31.8765
G01 X28.7865 Y31.9158
G01 X28.7896 Y31.9356
G01 X28.7945 Y31.9754
G01 X28.7963 Y31.9953
G01 X28.7982 Y32.0354
G01 X28.7985 Y32.0554
G01 X28.7982 Y32.0754
G01 X28.7963 Y32.1155
G01 X28.7923 Y32.1553
G01 X28.7896 Y32.1752
G01 X28.7865 Y32.1950
G01 X28.7786 Y32.2343
G01 X28.7689 Y32.2732
G01 X28.7633 Y32.2924
G01 X28.7573 Y32.3115
G01 X28.7438 Y32.3492
G01 X28.7284 Y32.3863
G01 X28.7201 Y32.4045
G01 X28.7021 Y32.4403
G01 X28.6924 Y32.4578
G01 X28.6823 Y32.4751
G01 X28.6609 Y32.5090
G01 X28.6378 Y32.5418
G01 X28.6257 Y32.5577
G01 X28.6002 Y32.5887
G01 X28.5870 Y32.6037
G01 X28.5593 Y32.6327
G01 X28.5450 Y32.6467
G01 X28.5303 Y32.6604
G01 X28.5000 Y32.6865
G01 X28.4843 Y32.6991
G01 X28.4521 Y32.7229
G01 X28.4188 Y32.7452
G01 X28.4018 Y32.7557
G01 X28.3669 Y32.7755
G01 X28.3491 Y32.7847
G01 X28.3129 Y32.8018
G01 X28.2930 Y32.8103
G00 Z2.0000
G00 X28.6346 Y32.8103
G01 F60.00
G01 Z0.0120
G01 F120.00
G01 X28.6522 Y32.7948
G01 X28.6701 Y32.7781
G01 X28.6876 Y32.7610
G01 X28.7047 Y32.7435
G01 X28.7214 Y32.7256
G01 X28.7376 Y32.7072
G01 X28.7534 Y32.6885
G01 X28.7687 Y32.6693
G01 X28.7835 Y32.6499
G01 X28.7979 Y32.6300
G01 X28.8117 Y32.6098
G01 X28.8251 Y32.5893
G01 X28.8379 Y32.5684
G01 X28.8503 Y32.5473
G01 X28.8621 Y32.5258
G01 X28.8734 Y32.5041
G01 X28.8841 Y32.4821
G01 X28.8943 Y32.4598
G01 X28.9040 Y32.4373
G01 X28.9131 Y32.4145
G01 X28.9216 Y32.3916
G01 X28.9296 Y32.3684
G01 X28.9369 Y32.3451
G01 X28.9438 Y32.3215
G01 X28.9500 Y32.2979
G01 X28.9557 Y32.2740
G01 X28.9607 Y32.2501
G01 X28.9652 Y32.2260
G01 X28.9691 Y32.2018
G01 X28.9724 Y32.1775
G01 X28.9751 Y32.1532
G01 X28.9772 Y32.1288
G01 X28.9787 Y32.1044
G01 X28.9796 Y32.0799
G01 X28.9799 Y32.0554
G01 X28.9796 Y32.0309
G01 X28.9787 Y32.0064
G01 X28.9772 Y31.9820
G01 X28.9751 Y31.9576
G01 X28.9724 Y31.9332
G01 X28.9691 Y31.9090
G01 X28.9652 Y31.8848
G01 X28.9607 Y31.8607
G01 X28.9557 Y31.8367
G01 X28.9500 Y31.8129
G01 X28.9438 Y31.7892
G01 X28.9369 Y31.7657
G01 X28.9296 Y31.7424
G01 X28.9216 Y31.7192
G01 X28.9131 Y31.6962
G01 X28.9040 Y31.6735
G01 X28.8943 Y31.6510
G01 X28.8841 Y31.6287
G01 X28.8734 Y31.6067
G01 X28.8621 Y31.5850
G01 X28.8503 Y31.5635
G01 X28.8379 Y31.5424
G01 X28.8251 Y31.5215
G01 X28.8117 Y31.5010
G01 X28.7979 Y31.4808
G01 X28.7835 Y31.4609
G01 X28.7687 Y31.4414
G01 X28.7534 Y31.4223
G01 X28.7376 Y31.4036
G01 X28.7214 Y31.3852
G01 X28.7047 Y31.3673
G01 X28.6876 Y31.3498
G01 X28.6701 Y31.3326
G01 X28.6522 Y31.3160
G01 X28.6346 Y31.3005
G01 X28.8880 Y31.3005
G01 X28.9117 Y31.3298
G01 X28.9293 Y31.3528
G01 X28.9462 Y31.3763
G01 X28.9626 Y31.4002
G01 X28.9784 Y31.4244
G01 X28.9994 Y31.4591
G01 X28.6170 Y32.0554
G01 X28.6168 Y32.0398
G01 X28.6153 Y32.0087
G01 X28.6123 Y31.9777
G01 X28.6077 Y31.9468
G01 X28.6048 Y31.9315
G01 X28.5980 Y31.9011
G01 X28.5940 Y31.8860
G01 X28.5850 Y31.8562
G01 X28.5799 Y31.8415
G01 X28.5687 Y31.8124
G01 X28.5626 Y31.7980
G01 X28.5492 Y31.7699
G01 X28.5421 Y31.7560
G01 X28.5345 Y31.7424
G01 X28.5185 Y31.7156
G01 X28.5012 Y31.6897
G01 X28.4921 Y31.6771
G01 X28.4729 Y31.6525
G01 X28.4629 Y31.6406
G01 X28.4525 Y31.6289
G01 X28.4310 Y31.6063
G01 X28.4085 Y31.5849
G01 X28.3968 Y31.5745
G01 X28.3849 Y31.5645
G01 X28.3603 Y31.5453
G01 X28.3477 Y31.5362
G01 X28.3217 Y31.5189
G01 X28.2950 Y31.5028
G01 X28.2814 Y31.4953
G01 X28.2675 Y31.4882
G01 X28.2393 Y31.4748
G01 X28.2250 Y31.4687
G01 X28.1959 Y31.4575
G01 X28.1663 Y31.4477
G01 X28.1363 Y31.4394
G01 X28.1211 Y31.4358
G01 X28.0906 Y31.4297
G01 X28.0752 Y31.4272
G01 X28.0442 Y31.4234
G01 X28.0287 Y31.4221
G01 X27.9976 Y31.4205
G01 X27.9820 Y31.4203
G01 X27.9664 Y31.4205
G01 X27.9353 Y31.4221
G01 X27.9198 Y31.4234
G01 X27.8888 Y31.4272
G01 X27.8734 Y31.4297
G01 X27.8429 Y31.4358
G01 X27.8277 Y31.4394
G01 X27.7977 Y31.4477
G01 X27.7828 Y31.4524
G01 X27.7535 Y31.4629
G01 X27.7390 Y31.4687
G01 X27.7105 Y31.4813
G01 X27.6826 Y31.4953
G01 X27.6690 Y31.5028
G01 X27.6555 Y31.5107
G01 X27.6292 Y31.5274
G01 X27.6163 Y31.5362
G01 X27.5913 Y31.5548
G01 X27.5672 Y31.5745
G01 X27.5441 Y31.5955
G01 X27.5221 Y31.6175
G01 X27.5115 Y31.6289
G01 X27.4911 Y31.6525
G01 X27.4719 Y31.6771
G01 X27.4540 Y31.7026
G01 X27.4373 Y31.7289
G01 X27.4219 Y31.7560
G01 X27.4079 Y31.7839
G01 X27.3953 Y31.8124
G01 X27.3841 Y31.8415
G01 X27.3743 Y31.8710
G01 X27.3700 Y31.8860
G01 X27.3624 Y31.9163
G01 X27.3563 Y31.9468
G01 X27.3517 Y31.9777
G01 X27.3487 Y32.0087
G01 X27.3472 Y32.0398
G01 X27.3472 Y32.0710
G01 X27.3487 Y32.1021
G01 X27.3517 Y32.1331
G01 X27.3563 Y32.1640
G01 X27.3592 Y32.1793
G01 X27.3660 Y32.2097
G01 X27.3743 Y32.2397
G01 X27.3841 Y32.2693
G01 X27.3953 Y32.2984
G01 X27.4079 Y32.3269
G01 X27.4148 Y32.3409
G01 X27.4295 Y32.3684
G01 X27.4455 Y32.3951
G01 X27.4628 Y32.4211
G01 X27.4814 Y32.4461
G01 X27.5011 Y32.4702
G01 X27.5221 Y32.4933
G01 X27.5441 Y32.5153
G01 X27.5555 Y32.5259
G01 X27.5791 Y32.5463
G01 X27.6037 Y32.5655
G01 X27.6292 Y32.5834
G01 X27.6555 Y32.6001
G01 X27.6826 Y32.6154
G01 X27.7105 Y32.6295
G01 X27.7247 Y32.6359
G01 X27.7535 Y32.6479
G01 X27.7828 Y32.6584
G01 X27.8126 Y32.6674
G01 X27.8429 Y32.6750
G01 X27.8734 Y32.6811
G01 X27.9043 Y32.6857
G01 X27.9198 Y32.6874
G01 X27.9353 Y32.6887
G01 X27.9664 Y32.6902
G01 X27.9976 Y32.6902
G01 X28.0287 Y32.6887
G01 X28.0597 Y32.6857
G01 X28.0906 Y32.6811
G01 X28.1211 Y32.6750
G01 X28.1363 Y32.6714
G01 X28.1663 Y32.6631
G01 X28.1959 Y32.6533
G01 X28.2250 Y32.6421
G01 X28.2535 Y32.6295
G01 X28.2675 Y32.6226
G01 X28.2950 Y32.6079
G01 X28.3217 Y32.5919
G01 X28.3348 Y32.5834
G01 X28.3603 Y32.5655
G01 X28.3849 Y32.5463
G01 X28.3968 Y32.5362
G01 X28.4199 Y32.5153
G01 X28.4419 Y32.4933
G01 X28.4629 Y32.4702
G01 X28.4826 Y32.4461
G01 X28.4921 Y32.4337
G01 X28.5100 Y32.4082
G01 X28.5267 Y32.3819
G01 X28.5345 Y32.3684
G01 X28.5421 Y32.3547
G01 X28.5492 Y32.3409
G01 X28.5561 Y32.3269
G01 X28.5687 Y32.2984
G01 X28.5799 Y32.2693
G01 X28.5850 Y32.2546
G01 X28.5940 Y32.2248
G01 X28.6016 Y32.1945
G01 X28.6048 Y32.1793
G01 X28.6102 Y32.1486
G01 X28.6123 Y32.1331
G01 X28.6153 Y32.1021
G01 X28.6163 Y32.0865
G01 X28.6170 Y32.0554
G01 X28.4356 Y32.0554
G01 X28.4351 Y32.0331
G01 X28.4344 Y32.0220
G01 X28.4322 Y31.9999
G01 X28.4289 Y31.9778
G01 X28.4269 Y31.9669
G01 X28.4220 Y31.9452
G01 X28.4161 Y31.9237
G01 X28.4091 Y31.9026
G01 X28.4052 Y31.8921
G01 X28.3967 Y31.8716
G01 X28.3920 Y31.8615
G01 X28.3820 Y31.8416
G01 X28.3711 Y31.8222
G01 X28.3592 Y31.8034
G01 X28.3463 Y31.7852
G01 X28.3396 Y31.7763
G01 X28.3255 Y31.7591
G01 X28.3105 Y31.7426
G01 X28.2948 Y31.7269
G01 X28.2866 Y31.7193
G01 X28.2698 Y31.7048
G01 X28.2522 Y31.6911
G01 X28.2340 Y31.6782
G01 X28.2247 Y31.6722
G01 X28.2056 Y31.6607
G01 X28.1958 Y31.6554
G01 X28.1759 Y31.6453
G01 X28.1556 Y31.6363
G01 X28.1348 Y31.6283
G01 X28.1137 Y31.6213
G01 X28.0922 Y31.6154
G01 X28.0814 Y31.6128
G01 X28.0595 Y31.6085
G01 X28.0486 Y31.6067
G01 X28.0375 Y31.6052
G01 X28.0154 Y31.6030
G01 X28.0043 Y31.6023
G01 X27.9820 Y31.6018
G01 X27.9597 Y31.6023
G01 X27.9486 Y31.6030
G01 X27.9265 Y31.6052
G01 X27.9154 Y31.6067
G01 X27.9045 Y31.6085
G01 X27.8826 Y31.6128
G01 X27.8718 Y31.6154
G01 X27.8503 Y31.6213
G01 X27.8397 Y31.6247
G01 X27.8188 Y31.6322
G01 X27.7982 Y31.6407
G01 X27.7881 Y31.6453
G01 X27.7682 Y31.6554
G01 X27.7584 Y31.6607
G01 X27.7488 Y31.6663
G01 X27.7300 Y31.6782
G01 X27.7208 Y31.6845
G01 X27.7029 Y31.6978
G01 X27.6857 Y31.7119
G01 X27.6774 Y31.7193
G01 X27.6613 Y31.7346
G01 X27.6459 Y31.7508
G01 X27.6314 Y31.7676
G01 X27.6244 Y31.7763
G01 X27.6111 Y31.7942
G01 X27.6048 Y31.8034
G01 X27.5929 Y31.8222
G01 X27.5873 Y31.8318
G01 X27.5768 Y31.8514
G01 X27.5720 Y31.8615
G01 X27.5629 Y31.8818
G01 X27.5588 Y31.8921
G01 X27.5513 Y31.9131
G01 X27.5479 Y31.9237
G01 X27.5420 Y31.9452
G01 X27.5394 Y31.9560
G01 X27.5371 Y31.9669
G01 X27.5333 Y31.9888
G01 X27.5318 Y31.9999
G01 X27.5296 Y32.0220
G01 X27.5289 Y32.0331
G01 X27.5284 Y32.0554
G01 X27.5289 Y32.0776
G01 X27.5296 Y32.0888
G01 X27.5318 Y32.1109
G01 X27.5333 Y32.1219
G01 X27.5351 Y32.1329
G01 X27.5394 Y32.1548
G01 X27.5448 Y32.1764
G01 X27.5479 Y32.1871
G01 X27.5513 Y32.1977
G01 X27.5588 Y32.2186
G01 X27.5629 Y32.2290
G01 X27.5720 Y32.2493
G01 X27.5768 Y32.2593
G01 X27.5873 Y32.2790
G01 X27.5988 Y32.2981
G01 X27.6048 Y32.3074
G01 X27.6177 Y32.3256
G01 X27.6314 Y32.3432
G01 X27.6459 Y32.3600
G01 X27.6613 Y32.3761
G01 X27.6692 Y32.3839
G01 X27.6774 Y32.3915
G01 X27.6942 Y32.4060
G01 X27.7118 Y32.4197
G01 X27.7300 Y32.4325
G01 X27.7488 Y32.4445
G01 X27.7682 Y32.4554
G01 X27.7881 Y32.4654
G01 X27.7982 Y32.4701
G01 X27.8188 Y32.4786
G01 X27.8397 Y32.4861
G01 X27.8610 Y32.4926
G01 X27.8718 Y32.4954
G01 X27.8935 Y32.5003
G01 X27.9154 Y32.5041
G01 X27.9265 Y32.5056
G01 X27.9486 Y32.5078
G01 X27.9709 Y32.5089
G01 X27.9931 Y32.5089
G01 X28.0154 Y32.5078
G01 X28.0375 Y32.5056
G01 X28.0486 Y32.5041
G01 X28.0705 Y32.5003
G01 X28.0922 Y32.4954
G01 X28.1030 Y32.4926
G01 X28.1243 Y32.4861
G01 X28.1452 Y32.4786
G01 X28.1658 Y32.4701
G01 X28.1859 Y32.4606
G01 X28.2056 Y32.4501
G01 X28.2152 Y32.4445
G01 X28.2340 Y32.4325
G01 X28.2522 Y32.4197
G01 X28.2611 Y32.4130
G01 X28.2783 Y32.3989
G01 X28.2948 Y32.3839
G01 X28.3105 Y32.3682
G01 X28.3255 Y32.3517
G01 X28.3396 Y32.3345
G01 X28.3529 Y32.3166
G01 X28.3652 Y32.2981
G01 X28.3767 Y32.2790
G01 X28.3872 Y32.2593
G01 X28.3920 Y32.2493
G01 X28.3967 Y32.2392
G01 X28.4052 Y32.2186
G01 X28.4127 Y32.1977
G01 X28.4192 Y32.1764
G01 X28.4246 Y32.1548
G01 X28.4289 Y32.1329
G01 X28.4322 Y32.1109
G01 X28.4344 Y32.0888
G01 X28.4355 Y32.0665
G01 X28.4356 Y32.0554
G01 X28.2542 Y32.0554
G01 X28.2534 Y32.0354
G01 X28.2512 Y32.0155
G01 X28.2475 Y31.9958
G01 X28.2424 Y31.9764
G01 X28.2383 Y31.9637
G01 X28.2334 Y31.9512
G01 X28.2251 Y31.9330
G01 X28.2154 Y31.9155
G01 X28.2045 Y31.8987
G01 X28.1924 Y31.8827
G01 X28.1791 Y31.8677
G01 X28.1648 Y31.8537
G01 X28.1494 Y31.8408
G01 X28.1332 Y31.8291
G01 X28.1161 Y31.8186
G01 X28.0984 Y31.8094
G01 X28.0799 Y31.8015
G01 X28.0610 Y31.7949
G01 X28.0481 Y31.7914
G01 X28.0351 Y31.7885
G01 X28.0153 Y31.7853
G01 X28.0020 Y31.7840
G01 X27.9887 Y31.7833
G01 X27.9686 Y31.7836
G01 X27.9487 Y31.7853
G01 X27.9355 Y31.7872
G01 X27.9224 Y31.7898
G01 X27.9030 Y31.7949
G01 X27.8841 Y31.8015
G01 X27.8656 Y31.8094
G01 X27.8537 Y31.8154
G01 X27.8421 Y31.8220
G01 X27.8253 Y31.8329
G01 X27.8146 Y31.8408
G01 X27.8042 Y31.8493
G01 X27.7896 Y31.8629
G01 X27.7803 Y31.8726
G01 X27.7716 Y31.8827
G01 X27.7595 Y31.8987
G01 X27.7486 Y31.9155
G01 X27.7420 Y31.9271
G01 X27.7360 Y31.9390
G01 X27.7281 Y31.9574
G01 X27.7216 Y31.9764
G01 X27.7165 Y31.9958
G01 X27.7138 Y32.0089
G01 X27.7119 Y32.0221
G01 X27.7102 Y32.0420
G01 X27.7099 Y32.0621
G01 X27.7112 Y32.0821
G01 X27.7138 Y32.1019
G01 X27.7165 Y32.1150
G01 X27.7197 Y32.1280
G01 X27.7257 Y32.1471
G01 X27.7332 Y32.1657
G01 X27.7389 Y32.1778
G01 X27.7452 Y32.1895
G01 X27.7521 Y32.2010
G01 X27.7595 Y32.2121
G01 X27.7716 Y32.2280
G01 X27.7803 Y32.2382
G01 X27.7896 Y32.2478
G01 X27.8042 Y32.2615
G01 X27.8199 Y32.2740
G01 X27.8364 Y32.2853
G01 X27.8537 Y32.2954
G01 X27.8717 Y32.3042
G01 X27.8903 Y32.3116
G01 X27.9094 Y32.3177
G01 X27.9289 Y32.3223
G01 X27.9487 Y32.3255
G01 X27.9686 Y32.3272
G01 X27.9887 Y32.3275
G01 X28.0020 Y32.3268
G01 X28.0153 Y32.3255
G01 X28.0351 Y32.3223
G01 X28.0546 Y32.3177
G01 X28.0737 Y32.3116
G01 X28.0923 Y32.3042
G01 X28.1103 Y32.2954
G01 X28.1276 Y32.2853
G01 X28.1441 Y32.2740
G01 X28.1547 Y32.2658
G01 X28.1648 Y32.2570
G01 X28.1791 Y32.2431
G01 X28.1924 Y32.2280
G01 X28.2045 Y32.2121
G01 X28.2119 Y32.2010
G01 X28.2188 Y32.1895
G01 X28.2280 Y32.1718
G01 X28.2308 Y32.1657
G01 X28.2334 Y32.1595
G01 X28.2359 Y32.1533
G01 X28.2424 Y32.1344
G01 X28.2475 Y32.1150
G01 X28.2512 Y32.0953
G01 X28.2534 Y32.0754
G01 X28.2542 Y32.0554
G01 X28.0727 Y32.0554
G01 X28.0723 Y32.0465
G01 X28.0710 Y32.0377
G01 X28.0688 Y32.0291
G01 X28.0658 Y32.0207
G01 X28.0620 Y32.0126
G01 X28.0574 Y32.0050
G01 X28.0521 Y31.9978
G01 X28.0461 Y31.9912
G01 X28.0396 Y31.9853
G01 X28.0324 Y31.9800
G01 X28.0248 Y31.9754
G01 X28.0167 Y31.9716
G01 X28.0083 Y31.9686
G01 X27.9997 Y31.9664
G01 X27.9909 Y31.9651
G01 X27.9820 Y31.9647
G01 X27.9731 Y31.9651
G01 X27.9643 Y31.9664
G01 X27.9557 Y31.9686
G01 X27.9473 Y31.9716
G01 X27.9392 Y31.9754
G01 X27.9316 Y31.9800
G01 X27.9244 Y31.9853
G01 X27.9179 Y31.9912
G01 X27.9119 Y31.9978
G01 X27.9066 Y32.0050
G01 X27.9020 Y32.0126
G01 X27.8982 Y32.0207
G01 X27.8952 Y32.0291
G01 X27.8930 Y32.0377
G01 X27.8917 Y32.0465
G01 X27.8913 Y32.0554
G01 X27.8917 Y32.0643
G01 X27.8930 Y32.0731
G01 X27.8952 Y32.0817
G01 X27.8982 Y32.0901
G01 X27.9020 Y32.0982
G01 X27.9066 Y32.1058
G01 X27.9119 Y32.1129
G01 X27.9179 Y32.1195
G01 X27.9244 Y32.1255
G01 X27.9316 Y32.1308
G01 X27.9392 Y32.1354
G01 X27.9473 Y32.1392
G01 X27.9557 Y32.1422
G01 X27.9643 Y32.1444
G01 X27.9731 Y32.1457
G01 X27.9820 Y32.1461
G01 X27.9909 Y32.1457
G01 X27.9997 Y32.1444
G01 X28.0083 Y32.1422
G01 X28.0167 Y32.1392
G01 X28.0248 Y32.1354
G01 X28.0324 Y32.1308
G01 X28.0396 Y32.1255
G01 X28.0461 Y32.1195
G01 X28.0521 Y32.1129
G01 X28.0574 Y32.1058
G01 X28.0620 Y32.0982
G01 X28.0658 Y32.0901
G01 X28.0688 Y32.0817
G01 X28.0710 Y32.0731
G01 X28.0723 Y32.0643
G01 X28.0727 Y32.0554
G01 X28.9994 Y32.6517
G01 X28.9784 Y32.6863
G01 X28.9626 Y32.7106
G01 X28.9462 Y32.7345
G01 X28.9293 Y32.7579
G01 X28.9117 Y32.7810
G01 X28.8880 Y32.8103
G00 Z2.0000
G00 X27.6710 Y31.3005
G01 F60.00
G01 Z0.0120
G01 F120.00
G01 X27.6511 Y31.3090
G01 X27.6149 Y31.3261
G01 X27.5971 Y31.3353
G01 X27.5622 Y31.3551
G01 X27.5452 Y31.3656
G01 X27.5119 Y31.3878
G01 X27.4956 Y31.3996
G01 X27.4640 Y31.4242
G01 X27.4337 Y31.4504
G01 X27.4190 Y31.4641
G01 X27.3907 Y31.4924
G01 X27.3770 Y31.5071
G01 X27.3509 Y31.5374
G01 X27.3383 Y31.5531
G01 X27.3145 Y31.5853
G01 X27.3031 Y31.6018
G01 X27.2922 Y31.6186
G01 X27.2716 Y31.6529
G01 X27.2619 Y31.6705
G01 X27.2439 Y31.7063
G01 X27.2277 Y31.7429
G01 X27.2202 Y31.7615
G01 X27.2132 Y31.7803
G01 X27.2007 Y31.8184
G01 X27.1951 Y31.8376
G01 X27.1854 Y31.8765
G01 X27.1812 Y31.8961
G01 X27.1744 Y31.9356
G01 X27.1695 Y31.9754
G01 X27.1677 Y31.9953
G01 X27.1658 Y32.0354
G01 X27.1655 Y32.0554
G01 X27.1665 Y32.0955
G01 X27.1677 Y32.1155
G01 X27.1695 Y32.1354
G01 X27.1744 Y32.1752
G01 X27.1775 Y32.1950
G01 X27.1854 Y32.2343
G01 X27.1951 Y32.2732
G01 X27.2007 Y32.2924
G01 X27.2132 Y32.3305
G01 X27.2202 Y32.3492
G01 X27.2356 Y32.3863
G01 X27.2439 Y32.4045
G01 X27.2527 Y32.4225
G01 X27.2716 Y32.4578
G01 X27.2817 Y32.4751
G01 X27.3031 Y32.5090
G01 X27.3145 Y32.5255
G01 X27.3383 Y32.5577
G01 X27.3638 Y32.5887
G01 X27.3770 Y32.6037
G01 X27.4047 Y32.6327
G01 X27.4190 Y32.6467
G01 X27.4337 Y32.6604
G01 X27.4640 Y32.6865
G01 X27.4797 Y32.6991
G01 X27.5119 Y32.7229
G01 X27.5452 Y32.7452
G01 X27.5622 Y32.7557
G01 X27.5796 Y32.7658
G01 X27.6149 Y32.7847
G01 X27.6511 Y32.8018
G01 X27.6710 Y32.8103
G01 X26.9646 Y32.6517
G01 X26.9856 Y32.6863
G01 X27.0014 Y32.7106
G01 X27.0178 Y32.7345
G01 X27.0347 Y32.7579
G01 X27.0523 Y32.7810
G01 X27.0760 Y32.8103
G01 X27.3294 Y32.8103
G01 X27.3118 Y32.7948
G01 X27.2939 Y32.7781
G01 X27.2764 Y32.7610
G01 X27.2593 Y32.7435
G01 X27.2426 Y32.7256
G01 X27.2264 Y32.7072
G01 X27.2106 Y32.6885
G01 X27.1953 Y32.6693
G01 X27.1805 Y32.6499
G01 X27.1661 Y32.6300
G01 X27.1523 Y32.6098
G01 X27.1389 Y32.5893
G01 X27.1261 Y32.5684
G01 X27.1137 Y32.5473
G01 X27.1019 Y32.5258
G01 X27.0906 Y32.5041
G01 X27.0799 Y32.4821
G01 X27.0697 Y32.4598
G01 X27.0600 Y32.4373
G01 X27.0509 Y32.4145
G01 X27.0424 Y32.3916
G01 X27.0344 Y32.3684
G01 X27.0271 Y32.3451
G01 X27.0202 Y32.3215
G01 X27.0140 Y32.2979
G01 X27.0083 Y32.2740
G01 X27.0033 Y32.2501
G01 X26.9988 Y32.2260
G01 X26.9949 Y32.2018
G01 X26.9916 Y32.1775
G01 X26.9889 Y32.1532
G01 X26.9868 Y32.1288
G01 X26.9853 Y32.1044
G01 X26.9844 Y32.0799
G01 X26.9841 Y32.0554
G01 X26.9844 Y32.0309
G01 X26.9853 Y32.0064
G01 X26.9868 Y31.9820
G01 X26.9889 Y31.9576
G01 X26.9916 Y31.9332
G01 X26.9949 Y31.9090
G01 X26.9988 Y31.8848
G01 X27.0033 Y31.8607
G01 X27.0083 Y31.8367
G01 X27.0140 Y31.8129
G01 X27.0202 Y31.7892
G01 X27.0271 Y31.7657
G01 X27.0344 Y31.7424
G01 X27.0424 Y31.7192
G01 X27.0509 Y31.6962
G01 X27.0600 Y31.6735
G01 X27.0697 Y31.6510
G01 X27.0799 Y31.6287
G01 X27.0906 Y31.6067
G01 X27.1019 Y31.5850
G01 X27.1137 Y31.5635
G01 X27.1261 Y31.5424
G01 X27.1389 Y31.5215
G01 X27.1523 Y31.5010
G01 X27.1661 Y31.4808
G01 X27.1805 Y31.4609
G01 X27.1953 Y31.4414
G01 X27.2106 Y31.4223
G01 X27.2264 Y31.4036
G01 X27.2426 Y31.3852
G01 X27.2593 Y31.3673
G01 X27.2764 Y31.3498
G01 X27.2939 Y31.3326
G01 X27.3118 Y31.3160
G01 X27.3294 Y31.3005
G01 X26.9646 Y31.4591
G01 X26.9856 Y31.4244
G01 X27.0014 Y31.4002
G01 X27.0178 Y31.3763
G01 X27.0347 Y31.3528
G01 X27.0523 Y31.3298
G01 X27.0760 Y31.3005
G00 Z2.0000
G00 X26.9646 Y31.3005
G01 F60.00
G01 Z0.0120
G01 F120.00
G01 X26.9646 Y32.8103
G01 X28.9994 Y32.8103
G01 X28.9994 Y31.3005
G01 X26.9646 Y31.3005
G00 Z2.0000
G00 X30.9937 Y32.5653
G01 F60.00
G01 Z0.0120
G01 F120.00
G01 X30.9933 Y32.5564
G01 X30.9920 Y32.5476
G01 X30.9898 Y32.5390
G01 X30.9868 Y32.5306
G01 X30.9830 Y32.5226
G01 X30.9784 Y32.5149
G01 X30.9731 Y32.5078
G01 X30.9671 Y32.5012
G01 X30.9606 Y32.4952
G01 X30.9534 Y32.4899
G01 X30.9458 Y32.4853
G01 X30.9377 Y32.4815
G01 X30.9293 Y32.4785
G01 X30.9207 Y32.4764
G01 X30.9119 Y32.4750
G01 X30.9030 Y32.4746
G01 X30.8941 Y32.4750
G01 X30.8853 Y32.4764
G01 X30.8767 Y32.4785
G01 X30.8683 Y32.4815
G01 X30.8602 Y32.4853
G01 X30.8526 Y32.4899
G01 X30.8454 Y32.4952
G01 X30.8389 Y32.5012
G01 X30.8329 Y32.5078
G01 X30.8276 Y32.5149
G01 X30.8230 Y32.5226
G01 X30.8192 Y32.5306
G01 X30.8162 Y32.5390
G01 X30.8140 Y32.5476
G01 X30.8127 Y32.5564
G01 X30.8123 Y32.5653
G01 X30.8130 Y32.5764
G01 X30.8145 Y32.5852
G01 X30.8176 Y32.5959
G01 X30.8220 Y32.6061
G01 X30.8276 Y32.6157
G01 X30.8329 Y32.6229
G01 X30.8404 Y32.6310
G01 X30.8472 Y32.6368
G01 X30.8564 Y32.6431
G01 X30.8662 Y32.6483
G01 X30.8745 Y32.6515
G01 X30.8853 Y32.6543
G01 X30.8963 Y32.6558
G01 X30.9052 Y32.6560
G01 X30.9163 Y32.6551
G01 X30.9250 Y32.6533
G01 X30.9315 Y32.6515
G01 X30.9398 Y32.6483
G01 X30.9477 Y32.6443
G01 X30.9534 Y32.6408
G01 X30.9639 Y32.6325
G01 X30.9687 Y32.6279
G01 X30.9745 Y32.6211
G01 X30.9784 Y32.6157
G01 X30.9830 Y32.6081
G01 X30.9868 Y32.6000
G01 X30.9891 Y32.5938
G01 X30.9924 Y32.5808
G01 X30.9935 Y32.5720
G01 X30.9937 Y32.5653
G01 X31.1752 Y32.5653
G01 X31.1744 Y32.5453
G01 X31.1731 Y32.5320
G01 X31.1712 Y32.5188
G01 X31.1670 Y32.4992
G01 X31.1614 Y32.4800
G01 X31.1544 Y32.4612
G01 X31.1461 Y32.4430
G01 X31.1398 Y32.4312
G01 X31.1329 Y32.4197
G01 X31.1216 Y32.4032
G01 X31.1091 Y32.3876
G01 X31.0954 Y32.3729
G01 X31.0808 Y32.3592
G01 X31.0704 Y32.3508
G01 X31.0597 Y32.3428
G01 X31.0429 Y32.3319
G01 X31.0254 Y32.3222
G01 X31.0072 Y32.3139
G01 X30.9947 Y32.3091
G01 X30.9820 Y32.3049
G01 X30.9626 Y32.2998
G01 X30.9429 Y32.2961
G01 X30.9230 Y32.2939
G01 X30.9030 Y32.2932
G01 X30.8896 Y32.2935
G01 X30.8763 Y32.2945
G01 X30.8631 Y32.2961
G01 X30.8499 Y32.2984
G01 X30.8369 Y32.3013
G01 X30.8240 Y32.3049
G01 X30.8113 Y32.3091
G01 X30.7988 Y32.3139
G01 X30.7866 Y32.3193
G01 X30.7747 Y32.3253
G01 X30.7631 Y32.3319
G01 X30.7518 Y32.3390
G01 X30.7409 Y32.3467
G01 X30.7303 Y32.3549
G01 X30.7202 Y32.3637
G01 X30.7106 Y32.3729
G01 X30.7013 Y32.3826
G01 X30.6926 Y32.3927
G01 X30.6844 Y32.4032
G01 X30.6767 Y32.4141
G01 X30.6696 Y32.4254
G01 X30.6630 Y32.4370
G01 X30.6570 Y32.4490
G01 X30.6516 Y32.4612
G01 X30.6467 Y32.4736
G01 X30.6426 Y32.4863
G01 X30.6390 Y32.4992
G01 X30.6361 Y32.5122
G01 X30.6338 Y32.5254
G01 X30.6322 Y32.5387
G01 X30.6312 Y32.5520
G01 X30.6308 Y32.5653
G01 X30.6316 Y32.5854
G01 X30.6329 Y32.5986
G01 X30.6348 Y32.6119
G01 X30.6375 Y32.6250
G01 X30.6407 Y32.6379
G01 X30.6446 Y32.6507
G01 X30.6491 Y32.6633
G01 X30.6542 Y32.6756
G01 X30.6599 Y32.6877
G01 X30.6662 Y32.6995
G01 X30.6767 Y32.7165
G01 X30.6844 Y32.7275
G01 X30.6926 Y32.7380
G01 X30.7013 Y32.7481
G01 X30.7153 Y32.7624
G01 X30.7252 Y32.7714
G01 X30.7356 Y32.7799
G01 X30.7463 Y32.7878
G01 X30.7631 Y32.7988
G01 X30.7747 Y32.8054
G01 X30.7866 Y32.8114
G01 X30.7988 Y32.8168
G01 X30.8113 Y32.8216
G01 X30.8240 Y32.8258
G01 X30.8369 Y32.8293
G01 X30.8499 Y32.8323
G01 X30.8631 Y32.8345
G01 X30.8763 Y32.8362
G01 X30.8963 Y32.8374
G01 X30.9097 Y32.8374
G01 X30.9230 Y32.8368
G01 X30.9363 Y32.8354
G01 X30.9495 Y32.8335
G01 X30.9626 Y32.8309
G01 X30.9756 Y32.8276
G01 X30.9884 Y32.8238
G01 X31.0072 Y32.8168
G01 X31.0194 Y32.8114
G01 X31.0313 Y32.8054
G01 X31.0429 Y32.7988
G01 X31.0542 Y32.7916
G01 X31.0704 Y32.7799
G01 X31.0808 Y32.7714
G01 X31.0907 Y32.7624
G01 X31.1001 Y32.7530
G01 X31.1091 Y32.7431
G01 X31.1216 Y32.7275
G01 X31.1293 Y32.7165
G01 X31.1364 Y32.7052
G01 X31.1430 Y32.6936
G01 X31.1490 Y32.6817
G01 X31.1569 Y32.6633
G01 X31.1614 Y32.6507
G01 X31.1653 Y32.6379
G01 X31.1685 Y32.6250
G01 X31.1712 Y32.6119
G01 X31.1731 Y32.5986
G01 X31.1744 Y32.5854
G01 X31.1752 Y32.5653
G01 X31.3566 Y32.5653
G01 X31.3561 Y32.5431
G01 X31.3544 Y32.5209
G01 X31.3517 Y32.4988
G01 X31.3479 Y32.4768
G01 X31.3430 Y32.4551
G01 X31.3371 Y32.4337
G01 X31.3337 Y32.4230
G01 X31.3262 Y32.4021
G01 X31.3177 Y32.3815
G01 X31.3130 Y32.3714
G01 X31.3030 Y32.3515
G01 X31.2921 Y32.3321
G01 X31.2802 Y32.3133
G01 X31.2739 Y32.3041
G01 X31.2606 Y32.2863
G01 X31.2465 Y32.2691
G01 X31.2315 Y32.2526
G01 X31.2158 Y32.2368
G01 X31.1993 Y32.2219
G01 X31.1908 Y32.2147
G01 X31.1732 Y32.2010
G01 X31.1550 Y32.1882
G01 X31.1362 Y32.1763
G01 X31.1266 Y32.1707
G01 X31.1168 Y32.1653
G01 X31.0969 Y32.1553
G01 X31.0766 Y32.1463
G01 X31.0558 Y32.1382
G01 X31.0347 Y32.1313
G01 X31.0240 Y32.1282
G01 X31.0024 Y32.1228
G01 X30.9805 Y32.1184
G01 X30.9585 Y32.1151
G01 X30.9364 Y32.1130
G01 X30.9253 Y32.1123
G01 X30.9030 Y32.1117
G01 X30.8807 Y32.1123
G01 X30.8585 Y32.1139
G01 X30.8364 Y32.1166
G01 X30.8145 Y32.1204
G01 X30.7928 Y32.1253
G01 X30.7713 Y32.1313
G01 X30.7502 Y32.1382
G01 X30.7294 Y32.1463
G01 X30.7091 Y32.1553
G01 X30.6892 Y32.1653
G01 X30.6698 Y32.1763
G01 X30.6510 Y32.1882
G01 X30.6328 Y32.2010
G01 X30.6152 Y32.2147
G01 X30.5984 Y32.2292
G01 X30.5823 Y32.2446
G01 X30.5669 Y32.2607
G01 X30.5524 Y32.2776
G01 X30.5387 Y32.2951
G01 X30.5258 Y32.3133
G01 X30.5139 Y32.3321
G01 X30.5030 Y32.3515
G01 X30.4930 Y32.3714
G01 X30.4839 Y32.3917
G01 X30.4759 Y32.4125
G01 X30.4689 Y32.4337
G01 X30.4630 Y32.4551
G01 X30.4581 Y32.4768
G01 X30.4543 Y32.4988
G01 X30.4516 Y32.5209
G01 X30.4499 Y32.5431
G01 X30.4494 Y32.5653
G01 X30.4499 Y32.5876
G01 X30.4506 Y32.5987
G01 X30.4528 Y32.6209
G01 X30.4543 Y32.6319
G01 X30.4561 Y32.6429
G01 X30.4604 Y32.6647
G01 X30.4658 Y32.6863
G01 X30.4689 Y32.6970
G01 X30.4723 Y32.7076
G01 X30.4798 Y32.7286
G01 X30.4839 Y32.7389
G01 X30.4930 Y32.7593
G01 X30.4978 Y32.7693
G01 X30.5083 Y32.7889
G01 X30.5198 Y32.8080
G01 X30.5258 Y32.8173
G01 X30.5387 Y32.8355
G01 X30.5454 Y32.8444
G01 X30.5524 Y32.8531
G01 X30.5669 Y32.8699
G01 X30.5823 Y32.8861
G01 X30.5902 Y32.8938
G01 X30.5984 Y32.9014
G01 X30.6152 Y32.9160
G01 X30.6328 Y32.9297
G01 X30.6418 Y32.9362
G01 X30.6603 Y32.9486
G01 X30.6698 Y32.9544
G01 X30.6794 Y32.9600
G01 X30.6991 Y32.9705
G01 X30.7192 Y32.9800
G01 X30.7398 Y32.9885
G01 X30.7502 Y32.9924
G01 X30.7607 Y32.9960
G01 X30.7820 Y33.0025
G01 X30.8036 Y33.0079
G01 X30.8145 Y33.0102
G01 X30.8364 Y33.0140
G01 X30.8475 Y33.0155
G01 X30.8696 Y33.0177
G01 X30.8807 Y33.0184
G01 X30.9030 Y33.0189
G01 X30.9253 Y33.0184
G01 X30.9364 Y33.0177
G01 X30.9585 Y33.0155
G01 X30.9696 Y33.0140
G01 X30.9915 Y33.0102
G01 X31.0024 Y33.0079
G01 X31.0240 Y33.0025
G01 X31.0347 Y32.9994
G01 X31.0558 Y32.9924
G01 X31.0662 Y32.9885
G01 X31.0868 Y32.9800
G01 X31.0969 Y32.9754
G01 X31.1069 Y32.9705
G01 X31.1266 Y32.9600
G01 X31.1457 Y32.9486
G01 X31.1550 Y32.9425
G01 X31.1732 Y32.9297
G01 X31.1821 Y32.9229
G01 X31.1993 Y32.9088
G01 X31.2076 Y32.9014
G01 X31.2237 Y32.8861
G01 X31.2391 Y32.8699
G01 X31.2536 Y32.8531
G01 X31.2673 Y32.8355
G01 X31.2802 Y32.8173
G01 X31.2921 Y32.7985
G01 X31.3030 Y32.7792
G01 X31.3130 Y32.7593
G01 X31.3177 Y32.7491
G01 X31.3262 Y32.7286
G01 X31.3337 Y32.7076
G01 X31.3402 Y32.6863
G01 X31.3456 Y32.6647
G01 X31.3499 Y32.6429
G01 X31.3517 Y32.6319
G01 X31.3544 Y32.6098
G01 X31.3561 Y32.5876
G01 X31.3566 Y32.5653
G01 X31.4403 Y32.5390
G01 X31.4377 Y32.4863
G01 X31.4299 Y32.4342
G01 X31.4171 Y32.3830
G01 X31.3994 Y32.3334
G01 X31.3768 Y32.2857
G01 X31.3497 Y32.2405
G01 X31.3183 Y32.1982
G01 X31.2829 Y32.1591
G01 X31.2438 Y32.1237
G01 X31.2015 Y32.0923
G01 X31.1563 Y32.0652
G01 X31.1086 Y32.0426
G01 X31.0590 Y32.0249
G01 X31.0078 Y32.0121
G01 X30.9557 Y32.0043
G01 X30.9030 Y32.0017
G01 X30.8503 Y32.0043
G01 X30.7982 Y32.0121
G01 X30.7470 Y32.0249
G01 X30.6974 Y32.0426
G01 X30.6497 Y32.0652
G01 X30.6045 Y32.0923
G01 X30.5622 Y32.1237
G01 X30.5231 Y32.1591
G01 X30.4877 Y32.1982
G01 X30.4563 Y32.2405
G01 X30.4292 Y32.2857
G01 X30.4066 Y32.3334
G01 X30.3889 Y32.3830
G01 X30.3761 Y32.4342
G01 X30.3683 Y32.4863
G01 X30.3657 Y32.5390
G01 X30.3683 Y32.5917
G01 X30.3761 Y32.6438
G01 X30.3889 Y32.6950
G01 X30.4066 Y32.7446
G01 X30.4292 Y32.7923
G01 X30.4563 Y32.8375
G01 X30.4877 Y32.8798
G01 X30.5231 Y32.9189
G01 X30.5622 Y32.9543
G01 X30.6045 Y32.9857
G01 X30.6497 Y33.0128
G01 X30.6974 Y33.0354
G01 X30.7470 Y33.0531
G01 X30.7982 Y33.0659
G01 X30.8503 Y33.0737
G01 X30.9030 Y33.0763
G01 X30.9557 Y33.0737
G01 X31.0078 Y33.0659
G01 X31.0590 Y33.0531
G01 X31.1086 Y33.0354
G01 X31.1563 Y33.0128
G01 X31.2015 Y32.9857
G01 X31.2438 Y32.9543
G01 X31.2829 Y32.9189
G01 X31.3183 Y32.8798
G01 X31.3497 Y32.8375
G01 X31.3768 Y32.7923
G01 X31.3994 Y32.7446
G01 X31.4171 Y32.6950
G01 X31.4299 Y32.6438
G01 X31.4377 Y32.5917
G01 X31.4403 Y32.5390
G00 Z2.0000
G00 X32.5825 Y34.0526
G01 F60.00
G01 Z0.0120
G01 F120.00
G01 X32.5825 Y34.4594
G01 X33.5293 Y34.4594
G01 X33.5293 Y34.0526
G01 X32.5825 Y34.0526
G00 Z2.0000
G00 X32.6505 Y34.0526
G01 F60.00
G01 Z0.0120
G01 F120.00
G01 X32.6412 Y34.0722
G01 X32.6368 Y34.0825
G01 X32.6288 Y34.1032
G01 X32.6218 Y34.1244
G01 X32.6159 Y34.1458
G01 X32.6133 Y34.1567
G01 X32.6090 Y34.1785
G01 X32.6057 Y34.2005
G01 X32.6035 Y34.2227
G01 X32.6029 Y34.2338
G01 X32.6023 Y34.2560
G01 X32.6029 Y34.2783
G01 X32.6035 Y34.2894
G01 X32.6057 Y34.3116
G01 X32.6090 Y34.3336
G01 X32.6133 Y34.3554
G01 X32.6187 Y34.3770
G01 X32.6218 Y34.3877
G01 X32.6288 Y34.4089
G01 X32.6368 Y34.4296
G01 X32.6412 Y34.4399
G01 X32.6505 Y34.4594
G01 X32.8751 Y34.4594
G01 X32.8635 Y34.4485
G01 X32.8543 Y34.4388
G01 X32.8455 Y34.4287
G01 X32.8373 Y34.4182
G01 X32.8296 Y34.4072
G01 X32.8225 Y34.3960
G01 X32.8128 Y34.3784
G01 X32.8071 Y34.3663
G01 X32.8020 Y34.3540
G01 X32.7975 Y34.3414
G01 X32.7919 Y34.3222
G01 X32.7890 Y34.3091
G01 X32.7867 Y34.2960
G01 X32.7851 Y34.2827
G01 X32.7841 Y34.2694
G01 X32.7837 Y34.2560
G01 X32.7841 Y34.2427
G01 X32.7851 Y34.2294
G01 X32.7867 Y34.2161
G01 X32.7890 Y34.2029
G01 X32.7919 Y34.1899
G01 X32.7955 Y34.1770
G01 X32.8020 Y34.1581
G01 X32.8071 Y34.1457
G01 X32.8159 Y34.1277
G01 X32.8225 Y34.1161
G01 X32.8296 Y34.1048
G01 X32.8373 Y34.0939
G01 X32.8455 Y34.0834
G01 X32.8543 Y34.0733
G01 X32.8635 Y34.0636
G01 X32.8751 Y34.0526
G01 X33.1466 Y34.2560
G01 X33.1459 Y34.2449
G01 X33.1439 Y34.2340
G01 X33.1413 Y34.2255
G01 X33.1369 Y34.2153
G01 X33.1313 Y34.2056
G01 X33.1246 Y34.1968
G01 X33.1168 Y34.1888
G01 X33.1081 Y34.1819
G01 X33.1006 Y34.1771
G01 X33.0906 Y34.1722
G01 X33.0801 Y34.1686
G01 X33.0692 Y34.1663
G01 X33.0581 Y34.1653
G01 X33.0492 Y34.1656
G01 X33.0382 Y34.1671
G01 X33.0339 Y34.1680
G01 X33.0317 Y34.1686
G01 X33.0296 Y34.1692
G01 X33.0275 Y34.1699
G01 X33.0171 Y34.1740
G01 X33.0074 Y34.1794
G01 X32.9984 Y34.1859
G01 X32.9902 Y34.1935
G01 X32.9844 Y34.2002
G01 X32.9781 Y34.2094
G01 X32.9730 Y34.2193
G01 X32.9691 Y34.2297
G01 X32.9665 Y34.2405
G01 X32.9653 Y34.2516
G01 X32.9654 Y34.2627
G01 X32.9669 Y34.2737
G01 X32.9698 Y34.2845
G01 X32.9739 Y34.2948
G01 X32.9781 Y34.3027
G01 X32.9844 Y34.3119
G01 X32.9918 Y34.3202
G01 X33.0001 Y34.3276
G01 X33.0093 Y34.3339
G01 X33.0191 Y34.3390
G01 X33.0296 Y34.3429
G01 X33.0404 Y34.3454
G01 X33.0515 Y34.3467
G01 X33.0626 Y34.3465
G01 X33.0736 Y34.3450
G01 X33.0844 Y34.3422
G01 X33.0947 Y34.3380
G01 X33.1063 Y34.3315
G01 X33.1152 Y34.3247
G01 X33.1231 Y34.3170
G01 X33.1301 Y34.3083
G01 X33.1359 Y34.2988
G01 X33.1406 Y34.2887
G01 X33.1439 Y34.2781
G01 X33.1459 Y34.2671
G01 X33.1466 Y34.2560
G01 X33.3281 Y34.2560
G01 X33.3277 Y34.2427
G01 X33.3268 Y34.2294
G01 X33.3251 Y34.2161
G01 X33.3228 Y34.2029
G01 X33.3199 Y34.1899
G01 X33.3164 Y34.1770
G01 X33.3098 Y34.1581
G01 X33.3047 Y34.1457
G01 X33.2959 Y34.1277
G01 X33.2893 Y34.1161
G01 X33.2822 Y34.1048
G01 X33.2745 Y34.0939
G01 X33.2663 Y34.0834
G01 X33.2576 Y34.0733
G01 X33.2484 Y34.0636
G01 X33.2367 Y34.0526
G01 X33.3281 Y34.2560
G01 X33.3277 Y34.2694
G01 X33.3268 Y34.2827
G01 X33.3251 Y34.2960
G01 X33.3228 Y34.3091
G01 X33.3199 Y34.3222
G01 X33.3164 Y34.3350
G01 X33.3098 Y34.3540
G01 X33.3047 Y34.3663
G01 X33.2959 Y34.3843
G01 X33.2893 Y34.3960
G01 X33.2822 Y34.4072
G01 X33.2745 Y34.4182
G01 X33.2663 Y34.4287
G01 X33.2576 Y34.4388
G01 X33.2484 Y34.4485
G01 X33.2367 Y34.4594
G00 Z2.0000
G00 X33.4613 Y34.4594
G01 F60.00
G01 Z0.0120
G01 F120.00
G01 X33.4706 Y34.4399
G01 X33.4750 Y34.4296
G01 X33.4830 Y34.4089
G01 X33.4900 Y34.3877
G01 X33.4959 Y34.3663
G01 X33.4985 Y34.3554
G01 X33.5028 Y34.3336
G01 X33.5061 Y34.3116
G01 X33.5083 Y34.2894
G01 X33.5090 Y34.2783
G01 X33.5095 Y34.2560
G01 X33.5090 Y34.2338
G01 X33.5083 Y34.2227
G01 X33.5061 Y34.2005
G01 X33.5028 Y34.1785
G01 X33.4985 Y34.1567
G01 X33.4931 Y34.1351
G01 X33.4900 Y34.1244
G01 X33.4830 Y34.1032
G01 X33.4750 Y34.0825
G01 X33.4706 Y34.0722
G01 X33.4613 Y34.0526
G00 Z2.0000
G00 X33.4613 Y35.0026
G01 F60.00
G01 Z0.0120
G01 F120.00
G01 X33.4706 Y35.0222
G01 X33.4750 Y35.0324
G01 X33.4830 Y35.0532
G01 X33.4900 Y35.0743
G01 X33.4931 Y35.0850
G01 X33.4985 Y35.1066
G01 X33.5028 Y35.1285
G01 X33.5061 Y35.1505
G01 X33.5083 Y35.1726
G01 X33.5090 Y35.1837
G01 X33.5095 Y35.2060
G01 X33.5090 Y35.2283
G01 X33.5083 Y35.2394
G01 X33.5061 Y35.2615
G01 X33.5028 Y35.2835
G01 X33.4985 Y35.3054
G01 X33.4959 Y35.3162
G01 X33.4900 Y35.3377
G01 X33.4830 Y35.3588
G01 X33.4750 Y35.3796
G01 X33.4706 Y35.3898
G01 X33.4613 Y35.4094
G00 Z2.0000
G00 X33.2367 Y35.4094
G01 F60.00
G01 Z0.0120
G01 F120.00
G01 X33.2484 Y35.3984
G01 X33.2576 Y35.3888
G01 X33.2663 Y35.3787
G01 X33.2745 Y35.3681
G01 X33.2822 Y35.3572
G01 X33.2893 Y35.3459
G01 X33.2959 Y35.3343
G01 X33.3019 Y35.3224
G01 X33.3074 Y35.3102
G01 X33.3122 Y35.2977
G01 X33.3164 Y35.2850
G01 X33.3199 Y35.2721
G01 X33.3228 Y35.2591
G01 X33.3251 Y35.2459
G01 X33.3268 Y35.2327
G01 X33.3277 Y35.2194
G01 X33.3281 Y35.2060
G01 X33.2367 Y35.0026
G01 X33.2484 Y35.0136
G01 X33.2576 Y35.0232
G01 X33.2705 Y35.0386
G01 X33.2784 Y35.0493
G01 X33.2858 Y35.0604
G01 X33.2927 Y35.0719
G01 X33.2990 Y35.0836
G01 X33.3047 Y35.0957
G01 X33.3098 Y35.1081
G01 X33.3143 Y35.1206
G01 X33.3182 Y35.1334
G01 X33.3228 Y35.1529
G01 X33.3251 Y35.1661
G01 X33.3268 Y35.1793
G01 X33.3277 Y35.1926
G01 X33.3281 Y35.2060
G01 X33.1466 Y35.2060
G01 X33.1462 Y35.2149
G01 X33.1449 Y35.2237
G01 X33.1427 Y35.2323
G01 X33.1397 Y35.2407
G01 X33.1348 Y35.2507
G01 X33.1301 Y35.2582
G01 X33.1246 Y35.2653
G01 X33.1185 Y35.2717
G01 X33.1100 Y35.2789
G01 X33.1025 Y35.2838
G01 X33.0947 Y35.2880
G01 X33.0865 Y35.2914
G01 X33.0780 Y35.2940
G01 X33.0692 Y35.2957
G01 X33.0604 Y35.2966
G01 X33.0515 Y35.2966
G01 X33.0382 Y35.2950
G01 X33.0275 Y35.2921
G01 X33.0171 Y35.2880
G01 X33.0074 Y35.2826
G01 X32.9984 Y35.2761
G01 X32.9902 Y35.2686
G01 X32.9830 Y35.2600
G01 X32.9759 Y35.2488
G01 X32.9713 Y35.2386
G01 X32.9679 Y35.2280
G01 X32.9659 Y35.2171
G01 X32.9652 Y35.2038
G01 X32.9662 Y35.1927
G01 X32.9691 Y35.1797
G01 X32.9730 Y35.1692
G01 X32.9781 Y35.1594
G01 X32.9858 Y35.1484
G01 X32.9934 Y35.1403
G01 X33.0019 Y35.1331
G01 X33.0112 Y35.1271
G01 X33.0212 Y35.1222
G01 X33.0275 Y35.1199
G01 X33.0296 Y35.1192
G01 X33.0317 Y35.1186
G01 X33.0339 Y35.1180
G01 X33.0448 Y35.1160
G01 X33.0559 Y35.1153
G01 X33.0670 Y35.1160
G01 X33.0780 Y35.1180
G01 X33.0906 Y35.1222
G01 X33.1006 Y35.1271
G01 X33.1100 Y35.1331
G01 X33.1185 Y35.1403
G01 X33.1260 Y35.1484
G01 X33.1337 Y35.1594
G01 X33.1397 Y35.1713
G01 X33.1433 Y35.1818
G01 X33.1456 Y35.1927
G01 X33.1466 Y35.2060
G01 X32.8751 Y35.0026
G01 X32.8635 Y35.0136
G01 X32.8543 Y35.0232
G01 X32.8455 Y35.0333
G01 X32.8373 Y35.0439
G01 X32.8296 Y35.0548
G01 X32.8225 Y35.0661
G01 X32.8159 Y35.0777
G01 X32.8071 Y35.0957
G01 X32.8020 Y35.1081
G01 X32.7955 Y35.1270
G01 X32.7919 Y35.1399
G01 X32.7890 Y35.1529
G01 X32.7867 Y35.1661
G01 X32.7851 Y35.1793
G01 X32.7841 Y35.1926
G01 X32.7837 Y35.2060
G01 X32.7841 Y35.2194
G01 X32.7851 Y35.2327
G01 X32.7867 Y35.2459
G01 X32.7890 Y35.2591
G01 X32.7919 Y35.2721
G01 X32.7975 Y35.2914
G01 X32.8020 Y35.3039
G01 X32.8071 Y35.3163
G01 X32.8128 Y35.3284
G01 X32.8225 Y35.3459
G01 X32.8296 Y35.3572
G01 X32.8373 Y35.3681
G01 X32.8455 Y35.3787
G01 X32.8543 Y35.3888
G01 X32.8635 Y35.3984
G01 X32.8751 Y35.4094
G00 Z2.0000
G00 X32.6505 Y35.4094
G01 F60.00
G01 Z0.0120
G01 F120.00
G01 X32.6412 Y35.3898
G01 X32.6368 Y35.3796
G01 X32.6288 Y35.3588
G01 X32.6218 Y35.3377
G01 X32.6187 Y35.3270
G01 X32.6133 Y35.3054
G01 X32.6090 Y35.2835
G01 X32.6057 Y35.2615
G01 X32.6035 Y35.2394
G01 X32.6029 Y35.2283
G01 X32.6023 Y35.2060
G01 X32.6029 Y35.1837
G01 X32.6035 Y35.1726
G01 X32.6057 Y35.1505
G01 X32.6090 Y35.1285
G01 X32.6133 Y35.1066
G01 X32.6159 Y35.0958
G01 X32.6218 Y35.0743
G01 X32.6288 Y35.0532
G01 X32.6368 Y35.0324
G01 X32.6412 Y35.0222
G01 X32.6505 Y35.0026
G00 Z2.0000
G00 X32.5825 Y35.0026
G01 F60.00
G01 Z0.0120
G01 F120.00
G01 X32.5825 Y35.4094
G01 X33.5293 Y35.4094
G01 X33.5293 Y35.0026
G01 X32.5825 Y35.0026
G00 Z2.0000
G00 X32.5825 Y35.9526
G01 F60.00
G01 Z0.0120
G01 F120.00
G01 X32.5825 Y36.3594
G01 X33.5293 Y36.3594
G01 X33.5293 Y35.9526
G01 X32.5825 Y35.9526
G00 Z2.0000
G00 X32.6505 Y35.9526
G01 F60.00
G01 Z0.0120
G01 F120.00
G01 X32.6412 Y35.9721
G01 X32.6368 Y35.9824
G01 X32.6288 Y36.0031
G01 X32.6218 Y36.0243
G01 X32.6159 Y36.0457
G01 X32.6133 Y36.0566
G01 X32.6090 Y36.0784
G01 X32.6057 Y36.1004
G01 X32.6035 Y36.1226
G01 X32.6029 Y36.1337
G01 X32.6023 Y36.1560
G01 X32.6029 Y36.1782
G01 X32.6035 Y36.1893
G01 X32.6057 Y36.2115
G01 X32.6090 Y36.2335
G01 X32.6133 Y36.2553
G01 X32.6187 Y36.2769
G01 X32.6218 Y36.2876
G01 X32.6288 Y36.3088
G01 X32.6368 Y36.3295
G01 X32.6412 Y36.3398
G01 X32.6505 Y36.3594
G00 Z2.0000
G00 X32.8751 Y36.3594
G01 F60.00
G01 Z0.0120
G01 F120.00
G01 X32.8635 Y36.3484
G01 X32.8543 Y36.3387
G01 X32.8455 Y36.3286
G01 X32.8373 Y36.3181
G01 X32.8296 Y36.3072
G01 X32.8225 Y36.2959
G01 X32.8128 Y36.2783
G01 X32.8071 Y36.2663
G01 X32.8020 Y36.2539
G01 X32.7975 Y36.2413
G01 X32.7919 Y36.2221
G01 X32.7890 Y36.2091
G01 X32.7867 Y36.1959
G01 X32.7851 Y36.1826
G01 X32.7841 Y36.1693
G01 X32.7837 Y36.1560
G01 X32.7841 Y36.1426
G01 X32.7851 Y36.1293
G01 X32.7867 Y36.1160
G01 X32.7890 Y36.1029
G01 X32.7919 Y36.0898
G01 X32.7955 Y36.0770
G01 X32.8020 Y36.0580
G01 X32.8071 Y36.0457
G01 X32.8159 Y36.0277
G01 X32.8225 Y36.0160
G01 X32.8296 Y36.0048
G01 X32.8373 Y35.9938
G01 X32.8455 Y35.9833
G01 X32.8543 Y35.9732
G01 X32.8635 Y35.9635
G01 X32.8751 Y35.9526
G01 X33.1466 Y36.1560
G01 X33.1456 Y36.1426
G01 X33.1433 Y36.1318
G01 X33.1397 Y36.1212
G01 X33.1337 Y36.1093
G01 X33.1260 Y36.0984
G01 X33.1185 Y36.0903
G01 X33.1100 Y36.0831
G01 X33.1006 Y36.0770
G01 X33.0906 Y36.0721
G01 X33.0780 Y36.0680
G01 X33.0670 Y36.0659
G01 X33.0559 Y36.0652
G01 X33.0448 Y36.0659
G01 X33.0339 Y36.0680
G01 X33.0317 Y36.0685
G01 X33.0296 Y36.0691
G01 X33.0275 Y36.0698
G01 X33.0212 Y36.0721
G01 X33.0112 Y36.0770
G01 X33.0019 Y36.0831
G01 X32.9934 Y36.0903
G01 X32.9858 Y36.0984
G01 X32.9781 Y36.1093
G01 X32.9730 Y36.1192
G01 X32.9691 Y36.1296
G01 X32.9662 Y36.1426
G01 X32.9652 Y36.1537
G01 X32.9659 Y36.1671
G01 X32.9679 Y36.1780
G01 X32.9713 Y36.1886
G01 X32.9759 Y36.1987
G01 X32.9830 Y36.2100
G01 X32.9902 Y36.2185
G01 X32.9984 Y36.2261
G01 X33.0074 Y36.2326
G01 X33.0171 Y36.2380
G01 X33.0275 Y36.2421
G01 X33.0382 Y36.2449
G01 X33.0515 Y36.2466
G01 X33.0604 Y36.2466
G01 X33.0692 Y36.2457
G01 X33.0780 Y36.2440
G01 X33.0865 Y36.2414
G01 X33.0947 Y36.2380
G01 X33.1025 Y36.2338
G01 X33.1100 Y36.2288
G01 X33.1185 Y36.2217
G01 X33.1246 Y36.2152
G01 X33.1301 Y36.2082
G01 X33.1348 Y36.2007
G01 X33.1397 Y36.1907
G01 X33.1427 Y36.1823
G01 X33.1449 Y36.1737
G01 X33.1462 Y36.1649
G01 X33.1466 Y36.1560
G01 X33.3281 Y36.1560
G01 X33.3277 Y36.1426
G01 X33.3268 Y36.1293
G01 X33.3251 Y36.1160
G01 X33.3228 Y36.1029
G01 X33.3182 Y36.0834
G01 X33.3143 Y36.0706
G01 X33.3098 Y36.0580
G01 X33.3047 Y36.0457
G01 X33.2990 Y36.0336
G01 X33.2927 Y36.0218
G01 X33.2858 Y36.0104
G01 X33.2784 Y35.9992
G01 X33.2705 Y35.9885
G01 X33.2576 Y35.9732
G01 X33.2484 Y35.9635
G01 X33.2367 Y35.9526
G01 X33.3281 Y36.1560
G01 X33.3277 Y36.1693
G01 X33.3268 Y36.1826
G01 X33.3251 Y36.1959
G01 X33.3228 Y36.2091
G01 X33.3199 Y36.2221
G01 X33.3164 Y36.2350
G01 X33.3122 Y36.2476
G01 X33.3074 Y36.2601
G01 X33.3019 Y36.2723
G01 X33.2959 Y36.2843
G01 X33.2893 Y36.2959
G01 X33.2822 Y36.3072
G01 X33.2745 Y36.3181
G01 X33.2663 Y36.3286
G01 X33.2576 Y36.3387
G01 X33.2484 Y36.3484
G01 X33.2367 Y36.3594
G00 Z2.0000
G00 X33.4613 Y36.3594
G01 F60.00
G01 Z0.0120
G01 F120.00
G01 X33.4706 Y36.3398
G01 X33.4750 Y36.3295
G01 X33.4830 Y36.3088
G01 X33.4900 Y36.2876
G01 X33.4959 Y36.2662
G01 X33.4985 Y36.2553
G01 X33.5028 Y36.2335
G01 X33.5061 Y36.2115
G01 X33.5083 Y36.1893
G01 X33.5090 Y36.1782
G01 X33.5095 Y36.1560
G01 X33.5090 Y36.1337
G01 X33.5083 Y36.1226
G01 X33.5061 Y36.1004
G01 X33.5028 Y36.0784
G01 X33.4985 Y36.0566
G01 X33.4931 Y36.0350
G01 X33.4900 Y36.0243
G01 X33.4830 Y36.0031
G01 X33.4750 Y35.9824
G01 X33.4706 Y35.9721
G01 X33.4613 Y35.9526
G00 Z2.0000
G00 X34.8807 Y35.9526
G01 F60.00
G01 Z0.0120
G01 F120.00
G01 X34.8807 Y36.3594
G01 X35.8275 Y36.3594
G01 X35.8275 Y35.9526
G01 X34.8807 Y35.9526
G00 Z2.0000
G00 X34.9487 Y35.9526
G01 F60.00
G01 Z0.0120
G01 F120.00
G01 X34.9394 Y35.9721
G01 X34.9350 Y35.9824
G01 X34.9270 Y36.0031
G01 X34.9200 Y36.0243
G01 X34.9141 Y36.0457
G01 X34.9115 Y36.0566
G01 X34.9072 Y36.0784
G01 X34.9039 Y36.1004
G01 X34.9017 Y36.1226
G01 X34.9010 Y36.1337
G01 X34.9005 Y36.1560
G01 X34.9010 Y36.1782
G01 X34.9017 Y36.1893
G01 X34.9039 Y36.2115
G01 X34.9072 Y36.2335
G01 X34.9115 Y36.2553
G01 X34.9169 Y36.2769
G01 X34.9200 Y36.2876
G01 X34.9270 Y36.3088
G01 X34.9350 Y36.3295
G01 X34.9394 Y36.3398
G01 X34.9487 Y36.3594
G00 Z2.0000
G00 X35.1733 Y36.3594
G01 F60.00
G01 Z0.0120
G01 F120.00
G01 X35.1617 Y36.3484
G01 X35.1524 Y36.3387
G01 X35.1437 Y36.3286
G01 X35.1355 Y36.3181
G01 X35.1278 Y36.3072
G01 X35.1207 Y36.2959
G01 X35.1110 Y36.2783
G01 X35.1053 Y36.2663
G01 X35.1002 Y36.2539
G01 X35.0957 Y36.2413
G01 X35.0901 Y36.2221
G01 X35.0872 Y36.2091
G01 X35.0849 Y36.1959
G01 X35.0833 Y36.1826
G01 X35.0823 Y36.1693
G01 X35.0819 Y36.1560
G01 X35.0823 Y36.1426
G01 X35.0833 Y36.1293
G01 X35.0849 Y36.1160
G01 X35.0872 Y36.1029
G01 X35.0901 Y36.0898
G01 X35.0937 Y36.0770
G01 X35.1002 Y36.0580
G01 X35.1053 Y36.0457
G01 X35.1141 Y36.0277
G01 X35.1207 Y36.0160
G01 X35.1278 Y36.0048
G01 X35.1355 Y35.9938
G01 X35.1437 Y35.9833
G01 X35.1524 Y35.9732
G01 X35.1617 Y35.9635
G01 X35.1733 Y35.9526
G01 X35.4448 Y36.1560
G01 X35.4438 Y36.1426
G01 X35.4415 Y36.1318
G01 X35.4379 Y36.1212
G01 X35.4319 Y36.1093
G01 X35.4242 Y36.0984
G01 X35.4167 Y36.0903
G01 X35.4081 Y36.0831
G01 X35.3988 Y36.0770
G01 X35.3888 Y36.0721
G01 X35.3761 Y36.0680
G01 X35.3652 Y36.0659
G01 X35.3541 Y36.0652
G01 X35.3430 Y36.0659
G01 X35.3321 Y36.0680
G01 X35.3299 Y36.0685
G01 X35.3278 Y36.0691
G01 X35.3256 Y36.0698
G01 X35.3194 Y36.0721
G01 X35.3094 Y36.0770
G01 X35.3001 Y36.0831
G01 X35.2915 Y36.0903
G01 X35.2840 Y36.0984
G01 X35.2763 Y36.1093
G01 X35.2712 Y36.1192
G01 X35.2673 Y36.1296
G01 X35.2644 Y36.1426
G01 X35.2634 Y36.1537
G01 X35.2641 Y36.1671
G01 X35.2661 Y36.1780
G01 X35.2695 Y36.1886
G01 X35.2741 Y36.1987
G01 X35.2812 Y36.2100
G01 X35.2884 Y36.2185
G01 X35.2965 Y36.2261
G01 X35.3056 Y36.2326
G01 X35.3153 Y36.2380
G01 X35.3256 Y36.2421
G01 X35.3364 Y36.2449
G01 X35.3496 Y36.2466
G01 X35.3586 Y36.2466
G01 X35.3674 Y36.2457
G01 X35.3761 Y36.2440
G01 X35.3847 Y36.2414
G01 X35.3929 Y36.2380
G01 X35.4007 Y36.2338
G01 X35.4081 Y36.2288
G01 X35.4167 Y36.2217
G01 X35.4228 Y36.2152
G01 X35.4283 Y36.2082
G01 X35.4330 Y36.2007
G01 X35.4379 Y36.1907
G01 X35.4409 Y36.1823
G01 X35.4431 Y36.1737
G01 X35.4444 Y36.1649
G01 X35.4448 Y36.1560
G01 X35.6263 Y36.1560
G01 X35.6259 Y36.1426
G01 X35.6249 Y36.1293
G01 X35.6233 Y36.1160
G01 X35.6210 Y36.1029
G01 X35.6164 Y36.0834
G01 X35.6125 Y36.0706
G01 X35.6080 Y36.0580
G01 X35.6029 Y36.0457
G01 X35.5972 Y36.0336
G01 X35.5909 Y36.0218
G01 X35.5840 Y36.0104
G01 X35.5766 Y35.9992
G01 X35.5687 Y35.9885
G01 X35.5558 Y35.9732
G01 X35.5465 Y35.9635
G01 X35.5349 Y35.9526
G01 X35.6263 Y36.1560
G01 X35.6259 Y36.1693
G01 X35.6249 Y36.1826
G01 X35.6233 Y36.1959
G01 X35.6210 Y36.2091
G01 X35.6181 Y36.2221
G01 X35.6145 Y36.2350
G01 X35.6104 Y36.2476
G01 X35.6055 Y36.2601
G01 X35.6001 Y36.2723
G01 X35.5941 Y36.2843
G01 X35.5875 Y36.2959
G01 X35.5804 Y36.3072
G01 X35.5727 Y36.3181
G01 X35.5645 Y36.3286
G01 X35.5558 Y36.3387
G01 X35.5465 Y36.3484
G01 X35.5349 Y36.3594
G00 Z2.0000
G00 X35.7595 Y36.3594
G01 F60.00
G01 Z0.0120
G01 F120.00
G01 X35.7688 Y36.3398
G01 X35.7732 Y36.3295
G01 X35.7812 Y36.3088
G01 X35.7882 Y36.2876
G01 X35.7941 Y36.2662
G01 X35.7967 Y36.2553
G01 X35.8010 Y36.2335
G01 X35.8043 Y36.2115
G01 X35.8065 Y36.1893
G01 X35.8072 Y36.1782
G01 X35.8077 Y36.1560
G01 X35.8072 Y36.1337
G01 X35.8065 Y36.1226
G01 X35.8043 Y36.1004
G01 X35.8010 Y36.0784
G01 X35.7967 Y36.0566
G01 X35.7913 Y36.0350
G01 X35.7882 Y36.0243
G01 X35.7812 Y36.0031
G01 X35.7732 Y35.9824
G01 X35.7688 Y35.9721
G01 X35.7595 Y35.9526
G00 Z2.0000
G00 X35.7595 Y35.4094
G01 F60.00
G01 Z0.0120
G01 F120.00
G01 X35.7688 Y35.3898
G01 X35.7732 Y35.3796
G01 X35.7812 Y35.3588
G01 X35.7882 Y35.3377
G01 X35.7941 Y35.3162
G01 X35.7967 Y35.3054
G01 X35.8010 Y35.2835
G01 X35.8043 Y35.2615
G01 X35.8065 Y35.2394
G01 X35.8072 Y35.2283
G01 X35.8077 Y35.2060
G01 X35.8072 Y35.1837
G01 X35.8065 Y35.1726
G01 X35.8043 Y35.1505
G01 X35.8010 Y35.1285
G01 X35.7967 Y35.1066
G01 X35.7913 Y35.0850
G01 X35.7882 Y35.0743
G01 X35.7812 Y35.0532
G01 X35.7732 Y35.0324
G01 X35.7688 Y35.0222
G01 X35.7595 Y35.0026
G00 Z2.0000
G00 X35.5349 Y35.4094
G01 F60.00
G01 Z0.0120
G01 F120.00
G01 X35.5465 Y35.3984
G01 X35.5558 Y35.3888
G01 X35.5645 Y35.3787
G01 X35.5727 Y35.3681
G01 X35.5804 Y35.3572
G01 X35.5875 Y35.3459
G01 X35.5941 Y35.3343
G01 X35.6001 Y35.3224
G01 X35.6055 Y35.3102
G01 X35.6104 Y35.2977
G01 X35.6145 Y35.2850
G01 X35.6181 Y35.2721
G01 X35.6210 Y35.2591
G01 X35.6233 Y35.2459
G01 X35.6249 Y35.2327
G01 X35.6259 Y35.2194
G01 X35.6263 Y35.2060
G01 X35.5349 Y35.0026
G01 X35.5465 Y35.0136
G01 X35.5558 Y35.0232
G01 X35.5687 Y35.0386
G01 X35.5766 Y35.0493
G01 X35.5840 Y35.0604
G01 X35.5909 Y35.0719
G01 X35.5972 Y35.0836
G01 X35.6029 Y35.0957
G01 X35.6080 Y35.1081
G01 X35.6125 Y35.1206
G01 X35.6164 Y35.1334
G01 X35.6210 Y35.1529
G01 X35.6233 Y35.1661
G01 X35.6249 Y35.1793
G01 X35.6259 Y35.1926
G01 X35.6263 Y35.2060
G01 X35.4448 Y35.2060
G01 X35.4444 Y35.2149
G01 X35.4431 Y35.2237
G01 X35.4409 Y35.2323
G01 X35.4379 Y35.2407
G01 X35.4330 Y35.2507
G01 X35.4283 Y35.2582
G01 X35.4228 Y35.2653
G01 X35.4167 Y35.2717
G01 X35.4081 Y35.2789
G01 X35.4007 Y35.2838
G01 X35.3929 Y35.2880
G01 X35.3847 Y35.2914
G01 X35.3761 Y35.2940
G01 X35.3674 Y35.2957
G01 X35.3586 Y35.2966
G01 X35.3496 Y35.2966
G01 X35.3364 Y35.2950
G01 X35.3256 Y35.2921
G01 X35.3153 Y35.2880
G01 X35.3056 Y35.2826
G01 X35.2965 Y35.2761
G01 X35.2884 Y35.2686
G01 X35.2812 Y35.2600
G01 X35.2741 Y35.2488
G01 X35.2695 Y35.2386
G01 X35.2661 Y35.2280
G01 X35.2641 Y35.2171
G01 X35.2634 Y35.2038
G01 X35.2644 Y35.1927
G01 X35.2673 Y35.1797
G01 X35.2712 Y35.1692
G01 X35.2763 Y35.1594
G01 X35.2840 Y35.1484
G01 X35.2915 Y35.1403
G01 X35.3001 Y35.1331
G01 X35.3094 Y35.1271
G01 X35.3194 Y35.1222
G01 X35.3256 Y35.1199
G01 X35.3278 Y35.1192
G01 X35.3299 Y35.1186
G01 X35.3321 Y35.1180
G01 X35.3430 Y35.1160
G01 X35.3541 Y35.1153
G01 X35.3652 Y35.1160
G01 X35.3761 Y35.1180
G01 X35.3888 Y35.1222
G01 X35.3988 Y35.1271
G01 X35.4081 Y35.1331
G01 X35.4167 Y35.1403
G01 X35.4242 Y35.1484
G01 X35.4319 Y35.1594
G01 X35.4379 Y35.1713
G01 X35.4415 Y35.1818
G01 X35.4438 Y35.1927
G01 X35.4448 Y35.2060
G01 X35.1733 Y35.0026
G01 X35.1617 Y35.0136
G01 X35.1524 Y35.0232
G01 X35.1437 Y35.0333
G01 X35.1355 Y35.0439
G01 X35.1278 Y35.0548
G01 X35.1207 Y35.0661
G01 X35.1141 Y35.0777
G01 X35.1053 Y35.0957
G01 X35.1002 Y35.1081
G01 X35.0937 Y35.1270
G01 X35.0901 Y35.1399
G01 X35.0872 Y35.1529
G01 X35.0849 Y35.1661
G01 X35.0833 Y35.1793
G01 X35.0823 Y35.1926
G01 X35.0819 Y35.2060
G01 X35.0823 Y35.2194
G01 X35.0833 Y35.2327
G01 X35.0849 Y35.2459
G01 X35.0872 Y35.2591
G01 X35.0901 Y35.2721
G01 X35.0957 Y35.2914
G01 X35.1002 Y35.3039
G01 X35.1053 Y35.3163
G01 X35.1110 Y35.3284
G01 X35.1207 Y35.3459
G01 X35.1278 Y35.3572
G01 X35.1355 Y35.3681
G01 X35.1437 Y35.3787
G01 X35.1524 Y35.3888
G01 X35.1617 Y35.3984
G01 X35.1733 Y35.4094
G00 Z2.0000
G00 X34.9487 Y35.4094
G01 F60.00
G01 Z0.0120
G01 F120.00
G01 X34.9394 Y35.3898
G01 X34.9350 Y35.3796
G01 X34.9270 Y35.3588
G01 X34.9200 Y35.3377
G01 X34.9169 Y35.3270
G01 X34.9115 Y35.3054
G01 X34.9072 Y35.2835
G01 X34.9039 Y35.2615
G01 X34.9017 Y35.2394
G01 X34.9010 Y35.2283
G01 X34.9005 Y35.2060
G01 X34.9010 Y35.1837
G01 X34.9017 Y35.1726
G01 X34.9039 Y35.1505
G01 X34.9072 Y35.1285
G01 X34.9115 Y35.1066
G01 X34.9141 Y35.0958
G01 X34.9200 Y35.0743
G01 X34.9270 Y35.0532
G01 X34.9350 Y35.0324
G01 X34.9394 Y35.0222
G01 X34.9487 Y35.0026
G00 Z2.0000
G00 X34.8807 Y35.0026
G01 F60.00
G01 Z0.0120
G01 F120.00
G01 X34.8807 Y35.4094
G01 X35.8275 Y35.4094
G01 X35.8275 Y35.0026
G01 X34.8807 Y35.0026
G00 Z2.0000
G00 X35.5349 Y34.4594
G01 F60.00
G01 Z0.0120
G01 F120.00
G01 X35.5465 Y34.4485
