
(start: flatcam/step4-align.nc:T3)

(Machine)
(  vendor: Makera)
(  model: Carvera 3-axis)
(  description: Makera Carvera 3-axis)
G01 F3000
G90 G94
G17
G21

T3 M6
G00 X32.1227 Y38.9615 Z5.0000 F900
M3 S12000
G00 X20.0000 Y10.0000
G01 Z-0.7000
G01 Z0
G00 Z2.0000
G01 Z-1.4000
G01 Z0
G00 Z2.0000
G01 Z-2.1000
G01 Z0
G00 Z2.0000
G01 Z-2.8000
G01 Z0
G00 Z2.0000
G01 Z-3.5000
G01 Z0
G00 Z2.0000
G01 Z-4.2000
G01 Z0
G00 Z2.0000
G01 Z-4.9000
G01 Z0
G00 Z2.0000
G01 Z-5.6000
G01 Z0
G00 Z2.0000
G01 Z-6.0000
G01 Z0
G00 Z2.0000
G00 X64.0310 Y10.0000
G01 Z-0.7000
G01 Z0
G00 Z2.0000
G01 Z-1.4000
G01 Z0
G00 Z2.0000
G01 Z-2.1000
G01 Z0
G00 Z2.0000
G01 Z-2.8000
G01 Z0
G00 Z2.0000
G01 Z-3.5000
G01 Z0
G00 Z2.0000
G01 Z-4.2000
G01 Z0
G00 Z2.0000
G01 Z-4.9000
G01 Z0
G00 Z2.0000
G01 Z-5.6000
G01 Z0
G00 Z2.0000
G01 Z-6.0000
G01 Z0
G00 Z2.0000
G00 X64.0310 Y60.0000
G01 Z-0.7000
G01 Z0
G00 Z2.0000
G01 Z-1.4000
G01 Z0
G00 Z2.0000
G01 Z-2.1000
G01 Z0
G00 Z2.0000
G01 Z-2.8000
G01 Z0
G00 Z2.0000
G01 Z-3.5000
G01 Z0
G00 Z2.0000
G01 Z-4.2000
G01 Z0
G00 Z2.0000
G01 Z-4.9000
G01 Z0
G00 Z2.0000
G01 Z-5.6000
G01 Z0
G00 Z2.0000
G01 Z-6.0000
G01 Z0
G00 Z2.0000
G00 X20.0000 Y60.0000
G01 Z-0.7000
G01 Z0
G00 Z2.0000
G01 Z-1.4000
G01 Z0
G00 Z2.0000
G01 Z-2.1000
G01 Z0
G00 Z2.0000
G01 Z-2.8000
G01 Z0
G00 Z2.0000
G01 Z-3.5000
G01 Z0
G00 Z2.0000
G01 Z-4.2000
G01 Z0
G00 Z2.0000
G01 Z-4.9000
G01 Z0
G00 Z2.0000
G01 Z-5.6000
G01 Z0
G00 Z2.0000
G01 Z-6.0000
G01 Z0
G00 Z2.0000
M5
G00 Z2.0000 F3000

(end: flatcam/step4-align.nc:T3)

(start: flatcam/step4x-align.nc:T3)

T3 M6
M3 S16000
G00 X20.0000 Y20.0000
G01 Z-0.7000
G01 Z0
G00 Z2.0000
G01 Z-1.4000
G01 Z0
G00 Z2.0000
G01 Z-2.1000
G01 Z0
G00 Z2.0000
G01 Z-2.8000
G01 Z0
G00 Z2.0000
G01 Z-3.5000
G01 Z0
G00 Z2.0000
G01 Z-4.2000
G01 Z0
G00 Z2.0000
G01 Z-4.9000
G01 Z0
G00 Z2.0000
G01 Z-5.6000
G01 Z0
G00 Z2.0000
G01 Z-6.0000
G01 Z0
G00 Z2.0000
G00 X20.0000 Y50.0000
G01 Z-0.7000
G01 Z0
G00 Z2.0000
G01 Z-1.4000
G01 Z0
G00 Z2.0000
G01 Z-2.1000
G01 Z0
G00 Z2.0000
G01 Z-2.8000
G01 Z0
G00 Z2.0000
G01 Z-3.5000
G01 Z0
G00 Z2.0000
G01 Z-4.2000
G01 Z0
G00 Z2.0000
G01 Z-4.9000
G01 Z0
G00 Z2.0000
G01 Z-5.6000
G01 Z0
G00 Z2.0000
G01 Z-6.0000
G01 Z0
G00 Z2.0000
G00 X64.0310 Y50.0000
G01 Z-0.7000
G01 Z0
G00 Z2.0000
G01 Z-1.4000
G01 Z0
G00 Z2.0000
G01 Z-2.1000
G01 Z0
G00 Z2.0000
G01 Z-2.8000
G01 Z0
G00 Z2.0000
G01 Z-3.5000
G01 Z0
G00 Z2.0000
G01 Z-4.2000
G01 Z0
G00 Z2.0000
G01 Z-4.9000
G01 Z0
G00 Z2.0000
G01 Z-5.6000
G01 Z0
G00 Z2.0000
G01 Z-6.0000
G01 Z0
G00 Z2.0000
G00 X64.0310 Y20.0000
G01 Z-0.7000
G01 Z0
G00 Z2.0000
G01 Z-1.4000
G01 Z0
G00 Z2.0000
G01 Z-2.1000
G01 Z0
G00 Z2.0000
G01 Z-2.8000
G01 Z0
G00 Z2.0000
G01 Z-3.5000
G01 Z0
G00 Z2.0000
G01 Z-4.2000
G01 Z0
G00 Z2.0000
G01 Z-4.9000
G01 Z0
G00 Z2.0000
G01 Z-5.6000
G01 Z0
G00 Z2.0000
G01 Z-6.0000
G01 Z0
G00 Z2.0000
M5
G00 Z2.0000 F3000

(end: flatcam/step4x-align.nc:T3)
G0 Z15 F3000
M5
G28
M30