
(Machine)
(  vendor: Makera)
(  model: Carvera 3-axis)
(  description: Makera Carvera 3-axis)
G01 F3000
G90 G94
G17
G21

T2 M6
G00 X32.1227 Y38.9615 Z5.0000 F900
M3 S12000
G01 F120.00
G00 X15.8967 Y24.4191
G01 F60.00
G01 Z-0.1000
G01 F120.00
G01 X16.3615 Y24.4191
G01 X16.3716 Y24.4198
G01 X16.3790 Y24.4210
G01 X16.4242 Y24.4306
G01 X16.4344 Y24.4333
G01 X16.4468 Y24.4381
G01 X16.4538 Y24.4417
G01 X16.4606 Y24.4458
G01 X16.5016 Y24.4768
G01 X16.5098 Y24.4837
G01 X16.5155 Y24.4894
G01 X16.5207 Y24.4956
G01 X16.5269 Y24.5043
G01 X16.5310 Y24.5112
G01 X16.5531 Y24.5522
G01 X16.5573 Y24.5617
G01 X16.5607 Y24.5716
G01 X16.5630 Y24.5818
G01 X16.5644 Y24.5921
G01 X16.5672 Y24.6410
G01 X16.5669 Y24.6542
G01 X16.5654 Y24.6646
G01 X16.5630 Y24.6748
G01 X16.5596 Y24.6847
G01 X16.5433 Y24.7253
G01 X16.5389 Y24.7350
G01 X16.5349 Y24.7420
G01 X16.5305 Y24.7487
G01 X16.5255 Y24.7549
G01 X16.5201 Y24.7609
G01 X16.4847 Y24.7951
G01 X16.4763 Y24.8021
G01 X16.4671 Y24.8083
G01 X16.4059 Y24.8449
G01 X16.2969 Y24.9302
G01 X16.1985 Y25.0286
G01 X16.1129 Y25.1384
G01 X16.0755 Y25.1997
G01 X16.0693 Y25.2088
G01 X16.0622 Y25.2172
G01 X16.0322 Y25.2492
G01 X16.0245 Y25.2567
G01 X16.0183 Y25.2617
G01 X16.0094 Y25.2677
G01 X16.0023 Y25.2716
G01 X15.9925 Y25.2760
G01 X15.9444 Y25.2943
G01 X15.9368 Y25.2964
G01 X15.9290 Y25.2978
G01 X15.9158 Y25.2990
G01 X15.9079 Y25.2989
G01 X15.8591 Y25.2965
G01 X15.8488 Y25.2950
G01 X15.8362 Y25.2918
G01 X15.8289 Y25.2892
G01 X15.8194 Y25.2848
G01 X15.7785 Y25.2622
G01 X15.7696 Y25.2567
G01 X15.7593 Y25.2487
G01 X15.7518 Y25.2414
G01 X15.7467 Y25.2354
G01 X15.7186 Y25.1988
G01 X15.7126 Y25.1901
G01 X15.7064 Y25.1785
G01 X15.7016 Y25.1662
G01 X15.6989 Y25.1560
G01 X15.6892 Y25.1108
G01 X15.6881 Y25.1033
G01 X15.6874 Y25.0932
G01 X15.6874 Y24.6258
G01 X15.6878 Y24.6181
G01 X15.6893 Y24.6078
G01 X15.6975 Y24.5662
G01 X15.7002 Y24.5561
G01 X15.7039 Y24.5464
G01 X15.7097 Y24.5348
G01 X15.7378 Y24.4935
G01 X15.7429 Y24.4871
G01 X15.7483 Y24.4812
G01 X15.7563 Y24.4738
G01 X15.7627 Y24.4689
G01 X15.8019 Y24.4427
G01 X15.8110 Y24.4378
G01 X15.8206 Y24.4337
G01 X15.8331 Y24.4300
G01 X15.8775 Y24.4208
G01 X15.8884 Y24.4194
G01 X15.8967 Y24.4191
G00 Z2.0000
G00 X17.7610 Y24.4191
G01 F60.00
G01 Z-0.1000
G01 F120.00
G01 X31.3043 Y24.4191
G01 X31.3126 Y24.4194
G01 X31.3235 Y24.4208
G01 X31.3679 Y24.4300
G01 X31.3779 Y24.4329
G01 X31.3876 Y24.4367
G01 X31.3946 Y24.4401
G01 X31.4035 Y24.4455
G01 X31.4360 Y24.4674
G01 X31.4426 Y24.4721
G01 X31.4527 Y24.4812
G01 X31.4616 Y24.4914
G01 X31.4885 Y24.5304
G01 X31.4938 Y24.5394
G01 X31.4982 Y24.5488
G01 X31.5016 Y24.5586
G01 X31.5041 Y24.5687
G01 X31.5121 Y24.6104
G01 X31.5135 Y24.6232
G01 X31.5137 Y27.5603
G01 X31.5218 Y27.6119
G01 X31.5363 Y27.6441
G01 X31.5507 Y27.6640
G01 X31.5680 Y27.6807
G01 X31.6011 Y27.7037
G01 X31.6321 Y27.7154
G01 X31.6778 Y27.7211
G01 X34.3225 Y27.7211
G01 X34.3745 Y27.7133
G01 X34.4056 Y27.6993
G01 X34.4255 Y27.6844
G01 X34.4433 Y27.6664
G01 X34.4660 Y27.6336
G01 X34.4776 Y27.6026
G01 X34.4833 Y27.5574
G01 X34.4833 Y24.6284
G01 X34.4836 Y24.6207
G01 X34.4849 Y24.6104
G01 X34.4935 Y24.5662
G01 X34.4962 Y24.5561
G01 X34.4999 Y24.5464
G01 X34.5045 Y24.5371
G01 X34.5099 Y24.5282
G01 X34.5338 Y24.4935
G01 X34.5425 Y24.4831
G01 X34.5502 Y24.4756
G01 X34.5587 Y24.4689
G01 X34.5957 Y24.4441
G01 X34.6070 Y24.4378
G01 X34.6166 Y24.4337
G01 X34.6266 Y24.4306
G01 X34.6708 Y24.4213
G01 X34.6817 Y24.4196
G01 X34.6927 Y24.4191
G01 X48.5758 Y24.4191
G01 X48.5859 Y24.4196
G01 X48.5935 Y24.4205
G01 X48.6437 Y24.4313
G01 X48.6536 Y24.4345
G01 X48.6631 Y24.4386
G01 X48.6745 Y24.4450
G01 X48.7124 Y24.4708
G01 X48.7227 Y24.4793
G01 X48.7302 Y24.4869
G01 X48.7352 Y24.4931
G01 X48.7399 Y24.4997
G01 X48.7631 Y24.5375
G01 X48.7683 Y24.5469
G01 X48.7725 Y24.5569
G01 X48.7757 Y24.5671
G01 X48.7778 Y24.5777
G01 X48.7843 Y24.6205
G01 X48.7850 Y24.6287
G01 X48.7851 Y24.6370
G01 X48.6835 Y26.5529
G01 X48.6814 Y26.5657
G01 X48.6717 Y26.6048
G01 X48.6694 Y26.6126
G01 X48.6665 Y26.6203
G01 X48.6631 Y26.6277
G01 X48.6591 Y26.6349
G01 X48.6546 Y26.6417
G01 X48.6290 Y26.6768
G01 X48.6239 Y26.6828
G01 X48.6164 Y26.6902
G01 X48.6061 Y26.6983
G01 X48.5714 Y26.7211
G01 X48.5648 Y26.7251
G01 X48.5566 Y26.7292
G01 X48.5566 Y26.7892
G01 X48.7256 Y26.7893
G01 X48.7362 Y26.7900
G01 X48.7466 Y26.7918
G01 X48.7568 Y26.7947
G01 X48.7691 Y26.7996
G01 X48.7806 Y26.8059
G01 X48.7893 Y26.8120
G01 X48.7973 Y26.8189
G01 X48.8063 Y26.8286
G01 X48.8126 Y26.8371
G01 X48.8192 Y26.8485
G01 X48.8245 Y26.8607
G01 X48.8275 Y26.8708
G01 X48.8299 Y26.8838
G01 X48.8307 Y26.8943
G01 X48.8307 Y27.3221
G01 X52.2329 Y27.3221
G01 X52.2582 Y27.3233
G01 X52.2832 Y27.3271
G01 X52.3078 Y27.3332
G01 X52.3291 Y27.3407
G01 X52.3545 Y27.3525
G01 X52.3739 Y27.3641
G01 X52.3805 Y27.3686
G01 X52.3965 Y27.3806
G01 X52.4114 Y27.3940
G01 X52.4171 Y27.3995
G01 X52.4322 Y27.4164
G01 X52.4458 Y27.4345
G01 X52.4501 Y27.4412
G01 X52.4603 Y27.4584
G01 X52.4690 Y27.4764
G01 X52.4721 Y27.4837
G01 X52.4796 Y27.5051
G01 X52.4858 Y27.5296
G01 X52.4895 Y27.5547
G01 X52.4907 Y27.5799
G01 X52.4907 Y28.1513
G01 X52.7689 Y28.1513
G01 X52.7795 Y28.1518
G01 X52.7899 Y28.1534
G01 X52.7976 Y28.1552
G01 X52.8052 Y28.1576
G01 X52.8173 Y28.1628
G01 X52.8288 Y28.1694
G01 X52.8393 Y28.1775
G01 X52.8451 Y28.1828
G01 X52.8505 Y28.1887
G01 X52.8585 Y28.1992
G01 X52.8651 Y28.2106
G01 X52.8704 Y28.2227
G01 X52.8727 Y28.2303
G01 X52.8751 Y28.2406
G01 X52.8764 Y28.2511
G01 X52.8766 Y28.2590
G01 X52.8766 Y28.7937
G01 X52.8761 Y28.8016
G01 X52.8746 Y28.8121
G01 X52.8727 Y28.8198
G01 X52.8704 Y28.8273
G01 X52.8674 Y28.8347
G01 X52.8639 Y28.8418
G01 X52.8599 Y28.8487
G01 X52.8554 Y28.8552
G01 X52.8469 Y28.8653
G01 X52.8373 Y28.8743
G01 X52.8288 Y28.8806
G01 X52.8173 Y28.8873
G01 X52.8077 Y28.8916
G01 X52.7951 Y28.8956
G01 X52.7821 Y28.8980
G01 X52.7689 Y28.8988
G01 X51.6943 Y28.8988
G01 X51.6837 Y28.8980
G01 X51.6707 Y28.8956
G01 X51.6606 Y28.8925
G01 X51.6508 Y28.8884
G01 X51.6415 Y28.8835
G01 X51.6327 Y28.8776
G01 X51.6245 Y28.8709
G01 X51.6153 Y28.8614
G01 X51.6104 Y28.8552
G01 X51.6045 Y28.8464
G01 X51.5995 Y28.8371
G01 X51.5964 Y28.8298
G01 X51.5931 Y28.8198
G01 X51.5912 Y28.8121
G01 X51.5900 Y28.8042
G01 X51.5892 Y28.7937
G01 X51.5892 Y28.2590
G01 X51.5894 Y28.2511
G01 X51.5907 Y28.2406
G01 X51.5931 Y28.2303
G01 X51.5954 Y28.2227
G01 X51.6007 Y28.2106
G01 X51.6073 Y28.1992
G01 X51.6153 Y28.1887
G01 X51.6207 Y28.1828
G01 X51.6265 Y28.1775
G01 X51.6370 Y28.1694
G01 X51.6485 Y28.1628
G01 X51.6606 Y28.1576
G01 X51.6682 Y28.1552
G01 X51.6759 Y28.1534
G01 X51.6863 Y28.1518
G01 X51.6969 Y28.1513
G01 X51.9751 Y28.1513
G01 X51.9751 Y27.8378
G01 X48.8307 Y27.8378
G01 X48.8307 Y28.3096
G01 X48.8296 Y28.3228
G01 X48.8268 Y28.3357
G01 X48.8235 Y28.3458
G01 X48.8180 Y28.3578
G01 X48.8126 Y28.3668
G01 X48.8046 Y28.3774
G01 X48.7954 Y28.3868
G01 X48.7872 Y28.3935
G01 X48.7784 Y28.3994
G01 X48.7667 Y28.4055
G01 X48.7568 Y28.4093
G01 X48.7466 Y28.4121
G01 X48.7362 Y28.4139
G01 X48.7256 Y28.4147
G01 X48.5566 Y28.4147
G01 X48.5566 Y28.5360
G01 X48.5558 Y28.5489
G01 X48.5470 Y28.5957
G01 X48.5452 Y28.6033
G01 X48.5429 Y28.6107
G01 X48.5401 Y28.6179
G01 X48.5367 Y28.6250
G01 X48.5329 Y28.6317
G01 X48.5081 Y28.6696
G01 X48.5017 Y28.6781
G01 X48.4963 Y28.6840
G01 X48.4905 Y28.6895
G01 X48.4822 Y28.6961
G01 X48.4448 Y28.7204
G01 X48.4380 Y28.7245
G01 X48.4309 Y28.7281
G01 X48.4235 Y28.7311
G01 X48.4160 Y28.7335
G01 X48.4082 Y28.7354
G01 X48.3664 Y28.7441
G01 X48.3527 Y28.7457
G01 X47.7460 Y28.7458
G01 X47.7378 Y28.7453
G01 X47.7296 Y28.7441
G01 X47.6852 Y28.7349
G01 X47.6725 Y28.7311
G01 X47.6651 Y28.7281
G01 X47.6580 Y28.7245
G01 X47.6512 Y28.7204
G01 X47.6138 Y28.6961
G01 X47.6055 Y28.6895
G01 X47.5978 Y28.6821
G01 X47.5926 Y28.6761
G01 X47.5879 Y28.6696
G01 X47.5645 Y28.6339
G01 X47.5581 Y28.6226
G01 X47.5540 Y28.6131
G01 X47.5508 Y28.6033
G01 X47.5490 Y28.5957
G01 X47.5410 Y28.5540
G01 X47.5397 Y28.5437
G01 X47.5394 Y28.5360
G01 X47.5394 Y28.4147
G01 X47.3730 Y28.4147
G01 X47.3651 Y28.4144
G01 X47.3546 Y28.4131
G01 X47.3443 Y28.4108
G01 X47.3342 Y28.4075
G01 X47.3246 Y28.4032
G01 X47.3154 Y28.3980
G01 X47.3088 Y28.3935
G01 X47.3006 Y28.3868
G01 X47.2932 Y28.3793
G01 X47.2865 Y28.3712
G01 X47.2820 Y28.3646
G01 X47.2780 Y28.3578
G01 X47.2725 Y28.3458
G01 X47.2685 Y28.3332
G01 X47.2668 Y28.3254
G01 X47.2658 Y28.3175
G01 X47.2653 Y28.3070
G01 X47.2653 Y28.1261
G01 X47.2215 Y28.1261
G01 X47.2215 Y28.2957
G01 X47.2266 Y28.3404
G01 X47.2377 Y28.3716
G01 X47.2558 Y28.4001
G01 X47.2855 Y28.4298
G01 X47.3234 Y28.4630
G01 X47.3293 Y28.4686
G01 X47.3348 Y28.4745
G01 X47.3397 Y28.4809
G01 X47.3442 Y28.4876
G01 X47.3482 Y28.4947
G01 X47.3517 Y28.5020
G01 X47.3684 Y28.5416
G01 X47.3719 Y28.5518
G01 X47.3738 Y28.5597
G01 X47.3754 Y28.5704
G01 X47.3759 Y28.5785
G01 X47.3758 Y28.6277
G01 X47.3751 Y28.6358
G01 X47.3738 Y28.6438
G01 X47.3719 Y28.6517
G01 X47.3694 Y28.6594
G01 X47.3506 Y28.7040
G01 X47.3442 Y28.7159
G01 X47.3365 Y28.7269
G01 X47.3293 Y28.7349
G01 X47.3234 Y28.7405
G01 X47.2857 Y28.7735
G01 X47.2561 Y28.8035
G01 X47.2377 Y28.8328
G01 X47.2266 Y28.8638
G01 X47.2215 Y28.9083
G01 X47.2215 Y29.0912
G01 X47.2212 Y29.0991
G01 X47.2200 Y29.1095
G01 X47.2107 Y29.1558
G01 X47.2086 Y29.1634
G01 X47.2048 Y29.1732
G01 X47.2014 Y29.1802
G01 X47.1975 Y29.1871
G01 X47.1742 Y29.2223
G01 X47.1680 Y29.2308
G01 X47.1590 Y29.2405
G01 X47.1490 Y29.2490
G01 X47.1117 Y29.2744
G01 X47.1000 Y29.2813
G01 X47.0901 Y29.2857
G01 X47.0772 Y29.2898
G01 X47.0302 Y29.2990
G01 X47.0199 Y29.3003
G01 X47.0122 Y29.3006
G01 X46.6450 Y29.3006
G01 X46.5769 Y29.3071
G01 X46.5202 Y29.3248
G01 X46.4683 Y29.3520
G01 X46.4148 Y29.3965
G01 X45.1427 Y30.6685
G01 X45.1352 Y30.6754
G01 X45.1271 Y30.6815
G01 X45.0920 Y30.7042
G01 X45.0852 Y30.7082
G01 X45.0732 Y30.7139
G01 X45.0606 Y30.7180
G01 X45.0164 Y30.7273
G01 X45.0054 Y30.7290
G01 X44.9944 Y30.7296
G01 X44.9060 Y30.7296
G01 X44.8949 Y30.7290
G01 X44.8838 Y30.7272
G01 X44.8426 Y30.7185
G01 X44.8350 Y30.7165
G01 X44.8276 Y30.7138
G01 X44.8181 Y30.7095
G01 X44.8112 Y30.7056
G01 X44.7759 Y30.6829
G01 X44.7694 Y30.6783
G01 X44.7612 Y30.6715
G01 X44.7556 Y30.6658
G01 X44.7504 Y30.6598
G01 X44.7456 Y30.6534
G01 X44.7195 Y30.6131
G01 X44.7135 Y30.6013
G01 X44.7098 Y30.5913
G01 X44.7071 Y30.5810
G01 X44.6990 Y30.5424
G01 X44.6972 Y30.5314
G01 X44.6967 Y30.5202
G01 X44.6967 Y30.4764
G01 X44.6916 Y30.4308
G01 X44.6808 Y30.3997
G01 X44.6626 Y30.3710
G01 X44.6390 Y30.3468
G01 X44.6107 Y30.3294
G01 X44.5793 Y30.3182
G01 X44.5342 Y30.3135
G01 X43.1798 Y30.3135
G01 X43.1347 Y30.3182
G01 X43.1033 Y30.3294
G01 X43.0750 Y30.3468
G01 X43.0514 Y30.3710
G01 X43.0332 Y30.3997
G01 X43.0224 Y30.4308
G01 X43.0173 Y30.4765
G01 X43.0173 Y31.5851
G01 X43.0224 Y31.6307
G01 X43.0333 Y31.6620
G01 X43.0512 Y31.6906
G01 X43.0747 Y31.7141
G01 X43.1037 Y31.7323
G01 X43.1355 Y31.7436
G01 X43.1807 Y31.7490
G01 X44.5333 Y31.7490
G01 X44.5785 Y31.7436
G01 X44.6103 Y31.7323
G01 X44.6393 Y31.7141
G01 X44.6628 Y31.6906
G01 X44.6807 Y31.6620
G01 X44.6916 Y31.6307
G01 X44.6967 Y31.5851
G01 X44.6967 Y31.5413
G01 X44.6972 Y31.5301
G01 X44.6990 Y31.5191
G01 X44.7071 Y31.4805
G01 X44.7099 Y31.4700
G01 X44.7148 Y31.4574
G01 X44.7198 Y31.4478
G01 X44.7445 Y31.4102
G01 X44.7491 Y31.4038
G01 X44.7542 Y31.3977
G01 X44.7597 Y31.3920
G01 X44.7656 Y31.3868
G01 X44.7740 Y31.3804
G01 X44.8093 Y31.3566
G01 X44.8162 Y31.3525
G01 X44.8235 Y31.3489
G01 X44.8335 Y31.3450
G01 X44.8413 Y31.3428
G01 X44.8877 Y31.3335
G01 X44.8982 Y31.3322
G01 X44.9060 Y31.3319
G01 X45.1963 Y31.3319
G01 X45.2644 Y31.3258
G01 X45.3205 Y31.3083
G01 X45.3727 Y31.2806
G01 X45.4263 Y31.2364
G01 X46.7001 Y29.9627
G01 X46.7058 Y29.9576
G01 X46.7119 Y29.9529
G01 X46.7471 Y29.9291
G01 X46.7561 Y29.9236
G01 X46.7655 Y29.9190
G01 X46.7754 Y29.9154
G01 X46.7856 Y29.9128
G01 X46.8300 Y29.9047
G01 X46.8438 Y29.9035
G01 X47.0177 Y29.9036
G01 X47.0287 Y29.9047
G01 X47.0732 Y29.9128
G01 X47.0808 Y29.9147
G01 X47.0908 Y29.9181
G01 X47.0980 Y29.9212
G01 X47.1073 Y29.9262
G01 X47.1491 Y29.9545
G01 X47.1573 Y29.9614
G01 X47.1666 Y29.9711
G01 X47.1731 Y29.9796
G01 X47.1964 Y30.0154
G01 X47.2004 Y30.0220
G01 X47.2050 Y30.0312
G01 X47.2078 Y30.0384
G01 X47.2108 Y30.0483
G01 X47.2200 Y30.0945
G01 X47.2212 Y30.1049
G01 X47.2215 Y30.1128
G01 X47.2215 Y30.2952
G01 X47.2266 Y30.3400
G01 X47.2378 Y30.3717
G01 X47.2561 Y30.4007
G01 X47.2795 Y30.4246
G01 X47.3076 Y30.4417
G01 X47.3398 Y30.4531
G01 X47.3845 Y30.4582
G01 X48.2563 Y30.4582
G01 X48.2643 Y30.4585
G01 X48.2750 Y30.4598
G01 X48.3203 Y30.4690
G01 X48.3303 Y30.4718
G01 X48.3400 Y30.4755
G01 X48.3492 Y30.4802
G01 X48.3580 Y30.4857
G01 X48.3938 Y30.5106
G01 X48.4042 Y30.5194
G01 X48.4135 Y30.5294
G01 X48.4199 Y30.5382
G01 X48.4446 Y30.5777
G01 X48.4483 Y30.5845
G01 X48.4514 Y30.5915
G01 X48.4556 Y30.6037
G01 X48.4579 Y30.6137
G01 X48.4648 Y30.6591
G01 X48.4656 Y30.6701
G01 X48.4655 Y30.6783
G01 X48.4277 Y31.3922
G01 X52.5132 Y31.3922
G01 X52.5555 Y31.3499
G01 X52.5647 Y31.3399
G01 X52.5814 Y31.3246
G01 X52.6038 Y31.3079
G01 X52.6255 Y31.2949
G01 X52.6459 Y31.2851
G01 X52.6533 Y31.2821
G01 X52.6722 Y31.2755
G01 X52.6915 Y31.2705
G01 X52.6993 Y31.2689
G01 X52.7217 Y31.2657
G01 X52.7470 Y31.2644
G01 X61.7602 Y31.2644
G01 X61.7602 Y29.2160
G01 X61.3587 Y28.8146
G01 X61.3586 Y28.8463
G01 X61.3579 Y28.8542
G01 X61.3561 Y28.8646
G01 X61.3533 Y28.8748
G01 X61.3495 Y28.8847
G01 X61.3448 Y28.8941
G01 X61.3375 Y28.9052
G01 X61.3308 Y28.9134
G01 X61.3234 Y28.9209
G01 X61.3152 Y28.9276
G01 X61.3041 Y28.9348
G01 X61.2947 Y28.9395
G01 X61.2848 Y28.9434
G01 X61.2746 Y28.9462
G01 X61.2616 Y28.9483
G01 X61.2510 Y28.9488
G01 X60.1484 Y28.9488
G01 X60.1404 Y28.9483
G01 X60.1326 Y28.9472
G01 X60.1248 Y28.9456
G01 X60.1172 Y28.9434
G01 X60.1098 Y28.9406
G01 X60.1026 Y28.9373
G01 X60.0911 Y28.9306
G01 X60.0806 Y28.9226
G01 X60.0730 Y28.9153
G01 X60.0645 Y28.9052
G01 X60.0586 Y28.8964
G01 X60.0525 Y28.8847
G01 X60.0479 Y28.8723
G01 X60.0448 Y28.8595
G01 X60.0435 Y28.8490
G01 X60.0433 Y28.8410
G01 X60.0433 Y28.2410
G01 X60.0435 Y28.2331
G01 X60.0448 Y28.2226
G01 X60.0472 Y28.2123
G01 X60.0495 Y28.2047
G01 X60.0536 Y28.1950
G01 X60.0586 Y28.1856
G01 X60.0645 Y28.1769
G01 X60.0712 Y28.1687
G01 X60.0786 Y28.1612
G01 X60.0847 Y28.1561
G01 X60.0934 Y28.1500
G01 X60.1026 Y28.1448
G01 X60.1122 Y28.1405
G01 X60.1223 Y28.1372
G01 X60.1326 Y28.1349
G01 X60.1431 Y28.1336
G01 X60.1510 Y28.1333
G01 X61.2510 Y28.1333
G01 X61.2616 Y28.1338
G01 X61.2720 Y28.1354
G01 X61.2823 Y28.1379
G01 X61.2922 Y28.1415
G01 X61.3018 Y28.1460
G01 X61.3086 Y28.1500
G01 X61.3173 Y28.1561
G01 X61.3253 Y28.1630
G01 X61.3308 Y28.1687
G01 X61.3375 Y28.1769
G01 X61.3434 Y28.1856
G01 X61.3484 Y28.1950
G01 X61.3515 Y28.2023
G01 X61.3541 Y28.2098
G01 X61.3567 Y28.2200
G01 X61.3579 Y28.2279
G01 X61.3587 Y28.2384
G01 X61.3587 Y28.2825
G01 X61.4543 Y28.2826
G01 X61.4769 Y28.2840
G01 X61.5019 Y28.2880
G01 X61.5213 Y28.2928
G01 X61.5289 Y28.2952
G01 X61.5477 Y28.3021
G01 X61.5659 Y28.3105
G01 X61.5729 Y28.3142
G01 X61.5901 Y28.3245
G01 X61.6105 Y28.3393
G01 X61.6313 Y28.3580
G01 X62.2003 Y28.9269
G01 X62.2173 Y28.9457
G01 X62.2338 Y28.9682
G01 X62.2454 Y28.9877
G01 X62.2541 Y29.0057
G01 X62.2572 Y29.0130
G01 X62.2647 Y29.0344
G01 X62.2703 Y29.0564
G01 X62.2718 Y29.0642
G01 X62.2746 Y29.0840
G01 X62.2758 Y29.1066
G01 X62.2758 Y31.5222
G01 X62.2746 Y31.5475
G01 X62.2718 Y31.5673
G01 X62.2697 Y31.5777
G01 X62.2655 Y31.5945
G01 X62.2631 Y31.6021
G01 X62.2552 Y31.6233
G01 X62.2441 Y31.6461
G01 X62.2324 Y31.6655
G01 X62.2173 Y31.6858
G01 X62.2003 Y31.7045
G01 X62.1836 Y31.7198
G01 X62.1634 Y31.7351
G01 X62.1441 Y31.7470
G01 X62.1372 Y31.7508
G01 X62.1215 Y31.7583
G01 X62.1117 Y31.7623
G01 X62.0928 Y31.7690
G01 X62.0683 Y31.7751
G01 X62.0433 Y31.7788
G01 X62.0206 Y31.7800
G01 X52.8546 Y31.7801
G01 X52.8023 Y31.8323
G01 X52.7856 Y31.8476
G01 X52.7632 Y31.8644
G01 X52.7439 Y31.8761
G01 X52.7187 Y31.8882
G01 X52.6974 Y31.8959
G01 X52.6897 Y31.8981
G01 X52.6703 Y31.9029
G01 X52.6505 Y31.9059
G01 X52.6426 Y31.9068
G01 X52.6226 Y31.9078
G01 X48.4004 Y31.9078
G01 X48.2719 Y34.3344
G01 X48.2712 Y34.3424
G01 X48.2693 Y34.3530
G01 X48.2605 Y34.3907
G01 X48.2583 Y34.3983
G01 X48.2544 Y34.4081
G01 X48.2509 Y34.4152
G01 X48.2468 Y34.4220
G01 X48.2251 Y34.4542
G01 X48.2203 Y34.4607
G01 X48.2150 Y34.4669
G01 X48.2052 Y34.4762
G01 X48.1988 Y34.4812
G01 X48.1654 Y34.5051
G01 X48.1560 Y34.5105
G01 X48.1436 Y34.5158
G01 X48.1359 Y34.5183
G01 X48.0961 Y34.5293
G01 X48.0825 Y34.5315
G01 X48.0010 Y34.5392
G01 X47.9418 Y34.5561
G01 X47.8868 Y34.5834
G01 X47.8377 Y34.6202
G01 X47.7968 Y34.6650
G01 X47.7644 Y34.7181
G01 X47.7421 Y34.7750
G01 X47.7311 Y34.8349
G01 X47.7311 Y34.8965
G01 X47.7445 Y34.9696
G01 X47.7457 Y34.9825
G01 X47.7457 Y34.9903
G01 X47.7439 Y35.0396
G01 X47.7425 Y35.0499
G01 X47.7402 Y35.0601
G01 X47.7369 Y35.0699
G01 X47.7326 Y35.0794
G01 X47.7116 Y35.1209
G01 X47.7076 Y35.1277
G01 X47.7032 Y35.1341
G01 X47.6965 Y35.1422
G01 X47.6872 Y35.1514
G01 X47.6459 Y35.1838
G01 X47.6371 Y35.1897
G01 X47.6301 Y35.1935
G01 X47.6229 Y35.1968
G01 X47.6129 Y35.2004
G01 X47.6052 Y35.2024
G01 X47.5594 Y35.2126
G01 X47.5516 Y35.2139
G01 X47.5437 Y35.2146
G01 X47.0430 Y35.2147
G01 X47.0347 Y35.2141
G01 X47.0238 Y35.2124
G01 X46.9820 Y35.2037
G01 X46.9741 Y35.2016
G01 X46.9664 Y35.1988
G01 X46.9565 Y35.1942
G01 X46.9494 Y35.1902
G01 X46.9119 Y35.1653
G01 X46.9013 Y35.1569
G01 X46.6717 Y34.9273
G01 X46.6650 Y34.9191
G01 X46.6426 Y34.8873
G01 X46.6359 Y34.8757
G01 X46.6316 Y34.8659
G01 X46.6290 Y34.8582
G01 X46.6180 Y34.8208
G01 X46.6157 Y34.8081
G01 X46.6149 Y34.7953
G01 X46.6165 Y34.7566
G01 X46.6175 Y34.7464
G01 X46.6320 Y34.6775
G01 X46.6400 Y34.5705
G01 X46.6320 Y34.4641
G01 X46.6093 Y34.3595
G01 X46.5720 Y34.2587
G01 X46.5205 Y34.1645
G01 X46.4566 Y34.0789
G01 X46.3807 Y34.0034
G01 X46.2949 Y33.9390
G01 X46.2009 Y33.8880
G01 X46.1002 Y33.8506
G01 X45.9959 Y33.8275
G01 X45.8890 Y33.8200
G01 X45.7821 Y33.8275
G01 X45.6777 Y33.8506
G01 X45.5771 Y33.8880
G01 X45.4830 Y33.9390
G01 X45.3973 Y34.0034
G01 X45.3214 Y34.0789
G01 X45.2575 Y34.1645
G01 X45.2060 Y34.2587
G01 X45.1687 Y34.3595
G01 X45.1460 Y34.4641
G01 X45.1380 Y34.5705
G01 X45.1460 Y34.6775
G01 X45.1687 Y34.7825
G01 X45.2059 Y34.8827
G01 X45.2575 Y34.9765
G01 X45.3215 Y35.0626
G01 X45.3973 Y35.1381
G01 X45.4830 Y35.2025
G01 X45.5772 Y35.2536
G01 X45.6777 Y35.2914
G01 X45.7819 Y35.3140
G01 X45.8890 Y35.3215
G01 X45.9962 Y35.3139
G01 X46.0567 Y35.3008
G01 X46.0648 Y35.2994
G01 X46.0731 Y35.2986
G01 X46.1071 Y35.2966
G01 X46.1207 Y35.2966
G01 X46.1288 Y35.2975
G01 X46.1394 Y35.2995
G01 X46.1767 Y35.3106
G01 X46.1887 Y35.3150
G01 X46.2001 Y35.3208
G01 X46.2086 Y35.3264
G01 X46.2361 Y35.3462
G01 X46.2419 Y35.3508
G01 X46.2474 Y35.3557
G01 X46.5225 Y35.6307
G01 X46.5299 Y35.6390
G01 X46.5365 Y35.6480
G01 X46.5608 Y35.6853
G01 X46.5658 Y35.6944
G01 X46.5708 Y35.7064
G01 X46.5732 Y35.7139
G01 X46.5749 Y35.7215
G01 X46.5825 Y35.7662
G01 X46.5838 Y35.7769
G01 X46.5839 Y35.7877
G01 X46.5830 Y35.7985
G01 X46.5810 Y35.8092
G01 X46.5690 Y35.8544
G01 X46.5666 Y35.8618
G01 X46.5636 Y35.8689
G01 X46.5589 Y35.8781
G01 X46.5533 Y35.8868
G01 X46.5238 Y35.9245
G01 X46.5184 Y35.9308
G01 X46.5104 Y35.9386
G01 X46.4962 Y35.9500
G01 X45.9929 Y36.4533
G01 X45.9835 Y36.4613
G01 X45.9497 Y36.4856
G01 X45.9379 Y36.4923
G01 X45.9305 Y36.4955
G01 X45.9228 Y36.4982
G01 X45.8827 Y36.5094
G01 X45.8726 Y36.5112
G01 X45.8649 Y36.5119
G01 X45.8520 Y36.5119
G01 X45.8184 Y36.5099
G01 X45.8102 Y36.5091
G01 X45.8020 Y36.5076
G01 X45.7421 Y36.4945
G01 X45.6350 Y36.4870
G01 X45.5281 Y36.4945
G01 X45.4237 Y36.5176
G01 X45.3231 Y36.5550
G01 X45.2290 Y36.6060
G01 X45.1433 Y36.6704
G01 X45.0674 Y36.7459
G01 X45.0035 Y36.8315
G01 X44.9520 Y36.9257
G01 X44.9147 Y37.0265
G01 X44.8920 Y37.1311
G01 X44.8840 Y37.2375
G01 X44.8920 Y37.3445
G01 X44.9147 Y37.4495
G01 X44.9519 Y37.5497
G01 X45.0035 Y37.6435
G01 X45.0675 Y37.7296
G01 X45.1433 Y37.8051
G01 X45.2290 Y37.8695
G01 X45.3232 Y37.9205
G01 X45.4237 Y37.9583
G01 X45.5279 Y37.9809
G01 X45.6350 Y37.9885
G01 X45.7421 Y37.9809
G01 X45.8462 Y37.9583
G01 X45.9467 Y37.9205
G01 X46.0409 Y37.8695
G01 X46.1267 Y37.8051
G01 X46.2025 Y37.7296
G01 X46.2665 Y37.6435
G01 X46.3181 Y37.5497
G01 X46.3553 Y37.4495
G01 X46.3780 Y37.3445
G01 X46.3860 Y37.2375
G01 X46.3780 Y37.1309
G01 X46.3634 Y37.0615
G01 X46.3625 Y37.0514
G01 X46.3610 Y37.0179
G01 X46.3610 Y37.0071
G01 X46.3618 Y36.9991
G01 X46.3637 Y36.9885
G01 X46.3749 Y36.9488
G01 X46.3795 Y36.9367
G01 X46.3856 Y36.9252
G01 X46.4112 Y36.8886
G01 X46.4196 Y36.8787
G01 X46.7805 Y36.5177
G01 X46.7862 Y36.5124
G01 X46.7942 Y36.5061
G01 X46.8316 Y36.4808
G01 X46.8386 Y36.4767
G01 X46.8483 Y36.4721
G01 X46.8584 Y36.4684
G01 X46.8663 Y36.4664
G01 X46.9153 Y36.4569
G01 X46.9284 Y36.4561
G01 X47.5458 Y36.4563
G01 X47.5536 Y36.4569
G01 X47.5614 Y36.4582
G01 X47.6072 Y36.4684
G01 X47.6149 Y36.4704
G01 X47.6224 Y36.4730
G01 X47.6321 Y36.4773
G01 X47.6414 Y36.4825
G01 X47.6480 Y36.4871
G01 X47.6893 Y36.5196
G01 X47.6990 Y36.5291
G01 X47.7058 Y36.5375
G01 X47.7131 Y36.5489
G01 X47.7359 Y36.5928
G01 X47.7410 Y36.6051
G01 X47.7439 Y36.6153
G01 X47.7455 Y36.6232
G01 X47.7466 Y36.6338
G01 X47.7483 Y36.6811
G01 X47.7481 Y36.6917
G01 X47.7464 Y36.7049
G01 X47.7311 Y36.7859
G01 X47.7311 Y36.8467
G01 X47.7421 Y36.9071
G01 X47.7643 Y36.9637
G01 X47.7968 Y37.0166
G01 X47.8379 Y37.0620
G01 X47.8868 Y37.0986
G01 X47.9423 Y37.1262
G01 X47.9648 Y37.1329
G01 X47.9741 Y37.1364
G01 X48.0091 Y37.1532
G01 X48.0185 Y37.1584
G01 X48.0252 Y37.1628
G01 X48.0336 Y37.1695
G01 X48.0655 Y37.2008
G01 X48.0738 Y37.2109
G01 X48.0808 Y37.2219
G01 X48.0980 Y37.2565
G01 X48.1021 Y37.2661
G01 X48.1053 Y37.2760
G01 X48.1075 Y37.2861
G01 X48.1128 Y37.3306
G01 X48.1129 Y37.3439
G01 X48.0997 Y37.5892
G01 X48.0983 Y37.6016
G01 X48.0875 Y37.6470
G01 X48.0852 Y37.6546
G01 X48.0822 Y37.6621
G01 X48.0788 Y37.6693
G01 X48.0748 Y37.6762
G01 X48.0525 Y37.7099
G01 X48.0478 Y37.7165
G01 X48.0388 Y37.7267
G01 X47.0157 Y38.7493
G01 X47.0081 Y38.7562
G01 X47.0020 Y38.7609
G01 X46.9647 Y38.7861
G01 X46.9556 Y38.7914
G01 X46.9484 Y38.7947
G01 X46.9411 Y38.7975
G01 X46.9335 Y38.7998
G01 X46.8839 Y38.8090
G01 X46.8702 Y38.8103
G01 X45.8609 Y38.8103
G01 X45.8163 Y38.8157
G01 X45.7836 Y38.8273
G01 X45.7552 Y38.8446
G01 X45.7322 Y38.8679
G01 X45.6861 Y38.9412
G01 X45.6800 Y38.9499
G01 X45.6749 Y38.9560
G01 X45.6694 Y38.9618
G01 X45.6634 Y38.9670
G01 X45.6571 Y38.9719
G01 X45.6196 Y38.9983
G01 X45.6102 Y39.0036
G01 X45.6003 Y39.0079
G01 X45.5874 Y39.0119
G01 X45.5452 Y39.0212
G01 X45.5344 Y39.0230
G01 X45.5263 Y39.0236
G01 X45.5127 Y39.0232
G01 X45.5019 Y39.0217
G01 X45.4597 Y39.0136
G01 X45.4496 Y39.0109
G01 X45.4423 Y39.0082
G01 X45.4351 Y39.0050
G01 X45.4260 Y39.0000
G01 X45.3903 Y38.9767
G01 X45.3812 Y38.9702
G01 X45.3729 Y38.9627
G01 X44.3449 Y37.9351
G01 X44.3379 Y37.9270
G01 X44.3333 Y37.9206
G01 X44.3095 Y37.8848
G01 X44.3055 Y37.8779
G01 X44.3020 Y37.8707
G01 X44.2982 Y37.8608
G01 X44.2954 Y37.8505
G01 X44.2860 Y37.8011
G01 X44.2852 Y37.7882
G01 X44.2852 Y36.4003
G01 X44.2855 Y36.3919
G01 X44.2865 Y36.3836
G01 X44.2941 Y36.3422
G01 X44.2961 Y36.3343
G01 X44.2986 Y36.3266
G01 X44.3041 Y36.3142
G01 X44.3265 Y36.2762
G01 X44.3326 Y36.2673
G01 X44.3379 Y36.2611
G01 X44.3475 Y36.2516
G01 X44.3795 Y36.2254
G01 X44.4759 Y36.1538
G01 X44.5515 Y36.0786
G01 X44.6155 Y35.9925
G01 X44.6671 Y35.8987
G01 X44.7043 Y35.7985
G01 X44.7270 Y35.6935
G01 X44.7350 Y35.5865
G01 X44.7270 Y35.4801
G01 X44.7043 Y35.3755
G01 X44.6670 Y35.2747
G01 X44.6155 Y35.1805
G01 X44.5519 Y35.0954
G01 X44.4347 Y34.9811
G01 X44.4278 Y34.9732
G01 X44.4216 Y34.9647
G01 X44.4163 Y34.9556
G01 X44.4014 Y34.9253
G01 X44.3982 Y34.9181
G01 X44.3955 Y34.9107
G01 X44.3933 Y34.9030
G01 X44.3918 Y34.8953
G01 X44.3863 Y34.8618
G01 X44.3853 Y34.8494
G01 X44.3853 Y33.9528
G01 X44.3856 Y33.9445
G01 X44.3865 Y33.9363
G01 X44.3936 Y33.8971
G01 X44.3953 Y33.8892
G01 X44.3994 Y33.8766
G01 X44.4038 Y33.8668
G01 X44.4271 Y33.8284
G01 X44.4316 Y33.8216
G01 X44.4366 Y33.8152
G01 X44.4421 Y33.8092
G01 X44.4480 Y33.8036
G01 X44.4854 Y33.7740
G01 X44.4922 Y33.7696
G01 X44.5018 Y33.7645
G01 X44.5143 Y33.7594
G01 X44.5549 Y33.7473
G01 X44.5675 Y33.7446
G01 X44.5807 Y33.7433
G01 X44.6103 Y33.7328
G01 X44.6390 Y33.7148
G01 X44.6628 Y33.6907
G01 X44.6808 Y33.6623
G01 X44.6916 Y33.6312
G01 X44.6967 Y33.5856
G01 X44.6967 Y32.4764
G01 X44.6916 Y32.4308
G01 X44.6807 Y32.3995
G01 X44.6630 Y32.3712
G01 X44.6393 Y32.3478
G01 X44.6100 Y32.3291
G01 X44.5789 Y32.3181
G01 X44.5337 Y32.3130
G01 X43.1803 Y32.3130
G01 X43.1351 Y32.3181
G01 X43.1041 Y32.3291
G01 X43.0747 Y32.3478
G01 X43.0511 Y32.3712
G01 X43.0333 Y32.3995
G01 X43.0224 Y32.4308
G01 X43.0173 Y32.4764
G01 X43.0173 Y33.5856
G01 X43.0224 Y33.6312
G01 X43.0332 Y33.6623
G01 X43.0512 Y33.6907
G01 X43.0750 Y33.7148
G01 X43.1037 Y33.7328
G01 X43.1347 Y33.7438
G01 X43.1798 Y33.7485
G01 X43.3734 Y33.7485
G01 X43.3818 Y33.7488
G01 X43.3928 Y33.7503
G01 X43.4393 Y33.7602
G01 X43.4469 Y33.7624
G01 X43.4542 Y33.7653
G01 X43.4660 Y33.7711
G01 X43.5057 Y33.7967
G01 X43.5144 Y33.8032
G01 X43.5204 Y33.8087
G01 X43.5260 Y33.8146
G01 X43.5327 Y33.8231
G01 X43.5566 Y33.8583
G01 X43.5609 Y33.8652
G01 X43.5658 Y33.8749
G01 X43.5688 Y33.8825
G01 X43.5713 Y33.8902
G01 X43.5731 Y33.8981
G01 X43.5808 Y33.9372
G01 X43.5822 Y33.9475
G01 X43.5827 Y33.9579
G01 X43.5827 Y34.8468
G01 X43.5825 Y34.8543
G01 X43.5817 Y34.8618
G01 X43.5753 Y34.9005
G01 X43.5717 Y34.9132
G01 X43.5678 Y34.9230
G01 X43.5517 Y34.9556
G01 X43.5478 Y34.9625
G01 X43.5434 Y34.9690
G01 X43.5368 Y34.9772
G01 X43.5314 Y34.9829
G01 X43.4161 Y35.0954
G01 X43.3525 Y35.1805
G01 X43.3010 Y35.2747
G01 X43.2637 Y35.3755
G01 X43.2410 Y35.4801
G01 X43.2330 Y35.5865
G01 X43.2410 Y35.6935
G01 X43.2637 Y35.7985
G01 X43.3009 Y35.8987
G01 X43.3525 Y35.9925
G01 X43.4165 Y36.0786
G01 X43.4925 Y36.1542
G01 X43.6153 Y36.2474
G01 X43.6233 Y36.2541
G01 X43.6289 Y36.2597
G01 X43.6340 Y36.2656
G01 X43.6402 Y36.2740
G01 X43.6639 Y36.3142
G01 X43.6674 Y36.3215
G01 X43.6703 Y36.3291
G01 X43.6727 Y36.3369
G01 X43.6745 Y36.3448
G01 X43.6815 Y36.3837
G01 X43.6825 Y36.3920
G01 X43.6828 Y36.4003
G01 X43.6828 Y37.9898
G01 X43.6894 Y38.0586
G01 X43.7066 Y38.1146
G01 X43.7342 Y38.1669
G01 X43.7782 Y38.2200
G01 X45.4306 Y39.8724
G01 X45.4843 Y39.9166
G01 X45.5365 Y39.9443
G01 X45.5545 Y39.9501
G01 X45.5663 Y39.9552
G01 X45.6084 Y39.9789
G01 X45.6196 Y39.9862
G01 X45.6298 Y39.9948
G01 X45.6353 Y40.0005
G01 X45.6404 Y40.0067
G01 X45.6690 Y40.0455
G01 X45.6746 Y40.0544
G01 X45.6782 Y40.0614
G01 X45.6822 Y40.0712
G01 X45.6852 Y40.0813
G01 X45.6955 Y40.1275
G01 X45.6972 Y40.1405
G01 X45.6975 Y40.1483
G01 X45.6975 Y40.3607
G01 X45.7026 Y40.4052
G01 X45.7137 Y40.4362
G01 X45.7319 Y40.4653
G01 X45.7615 Y40.4948
G01 X45.8034 Y40.5316
G01 X45.8125 Y40.5416
G01 X45.8202 Y40.5526
G01 X45.8266 Y40.5645
G01 X45.8434 Y40.6041
G01 X45.8463 Y40.6116
G01 X45.8486 Y40.6194
G01 X45.8503 Y40.6273
G01 X45.8514 Y40.6354
G01 X45.8519 Y40.6435
G01 X45.8519 Y40.6900
G01 X45.8511 Y40.7008
G01 X45.8498 Y40.7088
G01 X45.8471 Y40.7193
G01 X45.8444 Y40.7269
G01 X45.8266 Y40.7690
G01 X45.8229 Y40.7762
G01 X45.8188 Y40.7832
G01 X45.8125 Y40.7919
G01 X45.8072 Y40.7980
G01 X45.7994 Y40.8055
G01 X45.7617 Y40.8385
G01 X45.7321 Y40.8684
G01 X45.7137 Y40.8978
G01 X45.7026 Y40.9288
G01 X45.6975 Y40.9733
G01 X45.6975 Y42.3602
G01 X45.7026 Y42.4050
G01 X45.7138 Y42.4367
G01 X45.7321 Y42.4656
G01 X45.7555 Y42.4896
G01 X45.7836 Y42.5067
G01 X45.8158 Y42.5181
G01 X45.8605 Y42.5232
G01 X47.1875 Y42.5232
G01 X47.2321 Y42.5181
G01 X47.2644 Y42.5067
G01 X47.2925 Y42.4896
G01 X47.3159 Y42.4656
G01 X47.3342 Y42.4367
G01 X47.3454 Y42.4050
G01 X47.3505 Y42.3602
G01 X47.3505 Y41.7856
G01 X47.3507 Y41.7778
G01 X47.3520 Y41.7676
G01 X47.3606 Y41.7233
G01 X47.3635 Y41.7129
G01 X47.3662 Y41.7053
G01 X47.3696 Y41.6980
G01 X47.3749 Y41.6887
G01 X47.4028 Y41.6476
G01 X47.4113 Y41.6379
G01 X47.4210 Y41.6293
G01 X47.4603 Y41.6024
G01 X47.4693 Y41.5969
G01 X47.4764 Y41.5934
G01 X47.4861 Y41.5896
G01 X47.4937 Y41.5873
G01 X47.5405 Y41.5785
G01 X47.5543 Y41.5769
G01 X47.6680 Y41.5768
G01 X47.6756 Y41.5770
G01 X47.6831 Y41.5778
G01 X47.7309 Y41.5868
G01 X47.7412 Y41.5896
G01 X47.7511 Y41.5933
G01 X47.7607 Y41.5981
G01 X47.7675 Y41.6022
G01 X47.8076 Y41.6303
G01 X47.8138 Y41.6354
G01 X47.8195 Y41.6410
G01 X47.8266 Y41.6491
G01 X47.8313 Y41.6557
G01 X47.8573 Y41.6970
G01 X47.8620 Y41.7064
G01 X47.8658 Y41.7162
G01 X47.8680 Y41.7238
G01 X47.8697 Y41.7315
G01 X47.8762 Y41.7747
G01 X47.8772 Y41.7855
G01 X47.8772 Y41.7964
G01 X47.6586 Y45.9280
G01 X47.6577 Y45.9357
G01 X47.6557 Y45.9458
G01 X47.6459 Y45.9850
G01 X47.6415 Y45.9976
G01 X47.6369 Y46.0073
G01 X47.6329 Y46.0142
G01 X47.6060 Y46.0523
G01 X47.6010 Y46.0585
G01 X47.5955 Y46.0643
G01 X47.5876 Y46.0714
G01 X47.5812 Y46.0762
G01 X47.5397 Y46.1022
G01 X47.5301 Y46.1069
G01 X47.5201 Y46.1107
G01 X47.5098 Y46.1135
G01 X47.4671 Y46.1215
G01 X47.4596 Y46.1225
G01 X47.4496 Y46.1230
G01 X34.4387 Y46.1230
G01 X34.4304 Y46.1227
G01 X34.4221 Y46.1217
G01 X34.3778 Y46.1136
G01 X34.3677 Y46.1110
G01 X34.3580 Y46.1075
G01 X34.3486 Y46.1031
G01 X34.3397 Y46.0977
G01 X34.3051 Y46.0734
G01 X34.2986 Y46.0684
G01 X34.2886 Y46.0591
G01 X34.2815 Y46.0507
G01 X34.2545 Y46.0116
G01 X34.2492 Y46.0027
G01 X34.2449 Y45.9932
G01 X34.2414 Y45.9834
G01 X34.2389 Y45.9733
G01 X34.2309 Y45.9317
G01 X34.2295 Y45.9188
G01 X34.2293 Y42.9466
G01 X34.2212 Y42.8947
G01 X34.2068 Y42.8631
G01 X34.1921 Y42.8426
G01 X34.1746 Y42.8255
G01 X34.1422 Y42.8030
G01 X34.1110 Y42.7915
G01 X34.0648 Y42.7854
G01 X31.4210 Y42.7854
G01 X31.3695 Y42.7936
G01 X31.3379 Y42.8075
G01 X31.3165 Y42.8233
G01 X31.3002 Y42.8393
G01 X31.2776 Y42.8721
G01 X31.2653 Y42.9032
G01 X31.2596 Y42.9480
G01 X31.2346 Y45.9752
G01 X31.2330 Y45.9886
G01 X31.2243 Y46.0298
G01 X31.2225 Y46.0373
G01 X31.2191 Y46.0471
G01 X31.2149 Y46.0565
G01 X31.2098 Y46.0655
G01 X31.1865 Y46.1002
G01 X31.1818 Y46.1066
G01 X31.1730 Y46.1166
G01 X31.1630 Y46.1253
G01 X31.1565 Y46.1300
G01 X31.1213 Y46.1532
G01 X31.1121 Y46.1584
G01 X31.1050 Y46.1616
G01 X31.0976 Y46.1644
G01 X31.0875 Y46.1671
G01 X31.0437 Y46.1758
G01 X31.0360 Y46.1768
G01 X31.0257 Y46.1773
G01 X18.3858 Y46.2077
G01 X18.3725 Y46.2062
G01 X18.3317 Y46.1981
G01 X18.3214 Y46.1955
G01 X18.3138 Y46.1929
G01 X18.3064 Y46.1897
G01 X18.2970 Y46.1846
G01 X18.2579 Y46.1594
G01 X18.2498 Y46.1531
G01 X18.2441 Y46.1478
G01 X18.2389 Y46.1421
G01 X18.2340 Y46.1361
G01 X18.2101 Y46.1025
G01 X18.2057 Y46.0958
G01 X18.1996 Y46.0839
G01 X18.1957 Y46.0739
G01 X18.1935 Y46.0662
G01 X18.1832 Y46.0246
G01 X18.1814 Y46.0117
G01 X18.1811 Y46.0013
G01 X18.1822 Y45.9883
G01 X18.1887 Y45.9439
G01 X18.1920 Y45.9310
G01 X18.2062 Y45.8909
G01 X18.2116 Y45.8457
G01 X18.2116 Y45.5296
G01 X18.1677 Y45.5296
G01 X18.1677 Y45.8580
G01 X18.1675 Y45.8659
G01 X18.1666 Y45.8738
G01 X18.1651 Y45.8816
G01 X18.1631 Y45.8893
G01 X18.1595 Y45.8992
G01 X18.1550 Y45.9088
G01 X18.1510 Y45.9156
G01 X18.1465 Y45.9222
G01 X18.1416 Y45.9284
G01 X18.1343 Y45.9360
G01 X18.1263 Y45.9429
G01 X18.1199 Y45.9476
G01 X18.1108 Y45.9530
G01 X18.1012 Y45.9575
G01 X18.0913 Y45.9611
G01 X18.0810 Y45.9637
G01 X18.0706 Y45.9652
G01 X18.0600 Y45.9657
G01 X17.7311 Y45.9657
G01 X17.7311 Y46.0031
G01 X17.7306 Y46.0110
G01 X17.7296 Y46.0188
G01 X17.7197 Y46.0676
G01 X17.7154 Y46.0800
G01 X17.7097 Y46.0918
G01 X17.6822 Y46.1338
G01 X17.6756 Y46.1424
G01 X17.6682 Y46.1502
G01 X17.6621 Y46.1556
G01 X17.6556 Y46.1605
G01 X17.6203 Y46.1838
G01 X17.6110 Y46.1893
G01 X17.6037 Y46.1928
G01 X17.5936 Y46.1966
G01 X17.5831 Y46.1994
G01 X17.5418 Y46.2081
G01 X17.5336 Y46.2092
G01 X17.5253 Y46.2098
G01 X16.5985 Y46.2119
G01 X16.5905 Y46.2116
G01 X16.5800 Y46.2103
G01 X16.5336 Y46.2011
G01 X16.5211 Y46.1971
G01 X16.5115 Y46.1929
G01 X16.5002 Y46.1864
G01 X16.4629 Y46.1616
G01 X16.4568 Y46.1568
G01 X16.4511 Y46.1515
G01 X16.4424 Y46.1419
G01 X16.4155 Y46.1032
G01 X16.4113 Y46.0966
G01 X16.4054 Y46.0850
G01 X16.4010 Y46.0728
G01 X16.3985 Y46.0627
G01 X16.3897 Y46.0160
G01 X16.3889 Y46.0056
G01 X16.3889 Y45.9657
G01 X16.0600 Y45.9657
G01 X16.0521 Y45.9655
G01 X16.0416 Y45.9642
G01 X16.0338 Y45.9625
G01 X16.0237 Y45.9595
G01 X16.0163 Y45.9565
G01 X16.0092 Y45.9530
G01 X16.0001 Y45.9476
G01 X15.9916 Y45.9413
G01 X15.9838 Y45.9342
G01 X15.9767 Y45.9264
G01 X15.9719 Y45.9200
G01 X15.9662 Y45.9111
G01 X15.9615 Y45.9017
G01 X15.9577 Y45.8918
G01 X15.9555 Y45.8842
G01 X15.9538 Y45.8764
G01 X15.9525 Y45.8659
G01 X15.9523 Y45.8580
G01 X15.9523 Y45.5296
G01 X15.8967 Y45.5296
G01 X15.8857 Y45.5291
G01 X15.8748 Y45.5274
G01 X15.8281 Y45.5174
G01 X15.8158 Y45.5131
G01 X15.8041 Y45.5073
G01 X15.7975 Y45.5032
G01 X15.7587 Y45.4768
G01 X15.7490 Y45.4682
G01 X15.7437 Y45.4626
G01 X15.7388 Y45.4565
G01 X15.7120 Y45.4170
G01 X15.7054 Y45.4052
G01 X15.7004 Y45.3926
G01 X15.6975 Y45.3821
G01 X15.6889 Y45.3378
G01 X15.6875 Y45.3250
G01 X15.6874 Y44.3936
G01 X15.6878 Y44.3859
G01 X15.6889 Y44.3782
G01 X15.6975 Y44.3338
G01 X15.7004 Y44.3234
G01 X15.7043 Y44.3133
G01 X15.7079 Y44.3060
G01 X15.7135 Y44.2967
G01 X15.7374 Y44.2615
G01 X15.7423 Y44.2551
G01 X15.7477 Y44.2491
G01 X15.7555 Y44.2418
G01 X15.7618 Y44.2368
G01 X15.7987 Y44.2115
G01 X15.8076 Y44.2063
G01 X15.8195 Y44.2009
G01 X15.8319 Y44.1971
G01 X15.8812 Y44.1875
G01 X15.8941 Y44.1864
G01 X15.9523 Y44.1864
G01 X15.9523 Y43.8580
G01 X15.9528 Y43.8474
G01 X15.9543 Y43.8370
G01 X15.9569 Y43.8267
G01 X15.9605 Y43.8168
G01 X15.9650 Y43.8072
G01 X15.9704 Y43.7981
G01 X15.9767 Y43.7896
G01 X15.9838 Y43.7818
G01 X15.9916 Y43.7747
G01 X15.9980 Y43.7699
G01 X16.0069 Y43.7642
G01 X16.0139 Y43.7606
G01 X16.0212 Y43.7575
G01 X16.0287 Y43.7549
G01 X16.0364 Y43.7529
G01 X16.0442 Y43.7514
G01 X16.0521 Y43.7505
G01 X16.0600 Y43.7503
G01 X16.3889 Y43.7503
G01 X16.3889 Y43.7069
G01 X16.0714 Y43.7069
G01 X16.0259 Y43.7117
G01 X15.9402 Y43.7414
G01 X15.9326 Y43.7436
G01 X15.9221 Y43.7455
G01 X15.9089 Y43.7465
G01 X15.8984 Y43.7462
G01 X15.8510 Y43.7410
G01 X15.8409 Y43.7392
G01 X15.8334 Y43.7372
G01 X15.8237 Y43.7337
G01 X15.8144 Y43.7293
G01 X15.7688 Y43.7020
G01 X15.7622 Y43.6973
G01 X15.7541 Y43.6902
G01 X15.7467 Y43.6823
G01 X15.7416 Y43.6760
G01 X15.7137 Y43.6375
G01 X15.7082 Y43.6282
G01 X15.7037 Y43.6185
G01 X15.7010 Y43.6109
G01 X15.6989 Y43.6031
G01 X15.6896 Y43.5593
G01 X15.6879 Y43.5483
G01 X15.6874 Y43.5400
G01 X15.6873 Y26.4933
G01 X15.6878 Y26.4832
G01 X15.6897 Y26.4707
G01 X15.6995 Y26.4255
G01 X15.7016 Y26.4178
G01 X15.7043 Y26.4104
G01 X15.7087 Y26.4008
G01 X15.7155 Y26.3894
G01 X15.7450 Y26.3506
G01 X15.7518 Y26.3426
G01 X15.7593 Y26.3353
G01 X15.7675 Y26.3288
G01 X15.7762 Y26.3231
G01 X15.8219 Y26.2980
G01 X15.8342 Y26.2928
G01 X15.8471 Y26.2893
G01 X15.8603 Y26.2874
G01 X15.9093 Y26.2845
G01 X15.9198 Y26.2847
G01 X15.9328 Y26.2863
G01 X15.9405 Y26.2880
G01 X15.9505 Y26.2912
G01 X15.9960 Y26.3094
G01 X16.0054 Y26.3140
G01 X16.0165 Y26.3210
G01 X16.0227 Y26.3258
G01 X16.0304 Y26.3329
G01 X16.0622 Y26.3668
G01 X16.0693 Y26.3752
G01 X16.0755 Y26.3843
G01 X16.1129 Y26.4455
G01 X16.1985 Y26.5548
G01 X16.2969 Y26.6533
G01 X16.4061 Y26.7387
G01 X16.5250 Y26.8107
G01 X16.6518 Y26.8678
G01 X16.7846 Y26.9092
G01 X16.9213 Y26.9343
G01 X17.0600 Y26.9431
G01 X17.1989 Y26.9343
G01 X17.2802 Y26.9196
G01 X17.2907 Y26.9183
G01 X17.3315 Y26.9169
G01 X17.3392 Y26.9171
G01 X17.3469 Y26.9179
G01 X17.3544 Y26.9192
G01 X17.3644 Y26.9218
G01 X17.3979 Y26.9323
G01 X17.4105 Y26.9375
G01 X17.4177 Y26.9413
G01 X17.4246 Y26.9457
G01 X17.4533 Y26.9666
G01 X17.4598 Y26.9718
G01 X17.4659 Y26.9774
G01 X22.8872 Y32.3988
G01 X22.9594 Y32.4601
G01 X23.0329 Y32.5052
G01 X23.1128 Y32.5384
G01 X23.1968 Y32.5587
G01 X23.2911 Y32.5659
G01 X23.3968 Y32.5659
G01 X23.4073 Y32.5664
G01 X23.4177 Y32.5679
G01 X23.4589 Y32.5762
G01 X23.4690 Y32.5792
G01 X23.4811 Y32.5844
G01 X23.5218 Y32.6083
G01 X23.5302 Y32.6143
G01 X23.5362 Y32.6192
G01 X23.5418 Y32.6246
G01 X23.5486 Y32.6324
G01 X23.5757 Y32.6683
G01 X23.5800 Y32.6751
G01 X23.5838 Y32.6823
G01 X23.5889 Y32.6948
G01 X23.5912 Y32.7026
G01 X23.6022 Y32.7461
G01 X23.6158 Y32.7847
G01 X23.6341 Y32.8137
G01 X23.6575 Y32.8376
G01 X23.6856 Y32.8547
G01 X23.7179 Y32.8661
G01 X23.7625 Y32.8712
G01 X25.0895 Y32.8712
G01 X25.1342 Y32.8661
G01 X25.1664 Y32.8547
G01 X25.1945 Y32.8376
G01 X25.2179 Y32.8137
G01 X25.2361 Y32.7849
G01 X25.2502 Y32.7444
G01 X25.2559 Y32.7317
G01 X25.2829 Y32.6869
G01 X25.2892 Y32.6783
G01 X25.2963 Y32.6705
G01 X25.3021 Y32.6651
G01 X25.3084 Y32.6601
G01 X25.3445 Y32.6347
G01 X25.3514 Y32.6303
G01 X25.3610 Y32.6252
G01 X25.3684 Y32.6221
G01 X25.3788 Y32.6188
G01 X25.4271 Y32.6084
G01 X25.4371 Y32.6070
G01 X25.4471 Y32.6065
G01 X26.5413 Y32.6065
G01 X26.5551 Y32.6074
G01 X26.5632 Y32.6088
G01 X26.6074 Y32.6181
G01 X26.6198 Y32.6221
G01 X26.6293 Y32.6264
G01 X26.6405 Y32.6330
G01 X26.6793 Y32.6594
G01 X26.6853 Y32.6644
G01 X26.6908 Y32.6698
G01 X26.6960 Y32.6756
G01 X26.7007 Y32.6817
G01 X26.7245 Y32.7168
G01 X26.7288 Y32.7237
G01 X26.7347 Y32.7358
G01 X26.7376 Y32.7434
G01 X26.7398 Y32.7511
G01 X26.7486 Y32.7950
G01 X26.7502 Y32.8054
G01 X26.7507 Y32.8159
G01 X26.7507 Y32.8616
G01 X26.7557 Y32.9059
G01 X26.7671 Y32.9383
G01 X26.7845 Y32.9664
G01 X26.8082 Y32.9895
G01 X26.8371 Y33.0079
G01 X26.8692 Y33.0192
G01 X26.9141 Y33.0246
G01 X27.2215 Y33.0246
G01 X27.2355 Y33.0255
G01 X27.2822 Y33.0340
G01 X27.2923 Y33.0366
G01 X27.3022 Y33.0402
G01 X27.3116 Y33.0448
G01 X27.3184 Y33.0488
G01 X27.3557 Y33.0741
G01 X27.3638 Y33.0805
G01 X27.3730 Y33.0895
G01 X27.3811 Y33.0996
G01 X27.4059 Y33.1364
G01 X27.4098 Y33.1431
G01 X27.4133 Y33.1501
G01 X27.4179 Y33.1623
G01 X27.4205 Y33.1724
G01 X27.4292 Y33.2142
G01 X27.4303 Y33.2224
G01 X27.4308 Y33.2307
G01 X27.4309 Y35.1978
G01 X27.4380 Y35.2917
G01 X27.4584 Y35.3757
G01 X27.4917 Y35.4559
G01 X27.5366 Y35.5301
G01 X27.5977 Y35.6010
G01 X34.0476 Y42.0509
G01 X34.1191 Y42.1121
G01 X34.1930 Y42.1571
G01 X34.2731 Y42.1904
G01 X34.3570 Y42.2107
G01 X34.4509 Y42.2179
G01 X34.8692 Y42.2179
G01 X34.8829 Y42.2191
G01 X34.9244 Y42.2268
G01 X34.9370 Y42.2305
G01 X34.9490 Y42.2358
G01 X34.9836 Y42.2545
G01 X34.9902 Y42.2587
G01 X34.9965 Y42.2632
G01 X35.0024 Y42.2683
G01 X35.0080 Y42.2737
G01 X35.0339 Y42.3035
G01 X35.0399 Y42.3111
G01 X35.0498 Y42.3263
G01 X35.0740 Y42.3508
G01 X35.1027 Y42.3688
G01 X35.1337 Y42.3798
G01 X35.1788 Y42.3845
G01 X36.5332 Y42.3845
G01 X36.5783 Y42.3798
G01 X36.6093 Y42.3688
G01 X36.6380 Y42.3508
G01 X36.6622 Y42.3263
G01 X36.6707 Y42.3131
G01 X36.6751 Y42.3073
G01 X36.7022 Y42.2756
G01 X36.7077 Y42.2701
G01 X36.7135 Y42.2649
G01 X36.7240 Y42.2572
G01 X36.7630 Y42.2358
G01 X36.7702 Y42.2324
G01 X36.7775 Y42.2296
G01 X36.7851 Y42.2274
G01 X36.7928 Y42.2257
G01 X36.8291 Y42.2191
G01 X36.8401 Y42.2180
G01 X38.2558 Y42.2179
G01 X38.2637 Y42.2182
G01 X38.2741 Y42.2194
G01 X38.3153 Y42.2276
G01 X38.3255 Y42.2304
G01 X38.3329 Y42.2331
G01 X38.3448 Y42.2389
G01 X38.3808 Y42.2603
G01 X38.3892 Y42.2663
G01 X38.3971 Y42.2730
G01 X38.4026 Y42.2785
G01 X38.4076 Y42.2844
G01 X38.4316 Y42.3159
G01 X38.4362 Y42.3225
G01 X38.4416 Y42.3319
G01 X38.4461 Y42.3417
G01 X38.4487 Y42.3494
G01 X38.4612 Y42.3981
G01 X38.4748 Y42.4367
G01 X38.4931 Y42.4656
G01 X38.5165 Y42.4896
G01 X38.5446 Y42.5067
G01 X38.5769 Y42.5181
G01 X38.6215 Y42.5232
G01 X39.9485 Y42.5232
G01 X39.9932 Y42.5181
G01 X40.0254 Y42.5067
G01 X40.0535 Y42.4896
G01 X40.0769 Y42.4656
G01 X40.0952 Y42.4367
G01 X40.1064 Y42.4050
G01 X40.1115 Y42.3602
G01 X40.1115 Y40.9733
G01 X40.1064 Y40.9288
G01 X40.0953 Y40.8978
G01 X40.0769 Y40.8684
G01 X40.0473 Y40.8385
G01 X40.0096 Y40.8055
G01 X40.0018 Y40.7980
G01 X39.9965 Y40.7919
G01 X39.9902 Y40.7832
G01 X39.9861 Y40.7762
G01 X39.9824 Y40.7690
G01 X39.9636 Y40.7244
G01 X39.9604 Y40.7141
G01 X39.9587 Y40.7062
G01 X39.9576 Y40.6981
G01 X39.9571 Y40.6900
G01 X39.9570 Y40.6462
G01 X39.9576 Y40.6354
G01 X39.9598 Y40.6220
G01 X39.9619 Y40.6142
G01 X39.9646 Y40.6066
G01 X39.9824 Y40.5645
G01 X39.9874 Y40.5549
G01 X39.9917 Y40.5481
G01 X39.9982 Y40.5395
G01 X40.0056 Y40.5316
G01 X40.0475 Y40.4948
G01 X40.0771 Y40.4653
G01 X40.0953 Y40.4362
G01 X40.1064 Y40.4052
G01 X40.1115 Y40.3607
G01 X40.1115 Y40.3017
G01 X40.1120 Y40.2938
G01 X40.1130 Y40.2860
G01 X40.1229 Y40.2371
G01 X40.1272 Y40.2247
G01 X40.1316 Y40.2152
G01 X40.1370 Y40.2062
G01 X40.1603 Y40.1710
G01 X40.1651 Y40.1647
G01 X40.1703 Y40.1588
G01 X40.1759 Y40.1532
G01 X40.1840 Y40.1465
G01 X40.2235 Y40.1196
G01 X40.2306 Y40.1155
G01 X40.2404 Y40.1108
G01 X40.2480 Y40.1080
G01 X40.2558 Y40.1057
G01 X40.3028 Y40.0965
G01 X40.3131 Y40.0952
G01 X40.3208 Y40.0949
G01 X41.5380 Y40.0949
G01 X41.5485 Y40.0954
G01 X41.5563 Y40.0965
G01 X41.6001 Y40.1051
G01 X41.6079 Y40.1072
G01 X41.6156 Y40.1098
G01 X41.6230 Y40.1130
G01 X41.6301 Y40.1168
G01 X41.6370 Y40.1211
G01 X41.6700 Y40.1434
G01 X41.6804 Y40.1515
G01 X41.6880 Y40.1588
G01 X41.6964 Y40.1689
G01 X41.7213 Y40.2062
G01 X41.7268 Y40.2155
G01 X41.7324 Y40.2279
G01 X41.7357 Y40.2382
G01 X41.7460 Y40.2876
G01 X41.7473 Y40.3015
G01 X41.7473 Y40.3480
G01 X41.7524 Y40.3937
G01 X41.7633 Y40.4250
G01 X41.7812 Y40.4536
G01 X41.8047 Y40.4771
G01 X41.8337 Y40.4953
G01 X41.8655 Y40.5066
G01 X41.9107 Y40.5120
G01 X43.2633 Y40.5120
G01 X43.3085 Y40.5066
G01 X43.3403 Y40.4953
G01 X43.3693 Y40.4771
G01 X43.3928 Y40.4536
G01 X43.4107 Y40.4250
G01 X43.4216 Y40.3937
G01 X43.4267 Y40.3481
G01 X43.4267 Y39.2394
G01 X43.4216 Y39.1938
G01 X43.4108 Y39.1627
G01 X43.3926 Y39.1340
G01 X43.3690 Y39.1098
G01 X43.3407 Y39.0923
G01 X43.3093 Y39.0812
G01 X43.2642 Y39.0765
G01 X41.9098 Y39.0765
G01 X41.8647 Y39.0812
G01 X41.8333 Y39.0923
G01 X41.8050 Y39.1098
G01 X41.7814 Y39.1340
G01 X41.7632 Y39.1627
G01 X41.7524 Y39.1938
G01 X41.7473 Y39.2394
G01 X41.7473 Y39.2832
G01 X41.7468 Y39.2943
G01 X41.7450 Y39.3054
G01 X41.7357 Y39.3492
G01 X41.7315 Y39.3618
G01 X41.7258 Y39.3738
G01 X41.6999 Y39.4142
G01 X41.6936 Y39.4228
G01 X41.6866 Y39.4307
G01 X41.6788 Y39.4380
G01 X41.6703 Y39.4444
G01 X41.6283 Y39.4712
G01 X41.6164 Y39.4768
G01 X41.6089 Y39.4795
G01 X41.6013 Y39.4816
G01 X41.5574 Y39.4908
G01 X41.5491 Y39.4920
G01 X41.5380 Y39.4925
G01 X40.3208 Y39.4925
G01 X40.3098 Y39.4920
G01 X40.2989 Y39.4903
G01 X40.2572 Y39.4816
G01 X40.2495 Y39.4795
G01 X40.2420 Y39.4769
G01 X40.2324 Y39.4725
G01 X40.2255 Y39.4686
G01 X40.1880 Y39.4444
G01 X40.1775 Y39.4362
G01 X40.1699 Y39.4288
G01 X40.1646 Y39.4228
G01 X40.1599 Y39.4164
G01 X40.1352 Y39.3784
G01 X40.1291 Y39.3671
G01 X40.1261 Y39.3600
G01 X40.1236 Y39.3527
G01 X40.1211 Y39.3427
G01 X40.1135 Y39.3041
G01 X40.1123 Y39.2963
G01 X40.1116 Y39.2884
G01 X40.1115 Y38.9733
G01 X40.1064 Y38.9285
G01 X40.0952 Y38.8968
G01 X40.0771 Y38.8681
G01 X40.0538 Y38.8446
G01 X40.0254 Y38.8273
G01 X39.9927 Y38.8157
G01 X39.9481 Y38.8103
G01 X38.8172 Y38.8102
G01 X38.8063 Y38.8091
G01 X38.7670 Y38.8020
G01 X38.7568 Y38.7996
G01 X38.7494 Y38.7972
G01 X38.7421 Y38.7943
G01 X38.7327 Y38.7895
G01 X38.6963 Y38.7675
G01 X38.6898 Y38.7631
G01 X38.6817 Y38.7564
G01 X36.1082 Y36.4208
G01 X36.1007 Y36.4129
G01 X36.0957 Y36.4065
G01 X36.0692 Y36.3703
G01 X36.0649 Y36.3635
G01 X36.0611 Y36.3565
G01 X36.0569 Y36.3467
G01 X36.0536 Y36.3365
G01 X36.0424 Y36.2832
G01 X36.0416 Y36.2757
G01 X36.0414 Y36.2682
G01 X36.0414 Y35.9665
G01 X36.0417 Y35.9587
G01 X36.0429 Y35.9484
G01 X36.0510 Y35.9068
G01 X36.0528 Y35.8990
G01 X36.0560 Y35.8890
G01 X36.0615 Y35.8770
G01 X36.0669 Y35.8679
G01 X36.0933 Y35.8285
G01 X36.0983 Y35.8225
G01 X36.1037 Y35.8168
G01 X36.1116 Y35.8099
G01 X36.1179 Y35.8053
G01 X36.1577 Y35.7797
G01 X36.1671 Y35.7749
G01 X36.1744 Y35.7719
G01 X36.1871 Y35.7681
G01 X36.2288 Y35.7594
G01 X36.2369 Y35.7580
G01 X36.2451 Y35.7573
G01 X36.9913 Y35.7561
G01 X37.0858 Y35.7490
G01 X37.1697 Y35.7286
G01 X37.2494 Y35.6955
G01 X37.3230 Y35.6500
G01 X37.3948 Y35.5890
G01 X38.7927 Y34.1905
G01 X38.8022 Y34.1821
G01 X38.8105 Y34.1762
G01 X38.8457 Y34.1535
G01 X38.8527 Y34.1496
G01 X38.8599 Y34.1462
G01 X38.8698 Y34.1425
G01 X38.8775 Y34.1405
G01 X38.9192 Y34.1318
G01 X38.9273 Y34.1304
G01 X38.9411 Y34.1295
G01 X39.2002 Y34.1295
G01 X39.2453 Y34.1248
G01 X39.2763 Y34.1138
G01 X39.3050 Y34.0958
G01 X39.3288 Y34.0717
G01 X39.3468 Y34.0433
G01 X39.3576 Y34.0122
G01 X39.3627 Y33.9666
G01 X39.3627 Y32.8574
G01 X39.3576 Y32.8118
G01 X39.3467 Y32.7805
G01 X39.3290 Y32.7522
G01 X39.3053 Y32.7288
G01 X39.2760 Y32.7101
G01 X39.2449 Y32.6991
G01 X39.1997 Y32.6940
G01 X37.8463 Y32.6940
G01 X37.8011 Y32.6991
G01 X37.7701 Y32.7101
G01 X37.7407 Y32.7288
G01 X37.7171 Y32.7522
G01 X37.6993 Y32.7805
G01 X37.6884 Y32.8118
G01 X37.6833 Y32.8574
G01 X37.6832 Y33.6607
G01 X37.6816 Y33.6745
G01 X37.6729 Y33.7159
G01 X37.6703 Y33.7259
G01 X37.6667 Y33.7356
G01 X37.6622 Y33.7449
G01 X37.6569 Y33.7538
G01 X37.6336 Y33.7884
G01 X37.6254 Y33.7986
G01 X36.8319 Y34.5928
G01 X36.8262 Y34.5981
G01 X36.8182 Y34.6044
G01 X36.7809 Y34.6297
G01 X36.7717 Y34.6349
G01 X36.7597 Y34.6402
G01 X36.7471 Y34.6439
G01 X36.7001 Y34.6526
G01 X36.6864 Y34.6538
G01 X36.2452 Y34.6542
G01 X36.2340 Y34.6531
G01 X36.1900 Y34.6450
G01 X36.1796 Y34.6422
G01 X36.1695 Y34.6385
G01 X36.1599 Y34.6338
G01 X36.1508 Y34.6281
G01 X36.1156 Y34.6037
G01 X36.1093 Y34.5988
G01 X36.1034 Y34.5934
G01 X36.0962 Y34.5855
G01 X36.0899 Y34.5770
G01 X36.0660 Y34.5418
G01 X36.0595 Y34.5301
G01 X36.0554 Y34.5202
G01 X36.0523 Y34.5100
G01 X36.0430 Y34.4640
G01 X36.0419 Y34.4561
G01 X36.0414 Y34.4482
G01 X36.0414 Y34.4044
G01 X36.0419 Y34.3941
G01 X36.0490 Y34.3507
G01 X36.0515 Y34.3403
G01 X36.0551 Y34.3302
G01 X36.0597 Y34.3206
G01 X36.0781 Y34.2864
G01 X36.0857 Y34.2754
G01 X36.0927 Y34.2673
G01 X36.0985 Y34.2617
G01 X36.1294 Y34.2343
G01 X36.1358 Y34.2297
G01 X36.1803 Y34.2002
G01 X36.2175 Y34.1708
G01 X36.2454 Y34.1454
G01 X36.2776 Y34.1097
G01 X36.3015 Y34.0795
G01 X36.3285 Y34.0386
G01 X36.3470 Y34.0061
G01 X36.3668 Y33.9619
G01 X36.3802 Y33.9255
G01 X36.3927 Y33.8798
G01 X36.4002 Y33.8415
G01 X36.4058 Y33.7939
G01 X36.4071 Y33.7510
G01 X36.4073 Y33.1024
G01 X36.4089 Y33.0887
G01 X36.4181 Y33.0443
G01 X36.4219 Y33.0315
G01 X36.4273 Y33.0193
G01 X36.4327 Y33.0100
G01 X36.4560 Y32.9744
G01 X36.4620 Y32.9664
G01 X36.4687 Y32.9590
G01 X37.3933 Y32.0365
G01 X37.3993 Y32.0310
G01 X37.4057 Y32.0259
G01 X37.4423 Y32.0006
G01 X37.4491 Y31.9967
G01 X37.4562 Y31.9932
G01 X37.4636 Y31.9903
G01 X37.4711 Y31.9880
G01 X37.5113 Y31.9781
G01 X37.5194 Y31.9766
G01 X37.5302 Y31.9757
G01 X37.5384 Y31.9757
G01 X37.5465 Y31.9763
G01 X37.5826 Y31.9803
G01 X37.5931 Y31.9820
G01 X37.6059 Y31.9856
G01 X37.6181 Y31.9907
G01 X37.6548 Y32.0099
G01 X37.6657 Y32.0169
G01 X37.6719 Y32.0217
G01 X37.6795 Y32.0288
G01 X37.7423 Y32.0961
G01 X37.7697 Y32.1133
G01 X37.8015 Y32.1246
G01 X37.8467 Y32.1300
G01 X39.1993 Y32.1300
G01 X39.2445 Y32.1246
G01 X39.2763 Y32.1133
G01 X39.3053 Y32.0951
G01 X39.3288 Y32.0716
G01 X39.3464 Y32.0436
G01 X39.3722 Y31.9656
G01 X39.3773 Y31.9530
G01 X39.3825 Y31.9434
G01 X39.3870 Y31.9366
G01 X39.4110 Y31.9049
G01 X39.4179 Y31.8967
G01 X39.4235 Y31.8911
G01 X39.4296 Y31.8858
G01 X39.4361 Y31.8811
G01 X39.4768 Y31.8561
G01 X39.4866 Y31.8514
G01 X39.4969 Y31.8477
G01 X39.5075 Y31.8450
G01 X39.5461 Y31.8374
G01 X39.5539 Y31.8364
G01 X39.5618 Y31.8359
G01 X40.1608 Y31.8359
G01 X40.1687 Y31.8362
G01 X40.1765 Y31.8370
G01 X40.2230 Y31.8462
G01 X40.2335 Y31.8494
G01 X40.2436 Y31.8536
G01 X40.2532 Y31.8589
G01 X40.2891 Y31.8811
G01 X40.2997 Y31.8893
G01 X40.3055 Y31.8948
G01 X40.3109 Y31.9008
G01 X40.3397 Y31.9388
G01 X40.3440 Y31.9456
G01 X40.3490 Y31.9553
G01 X40.3520 Y31.9628
G01 X40.3545 Y31.9705
G01 X40.3661 Y32.0163
G01 X40.3797 Y32.0542
G01 X40.3980 Y32.0833
G01 X40.4275 Y32.1128
G01 X40.4694 Y32.1497
G01 X40.4750 Y32.1555
G01 X40.4818 Y32.1639
G01 X40.4890 Y32.1753
G01 X40.4937 Y32.1850
G01 X40.5104 Y32.2246
G01 X40.5139 Y32.2348
G01 X40.5158 Y32.2427
G01 X40.5174 Y32.2534
G01 X40.5180 Y32.2642
G01 X40.5179 Y32.3080
G01 X40.5174 Y32.3161
G01 X40.5163 Y32.3241
G01 X40.5139 Y32.3347
G01 X40.5104 Y32.3449
G01 X40.4914 Y32.3894
G01 X40.4876 Y32.3966
G01 X40.4818 Y32.4056
G01 X40.4768 Y32.4120
G01 X40.4713 Y32.4179
G01 X40.4654 Y32.4235
G01 X40.4277 Y32.4565
G01 X40.3981 Y32.4865
G01 X40.3797 Y32.5158
G01 X40.3686 Y32.5468
G01 X40.3635 Y32.5913
G01 X40.3635 Y32.7610
G01 X40.4073 Y32.7610
G01 X40.4073 Y32.5800
G01 X40.4078 Y32.5694
G01 X40.4093 Y32.5590
G01 X40.4112 Y32.5513
G01 X40.4135 Y32.5437
G01 X40.4165 Y32.5363
G01 X40.4200 Y32.5292
G01 X40.4240 Y32.5224
G01 X40.4285 Y32.5158
G01 X40.4334 Y32.5096
G01 X40.4407 Y32.5020
G01 X40.4466 Y32.4967
G01 X40.4551 Y32.4904
G01 X40.4642 Y32.4850
G01 X40.4713 Y32.4815
G01 X40.4812 Y32.4777
G01 X40.4914 Y32.4749
G01 X40.4992 Y32.4734
G01 X40.5071 Y32.4725
G01 X40.5150 Y32.4723
G01 X40.6814 Y32.4723
G01 X40.6814 Y32.3510
G01 X40.6822 Y32.3381
G01 X40.6910 Y32.2913
G01 X40.6928 Y32.2837
G01 X40.6951 Y32.2763
G01 X40.6979 Y32.2691
G01 X40.7013 Y32.2621
G01 X40.7051 Y32.2553
G01 X40.7299 Y32.2174
G01 X40.7363 Y32.2089
G01 X40.7417 Y32.2030
G01 X40.7495 Y32.1958
G01 X40.7558 Y32.1909
G01 X40.7954 Y32.1652
G01 X40.8024 Y32.1613
G01 X40.8096 Y32.1579
G01 X40.8170 Y32.1550
G01 X40.8246 Y32.1528
G01 X40.8716 Y32.1429
G01 X40.8798 Y32.1418
G01 X40.8908 Y32.1412
G01 X41.4920 Y32.1412
G01 X41.5002 Y32.1418
G01 X41.5084 Y32.1429
G01 X41.5528 Y32.1521
G01 X41.5605 Y32.1542
G01 X41.5680 Y32.1569
G01 X41.5800 Y32.1625
G01 X41.5868 Y32.1666
G01 X41.6242 Y32.1909
G01 X41.6325 Y32.1975
G01 X41.6402 Y32.2049
G01 X41.6454 Y32.2110
G01 X41.6501 Y32.2174
G01 X41.6735 Y32.2531
G01 X41.6787 Y32.2621
G01 X41.6840 Y32.2739
G01 X41.6872 Y32.2837
G01 X41.6890 Y32.2913
G01 X41.6970 Y32.3330
G01 X41.6983 Y32.3433
G01 X41.6986 Y32.3510
G01 X41.6986 Y32.4723
G01 X41.8650 Y32.4723
G01 X41.8756 Y32.4728
G01 X41.8834 Y32.4738
G01 X41.8937 Y32.4762
G01 X41.9038 Y32.4795
G01 X41.9134 Y32.4838
G01 X41.9226 Y32.4890
G01 X41.9313 Y32.4951
G01 X41.9374 Y32.5002
G01 X41.9448 Y32.5076
G01 X41.9515 Y32.5158
G01 X41.9560 Y32.5224
G01 X41.9600 Y32.5292
G01 X41.9655 Y32.5412
G01 X41.9695 Y32.5538
G01 X41.9712 Y32.5616
G01 X41.9722 Y32.5694
G01 X41.9727 Y32.5800
G01 X41.9727 Y32.7610
G01 X42.0165 Y32.7610
G01 X42.0165 Y32.5913
G01 X42.0114 Y32.5468
G01 X42.0003 Y32.5158
G01 X41.9819 Y32.4865
G01 X41.9523 Y32.4565
G01 X41.9146 Y32.4235
G01 X41.9087 Y32.4180
G01 X41.8999 Y32.4078
G01 X41.8938 Y32.3989
G01 X41.8874 Y32.3870
G01 X41.8706 Y32.3474
G01 X41.8677 Y32.3399
G01 X41.8654 Y32.3321
G01 X41.8637 Y32.3242
G01 X41.8626 Y32.3161
G01 X41.8621 Y32.3080
G01 X41.8621 Y32.2615
G01 X41.8626 Y32.2534
G01 X41.8642 Y32.2427
G01 X41.8669 Y32.2322
G01 X41.8696 Y32.2246
G01 X41.8874 Y32.1825
G01 X41.8924 Y32.1729
G01 X41.8967 Y32.1661
G01 X41.9015 Y32.1596
G01 X41.9068 Y32.1535
G01 X41.9146 Y32.1460
G01 X41.9525 Y32.1128
G01 X41.9821 Y32.0833
G01 X42.0003 Y32.0542
G01 X42.0114 Y32.0232
G01 X42.0165 Y31.9787
G01 X42.0165 Y30.5913
G01 X42.0114 Y30.5465
G01 X42.0002 Y30.5148
G01 X41.9820 Y30.4861
G01 X41.9588 Y30.4626
G01 X41.9304 Y30.4453
G01 X41.8977 Y30.4337
G01 X41.8531 Y30.4283
G01 X40.5270 Y30.4283
G01 X40.4823 Y30.4337
G01 X40.4496 Y30.4453
G01 X40.4212 Y30.4626
G01 X40.3980 Y30.4861
G01 X40.3798 Y30.5148
G01 X40.3662 Y30.5534
G01 X40.3545 Y30.5995
G01 X40.3520 Y30.6072
G01 X40.3490 Y30.6147
G01 X40.3440 Y30.6244
G01 X40.3382 Y30.6334
G01 X40.3142 Y30.6651
G01 X40.3076 Y30.6730
G01 X40.2983 Y30.6820
G01 X40.2879 Y30.6898
G01 X40.2521 Y30.7113
G01 X40.2424 Y30.7164
G01 X40.2323 Y30.7205
G01 X40.2218 Y30.7236
G01 X40.1831 Y30.7318
G01 X40.1748 Y30.7332
G01 X40.1608 Y30.7341
G01 X39.3686 Y30.7340
G01 X39.3554 Y30.7325
G01 X39.3172 Y30.7249
G01 X39.3090 Y30.7230
G01 X39.3010 Y30.7203
G01 X39.2435 Y30.6991
G01 X39.2001 Y30.6945
G01 X37.8458 Y30.6945
G01 X37.8007 Y30.6992
G01 X37.7693 Y30.7104
G01 X37.7410 Y30.7278
G01 X37.7172 Y30.7522
G01 X37.7080 Y30.7665
G01 X37.7021 Y30.7745
G01 X37.6742 Y30.8056
G01 X37.6665 Y30.8129
G01 X37.6581 Y30.8195
G01 X37.6515 Y30.8239
G01 X37.6173 Y30.8433
G01 X37.6076 Y30.8479
G01 X37.5947 Y30.8523
G01 X37.5842 Y30.8546
G01 X37.5506 Y30.8602
G01 X37.5380 Y30.8615
G01 X37.2462 Y30.8616
G01 X37.1518 Y30.8692
G01 X37.0676 Y30.8896
G01 X36.9876 Y30.9228
G01 X36.9139 Y30.9680
G01 X36.8423 Y31.0284
G01 X35.4719 Y32.3963
G01 X35.4106 Y32.4683
G01 X35.3655 Y32.5419
G01 X35.3324 Y32.6218
G01 X35.3120 Y32.7057
G01 X35.3049 Y32.8001
G01 X35.3049 Y33.0607
G01 X35.3041 Y33.0732
G01 X35.2959 Y33.1184
G01 X35.2939 Y33.1263
G01 X35.2913 Y33.1340
G01 X35.2881 Y33.1415
G01 X35.2844 Y33.1487
G01 X35.2653 Y33.1825
G01 X35.2595 Y33.1911
G01 X35.2513 Y33.2010
G01 X35.2419 Y33.2099
G01 X35.2083 Y33.2365
G01 X35.1997 Y33.2421
G01 X35.1929 Y33.2458
G01 X35.1835 Y33.2499
G01 X35.1500 Y33.2626
G01 X35.1420 Y33.2652
G01 X35.1312 Y33.2678
G01 X35.0885 Y33.2745
G01 X35.0070 Y33.3015
G01 X34.9300 Y33.3415
G01 X34.8605 Y33.3924
G01 X34.8003 Y33.4538
G01 X34.7496 Y33.5246
G01 X34.7110 Y33.6014
G01 X34.6847 Y33.6841
G01 X34.6719 Y33.7698
G01 X34.6719 Y33.8288
G01 X34.6711 Y33.8417
G01 X34.6699 Y33.8494
G01 X34.6612 Y33.8936
G01 X34.6591 Y33.9011
G01 X34.6564 Y33.9084
G01 X34.6532 Y33.9155
G01 X34.6496 Y33.9223
G01 X34.6234 Y33.9626
G01 X34.6166 Y33.9715
G01 X34.6109 Y33.9776
G01 X34.1009 Y34.4882
G01 X34.0914 Y34.4966
G01 X34.0831 Y34.5025
G01 X34.0479 Y34.5252
G01 X34.0410 Y34.5291
G01 X34.0338 Y34.5325
G01 X34.0238 Y34.5362
G01 X34.0161 Y34.5383
G01 X33.9744 Y34.5470
G01 X33.9667 Y34.5483
G01 X33.9589 Y34.5490
G01 X33.9485 Y34.5491
G01 X33.9407 Y34.5486
G01 X33.9304 Y34.5469
G01 X33.8866 Y34.5376
G01 X33.8791 Y34.5353
G01 X33.8717 Y34.5325
G01 X33.8645 Y34.5291
G01 X33.8577 Y34.5252
G01 X33.8202 Y34.5010
G01 X33.8138 Y34.4963
G01 X33.8058 Y34.4893
G01 X33.8003 Y34.4835
G01 X33.7936 Y34.4752
G01 X33.7688 Y34.4373
G01 X33.7622 Y34.4257
G01 X33.7572 Y34.4135
G01 X33.7542 Y34.4033
G01 X33.7455 Y34.3621
G01 X33.7441 Y34.3538
G01 X33.7433 Y34.3454
G01 X33.7432 Y34.0016
G01 X33.7381 Y33.9566
G01 X33.7271 Y33.9245
G01 X33.7093 Y33.8964
G01 X33.6692 Y33.8558
G01 X33.6635 Y33.8497
G01 X33.6568 Y33.8408
G01 X33.6349 Y33.8088
G01 X33.6294 Y33.7997
G01 X33.6238 Y33.7877
G01 X33.6196 Y33.7751
G01 X33.6103 Y33.7309
G01 X33.6089 Y33.7227
G01 X33.6081 Y33.7089
G01 X33.6081 Y32.1595
G01 X33.6009 Y32.0652
G01 X33.5806 Y31.9818
G01 X33.5474 Y31.9018
G01 X33.5024 Y31.8284
G01 X33.4406 Y31.7563
G01 X31.0185 Y29.3372
G01 X30.9469 Y29.2750
G01 X30.8733 Y29.2302
G01 X30.7935 Y29.1971
G01 X30.7098 Y29.1772
G01 X30.6157 Y29.1705
G01 X29.4227 Y29.1705
G01 X29.4123 Y29.1700
G01 X29.4020 Y29.1685
G01 X29.3551 Y29.1581
G01 X29.3474 Y29.1556
G01 X29.3400 Y29.1527
G01 X29.3280 Y29.1465
G01 X29.2910 Y29.1217
G01 X29.2802 Y29.1135
G01 X29.2724 Y29.1060
G01 X29.2654 Y29.0977
G01 X29.2385 Y29.0587
G01 X29.2345 Y29.0520
G01 X29.2310 Y29.0451
G01 X29.2280 Y29.0380
G01 X29.2255 Y29.0307
G01 X29.2230 Y29.0206
G01 X29.2154 Y28.9820
G01 X29.2139 Y28.9716
G01 X29.2134 Y28.9638
G01 X29.2133 Y28.9144
G01 X29.2083 Y28.8696
G01 X29.1970 Y28.8375
G01 X29.1795 Y28.8095
G01 X29.1553 Y28.7855
G01 X29.1269 Y28.7672
G01 X29.0956 Y28.7565
G01 X29.0504 Y28.7514
G01 X26.9136 Y28.7514
G01 X26.8684 Y28.7565
G01 X26.8371 Y28.7672
G01 X26.8088 Y28.7855
G01 X26.7845 Y28.8095
G01 X26.7670 Y28.8375
G01 X26.7557 Y28.8696
G01 X26.7507 Y28.9144
G01 X26.7507 Y30.5258
G01 X26.7557 Y30.5708
G01 X26.7671 Y30.6034
G01 X26.7845 Y30.6312
G01 X26.8085 Y30.6549
G01 X26.8370 Y30.6731
G01 X26.8889 Y30.6912
G01 X26.8964 Y30.6944
G01 X26.9038 Y30.6982
G01 X26.9417 Y30.7209
G01 X26.9504 Y30.7267
G01 X26.9565 Y30.7316
G01 X26.9622 Y30.7369
G01 X26.9676 Y30.7426
G01 X26.9725 Y30.7487
G01 X27.0008 Y30.7887
G01 X27.0071 Y30.8000
G01 X27.0112 Y30.8095
G01 X27.0149 Y30.8219
G01 X27.0247 Y30.8677
G01 X27.0263 Y30.8808
G01 X27.0263 Y30.8940
G01 X27.0247 Y30.9071
G01 X27.0150 Y30.9534
G01 X27.0128 Y30.9613
G01 X27.0090 Y30.9715
G01 X27.0041 Y30.9813
G01 X26.9983 Y30.9905
G01 X26.9729 Y31.0268
G01 X26.9641 Y31.0372
G01 X26.9541 Y31.0464
G01 X26.9453 Y31.0528
G01 X26.9006 Y31.0790
G01 X26.8887 Y31.0843
G01 X26.8374 Y31.1023
G01 X26.8085 Y31.1210
G01 X26.7845 Y31.1444
G01 X26.7670 Y31.1726
G01 X26.7557 Y31.2045
G01 X26.7507 Y31.2492
G01 X26.7506 Y31.2975
G01 X26.7499 Y31.3078
G01 X26.7405 Y31.3572
G01 X26.7370 Y31.3697
G01 X26.7331 Y31.3793
G01 X26.7269 Y31.3907
G01 X26.7002 Y31.4297
G01 X26.6953 Y31.4360
G01 X26.6900 Y31.4418
G01 X26.6843 Y31.4472
G01 X26.6761 Y31.4538
G01 X26.6370 Y31.4806
G01 X26.6276 Y31.4858
G01 X26.6178 Y31.4900
G01 X26.6101 Y31.4925
G01 X26.6023 Y31.4944
G01 X26.5606 Y31.5020
G01 X26.5496 Y31.5034
G01 X26.5413 Y31.5037
G01 X25.4570 Y31.5037
G01 X25.4487 Y31.5032
G01 X25.4404 Y31.5020
G01 X25.4017 Y31.4949
G01 X25.3890 Y31.4914
G01 X25.3791 Y31.4875
G01 X25.3720 Y31.4839
G01 X25.3337 Y31.4606
G01 X25.3273 Y31.4561
G01 X25.3193 Y31.4494
G01 X25.3137 Y31.4439
G01 X25.3085 Y31.4380
G01 X25.2815 Y31.4028
G01 X25.2760 Y31.3940
G01 X25.2713 Y31.3847
G01 X25.2668 Y31.3725
G01 X25.2546 Y31.3320
G01 X25.2525 Y31.3210
G01 X25.2475 Y31.2768
G01 X25.2363 Y31.2458
G01 X25.2179 Y31.2165
G01 X25.1883 Y31.1865
G01 X25.1466 Y31.1498
G01 X25.1392 Y31.1420
G01 X25.1327 Y31.1334
G01 X25.1284 Y31.1266
G01 X25.1234 Y31.1170
G01 X25.1056 Y31.0749
G01 X25.1029 Y31.0673
G01 X25.1008 Y31.0595
G01 X25.0986 Y31.0461
G01 X25.0980 Y31.0353
G01 X25.0981 Y30.9915
G01 X25.0986 Y30.9834
G01 X25.1002 Y30.9727
G01 X25.1029 Y30.9622
G01 X25.1056 Y30.9546
G01 X25.1224 Y30.9150
G01 X25.1258 Y30.9077
G01 X25.1298 Y30.9006
G01 X25.1343 Y30.8939
G01 X25.1392 Y30.8875
G01 X25.1447 Y30.8815
G01 X25.1506 Y30.8760
G01 X25.1885 Y30.8428
G01 X25.2181 Y30.8133
G01 X25.2363 Y30.7842
G01 X25.2474 Y30.7532
G01 X25.2525 Y30.7087
G01 X25.2525 Y30.5391
G01 X25.2087 Y30.5391
G01 X25.2087 Y30.7200
G01 X25.2082 Y30.7306
G01 X25.2067 Y30.7410
G01 X25.2048 Y30.7487
G01 X25.2025 Y30.7563
G01 X25.1995 Y30.7637
G01 X25.1960 Y30.7708
G01 X25.1920 Y30.7777
G01 X25.1875 Y30.7842
G01 X25.1826 Y30.7904
G01 X25.1753 Y30.7980
G01 X25.1694 Y30.8033
G01 X25.1630 Y30.8081
G01 X25.1541 Y30.8138
G01 X25.1447 Y30.8185
G01 X25.1348 Y30.8223
G01 X25.1272 Y30.8245
G01 X25.1168 Y30.8266
G01 X25.1089 Y30.8275
G01 X25.1010 Y30.8278
G01 X24.9346 Y30.8278
G01 X24.9346 Y30.9490
G01 X24.9338 Y30.9619
G01 X24.9250 Y31.0087
G01 X24.9232 Y31.0163
G01 X24.9209 Y31.0237
G01 X24.9181 Y31.0309
G01 X24.9147 Y31.0380
G01 X24.9109 Y31.0447
G01 X24.8861 Y31.0826
G01 X24.8797 Y31.0911
G01 X24.8743 Y31.0970
G01 X24.8665 Y31.1042
G01 X24.8602 Y31.1091
G01 X24.8206 Y31.1349
G01 X24.8136 Y31.1387
G01 X24.8064 Y31.1421
G01 X24.7990 Y31.1450
G01 X24.7914 Y31.1472
G01 X24.7444 Y31.1571
G01 X24.7362 Y31.1583
G01 X24.7252 Y31.1588
G01 X24.1240 Y31.1588
G01 X24.1158 Y31.1583
G01 X24.1076 Y31.1571
G01 X24.0632 Y31.1479
G01 X24.0505 Y31.1441
G01 X24.0431 Y31.1411
G01 X24.0360 Y31.1375
G01 X24.0292 Y31.1334
G01 X23.9918 Y31.1091
G01 X23.9835 Y31.1025
G01 X23.9758 Y31.0951
G01 X23.9706 Y31.0891
G01 X23.9659 Y31.0826
G01 X23.9425 Y31.0469
G01 X23.9361 Y31.0356
G01 X23.9320 Y31.0261
G01 X23.9295 Y31.0188
G01 X23.9270 Y31.0087
G01 X23.9190 Y30.9670
G01 X23.9177 Y30.9567
G01 X23.9174 Y30.9490
G01 X23.9174 Y30.8278
G01 X23.7510 Y30.8278
G01 X23.7404 Y30.8272
G01 X23.7326 Y30.8262
G01 X23.7223 Y30.8239
G01 X23.7122 Y30.8205
G01 X23.7026 Y30.8163
G01 X23.6934 Y30.8110
G01 X23.6847 Y30.8050
G01 X23.6786 Y30.7998
G01 X23.6712 Y30.7924
G01 X23.6645 Y30.7842
G01 X23.6572 Y30.7731
G01 X23.6536 Y30.7661
G01 X23.6505 Y30.7588
G01 X23.6479 Y30.7513
G01 X23.6459 Y30.7436
G01 X23.6438 Y30.7306
G01 X23.6433 Y30.7200
G01 X23.6433 Y30.5391
G01 X23.5995 Y30.5391
G01 X23.5995 Y30.7087
G01 X23.6046 Y30.7532
G01 X23.6157 Y30.7842
G01 X23.6340 Y30.8133
G01 X23.6635 Y30.8428
G01 X23.7014 Y30.8760
G01 X23.7073 Y30.8816
G01 X23.7128 Y30.8875
G01 X23.7178 Y30.8939
G01 X23.7236 Y30.9029
G01 X23.7274 Y30.9101
G01 X23.7474 Y30.9571
G01 X23.7506 Y30.9674
G01 X23.7528 Y30.9780
G01 X23.7539 Y30.9915
G01 X23.7539 Y31.0380
G01 X23.7531 Y31.0488
G01 X23.7512 Y31.0594
G01 X23.7491 Y31.0673
G01 X23.7464 Y31.0749
G01 X23.7286 Y31.1170
G01 X23.7223 Y31.1289
G01 X23.7145 Y31.1399
G01 X23.7092 Y31.1460
G01 X23.7034 Y31.1517
G01 X23.6637 Y31.1865
G01 X23.6292 Y31.2215
G01 X23.5965 Y31.2610
G01 X23.5892 Y31.2686
G01 X23.5812 Y31.2754
G01 X23.5748 Y31.2800
G01 X23.5680 Y31.2841
G01 X23.5309 Y31.3039
G01 X23.5213 Y31.3081
G01 X23.5087 Y31.3121
G01 X23.4958 Y31.3145
G01 X23.4519 Y31.3187
G01 X23.4441 Y31.3188
G01 X23.4363 Y31.3183
G01 X23.4285 Y31.3173
G01 X23.4208 Y31.3157
G01 X23.3805 Y31.3057
G01 X23.3703 Y31.3020
G01 X23.3629 Y31.2986
G01 X23.3513 Y31.2918
G01 X23.3191 Y31.2689
G01 X23.3110 Y31.2626
G01 X23.3054 Y31.2573
G01 X18.5007 Y26.4532
G01 X18.4950 Y26.4470
G01 X18.4882 Y26.4381
G01 X18.4633 Y26.4000
G01 X18.4571 Y26.3883
G01 X18.4531 Y26.3784
G01 X18.4502 Y26.3682
G01 X18.4401 Y26.3193
G01 X18.4394 Y26.3115
G01 X18.4392 Y26.3037
G01 X18.4395 Y26.2958
G01 X18.4405 Y26.2880
G01 X18.4496 Y26.2438
G01 X18.4532 Y26.2307
G01 X18.4584 Y26.2181
G01 X18.4637 Y26.2086
G01 X18.4885 Y26.1710
G01 X18.4970 Y26.1604
G01 X18.5067 Y26.1510
G01 X18.5152 Y26.1443
G01 X18.5527 Y26.1196
G01 X18.5595 Y26.1156
G01 X18.5667 Y26.1122
G01 X18.5765 Y26.1084
G01 X18.5867 Y26.1056
G01 X18.6310 Y26.0970
G01 X18.6388 Y26.0960
G01 X18.6466 Y26.0955
G01 X27.0406 Y26.1077
G01 X27.0544 Y26.1090
G01 X27.0984 Y26.1171
G01 X27.1113 Y26.1206
G01 X27.1237 Y26.1258
G01 X27.1353 Y26.1324
G01 X27.1769 Y26.1615
G01 X27.1829 Y26.1667
G01 X27.1884 Y26.1723
G01 X27.1936 Y26.1783
G01 X27.1983 Y26.1846
G01 X27.2216 Y26.2189
G01 X27.2256 Y26.2257
G01 X27.2303 Y26.2353
G01 X27.2339 Y26.2452
G01 X27.2360 Y26.2529
G01 X27.2447 Y26.2946
G01 X27.2464 Y26.3055
G01 X27.2469 Y26.3138
G01 X27.2470 Y26.4212
G01 X27.2521 Y26.4665
G01 X27.2629 Y26.4981
G01 X27.2811 Y26.5266
G01 X27.3044 Y26.5506
G01 X27.3326 Y26.5677
G01 X27.3647 Y26.5791
G01 X27.4099 Y26.5842
G01 X28.3864 Y26.5842
G01 X28.4312 Y26.5791
G01 X28.4637 Y26.5677
G01 X28.4916 Y26.5506
G01 X28.5152 Y26.5267
G01 X28.5330 Y26.4981
G01 X28.5443 Y26.4660
G01 X28.5494 Y26.4212
G01 X28.5494 Y25.1944
G01 X28.5443 Y25.1499
G01 X28.5329 Y25.1173
G01 X28.5154 Y25.0891
G01 X28.4919 Y25.0656
G01 X28.4637 Y25.0483
G01 X28.4308 Y25.0368
G01 X28.3860 Y25.0313
G01 X27.4103 Y25.0313
G01 X27.3651 Y25.0368
G01 X27.3326 Y25.0483
G01 X27.3041 Y25.0656
G01 X27.2809 Y25.0891
G01 X27.2630 Y25.1173
G01 X27.2521 Y25.1494
G01 X27.2470 Y25.1944
G01 X27.2470 Y25.2949
G01 X27.2467 Y25.3032
G01 X27.2453 Y25.3141
G01 X27.2366 Y25.3559
G01 X27.2346 Y25.3639
G01 X27.2321 Y25.3717
G01 X27.2265 Y25.3841
G01 X27.2210 Y25.3935
G01 X27.1976 Y25.4287
G01 X27.1929 Y25.4350
G01 X27.1877 Y25.4410
G01 X27.1821 Y25.4465
G01 X27.1760 Y25.4516
G01 X27.1344 Y25.4801
G01 X27.1230 Y25.4865
G01 X27.1108 Y25.4915
G01 X27.0981 Y25.4949
G01 X27.0536 Y25.5030
G01 X27.0425 Y25.5041
G01 X18.3149 Y25.4925
G01 X18.3018 Y25.4910
G01 X18.2585 Y25.4823
G01 X18.2482 Y25.4794
G01 X18.2407 Y25.4766
G01 X18.2334 Y25.4733
G01 X18.2264 Y25.4694
G01 X18.1893 Y25.4456
G01 X18.1807 Y25.4391
G01 X18.1727 Y25.4318
G01 X18.1673 Y25.4258
G01 X18.1623 Y25.4193
G01 X18.1389 Y25.3851
G01 X18.1346 Y25.3783
G01 X18.1297 Y25.3688
G01 X18.0791 Y25.2569
G01 X18.0070 Y25.1383
G01 X17.9215 Y25.0286
G01 X17.8231 Y24.9302
G01 X17.7141 Y24.8449
G01 X17.6529 Y24.8083
G01 X17.6416 Y24.8005
G01 X17.6333 Y24.7932
G01 X17.5980 Y24.7589
G01 X17.5895 Y24.7487
G01 X17.5851 Y24.7420
G01 X17.5811 Y24.7350
G01 X17.5767 Y24.7253
G01 X17.5604 Y24.6847
G01 X17.5570 Y24.6748
G01 X17.5546 Y24.6646
G01 X17.5534 Y24.6568
G01 X17.5528 Y24.6489
G01 X17.5528 Y24.6410
G01 X17.5556 Y24.5921
G01 X17.5570 Y24.5818
G01 X17.5593 Y24.5716
G01 X17.5627 Y24.5617
G01 X17.5670 Y24.5522
G01 X17.5903 Y24.5089
G01 X17.5961 Y24.4999
G01 X17.6010 Y24.4935
G01 X17.6064 Y24.4875
G01 X17.6122 Y24.4819
G01 X17.6184 Y24.4768
G01 X17.6550 Y24.4488
G01 X17.6616 Y24.4444
G01 X17.6685 Y24.4405
G01 X17.6806 Y24.4351
G01 X17.6932 Y24.4312
G01 X17.7409 Y24.4210
G01 X17.7509 Y24.4196
G01 X17.7610 Y24.4191
G00 Z2.0000
G00 X17.3965 Y26.8468
G01 F60.00
G01 Z-0.1000
G01 F120.00
G01 X17.3841 Y26.8513
G01 X17.3765 Y26.8535
G01 X17.2761 Y26.8785
G01 X17.1686 Y26.8944
G01 X17.0600 Y26.8997
G01 X16.9514 Y26.8944
G01 X16.8439 Y26.8785
G01 X16.7384 Y26.8521
G01 X16.6361 Y26.8154
G01 X16.5378 Y26.7689
G01 X16.4446 Y26.7131
G01 X16.3573 Y26.6483
G01 X16.2767 Y26.5753
G01 X16.2037 Y26.4947
G01 X16.1389 Y26.4074
G01 X16.0831 Y26.3142
G01 X16.0366 Y26.2159
G01 X15.9999 Y26.1136
G01 X15.9735 Y26.0081
G01 X15.9576 Y25.9006
G01 X15.9523 Y25.7920
G01 X15.9576 Y25.6834
G01 X15.9735 Y25.5759
G01 X15.9999 Y25.4704
G01 X16.0366 Y25.3681
G01 X16.0831 Y25.2698
G01 X16.1389 Y25.1766
G01 X16.2037 Y25.0893
G01 X16.2767 Y25.0087
G01 X16.3573 Y24.9357
G01 X16.4446 Y24.8709
G01 X16.5378 Y24.8151
G01 X16.6361 Y24.7686
G01 X16.7384 Y24.7319
G01 X16.8439 Y24.7055
G01 X16.9514 Y24.6896
G01 X17.0600 Y24.6843
G01 X17.1686 Y24.6896
G01 X17.2761 Y24.7055
G01 X17.3816 Y24.7319
G01 X17.4839 Y24.7686
G01 X17.5775 Y24.8127
G01 X17.5845 Y24.8163
G01 X17.6754 Y24.8709
G01 X17.7627 Y24.9357
G01 X17.8433 Y25.0087
G01 X17.9128 Y25.0852
G01 X17.9180 Y25.0913
G01 X17.9811 Y25.1766
G01 X18.0343 Y25.2652
G01 X18.0382 Y25.2722
G01 X18.0813 Y25.3632
G01 X18.0844 Y25.3705
G01 X18.1201 Y25.4704
G01 X18.1365 Y25.5357
G01 X27.2902 Y25.5486
G01 X27.2902 Y25.1829
G01 X27.2905 Y25.1750
G01 X27.2914 Y25.1671
G01 X27.2941 Y25.1542
G01 X27.2984 Y25.1417
G01 X27.3042 Y25.1298
G01 X27.3084 Y25.1230
G01 X27.3130 Y25.1166
G01 X27.3181 Y25.1105
G01 X27.3237 Y25.1049
G01 X27.3338 Y25.0964
G01 X27.3403 Y25.0919
G01 X27.3472 Y25.0879
G01 X27.3592 Y25.0824
G01 X27.3692 Y25.0791
G01 X27.3796 Y25.0767
G01 X27.3874 Y25.0757
G01 X27.3980 Y25.0752
G01 X28.3980 Y25.0752
G01 X28.4059 Y25.0754
G01 X28.4138 Y25.0763
G01 X28.4216 Y25.0778
G01 X28.4293 Y25.0798
G01 X28.4368 Y25.0824
G01 X28.4440 Y25.0855
G01 X28.4511 Y25.0891
G01 X28.4600 Y25.0948
G01 X28.4684 Y25.1013
G01 X28.4778 Y25.1105
G01 X28.4861 Y25.1209
G01 X28.4930 Y25.1321
G01 X28.4985 Y25.1441
G01 X28.5025 Y25.1567
G01 X28.5046 Y25.1671
G01 X28.5057 Y25.1803
G01 X28.5057 Y26.4355
G01 X28.5049 Y26.4461
G01 X28.5031 Y26.4565
G01 X28.5003 Y26.4667
G01 X28.4975 Y26.4741
G01 X28.4942 Y26.4813
G01 X28.4890 Y26.4905
G01 X28.4829 Y26.4992
G01 X28.4760 Y26.5072
G01 X28.4703 Y26.5127
G01 X28.4622 Y26.5194
G01 X28.4534 Y26.5253
G01 X28.4464 Y26.5291
G01 X28.4392 Y26.5324
G01 X28.4293 Y26.5360
G01 X28.4190 Y26.5386
G01 X28.4085 Y26.5401
G01 X28.3980 Y26.5406
G01 X27.3980 Y26.5406
G01 X27.3874 Y26.5401
G01 X27.3770 Y26.5386
G01 X27.3667 Y26.5360
G01 X27.3567 Y26.5324
G01 X27.3449 Y26.5267
G01 X27.3338 Y26.5194
G01 X27.3237 Y26.5109
G01 X27.3181 Y26.5053
G01 X27.3130 Y26.4992
G01 X27.3056 Y26.4883
G01 X27.3017 Y26.4813
G01 X27.2984 Y26.4741
G01 X27.2941 Y26.4616
G01 X27.2914 Y26.4487
G01 X27.2905 Y26.4408
G01 X27.2902 Y26.4329
G01 X27.2902 Y26.0642
G01 X18.1358 Y26.0513
G01 X18.1208 Y26.1110
G01 X18.1148 Y26.1285
G01 X23.4934 Y31.5070
G01 X23.6433 Y31.5070
G01 X23.6433 Y31.3074
G01 X23.6438 Y31.2995
G01 X23.6448 Y31.2916
G01 X23.6465 Y31.2838
G01 X23.6487 Y31.2762
G01 X23.6515 Y31.2688
G01 X23.6548 Y31.2616
G01 X23.6586 Y31.2546
G01 X23.6629 Y31.2480
G01 X23.6677 Y31.2417
G01 X23.6730 Y31.2357
G01 X23.6786 Y31.2302
G01 X23.6847 Y31.2251
G01 X23.6911 Y31.2204
G01 X23.6979 Y31.2163
G01 X23.7049 Y31.2126
G01 X23.7122 Y31.2095
G01 X23.7197 Y31.2069
G01 X23.7274 Y31.2049
G01 X23.7352 Y31.2034
G01 X23.7431 Y31.2026
G01 X23.7510 Y31.2023
G01 X25.1010 Y31.2023
G01 X25.1142 Y31.2031
G01 X25.1246 Y31.2049
G01 X25.1323 Y31.2069
G01 X25.1398 Y31.2095
G01 X25.1471 Y31.2126
G01 X25.1541 Y31.2163
G01 X25.1609 Y31.2204
G01 X25.1673 Y31.2251
G01 X25.1772 Y31.2338
G01 X25.1826 Y31.2397
G01 X25.1875 Y31.2458
G01 X25.1948 Y31.2569
G01 X25.2005 Y31.2688
G01 X25.2033 Y31.2762
G01 X25.2055 Y31.2838
G01 X25.2079 Y31.2968
G01 X25.2087 Y31.3100
G01 X25.2087 Y31.5476
G01 X26.7943 Y31.5476
G01 X26.7943 Y31.2379
G01 X26.7948 Y31.2273
G01 X26.7969 Y31.2143
G01 X26.7989 Y31.2066
G01 X26.8015 Y31.1991
G01 X26.8046 Y31.1918
G01 X26.8082 Y31.1848
G01 X26.8124 Y31.1780
G01 X26.8171 Y31.1716
G01 X26.8222 Y31.1655
G01 X26.8277 Y31.1599
G01 X26.8336 Y31.1546
G01 X26.8400 Y31.1498
G01 X26.8466 Y31.1455
G01 X26.8536 Y31.1416
G01 X26.8608 Y31.1383
G01 X26.8682 Y31.1356
G01 X26.8758 Y31.1334
G01 X26.8836 Y31.1317
G01 X26.8914 Y31.1307
G01 X26.9020 Y31.1301
G01 X29.0620 Y31.1301
G01 X29.0726 Y31.1307
G01 X29.0804 Y31.1317
G01 X29.0882 Y31.1334
G01 X29.0958 Y31.1356
G01 X29.1057 Y31.1394
G01 X29.1128 Y31.1429
G01 X29.1196 Y31.1469
G01 X29.1262 Y31.1513
G01 X29.1363 Y31.1599
G01 X29.1453 Y31.1695
G01 X29.1530 Y31.1802
G01 X29.1582 Y31.1894
G01 X29.1635 Y31.2016
G01 X29.1665 Y31.2117
G01 X29.1686 Y31.2221
G01 X29.1697 Y31.2352
G01 X29.1697 Y32.8729
G01 X29.1692 Y32.8835
G01 X29.1682 Y32.8913
G01 X29.1658 Y32.9016
G01 X29.1635 Y32.9092
G01 X29.1605 Y32.9166
G01 X29.1570 Y32.9237
G01 X29.1501 Y32.9349
G01 X29.1453 Y32.9412
G01 X29.1400 Y32.9472
G01 X29.1344 Y32.9527
G01 X29.1283 Y32.9578
G01 X29.1219 Y32.9625
G01 X29.1151 Y32.9666
G01 X29.1032 Y32.9724
G01 X29.0958 Y32.9752
G01 X29.0882 Y32.9774
G01 X29.0804 Y32.9791
G01 X29.0726 Y32.9801
G01 X29.0620 Y32.9806
G01 X28.4899 Y32.9806
G01 X28.4900 Y34.9956
G01 X34.6534 Y41.1590
G01 X35.0598 Y41.1590
G01 X35.0598 Y41.0981
G01 X35.0609 Y41.0850
G01 X35.0630 Y41.0746
G01 X35.0670 Y41.0620
G01 X35.0713 Y41.0523
G01 X35.0765 Y41.0431
G01 X35.0842 Y41.0324
G01 X35.0932 Y41.0228
G01 X35.1033 Y41.0142
G01 X35.1144 Y41.0070
G01 X35.1263 Y41.0012
G01 X35.1337 Y40.9985
G01 X35.1413 Y40.9963
G01 X35.1543 Y40.9939
G01 X35.1675 Y40.9930
G01 X36.5445 Y40.9930
G01 X36.5577 Y40.9939
G01 X36.5707 Y40.9963
G01 X36.5833 Y41.0003
G01 X36.5929 Y41.0045
G01 X36.6044 Y41.0112
G01 X36.6129 Y41.0175
G01 X36.6225 Y41.0265
G01 X36.6310 Y41.0366
G01 X36.6383 Y41.0477
G01 X36.6430 Y41.0571
G01 X36.6468 Y41.0670
G01 X36.6496 Y41.0772
G01 X36.6514 Y41.0876
G01 X36.6522 Y41.1008
G01 X36.6522 Y41.1590
G01 X38.5023 Y41.1590
G01 X38.5023 Y40.9594
G01 X38.5034 Y40.9462
G01 X38.5062 Y40.9333
G01 X38.5085 Y40.9257
G01 X38.5115 Y40.9184
G01 X38.5150 Y40.9112
G01 X38.5190 Y40.9044
G01 X38.5267 Y40.8937
G01 X38.5320 Y40.8877
G01 X38.5376 Y40.8822
G01 X38.5437 Y40.8771
G01 X38.5501 Y40.8724
G01 X38.5616 Y40.8658
G01 X38.5737 Y40.8606
G01 X38.5813 Y40.8582
G01 X38.5890 Y40.8563
G01 X38.5994 Y40.8548
G01 X38.6100 Y40.8543
G01 X39.9600 Y40.8543
G01 X39.9706 Y40.8548
G01 X39.9836 Y40.8569
G01 X39.9913 Y40.8589
G01 X39.9988 Y40.8615
G01 X40.0061 Y40.8646
G01 X40.0154 Y40.8696
G01 X40.0220 Y40.8739
G01 X40.0304 Y40.8804
G01 X40.0380 Y40.8877
G01 X40.0433 Y40.8937
G01 X40.0496 Y40.9022
G01 X40.0538 Y40.9089
G01 X40.0574 Y40.9160
G01 X40.0605 Y40.9232
G01 X40.0631 Y40.9307
G01 X40.0651 Y40.9384
G01 X40.0669 Y40.9488
G01 X40.0676 Y40.9567
G01 X40.0677 Y42.3747
G01 X40.0672 Y42.3826
G01 X40.0662 Y42.3904
G01 X40.0645 Y42.3982
G01 X40.0623 Y42.4058
G01 X40.0595 Y42.4133
G01 X40.0562 Y42.4205
G01 X40.0524 Y42.4274
G01 X40.0481 Y42.4341
G01 X40.0398 Y42.4444
G01 X40.0324 Y42.4519
G01 X40.0220 Y42.4601
G01 X40.0108 Y42.4670
G01 X39.9988 Y42.4725
G01 X39.9862 Y42.4765
G01 X39.9732 Y42.4790
G01 X39.9626 Y42.4797
G01 X38.6100 Y42.4798
G01 X38.5994 Y42.4793
G01 X38.5916 Y42.4782
G01 X38.5838 Y42.4765
G01 X38.5762 Y42.4743
G01 X38.5688 Y42.4716
G01 X38.5616 Y42.4683
G01 X38.5546 Y42.4644
G01 X38.5480 Y42.4601
G01 X38.5376 Y42.4519
G01 X38.5284 Y42.4424
G01 X38.5235 Y42.4362
G01 X38.5190 Y42.4297
G01 X38.5126 Y42.4181
G01 X38.5095 Y42.4108
G01 X38.5069 Y42.4033
G01 X38.5038 Y42.3904
G01 X38.5028 Y42.3826
G01 X38.5023 Y42.3747
G01 X38.5023 Y42.1749
G01 X36.6522 Y42.1749
G01 X36.6522 Y42.2333
G01 X36.6514 Y42.2465
G01 X36.6496 Y42.2569
G01 X36.6468 Y42.2671
G01 X36.6430 Y42.2770
G01 X36.6383 Y42.2864
G01 X36.6310 Y42.2975
G01 X36.6225 Y42.3076
G01 X36.6149 Y42.3149
G01 X36.6044 Y42.3229
G01 X36.5929 Y42.3295
G01 X36.5833 Y42.3338
G01 X36.5707 Y42.3378
G01 X36.5577 Y42.3402
G01 X36.5445 Y42.3410
G01 X35.1622 Y42.3409
G01 X35.1491 Y42.3395
G01 X35.1388 Y42.3371
G01 X35.1263 Y42.3328
G01 X35.1144 Y42.3270
G01 X35.1033 Y42.3198
G01 X35.0932 Y42.3113
G01 X35.0842 Y42.3016
G01 X35.0765 Y42.2909
G01 X35.0713 Y42.2817
G01 X35.0660 Y42.2696
G01 X35.0630 Y42.2595
G01 X35.0609 Y42.2491
G01 X35.0598 Y42.2359
G01 X35.0598 Y42.1749
G01 X34.4430 Y42.1749
G01 X34.3932 Y42.1725
G01 X34.3491 Y42.1661
G01 X34.3387 Y42.1640
G01 X34.2956 Y42.1531
G01 X34.2536 Y42.1382
G01 X34.2438 Y42.1341
G01 X34.2036 Y42.1150
G01 X34.1653 Y42.0922
G01 X34.1586 Y42.0878
G01 X34.1208 Y42.0596
G01 X34.0838 Y42.0262
G01 X27.6228 Y35.5652
G01 X27.5893 Y35.5282
G01 X27.5627 Y35.4925
G01 X27.5568 Y35.4837
G01 X27.5366 Y35.4500
G01 X27.5317 Y35.4407
G01 X27.5127 Y35.4004
G01 X27.4959 Y35.3535
G01 X27.4850 Y35.3103
G01 X27.4829 Y35.2999
G01 X27.4765 Y35.2558
G01 X27.4741 Y35.2086
G01 X27.4740 Y32.9806
G01 X26.8994 Y32.9806
G01 X26.8862 Y32.9795
G01 X26.8784 Y32.9780
G01 X26.8707 Y32.9760
G01 X26.8583 Y32.9714
G01 X26.8466 Y32.9653
G01 X26.8357 Y32.9578
G01 X26.8258 Y32.9491
G01 X26.8171 Y32.9392
G01 X26.8110 Y32.9305
G01 X26.8046 Y32.9190
G01 X26.8005 Y32.9092
G01 X26.7969 Y32.8965
G01 X26.7951 Y32.8861
G01 X26.7943 Y32.8729
G01 X26.7943 Y32.5635
G01 X25.2087 Y32.5635
G01 X25.2087 Y32.7227
G01 X25.2082 Y32.7306
G01 X25.2072 Y32.7385
G01 X25.2055 Y32.7462
G01 X25.2033 Y32.7538
G01 X25.1984 Y32.7661
G01 X25.1948 Y32.7731
G01 X25.1906 Y32.7799
G01 X25.1859 Y32.7863
G01 X25.1808 Y32.7924
G01 X25.1714 Y32.8016
G01 X25.1609 Y32.8096
G01 X25.1541 Y32.8138
G01 X25.1471 Y32.8174
G01 X25.1398 Y32.8206
G01 X25.1323 Y32.8231
G01 X25.1194 Y32.8262
G01 X25.1116 Y32.8273
G01 X25.1010 Y32.8278
G01 X23.7484 Y32.8277
G01 X23.7404 Y32.8273
G01 X23.7300 Y32.8257
G01 X23.7223 Y32.8239
G01 X23.7147 Y32.8215
G01 X23.7073 Y32.8185
G01 X23.7002 Y32.8151
G01 X23.6934 Y32.8111
G01 X23.6868 Y32.8066
G01 X23.6806 Y32.8016
G01 X23.6748 Y32.7962
G01 X23.6694 Y32.7904
G01 X23.6645 Y32.7842
G01 X23.6600 Y32.7777
G01 X23.6560 Y32.7708
G01 X23.6525 Y32.7637
G01 X23.6495 Y32.7563
G01 X23.6472 Y32.7488
G01 X23.6453 Y32.7411
G01 X23.6438 Y32.7306
G01 X23.6433 Y32.7227
G01 X23.6433 Y32.5229
G01 X23.2830 Y32.5229
G01 X23.2385 Y32.5209
G01 X23.2306 Y32.5202
G01 X23.1839 Y32.5132
G01 X23.1406 Y32.5025
G01 X23.1305 Y32.4994
G01 X23.0886 Y32.4843
G01 X23.0483 Y32.4653
G01 X23.0390 Y32.4604
G01 X23.0053 Y32.4402
G01 X22.9965 Y32.4343
G01 X22.9608 Y32.4077
G01 X22.9238 Y32.3742
G01 X17.3965 Y26.8468
G00 Z2.0000
G00 X23.7630 Y29.1583
G01 F60.00
G01 Z-0.1000
G01 F120.00
G01 X23.9174 Y29.1583
G01 X23.9174 Y29.2023
G01 X23.7510 Y29.2023
G01 X23.7378 Y29.2031
G01 X23.7300 Y29.2043
G01 X23.7223 Y29.2062
G01 X23.7147 Y29.2086
G01 X23.7073 Y29.2115
G01 X23.7002 Y29.2150
G01 X23.6911 Y29.2204
G01 X23.6847 Y29.2251
G01 X23.6786 Y29.2302
G01 X23.6712 Y29.2376
G01 X23.6645 Y29.2458
G01 X23.6600 Y29.2524
G01 X23.6548 Y29.2616
G01 X23.6505 Y29.2712
G01 X23.6479 Y29.2787
G01 X23.6459 Y29.2864
G01 X23.6441 Y29.2968
G01 X23.6433 Y29.3100
G01 X23.6433 Y29.4910
G01 X23.5995 Y29.4910
G01 X23.5995 Y29.3213
G01 X23.6046 Y29.2765
G01 X23.6158 Y29.2448
G01 X23.6340 Y29.2161
G01 X23.6572 Y29.1926
G01 X23.6856 Y29.1753
G01 X23.7183 Y29.1637
G01 X23.7630 Y29.1583
G00 Z2.0000
G00 X24.9346 Y29.1583
G01 F60.00
G01 Z-0.1000
G01 F120.00
G01 X25.0891 Y29.1583
G01 X25.1337 Y29.1637
G01 X25.1664 Y29.1753
G01 X25.1948 Y29.1926
G01 X25.2181 Y29.2161
G01 X25.2363 Y29.2448
G01 X25.2474 Y29.2765
G01 X25.2525 Y29.3213
G01 X25.2525 Y29.4910
G01 X25.2087 Y29.4910
G01 X25.2087 Y29.3100
G01 X25.2079 Y29.2968
G01 X25.2067 Y29.2890
G01 X25.2048 Y29.2813
G01 X25.2025 Y29.2737
G01 X25.1984 Y29.2639
G01 X25.1948 Y29.2569
G01 X25.1891 Y29.2480
G01 X25.1843 Y29.2417
G01 X25.1790 Y29.2357
G01 X25.1734 Y29.2302
G01 X25.1652 Y29.2235
G01 X25.1564 Y29.2176
G01 X25.1494 Y29.2138
G01 X25.1398 Y29.2095
G01 X25.1323 Y29.2069
G01 X25.1246 Y29.2049
G01 X25.1168 Y29.2034
G01 X25.1089 Y29.2026
G01 X25.1010 Y29.2023
G01 X24.9346 Y29.2023
G01 X24.9346 Y29.1583
G00 Z2.0000
G00 X26.7943 Y30.5380
G01 F60.00
G01 Z-0.1000
G01 F120.00
G01 X26.7944 Y28.8977
G01 X26.7951 Y28.8898
G01 X26.7963 Y28.8820
G01 X26.7982 Y28.8743
G01 X26.8005 Y28.8667
G01 X26.8035 Y28.8593
G01 X26.8082 Y28.8499
G01 X26.8124 Y28.8431
G01 X26.8171 Y28.8367
G01 X26.8222 Y28.8306
G01 X26.8277 Y28.8250
G01 X26.8336 Y28.8197
G01 X26.8400 Y28.8149
G01 X26.8466 Y28.8106
G01 X26.8536 Y28.8067
G01 X26.8632 Y28.8025
G01 X26.8707 Y28.7999
G01 X26.8784 Y28.7979
G01 X26.8862 Y28.7964
G01 X26.8941 Y28.7955
G01 X26.9020 Y28.7952
G01 X29.0620 Y28.7952
G01 X29.0752 Y28.7961
G01 X29.0830 Y28.7973
G01 X29.0907 Y28.7991
G01 X29.0983 Y28.8015
G01 X29.1081 Y28.8056
G01 X29.1151 Y28.8092
G01 X29.1219 Y28.8134
G01 X29.1283 Y28.8180
G01 X29.1344 Y28.8232
G01 X29.1400 Y28.8287
G01 X29.1469 Y28.8367
G01 X29.1516 Y28.8431
G01 X29.1558 Y28.8499
G01 X29.1594 Y28.8569
G01 X29.1625 Y28.8642
G01 X29.1651 Y28.8717
G01 X29.1671 Y28.8794
G01 X29.1689 Y28.8898
G01 X29.1697 Y28.9030
G01 X29.1697 Y29.2134
G01 X30.6289 Y29.2136
G01 X30.6681 Y29.2155
G01 X30.6786 Y29.2165
G01 X30.7226 Y29.2232
G01 X30.7659 Y29.2339
G01 X30.7760 Y29.2369
G01 X30.8179 Y29.2520
G01 X30.8582 Y29.2710
G01 X30.8675 Y29.2759
G01 X30.9056 Y29.2989
G01 X30.9415 Y29.3253
G01 X30.9497 Y29.3320
G01 X30.9826 Y29.3620
G01 X33.4159 Y31.7928
G01 X33.4494 Y31.8297
G01 X33.4761 Y31.8655
G01 X33.4820 Y31.8743
G01 X33.5048 Y31.9126
G01 X33.5262 Y31.9577
G01 X33.5413 Y31.9996
G01 X33.5444 Y32.0097
G01 X33.5551 Y32.0530
G01 X33.5618 Y32.0971
G01 X33.5628 Y32.1076
G01 X33.5648 Y32.1495
G01 X33.5649 Y33.8823
G01 X33.5972 Y33.8824
G01 X33.6051 Y33.8831
G01 X33.6129 Y33.8844
G01 X33.6232 Y33.8869
G01 X33.6331 Y33.8905
G01 X33.6427 Y33.8950
G01 X33.6518 Y33.9004
G01 X33.6603 Y33.9067
G01 X33.6681 Y33.9138
G01 X33.6752 Y33.9217
G01 X33.6815 Y33.9302
G01 X33.6869 Y33.9392
G01 X33.6915 Y33.9488
G01 X33.6958 Y33.9613
G01 X33.6981 Y33.9716
G01 X33.6994 Y33.9821
G01 X33.6997 Y33.9900
G01 X33.6996 Y34.5247
G01 X33.6991 Y34.5326
G01 X33.6981 Y34.5405
G01 X33.6950 Y34.5533
G01 X33.6904 Y34.5657
G01 X33.6843 Y34.5774
G01 X33.6769 Y34.5883
G01 X33.6699 Y34.5963
G01 X33.6623 Y34.6036
G01 X33.6540 Y34.6101
G01 X33.6450 Y34.6158
G01 X33.6331 Y34.6216
G01 X33.6206 Y34.6259
G01 X33.6103 Y34.6282
G01 X33.5998 Y34.6295
G01 X33.5919 Y34.6298
G01 X33.3994 Y34.6298
G01 X33.3771 Y34.6496
G01 X33.3435 Y34.6746
G01 X33.3369 Y34.6791
G01 X33.2964 Y34.7033
G01 X33.2561 Y34.7224
G01 X33.2489 Y34.7255
G01 X33.2044 Y34.7414
G01 X33.1560 Y34.7535
G01 X33.1067 Y34.7608
G01 X33.0569 Y34.7632
G01 X33.0071 Y34.7608
G01 X32.9578 Y34.7535
G01 X32.9095 Y34.7414
G01 X32.8650 Y34.7255
G01 X32.8577 Y34.7224
G01 X32.8175 Y34.7033
G01 X32.7769 Y34.6791
G01 X32.7704 Y34.6746
G01 X32.7368 Y34.6496
G01 X32.7145 Y34.6298
G01 X32.5199 Y34.6298
G01 X32.5120 Y34.6295
G01 X32.5041 Y34.6286
G01 X32.4937 Y34.6266
G01 X32.4836 Y34.6235
G01 X32.4738 Y34.6194
G01 X32.4645 Y34.6145
G01 X32.4557 Y34.6086
G01 X32.4475 Y34.6019
G01 X32.4401 Y34.5944
G01 X32.4334 Y34.5862
G01 X32.4289 Y34.5797
G01 X32.4249 Y34.5728
G01 X32.4214 Y34.5657
G01 X32.4185 Y34.5583
G01 X32.4154 Y34.5482
G01 X32.4137 Y34.5405
G01 X32.4127 Y34.5326
G01 X32.4122 Y34.5247
G01 X32.4122 Y33.9900
G01 X32.4125 Y33.9821
G01 X32.4137 Y33.9716
G01 X32.4161 Y33.9613
G01 X32.4204 Y33.9488
G01 X32.4249 Y33.9392
G01 X32.4303 Y33.9302
G01 X32.4366 Y33.9217
G01 X32.4437 Y33.9138
G01 X32.4516 Y33.9067
G01 X32.4600 Y33.9004
G01 X32.4691 Y33.8950
G01 X32.4787 Y33.8905
G01 X32.4886 Y33.8869
G01 X32.4989 Y33.8844
G01 X32.5067 Y33.8831
G01 X32.5146 Y33.8824
G01 X32.5490 Y33.8823
G01 X32.5490 Y32.3627
G01 X30.4134 Y30.2293
G01 X29.1697 Y30.2293
G01 X29.1697 Y30.5380
G01 X29.1689 Y30.5512
G01 X29.1665 Y30.5642
G01 X29.1635 Y30.5743
G01 X29.1605 Y30.5817
G01 X29.1570 Y30.5888
G01 X29.1530 Y30.5956
G01 X29.1485 Y30.6022
G01 X29.1436 Y30.6084
G01 X29.1382 Y30.6142
G01 X29.1324 Y30.6196
G01 X29.1262 Y30.6245
G01 X29.1196 Y30.6290
G01 X29.1104 Y30.6342
G01 X29.1032 Y30.6375
G01 X29.0958 Y30.6403
G01 X29.0856 Y30.6431
G01 X29.0778 Y30.6446
G01 X29.0699 Y30.6454
G01 X29.0620 Y30.6457
G01 X26.8967 Y30.6456
G01 X26.8862 Y30.6446
G01 X26.8758 Y30.6425
G01 X26.8682 Y30.6403
G01 X26.8583 Y30.6365
G01 X26.8489 Y30.6317
G01 X26.8400 Y30.6261
G01 X26.8316 Y30.6196
G01 X26.8240 Y30.6123
G01 X26.8187 Y30.6063
G01 X26.8124 Y30.5979
G01 X26.8070 Y30.5888
G01 X26.8025 Y30.5792
G01 X26.7989 Y30.5693
G01 X26.7963 Y30.5590
G01 X26.7948 Y30.5486
G01 X26.7943 Y30.5380
G00 Z2.0000
G00 X29.4227 Y30.2723
G01 F60.00
G01 Z-0.1000
G01 F120.00
G01 X30.3142 Y30.2724
G01 X30.3224 Y30.2731
G01 X30.3306 Y30.2745
G01 X30.3723 Y30.2832
G01 X30.3854 Y30.2872
G01 X30.3929 Y30.2903
G01 X30.4026 Y30.2954
G01 X30.4402 Y30.3201
G01 X30.4489 Y30.3265
G01 X30.4569 Y30.3338
G01 X32.4442 Y32.3190
G01 X32.4500 Y32.3252
G01 X32.4568 Y32.3341
G01 X32.4816 Y32.3722
G01 X32.4856 Y32.3792
G01 X32.4900 Y32.3889
G01 X32.4935 Y32.3991
G01 X32.4954 Y32.4068
G01 X32.5041 Y32.4487
G01 X32.5057 Y32.4624
G01 X32.5058 Y33.7097
G01 X32.5052 Y33.7179
G01 X32.5041 Y33.7261
G01 X32.4954 Y33.7679
G01 X32.4918 Y33.7811
G01 X32.4877 Y33.7912
G01 X32.4813 Y33.8032
G01 X32.4580 Y33.8385
G01 X32.4531 Y33.8452
G01 X32.4439 Y33.8556
G01 X32.4025 Y33.8966
G01 X32.3851 Y33.9244
G01 X32.3737 Y33.9571
G01 X32.3686 Y34.0016
G01 X32.3686 Y34.5101
G01 X32.3737 Y34.5549
G01 X32.3849 Y34.5868
G01 X32.4067 Y34.6213
G01 X32.4104 Y34.6281
G01 X32.4146 Y34.6374
G01 X32.4283 Y34.6725
G01 X32.4317 Y34.6826
G01 X32.4336 Y34.6904
G01 X32.4349 Y34.6984
G01 X32.4357 Y34.7117
G01 X32.4354 Y34.7578
G01 X32.4341 Y34.7685
G01 X32.4309 Y34.7815
G01 X32.4283 Y34.7891
G01 X32.4115 Y34.8312
G01 X32.4067 Y34.8402
G01 X32.3849 Y34.8748
G01 X32.3755 Y34.9017
G01 X32.4192 Y34.9017
G01 X32.4237 Y34.8916
G01 X32.4303 Y34.8801
G01 X32.4383 Y34.8696
G01 X32.4456 Y34.8620
G01 X32.4557 Y34.8535
G01 X32.4645 Y34.8476
G01 X32.4762 Y34.8415
G01 X32.4886 Y34.8369
G01 X32.4963 Y34.8349
G01 X32.5041 Y34.8334
G01 X32.5173 Y34.8323
G01 X32.6781 Y34.8323
G01 X32.7140 Y34.8037
G01 X32.7225 Y34.7980
G01 X32.7315 Y34.7931
G01 X32.7434 Y34.7882
G01 X32.7835 Y34.7754
G01 X32.7967 Y34.7724
G01 X32.8076 Y34.7713
G01 X32.8212 Y34.7714
G01 X32.8572 Y34.7739
G01 X32.8670 Y34.7750
G01 X32.9707 Y34.7991
G01 X33.0569 Y34.8063
G01 X33.1429 Y34.7991
G01 X33.2371 Y34.7766
G01 X33.2480 Y34.7746
G01 X33.2562 Y34.7738
G01 X33.2928 Y34.7718
G01 X33.3060 Y34.7719
G01 X33.3165 Y34.7731
G01 X33.3294 Y34.7761
G01 X33.3690 Y34.7889
G01 X33.3788 Y34.7929
G01 X33.3882 Y34.7978
G01 X33.3970 Y34.8037
G01 X33.4337 Y34.8323
G01 X33.5946 Y34.8323
G01 X33.6077 Y34.8334
G01 X33.6206 Y34.8362
G01 X33.6282 Y34.8385
G01 X33.6356 Y34.8415
G01 X33.6427 Y34.8450
G01 X33.6496 Y34.8490
G01 X33.6561 Y34.8535
G01 X33.6623 Y34.8584
G01 X33.6681 Y34.8638
G01 X33.6735 Y34.8696
G01 X33.6785 Y34.8758
G01 X33.6829 Y34.8824
G01 X33.6882 Y34.8916
G01 X33.6915 Y34.8988
G01 X33.6942 Y34.9062
G01 X33.6970 Y34.9164
G01 X33.6985 Y34.9242
G01 X33.6994 Y34.9321
G01 X33.7311 Y34.9530
G01 X33.7394 Y34.9600
G01 X33.7470 Y34.9678
G01 X33.7537 Y34.9762
G01 X33.7791 Y35.0138
G01 X33.7845 Y35.0232
G01 X33.7889 Y35.0331
G01 X33.7915 Y35.0408
G01 X33.7941 Y35.0513
G01 X33.8022 Y35.0930
G01 X33.8036 Y35.1058
G01 X33.8036 Y35.3062
G01 X33.8022 Y35.3191
G01 X33.7930 Y35.3658
G01 X33.7909 Y35.3733
G01 X33.7882 Y35.3806
G01 X33.7850 Y35.3877
G01 X33.7813 Y35.3946
G01 X33.7533 Y35.4358
G01 X33.7485 Y35.4419
G01 X33.7433 Y35.4477
G01 X33.7377 Y35.4530
G01 X33.7297 Y35.4595
G01 X33.6994 Y35.4798
G01 X33.6981 Y35.4904
G01 X33.6958 Y35.5007
G01 X33.6924 Y35.5108
G01 X33.6882 Y35.5204
G01 X33.6829 Y35.5296
G01 X33.6769 Y35.5383
G01 X33.6699 Y35.5463
G01 X33.6623 Y35.5536
G01 X33.6561 Y35.5585
G01 X33.6496 Y35.5630
G01 X33.6427 Y35.5670
G01 X33.6356 Y35.5705
G01 X33.6232 Y35.5751
G01 X33.6155 Y35.5771
G01 X33.6077 Y35.5786
G01 X33.5998 Y35.5795
G01 X33.5919 Y35.5797
G01 X33.4875 Y35.5797
G01 X33.4847 Y35.5939
G01 X33.4817 Y35.6038
G01 X33.4778 Y35.6135
G01 X33.4730 Y35.6227
G01 X33.4688 Y35.6293
G01 X33.4434 Y35.6660
G01 X33.4349 Y35.6759
G01 X33.4273 Y35.6830
G01 X33.4190 Y35.6893
G01 X33.3837 Y35.7137
G01 X33.3769 Y35.7178
G01 X33.3672 Y35.7226
G01 X33.3572 Y35.7263
G01 X33.3494 Y35.7284
G01 X33.3028 Y35.7371
G01 X33.2944 Y35.7381
G01 X33.2860 Y35.7384
G01 X32.8235 Y35.7384
G01 X32.8097 Y35.7372
G01 X32.7679 Y35.7296
G01 X32.7600 Y35.7278
G01 X32.7523 Y35.7255
G01 X32.7447 Y35.7226
G01 X32.7374 Y35.7191
G01 X32.7304 Y35.7151
G01 X32.6906 Y35.6878
G01 X32.6823 Y35.6810
G01 X32.6747 Y35.6735
G01 X32.6695 Y35.6673
G01 X32.6647 Y35.6608
G01 X32.6429 Y35.6283
G01 X32.6373 Y35.6191
G01 X32.6327 Y35.6094
G01 X32.6299 Y35.6018
G01 X32.6271 Y35.5914
G01 X32.6248 Y35.5797
G01 X32.5146 Y35.5796
G01 X32.5067 Y35.5789
G01 X32.4989 Y35.5777
G01 X32.4861 Y35.5743
G01 X32.4738 Y35.5694
G01 X32.4645 Y35.5644
G01 X32.4536 Y35.5569
G01 X32.4456 Y35.5500
G01 X32.4383 Y35.5424
G01 X32.4303 Y35.5319
G01 X32.4237 Y35.5204
G01 X32.4190 Y35.5098
G01 X32.3329 Y35.5098
G01 X32.3103 Y35.5406
G01 X32.3033 Y35.5482
G01 X32.2935 Y35.5566
G01 X32.2850 Y35.5626
G01 X32.2480 Y35.5855
G01 X32.2410 Y35.5891
G01 X32.2338 Y35.5922
G01 X32.2213 Y35.5961
G01 X32.2110 Y35.5981
G01 X32.1703 Y35.6040
G01 X32.1601 Y35.6048
G01 X32.1523 Y35.6047
G01 X32.1421 Y35.6038
G01 X32.1345 Y35.6024
G01 X32.0943 Y35.5937
G01 X32.0814 Y35.5897
G01 X32.0715 Y35.5854
G01 X32.0599 Y35.5786
G01 X32.0257 Y35.5558
G01 X32.0173 Y35.5492
G01 X32.0115 Y35.5438
G01 X30.6536 Y34.1859
G01 X30.5815 Y34.1246
G01 X30.5081 Y34.0796
G01 X30.4530 Y34.0569
G01 X30.4408 Y34.0506
G01 X30.3990 Y34.0222
G01 X30.3911 Y34.0157
G01 X30.3786 Y34.0034
G01 X30.2930 Y33.9390
G01 X30.1989 Y33.8880
G01 X30.0983 Y33.8506
G01 X29.9939 Y33.8275
G01 X29.8870 Y33.8200
G01 X29.7801 Y33.8275
G01 X29.6758 Y33.8506
G01 X29.5751 Y33.8880
G01 X29.4811 Y33.9390
G01 X29.3953 Y34.0034
G01 X29.3194 Y34.0789
G01 X29.2555 Y34.1645
G01 X29.2040 Y34.2587
G01 X29.1667 Y34.3595
G01 X29.1440 Y34.4641
G01 X29.1360 Y34.5705
G01 X29.1440 Y34.6775
G01 X29.1667 Y34.7825
G01 X29.2039 Y34.8827
G01 X29.2555 Y34.9765
G01 X29.3195 Y35.0626
G01 X29.3953 Y35.1381
G01 X29.4811 Y35.2025
G01 X29.5753 Y35.2536
G01 X29.6758 Y35.2914
G01 X29.7799 Y35.3140
G01 X29.8870 Y35.3215
G01 X29.9943 Y35.3139
G01 X30.0703 Y35.2977
G01 X30.0782 Y35.2963
G01 X30.1198 Y35.2935
G01 X30.1333 Y35.2936
G01 X30.1441 Y35.2948
G01 X30.1521 Y35.2965
G01 X30.1919 Y35.3084
G01 X30.1994 Y35.3111
G01 X30.2066 Y35.3144
G01 X30.2136 Y35.3183
G01 X30.2203 Y35.3226
G01 X30.2499 Y35.3435
G01 X30.2561 Y35.3484
G01 X30.2619 Y35.3538
G01 X31.6401 Y36.7320
G01 X31.7122 Y36.7934
G01 X31.7857 Y36.8384
G01 X31.8657 Y36.8716
G01 X31.9496 Y36.8920
G01 X32.0440 Y36.8991
G01 X33.6889 Y36.8991
G01 X33.7833 Y36.8920
G01 X33.8672 Y36.8716
G01 X33.9471 Y36.8384
G01 X34.0206 Y36.7934
G01 X34.0864 Y36.7374
G01 X34.1424 Y36.6716
G01 X34.1875 Y36.5981
G01 X34.2206 Y36.5182
G01 X34.2452 Y36.4162
G01 X34.2476 Y36.4083
G01 X34.2517 Y36.3983
G01 X34.2795 Y36.3427
G01 X34.2834 Y36.3360
G01 X34.2878 Y36.3295
G01 X34.2960 Y36.3195
G01 X34.3268 Y36.2882
G01 X34.3326 Y36.2828
G01 X34.3387 Y36.2777
G01 X34.3498 Y36.2704
G01 X34.3592 Y36.2656
G01 X34.4052 Y36.2473
G01 X34.4155 Y36.2441
G01 X34.4234 Y36.2424
G01 X34.4314 Y36.2413
G01 X34.4422 Y36.2408
G01 X34.4912 Y36.2420
G01 X34.5014 Y36.2433
G01 X34.5114 Y36.2455
G01 X34.5212 Y36.2486
G01 X34.5284 Y36.2516
G01 X34.5683 Y36.2700
G01 X34.5798 Y36.2765
G01 X34.5862 Y36.2810
G01 X34.5924 Y36.2861
G01 X34.6017 Y36.2954
G01 X34.6324 Y36.3303
G01 X34.6400 Y36.3410
G01 X34.6450 Y36.3500
G01 X34.6501 Y36.3620
G01 X34.6657 Y36.4112
G01 X34.6677 Y36.4214
G01 X34.6718 Y36.4549
G01 X34.6828 Y36.4869
G01 X34.7009 Y36.5154
G01 X34.7244 Y36.5395
G01 X34.7461 Y36.5530
G01 X34.7522 Y36.5574
G01 X34.7579 Y36.5622
G01 X34.7868 Y36.5884
G01 X34.7941 Y36.5962
G01 X34.7991 Y36.6025
G01 X34.8037 Y36.6091
G01 X34.8089 Y36.6184
G01 X34.8705 Y36.7499
G01 X34.9188 Y36.8214
G01 X34.9835 Y36.8897
G01 X37.3127 Y39.0037
G01 X37.3222 Y39.0140
G01 X37.3484 Y39.0482
G01 X37.3544 Y39.0570
G01 X37.3596 Y39.0664
G01 X37.3637 Y39.0762
G01 X37.3669 Y39.0864
G01 X37.3773 Y39.1307
G01 X37.3789 Y39.1411
G01 X37.3795 Y39.1542
G01 X37.3789 Y39.1647
G01 X37.3706 Y39.2158
G01 X37.3679 Y39.2260
G01 X37.3652 Y39.2334
G01 X37.3608 Y39.2430
G01 X37.3569 Y39.2499
G01 X37.3306 Y39.2900
G01 X37.3240 Y39.2983
G01 X37.3184 Y39.3041
G01 X37.3125 Y39.3094
G01 X37.3062 Y39.3143
G01 X37.2705 Y39.3387
G01 X37.2614 Y39.3443
G01 X37.2543 Y39.3478
G01 X37.2443 Y39.3518
G01 X37.2341 Y39.3547
G01 X37.1892 Y39.3639
G01 X37.1756 Y39.3654
G01 X36.9050 Y39.3655
G01 X36.8967 Y39.3652
G01 X36.8856 Y39.3638
G01 X36.8417 Y39.3545
G01 X36.8316 Y39.3516
G01 X36.8194 Y39.3466
G01 X36.8079 Y39.3402
G01 X36.7684 Y39.3143
G01 X36.7583 Y39.3056
G01 X36.7528 Y39.2998
G01 X36.7477 Y39.2937
G01 X36.7431 Y39.2872
G01 X36.7172 Y39.2468
G01 X36.7115 Y39.2348
G01 X36.7073 Y39.2222
G01 X36.6980 Y39.1784
G01 X36.6962 Y39.1674
G01 X36.6957 Y39.1562
G01 X36.6957 Y39.1124
G01 X36.6906 Y39.0668
G01 X36.6798 Y39.0357
G01 X36.6616 Y39.0070
G01 X36.6380 Y38.9828
G01 X36.6097 Y38.9653
G01 X36.5783 Y38.9542
G01 X36.5332 Y38.9495
G01 X35.1788 Y38.9495
G01 X35.1337 Y38.9542
G01 X35.1023 Y38.9653
G01 X35.0740 Y38.9828
G01 X35.0504 Y39.0070
G01 X35.0322 Y39.0357
G01 X35.0214 Y39.0668
G01 X35.0163 Y39.1124
G01 X35.0163 Y40.2210
G01 X35.0214 Y40.2667
G01 X35.0323 Y40.2980
G01 X35.0502 Y40.3266
G01 X35.0737 Y40.3501
G01 X35.1027 Y40.3683
G01 X35.1345 Y40.3796
G01 X35.1797 Y40.3850
G01 X36.5323 Y40.3850
G01 X36.5775 Y40.3796
G01 X36.6093 Y40.3683
G01 X36.6383 Y40.3501
G01 X36.6618 Y40.3266
G01 X36.6797 Y40.2980
G01 X36.6906 Y40.2667
G01 X36.6957 Y40.2211
G01 X36.6957 Y40.1745
G01 X36.6970 Y40.1606
G01 X36.7074 Y40.1112
G01 X36.7106 Y40.1009
G01 X36.7162 Y40.0885
G01 X36.7217 Y40.0792
G01 X36.7466 Y40.0419
G01 X36.7532 Y40.0337
G01 X36.7626 Y40.0245
G01 X36.7730 Y40.0164
G01 X36.8060 Y39.9941
G01 X36.8129 Y39.9898
G01 X36.8200 Y39.9860
G01 X36.8275 Y39.9828
G01 X36.8351 Y39.9802
G01 X36.8429 Y39.9781
G01 X36.8867 Y39.9695
G01 X36.8972 Y39.9682
G01 X36.9050 Y39.9679
G01 X38.2492 Y39.9679
G01 X38.2570 Y39.9682
G01 X38.2672 Y39.9695
G01 X38.3116 Y39.9781
G01 X38.3194 Y39.9801
G01 X38.3271 Y39.9828
G01 X38.3346 Y39.9860
G01 X38.3418 Y39.9898
G01 X38.3487 Y39.9941
G01 X38.3817 Y40.0164
G01 X38.3922 Y40.0245
G01 X38.4015 Y40.0337
G01 X38.4097 Y40.0440
G01 X38.4345 Y40.0814
G01 X38.4407 Y40.0929
G01 X38.4447 Y40.1026
G01 X38.4483 Y40.1152
G01 X38.4570 Y40.1590
G01 X38.4583 Y40.1694
G01 X38.4585 Y40.1773
G01 X38.4585 Y40.3607
G01 X38.4636 Y40.4052
G01 X38.4747 Y40.4362
G01 X38.4930 Y40.4653
G01 X38.5225 Y40.4948
G01 X38.5644 Y40.5316
G01 X38.5718 Y40.5395
G01 X38.5798 Y40.5503
G01 X38.5840 Y40.5573
G01 X38.5876 Y40.5645
G01 X38.6064 Y40.6091
G01 X38.6089 Y40.6168
G01 X38.6108 Y40.6247
G01 X38.6127 Y40.6381
G01 X38.6130 Y40.6462
G01 X38.6129 Y40.6900
G01 X38.6121 Y40.7008
G01 X38.6108 Y40.7088
G01 X38.6081 Y40.7193
G01 X38.6054 Y40.7269
G01 X38.5887 Y40.7665
G01 X38.5852 Y40.7738
G01 X38.5812 Y40.7809
G01 X38.5768 Y40.7876
G01 X38.5718 Y40.7940
G01 X38.5663 Y40.7999
G01 X38.5604 Y40.8055
G01 X38.5227 Y40.8385
G01 X38.4931 Y40.8684
G01 X38.4747 Y40.8978
G01 X38.4611 Y40.9356
G01 X38.4489 Y40.9842
G01 X38.4453 Y40.9940
G01 X38.4421 Y41.0011
G01 X38.4370 Y41.0103
G01 X38.4326 Y41.0167
G01 X38.4087 Y41.0478
G01 X38.4019 Y41.0557
G01 X38.3924 Y41.0647
G01 X38.3819 Y41.0724
G01 X38.3459 Y41.0945
G01 X38.3389 Y41.0982
G01 X38.3291 Y41.1024
G01 X38.3216 Y41.1048
G01 X38.3113 Y41.1072
G01 X38.2725 Y41.1143
G01 X38.2586 Y41.1156
G01 X36.8428 Y41.1156
G01 X36.8345 Y41.1150
G01 X36.8263 Y41.1139
G01 X36.7901 Y41.1073
G01 X36.7796 Y41.1045
G01 X36.7718 Y41.1017
G01 X36.7644 Y41.0984
G01 X36.7320 Y41.0814
G01 X36.7250 Y41.0774
G01 X36.7183 Y41.0728
G01 X36.7119 Y41.0678
G01 X36.7041 Y41.0604
G01 X36.6748 Y41.0264
G01 X36.6702 Y41.0200
G01 X36.6621 Y41.0073
G01 X36.6383 Y40.9838
G01 X36.6090 Y40.9651
G01 X36.5779 Y40.9540
G01 X36.5327 Y40.9490
G01 X35.1793 Y40.9490
G01 X35.1341 Y40.9540
G01 X35.1031 Y40.9651
G01 X35.0737 Y40.9838
G01 X35.0499 Y41.0073
G01 X35.0418 Y41.0200
G01 X35.0356 Y41.0285
G01 X35.0097 Y41.0584
G01 X35.0041 Y41.0642
G01 X34.9980 Y41.0695
G01 X34.9916 Y41.0744
G01 X34.9848 Y41.0788
G01 X34.9501 Y41.0972
G01 X34.9402 Y41.1017
G01 X34.9272 Y41.1060
G01 X34.9192 Y41.1078
G01 X34.8857 Y41.1139
G01 X34.8719 Y41.1155
G01 X34.7527 Y41.1155
G01 X34.7390 Y41.1139
G01 X34.6919 Y41.1040
G01 X34.6841 Y41.1016
G01 X34.6764 Y41.0987
G01 X34.6690 Y41.0952
G01 X34.6619 Y41.0911
G01 X34.6244 Y41.0662
G01 X34.6179 Y41.0613
G01 X34.6099 Y41.0541
G01 X28.5947 Y35.0394
G01 X28.5874 Y35.0313
G01 X28.5810 Y35.0226
G01 X28.5577 Y34.9873
G01 X28.5524 Y34.9778
G01 X28.5490 Y34.9703
G01 X28.5463 Y34.9626
G01 X28.5441 Y34.9547
G01 X28.5354 Y34.9130
G01 X28.5340 Y34.9048
G01 X28.5332 Y34.8938
G01 X28.5331 Y33.2334
G01 X28.5334 Y33.2252
G01 X28.5349 Y33.2142
G01 X28.5454 Y33.1648
G01 X28.5478 Y33.1574
G01 X28.5507 Y33.1501
G01 X28.5542 Y33.1431
G01 X28.5581 Y33.1364
G01 X28.5829 Y33.0996
G01 X28.5893 Y33.0914
G01 X28.5945 Y33.0858
G01 X28.6022 Y33.0788
G01 X28.6083 Y33.0741
G01 X28.6479 Y33.0474
G01 X28.6547 Y33.0436
G01 X28.6618 Y33.0402
G01 X28.6692 Y33.0374
G01 X28.6767 Y33.0352
G01 X28.7257 Y33.0259
G01 X28.7397 Y33.0246
G01 X29.0499 Y33.0246
G01 X29.0948 Y33.0192
G01 X29.1269 Y33.0079
G01 X29.1558 Y32.9895
G01 X29.1795 Y32.9664
G01 X29.1969 Y32.9383
G01 X29.2083 Y32.9059
G01 X29.2133 Y32.8616
G01 X29.2133 Y31.2492
G01 X29.2083 Y31.2045
G01 X29.1970 Y31.1726
G01 X29.1795 Y31.1444
G01 X29.1555 Y31.1210
G01 X29.1266 Y31.1023
G01 X29.0753 Y31.0843
G01 X29.0681 Y31.0813
G01 X29.0611 Y31.0778
G01 X29.0233 Y31.0557
G01 X29.0142 Y31.0497
G01 X29.0038 Y31.0410
G01 X28.9980 Y31.0352
G01 X28.9928 Y31.0289
G01 X28.9628 Y30.9862
G01 X28.9566 Y30.9750
G01 X28.9518 Y30.9631
G01 X28.9484 Y30.9508
G01 X28.9385 Y30.9018
G01 X28.9376 Y30.8913
G01 X28.9376 Y30.8834
G01 X28.9382 Y30.8755
G01 X28.9393 Y30.8677
G01 X28.9497 Y30.8194
G01 X28.9528 Y30.8095
G01 X28.9569 Y30.8000
G01 X28.9618 Y30.7909
G01 X28.9661 Y30.7844
G01 X28.9915 Y30.7487
G01 X29.0000 Y30.7388
G01 X29.0075 Y30.7316
G01 X29.0179 Y30.7237
G01 X29.0627 Y30.6969
G01 X29.0752 Y30.6912
G01 X29.1270 Y30.6731
G01 X29.1555 Y30.6549
G01 X29.1795 Y30.6312
G01 X29.1969 Y30.6034
G01 X29.2083 Y30.5708
G01 X29.2133 Y30.5258
G01 X29.2133 Y30.4816
G01 X29.2139 Y30.4711
G01 X29.2154 Y30.4607
G01 X29.2230 Y30.4221
G01 X29.2249 Y30.4143
G01 X29.2273 Y30.4066
G01 X29.2303 Y30.3991
G01 X29.2366 Y30.3871
G01 X29.2618 Y30.3496
G01 X29.2680 Y30.3413
G01 X29.2732 Y30.3355
G01 X29.2788 Y30.3301
G01 X29.2888 Y30.3220
G01 X29.3257 Y30.2973
G01 X29.3324 Y30.2933
G01 X29.3394 Y30.2899
G01 X29.3491 Y30.2860
G01 X29.3617 Y30.2826
G01 X29.4035 Y30.2740
G01 X29.4144 Y30.2726
G01 X29.4227 Y30.2723
G00 Z2.0000
G00 X30.3200 Y32.0675
G01 F60.00
G01 Z-0.1000
G01 F120.00
G01 X30.3354 Y32.0469
G01 X30.4113 Y31.9714
G01 X30.4315 Y31.9563
G01 X30.4315 Y32.0121
G01 X30.4025 Y32.0385
G01 X30.3761 Y32.0675
G01 X30.3200 Y32.0675
G00 Z2.0000
G00 X30.3205 Y33.0105
G01 F60.00
G01 Z-0.1000
G01 F120.00
G01 X30.3761 Y33.0105
G01 X30.4025 Y33.0395
G01 X30.4315 Y33.0659
G01 X30.4315 Y33.1212
G01 X30.4113 Y33.1061
G01 X30.3355 Y33.0306
G01 X30.3205 Y33.0105
G00 Z2.0000
G00 X31.3745 Y33.0659
G01 F60.00
G01 Z-0.1000
G01 F120.00
G01 X31.4035 Y33.0395
G01 X31.4299 Y33.0105
G01 X31.4855 Y33.0105
G01 X31.4705 Y33.0306
G01 X31.3947 Y33.1061
G01 X31.3745 Y33.1212
G01 X31.3745 Y33.0659
G00 Z2.0000
G00 X31.3745 Y31.9563
G01 F60.00
G01 Z-0.1000
G01 F120.00
G01 X31.3947 Y31.9714
G01 X31.4706 Y32.0469
G01 X31.4860 Y32.0675
G01 X31.4299 Y32.0675
G01 X31.4035 Y32.0385
G01 X31.3745 Y32.0121
G01 X31.3745 Y31.9563
G00 Z2.0000
G00 X30.1826 Y35.2133
G01 F60.00
G01 Z-0.1000
G01 F120.00
G01 X30.1554 Y35.2259
G01 X30.0950 Y35.2475
G01 X30.0874 Y35.2497
G01 X30.0277 Y35.2646
G01 X30.0199 Y35.2661
G01 X29.9564 Y35.2753
G01 X29.8896 Y35.2787
G01 X29.8817 Y35.2786
G01 X29.8176 Y35.2753
G01 X29.7489 Y35.2652
G01 X29.6816 Y35.2483
G01 X29.6186 Y35.2259
G01 X29.6113 Y35.2227
G01 X29.5534 Y35.1952
G01 X29.4938 Y35.1595
G01 X29.4380 Y35.1181
G01 X29.3865 Y35.0715
G01 X29.3399 Y35.0200
G01 X29.2985 Y34.9642
G01 X29.2628 Y34.9046
G01 X29.2342 Y34.8443
G01 X29.2312 Y34.8369
G01 X29.2097 Y34.7764
G01 X29.1928 Y34.7091
G01 X29.1827 Y34.6404
G01 X29.1793 Y34.5710
G01 X29.1827 Y34.5016
G01 X29.1928 Y34.4329
G01 X29.2097 Y34.3656
G01 X29.2331 Y34.3002
G01 X29.2628 Y34.2374
G01 X29.2985 Y34.1778
G01 X29.3399 Y34.1220
G01 X29.3865 Y34.0705
G01 X29.4380 Y34.0239
G01 X29.4938 Y33.9825
G01 X29.5534 Y33.9468
G01 X29.6137 Y33.9182
G01 X29.6211 Y33.9152
G01 X29.6765 Y33.8954
G01 X29.6866 Y33.8923
G01 X29.7489 Y33.8768
G01 X29.8176 Y33.8667
G01 X29.8870 Y33.8633
G01 X29.9511 Y33.8663
G01 X29.9616 Y33.8673
G01 X30.0199 Y33.8759
G01 X30.0302 Y33.8780
G01 X30.0924 Y33.8937
G01 X30.1529 Y33.9152
G01 X30.1627 Y33.9193
G01 X30.2206 Y33.9468
G01 X30.2802 Y33.9825
G01 X30.3339 Y34.0222
G01 X30.3400 Y34.0274
G01 X30.3856 Y34.0687
G01 X30.3982 Y34.0823
G01 X30.4103 Y34.0858
G01 X30.4473 Y34.0991
G01 X30.4571 Y34.1031
G01 X30.4973 Y34.1223
G01 X30.5356 Y34.1451
G01 X30.5444 Y34.1509
G01 X30.5801 Y34.1776
G01 X30.6170 Y34.2111
G01 X32.2462 Y35.8403
G01 X32.4243 Y35.8403
G01 X32.4318 Y35.8279
G01 X32.4401 Y35.8176
G01 X32.4495 Y35.8084
G01 X32.4557 Y35.8034
G01 X32.4623 Y35.7989
G01 X32.4691 Y35.7949
G01 X32.4762 Y35.7915
G01 X32.4886 Y35.7868
G01 X32.5015 Y35.7838
G01 X32.5093 Y35.7827
G01 X32.5173 Y35.7822
G01 X33.5946 Y35.7822
G01 X33.6077 Y35.7834
G01 X33.6206 Y35.7861
G01 X33.6331 Y35.7904
G01 X33.6404 Y35.7937
G01 X33.6469 Y35.7973
G01 X33.7418 Y35.7973
G01 X33.8471 Y35.6920
G01 X33.8471 Y34.9512
G01 X33.8486 Y34.9188
G01 X33.8495 Y34.9109
G01 X33.8540 Y34.8814
G01 X33.8611 Y34.8525
G01 X33.8642 Y34.8423
G01 X33.8744 Y34.8143
G01 X33.8870 Y34.7873
G01 X33.8920 Y34.7779
G01 X33.9074 Y34.7524
G01 X33.9284 Y34.7242
G01 X33.9519 Y34.6982
G01 X34.6479 Y34.0022
G01 X34.6699 Y33.9821
G01 X34.6760 Y33.9770
G01 X34.7000 Y33.9592
G01 X34.7192 Y33.9474
G01 X34.7231 Y33.9392
G01 X34.7283 Y33.9305
G01 X34.7215 Y33.9015
G01 X34.7151 Y33.8548
G01 X34.7132 Y33.8076
G01 X34.7133 Y33.7970
G01 X34.7162 Y33.7526
G01 X34.7232 Y33.7085
G01 X34.7254 Y33.6982
G01 X34.7361 Y33.6577
G01 X34.7386 Y33.6502
G01 X34.7543 Y33.6084
G01 X34.7738 Y33.5684
G01 X34.7789 Y33.5591
G01 X34.8024 Y33.5213
G01 X34.8293 Y33.4857
G01 X34.8361 Y33.4777
G01 X34.8647 Y33.4470
G01 X34.8705 Y33.4415
G01 X34.9040 Y33.4121
G01 X34.9400 Y33.3860
G01 X34.9489 Y33.3802
G01 X34.9875 Y33.3579
G01 X35.0280 Y33.3393
G01 X35.0378 Y33.3354
G01 X35.0774 Y33.3218
G01 X35.0851 Y33.3197
G01 X35.1285 Y33.3095
G01 X35.1726 Y33.3035
G01 X35.3481 Y33.2884
G01 X35.3481 Y32.7922
G01 X35.3501 Y32.7477
G01 X35.3512 Y32.7371
G01 X35.3578 Y32.6930
G01 X35.3686 Y32.6497
G01 X35.3716 Y32.6396
G01 X35.3868 Y32.5976
G01 X35.4058 Y32.5573
G01 X35.4108 Y32.5479
G01 X35.4338 Y32.5097
G01 X35.4636 Y32.4697
G01 X35.4972 Y32.4327
G01 X36.8789 Y31.0535
G01 X36.9158 Y31.0201
G01 X36.9515 Y30.9935
G01 X36.9581 Y30.9890
G01 X36.9940 Y30.9675
G01 X37.0033 Y30.9625
G01 X37.0436 Y30.9436
G01 X37.0855 Y30.9285
G01 X37.0956 Y30.9255
G01 X37.1388 Y30.9148
G01 X37.1880 Y30.9075
G01 X37.2378 Y30.9051
G01 X37.7268 Y30.9051
G01 X37.7268 Y30.8457
G01 X37.7276 Y30.8325
G01 X37.7294 Y30.8221
G01 X37.7322 Y30.8119
G01 X37.7360 Y30.8020
G01 X37.7421 Y30.7903
G01 X37.7480 Y30.7815
G01 X37.7565 Y30.7714
G01 X37.7661 Y30.7624
G01 X37.7769 Y30.7547
G01 X37.7884 Y30.7483
G01 X37.8007 Y30.7434
G01 X37.8135 Y30.7400
G01 X37.8266 Y30.7383
G01 X37.8345 Y30.7380
G01 X39.2141 Y30.7380
G01 X39.2247 Y30.7388
G01 X39.2351 Y30.7406
G01 X39.2478 Y30.7443
G01 X39.2576 Y30.7483
G01 X39.2691 Y30.7547
G01 X39.2778 Y30.7608
G01 X39.2858 Y30.7677
G01 X39.2945 Y30.7771
G01 X40.4073 Y30.7771
G01 X40.4073 Y30.5773
G01 X40.4078 Y30.5694
G01 X40.4088 Y30.5616
G01 X40.4105 Y30.5538
G01 X40.4127 Y30.5462
G01 X40.4155 Y30.5387
G01 X40.4188 Y30.5315
G01 X40.4226 Y30.5246
G01 X40.4269 Y30.5179
G01 X40.4317 Y30.5116
G01 X40.4370 Y30.5057
G01 X40.4426 Y30.5001
G01 X40.4487 Y30.4950
G01 X40.4551 Y30.4904
G01 X40.4619 Y30.4862
G01 X40.4738 Y30.4804
G01 X40.4812 Y30.4777
G01 X40.4888 Y30.4755
G01 X40.4966 Y30.4738
G01 X40.5044 Y30.4727
G01 X40.5150 Y30.4722
G01 X41.8703 Y30.4724
G01 X41.8782 Y30.4730
G01 X41.8860 Y30.4743
G01 X41.8937 Y30.4761
G01 X41.9013 Y30.4785
G01 X41.9087 Y30.4815
G01 X41.9158 Y30.4850
G01 X41.9226 Y30.4889
G01 X41.9292 Y30.4934
G01 X41.9354 Y30.4984
G01 X41.9412 Y30.5038
G01 X41.9466 Y30.5096
G01 X41.9515 Y30.5158
G01 X41.9588 Y30.5269
G01 X41.9624 Y30.5339
G01 X41.9655 Y30.5412
G01 X41.9688 Y30.5512
